; generated by PrusaSlicer 2.3.1+win64 on 2021-08-16 at 16:53:57 UTC

; 

; external perimeters extrusion width = 0.45mm
; perimeters extrusion width = 0.45mm
; infill extrusion width = 0.45mm
; solid infill extrusion width = 0.45mm
; top infill extrusion width = 0.40mm
; support material extrusion width = 0.35mm
; first layer extrusion width = 0.42mm

M73 P0 R90
M201 X9000 Y9000 Z500 E10000 ; sets maximum accelerations, mm/sec^2
M203 X500 Y500 Z12 E120 ; sets maximum feedrates, mm/sec
M204 P2000 R1500 T2000 ; sets acceleration (P, T) and retract acceleration (R), mm/sec^2
M205 X10.00 Y10.00 Z0.20 E2.50 ; sets the jerk limits, mm/sec
M205 S0 T0 ; sets the minimum extruding and travel feed rate, mm/sec
M107
;TYPE:Custom
M862.3 P "MK2.5SMMU2S" ; printer model check
M862.1 P0.4 ; nozzle diameter check
M115 U3.8.0 ; tell printer latest fw version
G90 ; use absolute coordinates
M83 ; extruder relative mode
M104 S215 ; set extruder temp
M140 S60 ; set bed temp
Tx
M190 S60 ; wait for bed temp
M109 S215 ; wait for extruder temp
G28 W ; home all without mesh bed level
G80 ; mesh bed leveling

G21 ; set units to millimeters

;go outside print area
G1 Y-3.0 F1000.0
G1 Z0.4 F1000.0
; select extruder
Tc
; purge line
G1 X55.0 F2000.0
G1 Z0.3 F1000.0
G92 E0.0
G1 X240.0 E25.0 F2200.0
G1 Y-2.0 F1000.0
G1 X55.0 E25 F1400.0
G1 Z0.20 F1000.0
G1 X5.0 E4.0 F1000.0
G92 E0.0
G21 ; set units to millimeters
G90 ; use absolute coordinates
M83 ; use relative distances for extrusion
M900 K0.05 ; Filament gcode LA 1.5
M900 K30 ; Filament gcode LA 1.0
;LAYER_CHANGE
;Z:0.2
;HEIGHT:0.2
;BEFORE_LAYER_CHANGE
G92 E0.0
;0.2


G1 E-0.80000 F2100.000
G1 Z0.600 F10800.000
;AFTER_LAYER_CHANGE
;0.2
G1 X137.803 Y92.088
G1 Z0.200
G1 E0.80000 F2100.000
M204 S1000
;TYPE:Perimeter
;WIDTH:0.42
G1 F1200.000
G1 X138.267 Y91.840 E0.01649
G1 X138.770 Y91.687 E0.01648
G1 X139.285 Y91.636 E0.01624
G1 X139.816 Y91.687 E0.01673
G1 X140.320 Y91.840 E0.01651
G1 X140.784 Y92.088 E0.01649
G1 X141.190 Y92.421 E0.01649
G1 X141.524 Y92.828 E0.01649
G1 X141.772 Y93.292 E0.01649
G1 X141.925 Y93.795 E0.01649
G1 X141.976 Y94.318 E0.01649
G1 X141.925 Y94.842 E0.01649
G1 X141.772 Y95.345 E0.01649
G1 X141.524 Y95.809 E0.01649
G1 X141.190 Y96.215 E0.01649
G1 X140.784 Y96.549 E0.01649
G1 X140.320 Y96.797 E0.01649
G1 X139.817 Y96.950 E0.01649
G1 X139.293 Y97.001 E0.01649
G1 X138.770 Y96.950 E0.01649
G1 X138.267 Y96.797 E0.01649
G1 X137.803 Y96.549 E0.01649
G1 X137.396 Y96.215 E0.01649
G1 X137.063 Y95.809 E0.01649
G1 X136.815 Y95.345 E0.01649
G1 X136.662 Y94.842 E0.01649
G1 X136.611 Y94.318 E0.01649
G1 X136.662 Y93.795 E0.01649
G1 X136.815 Y93.292 E0.01649
G1 X137.063 Y92.828 E0.01649
G1 X137.396 Y92.421 E0.01649
G1 X137.757 Y92.126 E0.01461
G1 E-0.80000 F2100.000
G1 Z0.800 F10800.000
G1 X138.844 Y96.578
G1 Z0.200
G1 E0.80000 F2100.000
;TYPE:External perimeter
G1 F1200.000
G1 X138.412 Y96.447 E0.01416
G1 X138.014 Y96.234 E0.01416
G1 X137.664 Y95.947 E0.01416
G1 X137.378 Y95.598 E0.01416
G1 X137.165 Y95.200 E0.01416
G1 X137.034 Y94.768 E0.01416
G1 X136.990 Y94.318 E0.01416
G1 X137.034 Y93.869 E0.01416
G1 X137.165 Y93.437 E0.01416
G1 X137.378 Y93.038 E0.01416
G1 X137.664 Y92.689 E0.01416
G1 X138.014 Y92.403 E0.01416
G1 X138.412 Y92.190 E0.01416
G1 X138.844 Y92.059 E0.01416
G1 X139.286 Y92.015 E0.01393
G1 X139.743 Y92.059 E0.01439
G1 X140.175 Y92.190 E0.01417
G1 X140.573 Y92.403 E0.01416
G1 X140.923 Y92.689 E0.01416
G1 X141.209 Y93.038 E0.01416
G1 X141.422 Y93.437 E0.01416
G1 X141.553 Y93.869 E0.01416
G1 X141.597 Y94.318 E0.01416
G1 X141.553 Y94.768 E0.01416
G1 X141.422 Y95.200 E0.01416
G1 X141.209 Y95.598 E0.01416
G1 X140.923 Y95.947 E0.01416
G1 X140.573 Y96.234 E0.01416
G1 X140.175 Y96.447 E0.01416
G1 X139.743 Y96.578 E0.01416
G1 X139.293 Y96.622 E0.01416
G1 X138.904 Y96.584 E0.01228
G1 X138.580 Y96.879 F10800.000
G1 E-0.80000 F2100.000
G1 Z0.800 F10800.000
G1 X138.770 Y77.835
G1 Z0.200
G1 E0.80000 F2100.000
;TYPE:Perimeter
G1 F1200.000
G1 X138.267 Y77.682 E0.01649
G1 X137.803 Y77.434 E0.01649
G1 X137.396 Y77.101 E0.01649
G1 X137.063 Y76.694 E0.01649
G1 X136.815 Y76.230 E0.01649
G1 X136.662 Y75.727 E0.01649
G1 X136.611 Y75.204 E0.01649
G1 X136.662 Y74.680 E0.01649
G1 X136.815 Y74.177 E0.01649
G1 X137.063 Y73.713 E0.01649
G1 X137.396 Y73.307 E0.01649
G1 X137.803 Y72.973 E0.01649
G1 X138.267 Y72.725 E0.01649
G1 X138.770 Y72.572 E0.01648
G1 X139.285 Y72.521 E0.01624
G1 X139.816 Y72.572 E0.01673
G1 X140.320 Y72.725 E0.01651
G1 X140.784 Y72.973 E0.01649
G1 X141.190 Y73.307 E0.01649
G1 X141.524 Y73.713 E0.01649
G1 X141.772 Y74.177 E0.01649
G1 X141.925 Y74.680 E0.01649
G1 X141.976 Y75.204 E0.01649
G1 X141.925 Y75.727 E0.01649
G1 X141.772 Y76.230 E0.01649
G1 X141.524 Y76.694 E0.01649
G1 X141.190 Y77.101 E0.01649
G1 X140.784 Y77.434 E0.01649
G1 X140.320 Y77.682 E0.01649
G1 X139.817 Y77.835 E0.01649
G1 X139.293 Y77.886 E0.01649
G1 X138.830 Y77.841 E0.01461
G1 X138.844 Y77.463 F10800.000
;TYPE:External perimeter
G1 F1200.000
G1 X138.412 Y77.332 E0.01416
G1 X138.013 Y77.119 E0.01416
G1 X137.664 Y76.833 E0.01416
G1 X137.378 Y76.484 E0.01416
G1 X137.165 Y76.085 E0.01416
G1 X137.034 Y75.653 E0.01416
G1 X136.990 Y75.204 E0.01416
G1 X137.034 Y74.754 E0.01416
G1 X137.165 Y74.322 E0.01416
G1 X137.378 Y73.924 E0.01416
G1 X137.664 Y73.574 E0.01416
G1 X138.013 Y73.288 E0.01416
G1 X138.412 Y73.075 E0.01416
G1 X138.844 Y72.944 E0.01416
G1 X139.286 Y72.900 E0.01393
G1 X139.743 Y72.944 E0.01439
G1 X140.175 Y73.075 E0.01417
G1 X140.573 Y73.288 E0.01416
G1 X140.922 Y73.574 E0.01416
G1 X141.209 Y73.924 E0.01416
G1 X141.422 Y74.322 E0.01416
G1 X141.553 Y74.754 E0.01416
G1 X141.597 Y75.204 E0.01416
G1 X141.553 Y75.653 E0.01416
G1 X141.422 Y76.085 E0.01416
G1 X141.209 Y76.484 E0.01416
G1 X140.922 Y76.833 E0.01416
G1 X140.573 Y77.119 E0.01416
G1 X140.175 Y77.332 E0.01416
G1 X139.743 Y77.463 E0.01416
G1 X139.293 Y77.507 E0.01416
G1 X138.904 Y77.469 E0.01228
G1 X138.580 Y77.764 F10800.000
G1 E-0.80000 F2100.000
G1 Z0.800 F10800.000
G1 X111.320 Y77.881
G1 Z0.200
G1 E0.80000 F2100.000
;TYPE:Perimeter
G1 F1200.000
G1 X110.797 Y77.933 E0.01649
G1 X110.274 Y77.881 E0.01649
G1 X109.770 Y77.729 E0.01649
G1 X109.306 Y77.481 E0.01649
G1 X108.900 Y77.147 E0.01649
G1 X108.566 Y76.741 E0.01649
G1 X108.318 Y76.277 E0.01649
G1 X108.166 Y75.774 E0.01649
G1 X108.114 Y75.250 E0.01649
G1 X108.166 Y74.727 E0.01649
G1 X108.318 Y74.223 E0.01649
G1 X108.566 Y73.760 E0.01649
G1 X108.900 Y73.353 E0.01649
G1 X109.306 Y73.019 E0.01649
G1 X109.770 Y72.772 E0.01649
G1 X110.273 Y72.619 E0.01648
G1 X110.789 Y72.568 E0.01624
G1 X111.320 Y72.619 E0.01673
G1 X111.824 Y72.772 E0.01651
G1 X112.287 Y73.020 E0.01649
G1 X112.694 Y73.353 E0.01649
G1 X113.028 Y73.760 E0.01649
G1 X113.275 Y74.223 E0.01649
G1 X113.428 Y74.727 E0.01649
G1 X113.480 Y75.250 E0.01649
G1 X113.428 Y75.774 E0.01649
G1 X113.275 Y76.277 E0.01649
G1 X113.028 Y76.741 E0.01649
G1 X112.694 Y77.147 E0.01649
G1 X112.287 Y77.481 E0.01649
G1 X111.824 Y77.729 E0.01649
G1 X111.378 Y77.864 E0.01461
G1 X111.246 Y77.510 F10800.000
;TYPE:External perimeter
G1 F1200.000
G1 X110.797 Y77.554 E0.01416
G1 X110.347 Y77.510 E0.01416
G1 X109.915 Y77.379 E0.01416
G1 X109.517 Y77.166 E0.01416
G1 X109.168 Y76.879 E0.01416
G1 X108.881 Y76.530 E0.01416
G1 X108.668 Y76.132 E0.01416
G1 X108.537 Y75.700 E0.01416
G1 X108.493 Y75.250 E0.01416
G1 X108.537 Y74.801 E0.01416
G1 X108.668 Y74.368 E0.01416
G1 X108.881 Y73.970 E0.01416
G1 X109.168 Y73.621 E0.01416
G1 X109.517 Y73.335 E0.01416
G1 X109.915 Y73.122 E0.01416
G1 X110.347 Y72.991 E0.01416
G1 X110.789 Y72.947 E0.01393
G1 X111.246 Y72.990 E0.01439
G1 X111.679 Y73.122 E0.01417
G1 X112.077 Y73.335 E0.01416
G1 X112.426 Y73.621 E0.01416
G1 X112.713 Y73.970 E0.01416
G1 X112.925 Y74.368 E0.01416
G1 X113.057 Y74.801 E0.01416
G1 X113.101 Y75.250 E0.01416
G1 X113.057 Y75.700 E0.01416
G1 X112.925 Y76.132 E0.01416
G1 X112.713 Y76.530 E0.01416
G1 X112.426 Y76.879 E0.01416
G1 X112.077 Y77.166 E0.01416
G1 X111.679 Y77.379 E0.01416
G1 X111.304 Y77.492 E0.01228
G1 X111.118 Y77.888 F10800.000
G1 E-0.80000 F2100.000
G1 Z0.800 F10800.000
G1 X111.320 Y96.950
G1 Z0.200
G1 E0.80000 F2100.000
;TYPE:Perimeter
G1 F1200.000
G1 X110.797 Y97.001 E0.01649
G1 X110.274 Y96.950 E0.01649
G1 X109.770 Y96.797 E0.01649
G1 X109.306 Y96.549 E0.01649
G1 X108.900 Y96.215 E0.01649
G1 X108.566 Y95.809 E0.01649
G1 X108.318 Y95.345 E0.01649
G1 X108.166 Y94.842 E0.01649
G1 X108.114 Y94.318 E0.01649
G1 X108.166 Y93.795 E0.01649
G1 X108.318 Y93.292 E0.01649
G1 X108.566 Y92.828 E0.01649
G1 X108.900 Y92.421 E0.01649
G1 X109.306 Y92.088 E0.01649
G1 X109.770 Y91.840 E0.01649
G1 X110.273 Y91.687 E0.01648
G1 X110.789 Y91.636 E0.01624
G1 X111.320 Y91.687 E0.01673
G1 X111.824 Y91.840 E0.01651
G1 X112.287 Y92.088 E0.01649
G1 X112.694 Y92.421 E0.01649
G1 X113.028 Y92.828 E0.01649
G1 X113.275 Y93.292 E0.01649
G1 X113.428 Y93.795 E0.01649
G1 X113.480 Y94.318 E0.01649
G1 X113.428 Y94.842 E0.01649
G1 X113.275 Y95.345 E0.01649
G1 X113.028 Y95.809 E0.01649
G1 X112.694 Y96.215 E0.01649
G1 X112.287 Y96.549 E0.01649
G1 X111.824 Y96.797 E0.01649
G1 X111.378 Y96.932 E0.01461
G1 X111.246 Y96.578 F10800.000
;TYPE:External perimeter
G1 F1200.000
G1 X110.797 Y96.622 E0.01416
G1 X110.347 Y96.578 E0.01416
G1 X109.915 Y96.447 E0.01416
G1 X109.517 Y96.234 E0.01416
G1 X109.168 Y95.947 E0.01416
G1 X108.881 Y95.598 E0.01416
G1 X108.668 Y95.200 E0.01416
G1 X108.537 Y94.768 E0.01416
G1 X108.493 Y94.318 E0.01416
G1 X108.537 Y93.869 E0.01416
G1 X108.668 Y93.437 E0.01416
G1 X108.881 Y93.038 E0.01416
G1 X109.168 Y92.689 E0.01416
G1 X109.517 Y92.403 E0.01416
G1 X109.915 Y92.190 E0.01416
G1 X110.347 Y92.059 E0.01416
G1 X110.789 Y92.015 E0.01393
G1 X111.246 Y92.059 E0.01439
G1 X111.679 Y92.190 E0.01417
G1 X112.077 Y92.403 E0.01416
G1 X112.426 Y92.689 E0.01416
G1 X112.712 Y93.038 E0.01416
G1 X112.925 Y93.437 E0.01416
G1 X113.056 Y93.869 E0.01416
G1 X113.101 Y94.318 E0.01416
G1 X113.056 Y94.768 E0.01416
G1 X112.925 Y95.200 E0.01416
G1 X112.712 Y95.598 E0.01416
G1 X112.426 Y95.947 E0.01416
G1 X112.077 Y96.234 E0.01416
G1 X111.679 Y96.447 E0.01416
G1 X111.304 Y96.561 E0.01228
G1 X111.118 Y96.957 F10800.000
G1 E-0.80000 F2100.000
G1 Z0.800 F10800.000
G1 X125.000 Y98.840
G1 Z0.200
G1 E0.80000 F2100.000
;TYPE:Perimeter
G1 F1200.000
G1 X107.047 Y98.840 E0.56289
M73 P0 R89
G1 X107.047 Y65.941 E1.03152
G1 X142.953 Y65.941 E1.12579
G1 X142.953 Y98.840 E1.03152
G1 X125.060 Y98.840 E0.56101
G1 X125.000 Y99.217 F10800.000
;TYPE:External perimeter
G1 F1200.000
G1 X106.670 Y99.217 E0.57472
G1 X106.670 Y65.564 E1.05517
G1 X143.330 Y65.564 E1.14943
G1 X143.330 Y99.217 E1.05517
G1 X125.060 Y99.217 E0.57284
G1 X124.691 Y98.963 F10800.000
G1 E-0.80000 F2100.000
G1 Z0.800 F10800.000
G1 X129.843 Y98.727
G1 Z0.200
G1 E0.80000 F2100.000
;TYPE:Solid infill
;WIDTH:0.42093
G1 F1200.000
G1 X107.330 Y76.214 E1.00071
G1 X107.330 Y76.749 E0.01680
G1 X129.138 Y98.557 E0.96941
G1 X128.604 Y98.557 E0.01680
G1 X107.330 Y77.284 E0.94564
G1 X107.330 Y77.818 E0.01680
G1 X128.069 Y98.557 E0.92188
G1 X127.535 Y98.557 E0.01680
G1 X107.330 Y78.353 E0.89812
G1 X107.330 Y78.887 E0.01680
G1 X127.000 Y98.557 E0.87435
G1 X126.466 Y98.557 E0.01680
G1 X107.330 Y79.422 E0.85059
G1 X107.330 Y79.957 E0.01680
G1 X125.931 Y98.557 E0.82683
M73 P1 R89
G1 X125.396 Y98.557 E0.01680
G1 X107.330 Y80.491 E0.80306
G1 X107.330 Y81.026 E0.01680
G1 X124.862 Y98.557 E0.77930
G1 X124.327 Y98.557 E0.01680
G1 X107.330 Y81.560 E0.75554
G1 X107.330 Y82.095 E0.01680
G1 X123.793 Y98.557 E0.73178
G1 X123.258 Y98.557 E0.01680
G1 X107.330 Y82.629 E0.70801
G1 X107.330 Y83.164 E0.01680
G1 X122.723 Y98.557 E0.68425
G1 X122.189 Y98.557 E0.01680
G1 X107.330 Y83.699 E0.66049
G1 X107.330 Y84.233 E0.01680
G1 X121.654 Y98.557 E0.63672
G1 X121.120 Y98.557 E0.01680
G1 X107.330 Y84.768 E0.61296
G1 X107.330 Y85.302 E0.01680
G1 X120.585 Y98.557 E0.58920
G1 X120.050 Y98.557 E0.01680
G1 X107.330 Y85.837 E0.56543
G1 X107.330 Y86.372 E0.01680
G1 X119.516 Y98.557 E0.54167
G1 X118.981 Y98.557 E0.01680
G1 X113.459 Y93.035 E0.24548
G1 X113.538 Y93.183 E0.00528
G1 X113.707 Y93.740 E0.01828
G1 X113.715 Y93.826 E0.00273
G1 X118.447 Y98.557 E0.21032
G1 X117.912 Y98.557 E0.01680
G1 X113.756 Y94.401 E0.18476
G1 X113.708 Y94.888 E0.01537
G1 X117.378 Y98.557 E0.16313
G1 X116.843 Y98.557 E0.01680
G1 X113.585 Y95.299 E0.14483
G1 X113.538 Y95.454 E0.00508
G1 X113.422 Y95.671 E0.00774
G1 X116.308 Y98.557 E0.12831
G1 X115.774 Y98.557 E0.01680
G1 X113.227 Y96.011 E0.11319
G1 X112.986 Y96.305 E0.01194
G1 X115.239 Y98.557 E0.10014
G1 X114.705 Y98.557 E0.01680
G1 X112.713 Y96.566 E0.08853
G1 X112.414 Y96.802 E0.01196
G1 X114.170 Y98.557 E0.07804
G1 X113.635 Y98.557 E0.01680
G1 X112.066 Y96.988 E0.06976
G1 X111.932 Y97.059 E0.00477
G1 X111.680 Y97.136 E0.00830
G1 X113.101 Y98.557 E0.06318
G1 X112.566 Y98.557 E0.01680
G1 X111.250 Y97.241 E0.05853
G1 X110.756 Y97.281 E0.01558
G1 X112.032 Y98.557 E0.05672
G1 X111.497 Y98.557 E0.01680
G1 X109.892 Y96.952 E0.07136
G1 E-0.80000 F2100.000
G1 Z0.800 F10800.000
G1 X107.925 Y98.727
G1 Z0.200
G1 E0.80000 F2100.000
G1 F1200.000
G1 X107.330 Y98.132 E0.02643
G1 X107.330 Y97.598 E0.01680
G1 X108.290 Y98.557 E0.04265
G1 X108.824 Y98.557 E0.01680
G1 X107.330 Y97.063 E0.06641
G1 X107.330 Y96.529 E0.01680
G1 X109.359 Y98.557 E0.09018
G1 X109.893 Y98.557 E0.01680
G1 X107.330 Y95.994 E0.11394
G1 X107.330 Y95.460 E0.01680
G1 X110.428 Y98.557 E0.13770
G1 X110.963 Y98.557 E0.01680
G1 X107.330 Y94.925 E0.16146
G1 X107.330 Y94.390 E0.01680
G1 X107.909 Y94.969 E0.02572
G1 X107.887 Y94.897 E0.00236
G1 X107.834 Y94.360 E0.01698
G1 X107.330 Y93.856 E0.02240
G1 X107.330 Y93.321 E0.01680
G1 X107.875 Y93.866 E0.02420
G1 X107.887 Y93.740 E0.00398
G1 X107.979 Y93.436 E0.00998
G1 X107.330 Y92.787 E0.02885
G1 X107.330 Y92.252 E0.01680
G1 X108.127 Y93.049 E0.03544
G1 X108.314 Y92.701 E0.01242
G1 X107.330 Y91.717 E0.04371
G1 X107.330 Y91.183 E0.01680
G1 X108.550 Y92.402 E0.05421
G1 X108.699 Y92.220 E0.00740
G1 X108.811 Y92.129 E0.00454
G1 X107.330 Y90.648 E0.06581
G1 X107.330 Y90.114 E0.01680
G1 X109.104 Y91.888 E0.07886
G1 X109.444 Y91.693 E0.01231
G1 X107.330 Y89.579 E0.09398
G1 X107.330 Y89.045 E0.01680
G1 X109.816 Y91.530 E0.11050
G1 X110.228 Y91.408 E0.01351
G1 X107.330 Y88.510 E0.12881
G1 X107.330 Y87.975 E0.01680
G1 X110.714 Y91.359 E0.15042
G1 X110.788 Y91.352 E0.00234
G1 X111.289 Y91.400 E0.01583
G1 X107.330 Y87.441 E0.17599
G1 X107.330 Y86.906 E0.01680
G1 X112.723 Y92.299 E0.23970
G1 E-0.80000 F2100.000
G1 Z0.800 F10800.000
G1 X137.862 Y98.727
G1 Z0.200
G1 E0.80000 F2100.000
G1 F1200.000
G1 X113.664 Y74.529 E1.07562
G1 X113.707 Y74.671 E0.00467
G1 X113.754 Y75.155 E0.01526
G1 X137.157 Y98.557 E1.04028
G1 X136.623 Y98.557 E0.01680
G1 X113.724 Y75.658 E1.01789
G1 X113.707 Y75.829 E0.00539
G1 X113.626 Y76.095 E0.00875
G1 X136.088 Y98.557 E0.99846
G1 X135.554 Y98.557 E0.01680
G1 X113.484 Y76.487 E0.98103
G1 X113.297 Y76.836 E0.01242
G1 X135.019 Y98.557 E0.96555
G1 X134.484 Y98.557 E0.01680
G1 X113.066 Y77.139 E0.95206
G1 X112.895 Y77.348 E0.00849
G1 X112.810 Y77.418 E0.00345
G1 X133.950 Y98.557 E0.93968
G1 X133.415 Y98.557 E0.01680
G1 X112.516 Y77.659 E0.92897
M73 P1 R88
G1 X112.445 Y77.717 E0.00289
G1 X112.181 Y77.858 E0.00941
G1 X132.881 Y98.557 E0.92010
G1 X132.346 Y98.557 E0.01680
G1 X111.815 Y78.027 E0.91261
G1 X111.405 Y78.151 E0.01347
G1 X131.811 Y98.557 E0.90708
G1 X131.277 Y98.557 E0.01680
G1 X110.924 Y78.205 E0.90471
G1 X110.797 Y78.217 E0.00401
G1 X110.359 Y78.174 E0.01384
G1 X130.742 Y98.557 E0.90607
G1 X130.208 Y98.557 E0.01680
G1 X109.618 Y77.968 E0.91521
G1 X109.149 Y77.717 E0.01674
G1 X108.699 Y77.348 E0.01828
G1 X108.330 Y76.898 E0.01828
G1 X108.079 Y76.429 E0.01674
G1 X107.330 Y75.680 E0.03329
G1 X107.330 Y75.145 E0.01680
G1 X107.873 Y75.688 E0.02414
G1 X107.830 Y75.250 E0.01384
G1 X107.843 Y75.123 E0.00401
G1 X107.330 Y74.611 E0.02278
G1 X107.330 Y74.076 E0.01680
G1 X107.896 Y74.642 E0.02515
G1 X108.020 Y74.232 E0.01347
G1 X107.330 Y73.541 E0.03068
G1 X107.330 Y73.007 E0.01680
G1 X108.189 Y73.866 E0.03818
G1 X108.330 Y73.602 E0.00941
G1 X108.388 Y73.531 E0.00289
G1 X107.330 Y72.472 E0.04704
