; generated by PrusaSlicer 2.1.0+ on 2019-10-02 at 20:52:28 UTC

; 

; external perimeters extrusion width = 0.45mm
; perimeters extrusion width = 0.45mm
; infill extrusion width = 0.45mm
; solid infill extrusion width = 0.45mm
; top infill extrusion width = 0.40mm
; support material extrusion width = 0.35mm
; first layer extrusion width = 0.42mm

M73 P0 R10
M201 X9000 Y9000 Z500 E10000 ; sets maximum accelerations, mm/sec^2
M203 X500 Y500 Z12 E120 ; sets maximum feedrates, mm/sec
M204 P2000 R1500 T2000 ; sets acceleration (P, T) and retract acceleration (R), mm/sec^2
M205 X10.00 Y10.00 Z0.20 E2.50 ; sets the jerk limits, mm/sec
M205 S0 T0 ; sets the minimum extruding and travel feed rate, mm/sec
M107
M862.3 P "MK2.5SMMU2S" ; printer model check
M862.1 P0.4 ; nozzle diameter check
M115 U3.8.0 ; tell printer latest fw version
G90 ; use absolute coordinates
M83 ; extruder relative mode
M104 S230 ; set extruder temp
M140 S60 ; set bed temp
Tx
M190 S60 ; wait for bed temp
M109 S230 ; wait for extruder temp
G28 W ; home all without mesh bed level
G80 ; mesh bed leveling

G21 ; set units to millimeters

;go outside print area
G1 Y-3.0 F1000.0
G1 Z0.4 F1000.0
; select extruder
Tc
; purge line
G1 X55.0 F2000.0
G1 Z0.3 F1000.0
G92 E0.0
G1 X240.0 E25.0 F2200.0
M73 P1 R10
G1 Y-2.0 F1000.0
G1 X55.0 E25 F1400.0
G1 Z0.20 F1000.0
G1 X5.0 E4.0 F1000.0
G92 E0.0
G21 ; set units to millimeters
G90 ; use absolute coordinates
M83 ; use relative distances for extrusion
M900 K30 ; Filament gcode
;BEFORE_LAYER_CHANGE
G92 E0.0
;0.2


G1 E-0.80000 F2100.00000
G1 Z0.600 F10800.000
;AFTER_LAYER_CHANGE
;0.2
G1 X112.342 Y94.391
G1 Z0.200
G1 E0.80000 F2100.00000
M204 S1000
G1 F1200
G1 X115.093 Y91.735 E0.11990
G1 X115.666 Y91.387 E0.02103
G1 X116.314 Y91.198 E0.02116
G1 X133.511 Y91.169 E0.53919
G1 X134.476 Y91.359 E0.03083
G1 X135.301 Y91.901 E0.03095
G1 X137.610 Y94.508 E0.10921
G1 X137.918 Y95.046 E0.01943
G1 X138.088 Y95.642 E0.01943
G1 X138.119 Y116.036 E0.63942
G1 X137.991 Y116.786 E0.02386
G1 X137.649 Y117.465 E0.02386
G1 X137.132 Y118.007 E0.02349
G1 X136.480 Y118.377 E0.02349
G1 X129.559 Y120.599 E0.22790
G1 X129.041 Y120.683 E0.01647
G1 X125.064 Y120.856 E0.12481
G1 X121.177 Y120.856 E0.12185
G1 X120.575 Y120.773 E0.01906
G1 X114.911 Y118.332 E0.19339
G1 X114.464 Y118.079 E0.01610
G1 X113.829 Y117.434 E0.02839
G1 X112.232 Y114.818 E0.09609
G1 X111.996 Y114.296 E0.01795
G1 X111.882 Y113.735 E0.01795
G1 X111.872 Y95.813 E0.56193
G1 X112.001 Y95.067 E0.02374
G1 X112.315 Y94.445 E0.02185
G1 X112.650 Y94.616 F10800.000
G1 F1200
G1 X115.321 Y92.036 E0.11643
G1 X115.822 Y91.730 E0.01839
G1 X116.382 Y91.570 E0.01828
G1 X133.511 Y91.546 E0.53707
G1 X134.344 Y91.713 E0.02664
G1 X135.049 Y92.182 E0.02653
G1 X137.300 Y94.723 E0.10644
G1 X137.572 Y95.197 E0.01714
G1 X137.719 Y95.720 E0.01703
G1 X137.742 Y116.024 E0.63664
G1 X137.631 Y116.674 E0.02066
G1 X137.331 Y117.261 E0.02066
G1 X136.885 Y117.721 E0.02010
G1 X136.328 Y118.031 E0.01998
G1 X129.446 Y120.239 E0.22662
G1 X125.043 Y120.479 E0.13825
G1 X121.188 Y120.479 E0.12087
G1 X120.672 Y120.409 E0.01635
G1 X114.670 Y117.762 E0.20567
G1 X114.130 Y117.207 E0.02428
G1 X112.555 Y114.624 E0.09486
G1 X112.354 Y114.178 E0.01532
G1 X112.257 Y113.695 E0.01544
G1 X112.249 Y95.825 E0.56032
G1 X112.362 Y95.179 E0.02055
G1 X112.622 Y94.669 E0.01796
G1 E-0.80000 F2100.00000
G1 Z0.800 F10800.000
G1 X114.437 Y95.872
G1 Z0.200
G1 E0.80000 F2100.00000
G1 F1200
G1 X114.437 Y113.507 E0.55293
G1 X115.192 Y113.507 E0.02365
G1 X115.192 Y96.042 E0.54761
G1 X115.946 Y96.042 E0.02365
G1 X115.946 Y115.984 E0.62527
G1 E-0.80000 F2100.00000
G1 Z0.800 F10800.000
G1 X121.225 Y118.291
G1 Z0.200
G1 E0.80000 F2100.00000
G1 F1200
G1 X121.225 Y112.816 E0.17166
G1 X121.555 Y112.996 E0.01178
G1 X121.979 Y113.133 E0.01397
G1 X121.979 Y118.121 E0.15641
G1 X122.733 Y118.121 E0.02365
G1 X122.733 Y113.377 E0.14876
G1 X123.129 Y113.505 E0.01303
G1 X123.487 Y113.551 E0.01134
G1 X123.487 Y118.121 E0.14330
G1 X124.241 Y118.121 E0.02365
G1 X124.241 Y112.803 E0.16675
G1 X123.487 Y112.707 E0.02384
G1 X123.487 Y112.730 E0.00073
G1 X122.733 Y112.530 E0.02446
G1 X122.733 Y112.507 E0.00073
G1 X122.500 Y112.445 E0.00757
G1 X121.979 Y112.232 E0.01764
G1 X121.979 Y112.252 E0.00063
G1 X121.336 Y111.988 E0.02178
G1 X121.225 Y112.220 E0.00807
G1 X121.225 Y111.866 E0.01109
G1 X120.728 Y111.584 E0.01792
G1 X120.471 Y111.391 E0.01008
G1 X121.034 Y111.827 E0.02233
G1 X120.613 Y112.476 E0.02425
G1 X120.471 Y112.397 E0.00512
G1 X120.471 Y115.814 E0.10715
G1 X119.716 Y115.814 E0.02365
G1 X119.716 Y111.878 E0.12343
G1 X118.962 Y111.240 E0.03096
G1 X118.962 Y115.814 E0.14342
G1 X118.208 Y115.814 E0.02365
G1 X118.208 Y110.374 E0.17058
G1 X117.739 Y109.788 E0.02354
G1 X117.454 Y109.252 E0.01903
G1 X117.454 Y115.814 E0.20576
G1 X116.700 Y115.814 E0.02365
G1 X116.700 Y107.448 E0.26233
G1 X116.471 Y106.667 E0.02552
G1 X116.315 Y105.044 E0.05112
G1 X116.471 Y103.381 E0.05236
G1 X116.700 Y102.600 E0.02552
G1 X116.700 Y93.735 E0.27796
G1 X117.454 Y93.735 E0.02365
G1 X117.454 Y100.796 E0.22139
G1 X117.739 Y100.260 E0.01903
G1 X118.208 Y99.674 E0.02354
G1 X118.208 Y93.735 E0.18621
G1 X118.962 Y93.735 E0.02365
G1 X118.962 Y98.808 E0.15905
G1 X119.716 Y98.170 E0.03096
G1 X119.716 Y93.735 E0.13906
G1 X120.471 Y93.735 E0.02365
G1 X120.471 Y97.651 E0.12278
G1 X121.225 Y97.231 E0.02706
G1 X121.225 Y93.735 E0.10963
G1 X121.979 Y93.735 E0.02365
G1 X121.979 Y96.915 E0.09971
G1 X122.733 Y96.671 E0.02485
G1 X122.733 Y93.735 E0.09205
G1 X123.487 Y93.735 E0.02365
G1 X123.487 Y96.497 E0.08659
G1 X124.241 Y96.408 E0.02381
G1 X124.241 Y93.735 E0.08380
G1 X124.996 Y93.735 E0.02365
G1 X124.996 Y96.350 E0.08198
G1 X125.750 Y96.409 E0.02372
G1 X125.750 Y93.735 E0.08384
G1 X126.504 Y93.735 E0.02365
G1 X126.504 Y96.468 E0.08571
G1 X127.258 Y96.674 E0.02451
G1 X127.258 Y93.735 E0.09216
G1 X128.012 Y93.735 E0.02365
G1 X128.012 Y96.888 E0.09885
G1 X128.207 Y96.947 E0.00638
G1 X128.766 Y97.233 E0.01971
G1 X128.766 Y93.735 E0.10969
G1 X129.521 Y93.735 E0.02365
G1 X129.521 Y97.619 E0.12179
G1 X129.736 Y97.734 E0.00764
G1 X130.275 Y98.162 E0.02159
G1 X130.275 Y93.735 E0.13882
G1 X131.029 Y93.735 E0.02365
G1 X131.029 Y98.762 E0.15761
G1 X131.783 Y99.641 E0.03631
G1 X131.783 Y93.735 E0.18517
G1 X132.537 Y93.735 E0.02365
G1 X132.537 Y100.762 E0.22032
G1 X133.007 Y101.620 E0.03066
G1 X133.291 Y102.525 E0.02975
G1 X133.291 Y93.735 E0.27560
G1 X133.507 Y93.735 E0.00677
G1 X133.507 Y96.042 E0.07234
G1 X134.046 Y96.042 E0.01688
G1 X134.046 Y115.814 E0.61995
G1 X134.800 Y115.814 E0.02365
G1 X134.800 Y96.042 E0.61995
G1 X135.554 Y96.042 E0.02365
G1 X135.554 Y115.984 E0.62527
G1 X133.291 Y115.984 F10800.000
G1 F1200
G1 X133.291 Y106.950 E0.28326
G1 X131.912 Y106.962 F10800.000
G1 F1200
G1 X131.912 Y103.874 E0.07887
G1 X131.747 Y103.109 E0.01997
G1 X131.405 Y102.187 E0.02510
G1 X131.405 Y107.995 E0.14828
G1 X130.898 Y108.912 E0.02675
G1 X130.898 Y101.271 E0.19510
G1 X130.391 Y100.575 E0.02198
G1 X130.391 Y109.607 E0.23063
G1 X129.884 Y110.136 E0.01871
G1 X129.884 Y100.046 E0.25764
G1 X129.737 Y99.893 E0.00541
G1 X129.377 Y99.606 E0.01177
G1 X129.377 Y110.753 E0.28465
G1 X128.870 Y111.576 F10800.000
G1 F1200
G1 X128.870 Y98.767 E0.32705
G1 X128.363 Y98.470 E0.01501
G1 X128.363 Y111.712 E0.33812
G1 X127.856 Y111.931 E0.01410
G1 X127.856 Y98.251 E0.34929
G1 X127.497 Y98.097 E0.00998
G1 X127.349 Y98.055 E0.00393
G1 X127.349 Y112.127 E0.35932
G1 X126.841 Y112.269 E0.01345
G1 X126.841 Y97.913 E0.36658
G1 X126.542 Y97.829 E0.00794
G1 X126.334 Y97.800 E0.00536
G1 X126.334 Y112.382 E0.37235
G1 X125.827 Y112.453 E0.01307
G1 X125.827 Y97.729 E0.37597
G1 X125.552 Y97.690 E0.00710
G1 X125.320 Y97.689 E0.00592
G1 X125.320 Y112.493 E0.37799
G1 X124.813 Y112.495 E0.01295
G1 X124.813 Y97.687 E0.37812
G1 X124.543 Y97.685 E0.00689
G1 X124.306 Y97.716 E0.00611
G1 X124.306 Y112.467 E0.37664
G1 X123.799 Y112.402 E0.01305
G1 X123.799 Y97.781 E0.37333
G1 X123.551 Y97.812 E0.00637
G1 X123.292 Y97.881 E0.00686
G1 X123.292 Y112.301 E0.36820
G1 X122.785 Y112.167 E0.01339
G1 X122.785 Y98.015 E0.36134
G1 X122.609 Y98.062 E0.00465
G1 X122.278 Y98.198 E0.00914
G1 X122.278 Y111.984 E0.35202
G1 X121.771 Y111.776 E0.01399
G1 X121.771 Y98.406 E0.34140
G1 X121.264 Y98.687 E0.01481
G1 X121.264 Y111.495 E0.32702
G1 X120.916 Y111.297 E0.01022
G1 X120.756 Y111.178 E0.00508
G1 X120.756 Y99.004 E0.31084
G1 X120.249 Y99.384 E0.01617
G1 X120.249 Y110.971 E0.29587
G1 X119.716 Y111.024 F10800.000
G1 F1200
G1 X119.716 Y110.776 E0.00777
G1 X119.467 Y110.537 E0.01084
G1 X119.716 Y110.307 E0.01063
G1 X119.716 Y110.207 E0.00312
G1 X119.563 Y110.041 E0.00711
G1 X119.035 Y109.318 E0.02807
G1 X118.962 Y109.190 E0.00460
G1 X118.962 Y109.980 E0.02478
G1 X118.673 Y109.624 E0.01439
G1 X118.208 Y108.885 E0.02738
G1 X118.208 Y107.596 E0.04041
G1 X117.996 Y106.882 E0.02335
G1 X117.841 Y105.999 E0.02813
G1 X117.789 Y105.091 E0.02850
G1 X117.841 Y104.183 E0.02850
G1 X117.996 Y103.300 E0.02813
G1 X118.208 Y102.586 E0.02335
G1 X118.208 Y101.297 E0.04041
G1 X118.673 Y100.558 E0.02738
G1 X118.962 Y100.202 E0.01439
G1 X118.962 Y100.992 E0.02478
G1 X119.035 Y100.865 E0.00460
G1 X119.563 Y100.142 E0.02807
G1 X119.716 Y99.975 E0.00711
G1 X119.716 Y99.875 E0.00315
G1 X119.468 Y99.645 E0.01062
G1 X119.967 Y99.153 E0.02197
G1 X120.728 Y98.598 E0.02954
G1 X121.595 Y98.088 E0.03154
G1 X121.979 Y97.931 E0.01301
G1 X121.979 Y97.951 E0.00063
G1 X122.500 Y97.737 E0.01764
G1 X122.733 Y97.675 E0.00757
G1 X122.733 Y97.652 E0.00072
G1 X123.487 Y97.452 E0.02446
G1 X123.487 Y97.476 E0.00073
G1 X124.241 Y97.379 E0.02384
G1 X124.241 Y97.353 E0.00083
G1 X124.552 Y97.313 E0.00981
G1 X124.996 Y97.315 E0.01391
G1 X124.996 Y97.345 E0.00095
G1 X125.577 Y97.348 E0.01822
G1 X125.750 Y97.373 E0.00548
G1 X125.750 Y97.338 E0.00110
G1 X126.504 Y97.443 E0.02388
G1 X126.504 Y97.478 E0.00110
G1 X126.612 Y97.493 E0.00344
G1 X127.258 Y97.674 E0.02103
G1 X127.258 Y97.634 E0.00128
G1 X127.654 Y97.745 E0.01289
G1 X128.012 Y97.899 E0.01224
G1 X128.012 Y97.946 E0.00148
G1 X128.560 Y98.183 E0.01870
G1 X128.766 Y98.307 E0.00755
G1 X128.766 Y98.251 E0.00173
G1 X129.521 Y98.709 E0.02765
G1 X129.521 Y99.283 E0.01799
G1 X129.968 Y99.640 E0.01796
G1 X130.275 Y99.959 E0.01388
G1 X130.275 Y99.310 E0.02035
G1 X131.029 Y100.088 E0.03397
G1 X131.029 Y100.869 E0.02449
G1 X131.243 Y101.163 E0.01139
G1 X131.721 Y102.052 E0.03166
G1 X131.783 Y102.220 E0.00561
G1 X131.783 Y101.184 E0.03249
G1 X132.159 Y101.884 E0.02491
G1 X132.534 Y102.897 E0.03388
G1 X132.537 Y107.501 E0.14435
G1 X132.463 Y107.476 E0.00245
G1 X132.066 Y108.550 E0.03589
G1 X132.537 Y108.764 E0.01622
G1 X132.537 Y115.984 E0.22638
G1 X131.783 Y115.984 F10800.000
G1 F1200
G1 X131.783 Y110.318 E0.17766
G1 X131.200 Y109.861 E0.02323
G1 X131.765 Y109.085 E0.03010
G1 X131.783 Y109.096 E0.00066
G1 X131.783 Y107.962 E0.03557
G1 X131.721 Y108.130 E0.00561
G1 X131.243 Y109.019 E0.03166
G1 X131.029 Y109.313 E0.01139
G1 X131.029 Y110.554 E0.03892
G1 X131.388 Y110.877 E0.01512
G1 X131.029 Y111.286 E0.01707
G1 X131.029 Y115.814 E0.14198
G1 X130.275 Y115.814 E0.02365
G1 X130.275 Y110.223 E0.17532
G1 X129.968 Y110.542 E0.01388
G1 X129.521 Y110.900 E0.01796
G1 X129.521 Y111.478 E0.01814
G1 X128.926 Y111.835 E0.02174
G1 X129.314 Y112.534 E0.02508
G1 X129.521 Y112.429 E0.00727
G1 X129.521 Y115.814 E0.10616
G1 X128.893 Y115.814 E0.01967
G1 X128.893 Y118.121 E0.07234
G1 X128.766 Y118.121 E0.00397
G1 X128.766 Y111.876 E0.19583
M73 P11 R9
G1 X128.560 Y112.000 E0.00755
G1 X128.012 Y112.236 E0.01870
G1 X128.012 Y112.283 E0.00148
G1 X127.512 Y112.499 E0.01707
G1 X127.772 Y113.228 E0.02428
G1 X128.012 Y113.160 E0.00784
G1 X128.012 Y118.121 E0.15555
G1 X127.258 Y118.121 E0.02365
G1 X127.258 Y112.508 E0.17601
G1 X126.612 Y112.689 E0.02102
G1 X126.504 Y112.704 E0.00344
G1 X126.504 Y112.739 E0.00110
G1 X125.923 Y112.821 E0.01840
G1 X126.010 Y113.618 E0.02516
G1 X126.504 Y113.579 E0.01554
G1 X126.504 Y118.121 E0.14241
G1 X125.750 Y118.121 E0.02365
G1 X125.750 Y112.809 E0.16655
G1 X125.577 Y112.834 E0.00548
G1 X124.996 Y112.837 E0.01822
G1 X124.996 Y112.867 E0.00096
G1 X125.428 Y112.865 E0.01357
G1 X125.462 Y113.661 E0.02500
G1 X124.996 Y113.698 E0.01466
G1 X124.996 Y118.291 E0.14401
G1 E-0.80000 F2100.00000
G1 Z0.800 F10800.000
G1 X119.742 Y109.934
G1 Z0.200
G1 E0.80000 F2100.00000
G1 F1200
G1 X119.742 Y100.476 E0.24151
G1 X119.323 Y101.051 E0.01817
G1 X119.235 Y101.204 E0.00451
G1 X119.235 Y108.978 E0.19849
G1 X118.903 Y108.394 E0.01715
G1 X118.728 Y107.985 E0.01137
G1 X118.728 Y102.198 E0.14776
G1 X118.571 Y102.565 E0.01021
G1 X118.330 Y103.378 E0.02166
G1 X118.221 Y103.998 E0.01605
G1 X118.221 Y106.924 E0.07472
G1 X117.454 Y107.557 F10800.000
G1 F1200
G1 X117.454 Y102.625 E0.15461
M106 S255
;BEFORE_LAYER_CHANGE
G92 E0.0
;0.3


G1 E-0.80000 F2100.00000
G1 Z0.800 F10800.000
;AFTER_LAYER_CHANGE
;0.3
G1 X116.700 Y103.207
G1 Z0.300
G1 E0.80000 F2100.00000
G1 F1123
G1 X116.700 Y98.869 E0.05926
G1 X119.007 Y98.997 F10800.000
G1 F1123
G1 X119.007 Y96.700 E0.03137
G1 X121.314 Y96.700 E0.03151
G1 X121.314 Y97.380 E0.00929
G1 E-0.80000 F2100.00000
G1 Z0.900 F10800.000
G1 X128.235 Y97.156
G1 Z0.300
G1 E0.80000 F2100.00000
G1 F1123
G1 X128.235 Y96.700 E0.00623
G1 X130.542 Y96.700 E0.03151
G1 X130.542 Y98.596 E0.02590
G1 E-0.80000 F2100.00000
G1 Z0.900 F10800.000
G1 X132.849 Y98.869
G1 Z0.300
G1 E0.80000 F2100.00000
G1 F1123
G1 X132.849 Y101.693 E0.03858
G1 E-0.80000 F2100.00000
G1 Z0.900 F10800.000
G1 X131.912 Y106.963
G1 Z0.300
G1 E0.80000 F2100.00000
G1 F1123
G1 X131.912 Y103.874 E0.04219
G1 X131.747 Y103.109 E0.01068
G1 X131.405 Y102.187 E0.01343
G1 X131.405 Y107.995 E0.07932
G1 X130.898 Y108.912 E0.01431
G1 X130.898 Y101.271 E0.10437
G1 X130.391 Y100.575 E0.01176
G1 X130.391 Y109.607 E0.12337
G1 X129.884 Y110.136 E0.01001
G1 X129.884 Y100.046 E0.13782
G1 X129.737 Y99.893 E0.00289
G1 X129.377 Y99.605 E0.00630
G1 X129.377 Y110.753 E0.15227
G1 X128.870 Y111.576 F10800.000
G1 F1123
G1 X128.870 Y98.767 E0.17495
G1 X128.363 Y98.470 E0.00803
G1 X128.363 Y111.712 E0.18087
G1 X127.856 Y111.931 E0.00754
G1 X127.856 Y98.251 E0.18685
G1 X127.497 Y98.096 E0.00534
G1 X127.349 Y98.055 E0.00210
G1 X127.349 Y112.127 E0.19222
G1 X126.841 Y112.269 E0.00719
G1 X126.841 Y97.913 E0.19610
G1 X126.542 Y97.829 E0.00424
G1 X126.334 Y97.800 E0.00287
G1 X126.334 Y112.382 E0.19919
G1 X125.827 Y112.453 E0.00699
G1 X125.827 Y97.729 E0.20112
G1 X125.552 Y97.690 E0.00380
G1 X125.320 Y97.689 E0.00317
G1 X125.320 Y112.493 E0.20221
G1 X124.813 Y112.495 E0.00693
G1 X124.813 Y97.687 E0.20228
G1 X124.543 Y97.685 E0.00368
G1 X124.306 Y97.716 E0.00327
G1 X124.306 Y112.467 E0.20148
G1 X123.799 Y112.402 E0.00698
G1 X123.799 Y97.781 E0.19971
G1 X123.551 Y97.812 E0.00341
G1 X123.292 Y97.881 E0.00367
G1 X123.292 Y101.314 E0.04689
G1 X122.785 Y101.314 E0.00693
G1 X122.785 Y98.015 E0.04506
G1 X122.609 Y98.062 E0.00249
G1 X122.278 Y98.198 E0.00489
G1 X122.278 Y101.314 E0.04257
G1 X121.771 Y101.314 E0.00693
G1 X121.771 Y98.406 E0.03972
G1 X121.264 Y98.687 E0.00792
G1 X121.264 Y111.495 E0.17494
G1 X121.771 Y111.776 E0.00792
G1 X121.771 Y108.235 E0.04837
G1 X122.278 Y108.235 E0.00693
G1 X122.278 Y111.984 E0.05121
G1 X122.609 Y112.120 E0.00489
G1 X122.785 Y112.167 E0.00249
G1 X122.785 Y108.235 E0.05370
G1 X123.292 Y108.235 E0.00693
G1 X123.292 Y112.444 E0.05749
G1 E-0.80000 F2100.00000
G1 Z0.900 F10800.000
G1 X121.314 Y112.988
G1 Z0.300
G1 E0.80000 F2100.00000
G1 F1123
G1 X121.314 Y112.826 E0.00221
G1 X121.044 Y112.676 E0.00422
G1 X121.092 Y112.576 E0.00151
G1 X120.664 Y112.333 E0.00672
G1 X120.602 Y112.430 E0.00157
G1 X120.096 Y112.149 E0.00790
G1 X119.007 Y111.232 E0.01945
G1 X119.007 Y112.988 E0.02398
G1 E-0.80000 F2100.00000
G1 Z0.900 F10800.000
G1 X120.249 Y110.971
G1 Z0.300
G1 E0.80000 F2100.00000
G1 F1123
G1 X120.249 Y99.384 E0.15828
G1 X120.756 Y99.004 E0.00865
G1 X120.756 Y111.350 E0.16864
G1 X119.742 Y109.934 F10800.000
G1 F1123
G1 X119.742 Y100.476 E0.12919
G1 X119.323 Y101.051 E0.00972
G1 X119.235 Y101.204 E0.00241
G1 X119.235 Y108.978 E0.10618
G1 X118.903 Y108.394 E0.00917
G1 X118.728 Y107.985 E0.00608
