; generated by PrusaSlicer 2.1.0+ on 2019-10-02 at 18:54:34 UTC

; 

; external perimeters extrusion width = 0.45mm
; perimeters extrusion width = 0.45mm
; infill extrusion width = 0.45mm
; solid infill extrusion width = 0.45mm
; top infill extrusion width = 0.40mm
; support material extrusion width = 0.35mm
; first layer extrusion width = 0.42mm

M73 P0 R18
M201 X9000 Y9000 Z500 E10000 ; sets maximum accelerations, mm/sec^2
M203 X500 Y500 Z12 E120 ; sets maximum feedrates, mm/sec
M204 P2000 R1500 T2000 ; sets acceleration (P, T) and retract acceleration (R), mm/sec^2
M205 X10.00 Y10.00 Z0.20 E2.50 ; sets the jerk limits, mm/sec
M205 S0 T0 ; sets the minimum extruding and travel feed rate, mm/sec
M107
M862.3 P "MK2.5SMMU2S" ; printer model check
M862.1 P0.4 ; nozzle diameter check
M115 U3.8.0 ; tell printer latest fw version
G90 ; use absolute coordinates
M83 ; extruder relative mode
M104 S230 ; set extruder temp
M140 S60 ; set bed temp
Tx
M190 S60 ; wait for bed temp
M109 S230 ; wait for extruder temp
G28 W ; home all without mesh bed level
G80 ; mesh bed leveling

G21 ; set units to millimeters

;go outside print area
G1 Y-3.0 F1000.0
G1 Z0.4 F1000.0
; select extruder
Tc
; purge line
G1 X55.0 F2000.0
G1 Z0.3 F1000.0
G92 E0.0
G1 X240.0 E25.0 F2200.0
M73 P0 R18
G1 Y-2.0 F1000.0
G1 X55.0 E25 F1400.0
G1 Z0.20 F1000.0
G1 X5.0 E4.0 F1000.0
G92 E0.0
G21 ; set units to millimeters
G90 ; use absolute coordinates
M83 ; use relative distances for extrusion
M900 K30 ; Filament gcode
;BEFORE_LAYER_CHANGE
G92 E0.0
;0.2


G1 E-0.80000 F2100.00000
G1 Z0.600 F10800.000
;AFTER_LAYER_CHANGE
;0.2
G1 X101.148 Y80.095
G1 Z0.200
G1 E0.80000 F2100.00000
M204 S1000
G1 F1200
G1 X101.631 Y79.537 E0.02315
G1 X102.148 Y79.188 E0.01955
G1 X124.210 Y68.210 E0.77264
G1 X124.748 Y68.141 E0.01703
G1 X147.716 Y68.143 E0.72012
G1 X148.836 Y68.366 E0.03583
G1 X149.337 Y68.610 E0.01746
G1 X149.718 Y68.904 E0.01510
G1 X150.087 Y69.320 E0.01743
G1 X150.361 Y69.821 E0.01791
G1 X150.630 Y70.957 E0.03660
G1 X150.635 Y131.251 E1.89046
G1 X150.548 Y131.849 E0.01896
G1 X150.301 Y132.401 E0.01896
G1 X149.695 Y133.037 E0.02754
G1 X148.888 Y133.383 E0.02754
G1 X104.343 Y141.874 E1.42182
G1 X102.610 Y141.899 E0.05432
G1 X102.130 Y141.790 E0.01544
G1 X101.690 Y141.578 E0.01532
G1 X101.320 Y141.287 E0.01475
G1 X101.019 Y140.921 E0.01487
G1 X100.806 Y140.501 E0.01475
G1 X100.686 Y140.042 E0.01487
G1 X99.305 Y125.451 E0.45953
G1 X99.307 Y96.540 E0.90649
G1 X100.679 Y81.484 E0.47405
G1 X100.863 Y80.692 E0.02546
G1 X101.122 Y80.149 E0.01888
G1 E-0.80000 F2100.00000
G1 Z0.800 F10800.000
G1 X123.592 Y72.123
G1 Z0.200
G1 E0.80000 F2100.00000
G1 F1200
G1 X123.406 Y71.578 E0.01806
G1 X123.406 Y70.352 E0.03845
G1 X123.567 Y69.853 E0.01642
G1 X123.700 Y69.656 E0.00744
G1 X124.167 Y69.201 E0.02045
G1 X124.344 Y69.097 E0.00643
G1 X124.801 Y68.956 E0.01500
G1 X142.630 Y68.960 E0.55900
G1 X147.946 Y68.981 E0.16671
G1 X148.303 Y69.066 E0.01148
G1 X148.671 Y69.225 E0.01257
G1 X149.149 Y69.603 E0.01912
G1 X149.569 Y70.198 E0.02280
G1 X149.763 Y70.881 E0.02230
G1 X149.773 Y131.542 E1.90197
G1 X149.631 Y131.999 E0.01500
G1 X149.527 Y132.176 E0.00643
G1 X149.062 Y132.653 E0.02090
G1 X148.640 Y132.876 E0.01497
G1 X148.362 Y132.937 E0.00893
G1 X146.996 Y132.928 E0.04282
G1 X146.800 Y132.879 E0.00632
G1 X146.479 Y132.727 E0.01113
G1 X145.909 Y132.175 E0.02489
G1 X145.805 Y131.999 E0.00640
G1 X145.664 Y131.542 E0.01500
G1 X145.664 Y72.974 E1.83638
G1 X124.801 Y72.974 E0.65415
G1 X124.345 Y72.833 E0.01496
G1 X124.106 Y72.679 E0.00892
G1 X123.700 Y72.273 E0.01800
G1 X123.627 Y72.172 E0.00391
G1 X123.915 Y71.929 F10800.000
G1 F1200
G1 X123.783 Y71.546 E0.01270
G1 X123.783 Y70.382 E0.03649
G1 X123.896 Y70.038 E0.01136
G1 X123.981 Y69.909 E0.00482
G1 X124.386 Y69.509 E0.01785
G1 X124.486 Y69.447 E0.00371
G1 X124.833 Y69.333 E0.01144
G1 X142.629 Y69.337 E0.55800
G1 X147.920 Y69.358 E0.16591
G1 X148.196 Y69.428 E0.00891
G1 X148.462 Y69.540 E0.00904
G1 X148.862 Y69.849 E0.01585
G1 X149.217 Y70.337 E0.01895
G1 X149.386 Y70.910 E0.01871
G1 X149.395 Y131.510 E1.90009
G1 X149.282 Y131.857 E0.01144
G1 X149.219 Y131.957 E0.00371
G1 X148.817 Y132.365 E0.01795
G1 X148.494 Y132.528 E0.01135
G1 X148.343 Y132.560 E0.00483
G1 X147.059 Y132.556 E0.04026
G1 X146.942 Y132.528 E0.00378
G1 X146.669 Y132.400 E0.00946
G1 X146.216 Y131.956 E0.01988
G1 X146.155 Y131.857 E0.00366
G1 X146.041 Y131.511 E0.01144
G1 X146.041 Y72.596 E1.84721
G1 X124.832 Y72.596 E0.66498
G1 X124.488 Y72.483 E0.01136
G1 X124.359 Y72.399 E0.00484
G1 X123.950 Y71.978 E0.01841
G1 X124.242 Y71.740 F10800.000
G1 F1200
G1 X124.160 Y71.512 E0.00757
G1 X124.160 Y70.417 E0.03434
G1 X124.260 Y70.163 E0.00857
G1 X124.613 Y69.809 E0.01567
G1 X124.868 Y69.710 E0.00857
G1 X147.850 Y69.729 E0.72060
G1 X148.088 Y69.790 E0.00770
G1 X148.291 Y69.877 E0.00692
G1 X148.577 Y70.097 E0.01131
G1 X148.868 Y70.483 E0.01515
G1 X149.009 Y70.939 E0.01498
G1 X149.018 Y131.475 E1.89807
G1 X148.919 Y131.730 E0.00857
G1 X148.576 Y132.073 E0.01522
G1 X148.357 Y132.176 E0.00757
G1 X147.079 Y132.176 E0.04007
G1 X146.861 Y132.073 E0.00757
G1 X146.518 Y131.730 E0.01522
G1 X146.418 Y131.475 E0.00856
G1 X146.418 Y72.219 E1.85793
G1 X124.868 Y72.219 E0.67570
G1 X124.613 Y72.120 E0.00856
G1 X124.279 Y71.786 E0.01480
G1 X124.566 Y71.540 F10800.000
G1 F1200
G1 X124.538 Y71.470 E0.00235
G1 X124.538 Y70.459 E0.03171
G1 X124.566 Y70.390 E0.00235
G1 X124.840 Y70.116 E0.01215
G1 X124.910 Y70.087 E0.00235
G1 X147.780 Y70.101 E0.71709
G1 X147.979 Y70.151 E0.00645
G1 X148.115 Y70.211 E0.00465
G1 X148.321 Y70.374 E0.00824
G1 X148.544 Y70.679 E0.01184
G1 X148.632 Y70.967 E0.00944
G1 X148.641 Y131.433 E1.89589
G1 X148.613 Y131.503 E0.00235
G1 X148.339 Y131.777 E0.01215
G1 X148.269 Y131.805 E0.00235
G1 X147.167 Y131.805 E0.03456
G1 X147.098 Y131.777 E0.00235
G1 X146.824 Y131.503 E0.01215
G1 X146.795 Y131.434 E0.00235
G1 X146.795 Y71.842 E1.86844
G1 X124.909 Y71.842 E0.68621
G1 X124.840 Y71.814 E0.00235
G1 X124.609 Y71.582 E0.01027
G1 X124.915 Y71.355 F10800.000
G1 F1200
G1 X124.915 Y70.575 E0.02446
G1 X125.025 Y70.464 E0.00490
G1 X147.710 Y70.472 E0.71127
G1 X147.932 Y70.542 E0.00731
G1 X148.063 Y70.650 E0.00530
G1 X148.198 Y70.830 E0.00708
G1 X148.255 Y71.000 E0.00561
M73 P6 R17
G1 X148.264 Y131.318 E1.89123
G1 X148.154 Y131.428 E0.00490
G1 X147.283 Y131.428 E0.02731
G1 X147.172 Y131.318 E0.00490
G1 X147.172 Y71.465 E1.87664
G1 X125.025 Y71.465 E0.69441
G1 X124.957 Y71.397 E0.00302
G1 E-0.80000 F2100.00000
G1 Z0.800 F10800.000
G1 X114.180 Y110.621
G1 Z0.200
G1 E0.80000 F2100.00000
G1 F1200
G1 X114.180 Y101.658 E0.28102
G1 X114.345 Y101.098 E0.01832
G1 X114.523 Y100.799 E0.01089
G1 X115.019 Y100.322 E0.02159
G1 X115.221 Y100.202 E0.00736
G1 X115.740 Y100.017 E0.01728
G1 X115.740 Y97.044 E0.09320
G1 X115.980 Y96.332 E0.02354
G1 X116.132 Y96.125 E0.00806
G1 X116.483 Y95.780 E0.01545
G1 X116.808 Y95.578 E0.01198
G1 X117.317 Y95.421 E0.01670
G1 X120.351 Y95.422 E0.09514
G1 X120.362 Y94.685 E0.02312
G1 X120.540 Y94.130 E0.01827
G1 X120.751 Y93.812 E0.01196
G1 X121.150 Y93.431 E0.01729
G1 X121.666 Y93.174 E0.01808
G1 X121.983 Y93.108 E0.01015
G1 X123.124 Y93.109 E0.03576
G1 X123.236 Y93.127 E0.00358
G1 X123.359 Y93.106 E0.00390
G1 X124.646 Y93.110 E0.04035
G1 X124.734 Y93.129 E0.00285
G1 X124.867 Y93.106 E0.00421
G1 X126.118 Y93.106 E0.03923
G1 X126.246 Y93.128 E0.00410
G1 X126.375 Y93.106 E0.00410
G1 X127.626 Y93.106 E0.03923
G1 X127.755 Y93.128 E0.00410
G1 X127.883 Y93.106 E0.00410
G1 X129.134 Y93.106 E0.03923
G1 X129.263 Y93.128 E0.00410
G1 X129.392 Y93.106 E0.00410
G1 X130.620 Y93.106 E0.03852
G1 X130.876 Y93.145 E0.00812
G1 X131.499 Y93.443 E0.02164
G1 X131.976 Y93.933 E0.02145
G1 X132.204 Y94.395 E0.01615
G1 X132.276 Y94.722 E0.01050
G1 X132.279 Y95.411 E0.02162
G1 X135.290 Y95.432 E0.09442
G1 X135.737 Y95.578 E0.01476
G1 X135.995 Y95.726 E0.00932
G1 X136.485 Y96.221 E0.02184
G1 X136.634 Y96.468 E0.00905
G1 X136.805 Y97.044 E0.01883
G1 X136.805 Y108.362 E0.35488
G1 X137.033 Y108.458 E0.00777
G1 X137.278 Y108.628 E0.00935
G1 X137.686 Y109.057 E0.01855
G1 X137.793 Y109.217 E0.00604
G1 X137.993 Y109.822 E0.01996
G1 X138.004 Y110.551 E0.02289
G1 X139.381 Y110.551 E0.04316
G1 X139.510 Y110.574 E0.00409
G1 X139.643 Y110.551 E0.00424
G1 X141.097 Y110.587 E0.04560
G1 X141.569 Y110.771 E0.01587
G1 X141.794 Y110.927 E0.00858
G1 X142.135 Y111.265 E0.01508
G1 X142.360 Y111.619 E0.01316
G1 X142.526 Y112.183 E0.01842
G1 X142.517 Y128.125 E0.49984
G1 X142.386 Y128.523 E0.01314
G1 X142.282 Y128.700 E0.00645
G1 X141.711 Y129.252 E0.02489
G1 X141.388 Y129.404 E0.01120
G1 X141.186 Y129.454 E0.00654
G1 X140.264 Y129.452 E0.02890
G1 X140.264 Y130.128 E0.02121
G1 X140.207 Y130.441 E0.00998
G1 X139.912 Y131.025 E0.02051
G1 X139.450 Y131.472 E0.02016
G1 X139.208 Y131.617 E0.00885
G1 X138.632 Y131.788 E0.01883
G1 X137.376 Y131.788 E0.03940
G1 X137.247 Y131.765 E0.00410
G1 X137.119 Y131.788 E0.00410
G1 X135.880 Y131.788 E0.03884
G1 X135.749 Y131.768 E0.00416
G1 X135.018 Y131.758 E0.02291
G1 X134.846 Y131.788 E0.00547
G1 X133.605 Y131.788 E0.03891
G1 X133.476 Y131.765 E0.00410
G1 X133.348 Y131.788 E0.00410
G1 X132.097 Y131.788 E0.03923
G1 X131.968 Y131.765 E0.00410
G1 X131.839 Y131.788 E0.00410
G1 X130.588 Y131.788 E0.03923
G1 X130.460 Y131.765 E0.00410
G1 X130.331 Y131.788 E0.00410
G1 X129.080 Y131.788 E0.03923
G1 X128.951 Y131.765 E0.00410
G1 X128.823 Y131.788 E0.00410
G1 X127.572 Y131.788 E0.03923
G1 X127.443 Y131.765 E0.00410
G1 X127.315 Y131.788 E0.00410
G1 X126.076 Y131.788 E0.03884
G1 X125.945 Y131.768 E0.00416
G1 X125.214 Y131.758 E0.02291
G1 X125.042 Y131.788 E0.00547
G1 X123.826 Y131.788 E0.03814
G1 X123.521 Y131.734 E0.00969
G1 X122.952 Y131.455 E0.01988
G1 X122.502 Y131.008 E0.01990
G1 X122.203 Y130.384 E0.02168
G1 X122.164 Y130.128 E0.00812
G1 X122.164 Y127.144 E0.09355
G1 X121.286 Y127.152 E0.02754
G1 X121.036 Y127.095 E0.00803
G1 X120.659 Y126.905 E0.01323
G1 X120.172 Y126.425 E0.02143
G1 X120.042 Y126.216 E0.00774
G1 X119.911 Y125.817 E0.01315
G1 X119.901 Y116.628 E0.28813
G1 X119.490 Y116.619 E0.01288
G1 X119.321 Y116.649 E0.00539
G1 X118.020 Y116.641 E0.04080
G1 X117.511 Y116.483 E0.01670
G1 X117.137 Y116.241 E0.01396
G1 X116.757 Y115.835 E0.01743
G1 X116.651 Y115.676 E0.00601
G1 X116.451 Y115.073 E0.01992
G1 X116.442 Y112.004 E0.09621
G1 X115.602 Y112.016 E0.02633
G1 X115.314 Y111.956 E0.00922
G1 X114.891 Y111.733 E0.01502
G1 X114.474 Y111.316 E0.01845
G1 X114.320 Y111.077 E0.00892
G1 X114.197 Y110.679 E0.01308
G1 X114.557 Y110.590 F10800.000
G1 F1200
G1 X114.557 Y101.688 E0.27910
G1 X114.698 Y101.231 E0.01500
G1 X114.804 Y101.051 E0.00654
G1 X115.236 Y100.631 E0.01889
G1 X115.368 Y100.550 E0.00486
G1 X115.718 Y100.425 E0.01167
G1 X116.117 Y100.401 E0.01252
G1 X116.117 Y97.075 E0.10427
G1 X116.302 Y96.530 E0.01806
G1 X116.410 Y96.380 E0.00579
G1 X116.706 Y96.084 E0.01311
G1 X116.945 Y95.930 E0.00892
G1 X117.401 Y95.790 E0.01496
G1 X118.553 Y95.790 E0.03611
G1 X118.705 Y95.823 E0.00488
G1 X118.857 Y95.790 E0.00488
G1 X120.061 Y95.790 E0.03774
G1 X120.213 Y95.823 E0.00488
G1 X120.365 Y95.790 E0.00488
G1 X120.731 Y95.790 E0.01146
G1 X120.731 Y94.767 E0.03207
G1 X120.872 Y94.311 E0.01495
G1 X121.029 Y94.069 E0.00905
G1 X121.388 Y93.725 E0.01558
G1 X121.806 Y93.524 E0.01454
G1 X122.001 Y93.485 E0.00623
G1 X123.103 Y93.486 E0.03455
G1 X123.241 Y93.512 E0.00440
G1 X123.382 Y93.483 E0.00453
G1 X124.586 Y93.483 E0.03775
G1 X124.738 Y93.516 E0.00488
G1 X124.890 Y93.483 E0.00488
G1 X126.094 Y93.483 E0.03774
G1 X126.246 Y93.516 E0.00488
G1 X126.399 Y93.483 E0.00488
G1 X127.602 Y93.483 E0.03774
G1 X127.755 Y93.516 E0.00488
G1 X127.907 Y93.483 E0.00488
G1 X129.111 Y93.483 E0.03774
G1 X129.263 Y93.516 E0.00488
G1 X129.415 Y93.483 E0.00488
G1 X130.604 Y93.483 E0.03728
G1 X130.787 Y93.512 E0.00579
G1 X131.302 Y93.766 E0.01801
G1 X131.653 Y94.129 E0.01583
G1 X131.843 Y94.504 E0.01319
G1 X131.899 Y94.746 E0.00778
G1 X131.903 Y95.763 E0.03190
G1 X132.286 Y95.821 E0.01212
G1 X132.432 Y95.790 E0.00469
G1 X133.636 Y95.790 E0.03774
G1 X133.788 Y95.823 E0.00488
G1 X133.940 Y95.790 E0.00486
G1 X135.200 Y95.799 E0.03953
G1 X135.599 Y95.930 E0.01316
G1 X135.780 Y96.037 E0.00659
G1 X136.200 Y96.468 E0.01887
G1 X136.282 Y96.603 E0.00496
G1 X136.428 Y97.074 E0.01544
G1 X136.428 Y108.629 E0.36231
G1 X136.845 Y108.785 E0.01397
G1 X137.020 Y108.903 E0.00662
G1 X137.399 Y109.303 E0.01728
G1 X137.462 Y109.399 E0.00359
G1 X137.624 Y109.906 E0.01671
G1 X137.624 Y110.902 E0.03122
G1 X138.007 Y110.960 E0.01214
G1 X138.154 Y110.928 E0.00469
G1 X139.357 Y110.928 E0.03774
G1 X139.509 Y110.961 E0.00488
G1 X139.663 Y110.929 E0.00491
G1 X140.992 Y110.951 E0.04169
G1 X141.408 Y111.113 E0.01399
G1 X141.559 Y111.222 E0.00584
G1 X141.855 Y111.517 E0.01311
G1 X142.009 Y111.757 E0.00892
G1 X142.149 Y112.213 E0.01496
G1 X142.149 Y128.035 E0.49611
G1 X142.036 Y128.382 E0.01144
G1 X141.974 Y128.481 E0.00366
G1 X141.521 Y128.925 E0.01988
G1 X141.247 Y129.054 E0.00950
G1 X141.126 Y129.082 E0.00391
G1 X140.266 Y129.073 E0.02697
G1 X139.887 Y129.129 E0.01200
G1 X139.887 Y130.109 E0.03072
G1 X139.842 Y130.342 E0.00742
G1 X139.594 Y130.821 E0.01694
G1 X139.208 Y131.183 E0.01659
G1 X139.073 Y131.265 E0.00493
G1 X138.603 Y131.411 E0.01545
G1 X137.399 Y131.411 E0.03773
G1 X137.247 Y131.378 E0.00488
G1 X137.095 Y131.411 E0.00488
G1 X135.897 Y131.411 E0.03755
G1 X135.784 Y131.392 E0.00359
G1 X134.983 Y131.380 E0.02514
G1 X134.826 Y131.411 E0.00500
G1 X133.629 Y131.411 E0.03754
G1 X133.476 Y131.378 E0.00488
G1 X133.324 Y131.411 E0.00488
G1 X132.120 Y131.411 E0.03774
G1 X131.968 Y131.378 E0.00488
G1 X131.816 Y131.411 E0.00488
G1 X130.612 Y131.411 E0.03774
G1 X130.460 Y131.378 E0.00488
G1 X130.308 Y131.411 E0.00488
G1 X129.104 Y131.411 E0.03774
G1 X128.951 Y131.378 E0.00488
G1 X128.799 Y131.411 E0.00488
G1 X127.595 Y131.411 E0.03774
G1 X127.443 Y131.378 E0.00488
G1 X127.291 Y131.411 E0.00488
G1 X126.093 Y131.411 E0.03755
G1 X125.980 Y131.392 E0.00359
G1 X125.179 Y131.380 E0.02514
G1 X125.022 Y131.411 E0.00500
G1 X123.839 Y131.411 E0.03708
G1 X123.655 Y131.381 E0.00584
G1 X123.189 Y131.161 E0.01618
G1 X122.824 Y130.809 E0.01588
G1 X122.570 Y130.294 E0.01800
G1 X122.541 Y130.112 E0.00579
G1 X122.541 Y126.822 E0.10315
G1 X122.162 Y126.766 E0.01202
G1 X121.338 Y126.778 E0.02584
G1 X121.181 Y126.746 E0.00501
G1 X120.856 Y126.582 E0.01141
G1 X120.476 Y126.202 E0.01687
G1 X120.392 Y126.073 E0.00484
G1 X120.279 Y125.728 E0.01136
G1 X120.279 Y116.826 E0.27913
G1 X120.455 Y116.263 E0.01851
G1 X119.456 Y116.242 E0.03133
G1 X119.300 Y116.272 E0.00498
G1 X118.103 Y116.272 E0.03753
G1 X117.648 Y116.131 E0.01495
G1 X117.397 Y115.967 E0.00939
G1 X117.045 Y115.591 E0.01617
G1 X116.982 Y115.494 E0.00361
G1 X116.819 Y114.987 E0.01671
G1 X116.819 Y111.684 E0.10357
G1 X116.440 Y111.627 E0.01202
G1 X115.616 Y111.639 E0.02584
G1 X115.459 Y111.608 E0.00501
G1 X115.135 Y111.444 E0.01141
G1 X114.754 Y111.063 E0.01687
G1 X114.670 Y110.934 E0.00484
G1 X114.576 Y110.647 E0.00948
G1 X114.934 Y110.554 F10800.000
G1 F1200
G1 X114.934 Y101.720 E0.27701
G1 X115.048 Y101.373 E0.01143
G1 X115.110 Y101.273 E0.00371
G1 X115.513 Y100.899 E0.01723
G1 X115.813 Y100.791 E0.00999
G1 X116.494 Y100.777 E0.02135
G1 X116.494 Y97.107 E0.11507
G1 X116.626 Y96.724 E0.01270
G1 X116.689 Y96.634 E0.00345
G1 X116.959 Y96.364 E0.01197
G1 X117.088 Y96.280 E0.00484
G1 X117.433 Y96.167 E0.01136
G1 X118.523 Y96.167 E0.03420
G1 X118.705 Y96.215 E0.00588
G1 X118.886 Y96.167 E0.00588
G1 X120.032 Y96.167 E0.03592
G1 X120.213 Y96.215 E0.00588
G1 X120.394 Y96.167 E0.00588
G1 X121.108 Y96.167 E0.02238
G1 X121.108 Y94.798 E0.04290
G1 X121.221 Y94.454 E0.01136
G1 X121.304 Y94.327 E0.00477
G1 X121.624 Y94.021 E0.01386
G1 X121.936 Y93.879 E0.01075
G1 X122.047 Y93.860 E0.00351
G1 X123.077 Y93.863 E0.03231
G1 X123.248 Y93.902 E0.00549
G1 X123.410 Y93.860 E0.00528
G1 X124.557 Y93.860 E0.03594
G1 X124.738 Y93.908 E0.00588
G1 X124.919 Y93.860 E0.00588
G1 X126.065 Y93.860 E0.03592
G1 X126.246 Y93.908 E0.00588
G1 X126.428 Y93.860 E0.00588
G1 X127.573 Y93.860 E0.03592
G1 X127.755 Y93.908 E0.00588
