; generated by PrusaSlicer 2.1.0+ on 2019-10-02 at 18:53:32 UTC

; 

; external perimeters extrusion width = 0.45mm
; perimeters extrusion width = 0.45mm
; infill extrusion width = 0.45mm
; solid infill extrusion width = 0.45mm
; top infill extrusion width = 0.40mm
; support material extrusion width = 0.35mm
; first layer extrusion width = 0.42mm

M73 P0 R16
M201 X9000 Y9000 Z500 E10000 ; sets maximum accelerations, mm/sec^2
M203 X500 Y500 Z12 E120 ; sets maximum feedrates, mm/sec
M204 P2000 R1500 T2000 ; sets acceleration (P, T) and retract acceleration (R), mm/sec^2
M205 X10.00 Y10.00 Z0.20 E2.50 ; sets the jerk limits, mm/sec
M205 S0 T0 ; sets the minimum extruding and travel feed rate, mm/sec
M107
M862.3 P "MK2.5SMMU2S" ; printer model check
M862.1 P0.4 ; nozzle diameter check
M115 U3.8.0 ; tell printer latest fw version
G90 ; use absolute coordinates
M83 ; extruder relative mode
M104 S230 ; set extruder temp
M140 S60 ; set bed temp
Tx
M190 S60 ; wait for bed temp
M109 S230 ; wait for extruder temp
G28 W ; home all without mesh bed level
G80 ; mesh bed leveling

G21 ; set units to millimeters

;go outside print area
G1 Y-3.0 F1000.0
G1 Z0.4 F1000.0
; select extruder
Tc
; purge line
G1 X55.0 F2000.0
G1 Z0.3 F1000.0
G92 E0.0
G1 X240.0 E25.0 F2200.0
M73 P0 R16
G1 Y-2.0 F1000.0
G1 X55.0 E25 F1400.0
G1 Z0.20 F1000.0
G1 X5.0 E4.0 F1000.0
G92 E0.0
G21 ; set units to millimeters
G90 ; use absolute coordinates
M83 ; use relative distances for extrusion
M900 K30 ; Filament gcode
;BEFORE_LAYER_CHANGE
G92 E0.0
;0.2


G1 E-0.80000 F2100.00000
G1 Z0.600 F10800.000
;AFTER_LAYER_CHANGE
;0.2
G1 X152.796 Y136.673
G1 Z0.200
G1 E0.80000 F2100.00000
M204 S1000
G1 F1200
G1 X152.446 Y137.294 E0.02236
G1 X151.918 Y137.768 E0.02225
G1 X151.263 Y138.049 E0.02236
G1 X150.749 Y138.113 E0.01623
G1 X135.444 Y138.113 E0.47987
G1 X134.829 Y138.013 E0.01953
G1 X134.265 Y137.741 E0.01964
G1 X115.859 Y124.406 E0.71263
G1 X114.427 Y123.225 E0.05822
G1 X99.348 Y106.091 E0.71562
G1 X98.766 Y105.303 E0.03073
G1 X98.220 Y104.376 E0.03373
G1 X97.541 Y102.738 E0.05561
G1 X97.287 Y101.768 E0.03143
G1 X97.114 Y100.606 E0.03681
G1 X97.113 Y98.818 E0.05607
G1 X97.266 Y97.731 E0.03441
G1 X97.539 Y96.672 E0.03430
G1 X98.222 Y95.023 E0.05595
G1 X98.783 Y94.076 E0.03453
G1 X99.963 Y92.627 E0.05858
G1 X100.798 Y91.865 E0.03544
G1 X125.219 Y74.882 E0.93268
G1 X128.185 Y73.306 E0.10529
G1 X131.333 Y72.340 E0.10324
G1 X135.019 Y71.948 E0.11622
G1 X138.484 Y72.288 E0.10919
G1 X141.653 Y73.237 E0.10370
G1 X145.093 Y75.078 E0.12234
G1 X147.636 Y77.181 E0.10347
G1 X149.849 Y79.879 E0.10942
G1 X151.492 Y82.954 E0.10930
G1 X152.489 Y86.210 E0.10679
G1 X152.853 Y89.765 E0.11203
G1 X152.927 Y135.976 E1.44890
G1 X152.807 Y136.614 E0.02037
G1 E-0.80000 F2100.00000
G1 Z0.800 F10800.000
G1 X135.014 Y103.699
G1 Z0.200
G1 E0.80000 F2100.00000
G1 F1200
G1 X132.300 Y103.431 E0.08551
G1 X129.690 Y102.640 E0.08551
G1 X127.285 Y101.354 E0.08551
G1 X125.177 Y99.624 E0.08551
G1 X123.446 Y97.515 E0.08551
G1 X122.161 Y95.110 E0.08551
G1 X121.369 Y92.500 E0.08551
G1 X121.102 Y89.786 E0.08551
G1 X121.369 Y87.072 E0.08551
G1 X122.161 Y84.462 E0.08551
G1 X123.446 Y82.057 E0.08551
G1 X125.177 Y79.948 E0.08551
G1 X127.285 Y78.218 E0.08551
G1 X129.691 Y76.932 E0.08554
G1 X132.332 Y76.138 E0.08648
G1 X135.014 Y75.874 E0.08451
G1 X137.728 Y76.141 E0.08551
G1 X140.338 Y76.933 E0.08551
G1 X142.744 Y78.218 E0.08551
G1 X144.852 Y79.948 E0.08551
G1 X146.582 Y82.057 E0.08551
G1 X147.868 Y84.462 E0.08551
G1 X148.660 Y87.072 E0.08551
G1 X148.927 Y89.786 E0.08551
G1 X148.660 Y92.500 E0.08551
G1 X147.868 Y95.110 E0.08551
G1 X146.582 Y97.515 E0.08551
G1 X144.852 Y99.624 E0.08551
G1 X142.744 Y101.354 E0.08551
G1 X140.338 Y102.640 E0.08551
G1 X137.728 Y103.431 E0.08551
G1 X135.074 Y103.693 E0.08363
G1 X135.014 Y103.320 F10800.000
G1 F1200
G1 X132.374 Y103.060 E0.08318
G1 X129.835 Y102.290 E0.08318
G1 X127.495 Y101.039 E0.08318
G1 X125.445 Y99.356 E0.08318
G1 X123.762 Y97.305 E0.08318
G1 X122.511 Y94.965 E0.08318
G1 X121.741 Y92.426 E0.08318
G1 X121.481 Y89.786 E0.08318
G1 X121.741 Y87.146 E0.08318
G1 X122.511 Y84.607 E0.08318
G1 X123.761 Y82.267 E0.08318
G1 X125.445 Y80.216 E0.08318
G1 X127.495 Y78.533 E0.08318
G1 X129.835 Y77.283 E0.08319
G1 X132.405 Y76.509 E0.08415
G1 X135.014 Y76.252 E0.08220
G1 X137.655 Y76.512 E0.08318
G1 X140.193 Y77.283 E0.08318
G1 X142.533 Y78.533 E0.08318
G1 X144.584 Y80.216 E0.08318
G1 X146.267 Y82.267 E0.08318
G1 X147.518 Y84.607 E0.08318
G1 X148.288 Y87.146 E0.08318
G1 X148.548 Y89.786 E0.08318
G1 X148.288 Y92.426 E0.08318
G1 X147.518 Y94.965 E0.08318
G1 X146.267 Y97.305 E0.08318
G1 X144.584 Y99.356 E0.08318
G1 X142.533 Y101.039 E0.08318
G1 X140.193 Y102.290 E0.08318
G1 X137.655 Y103.060 E0.08318
G1 X135.074 Y103.314 E0.08130
G1 X134.814 Y103.666 F10800.000
G1 X135.014 Y104.846
G1 F1200
G1 X132.076 Y104.557 E0.09257
G1 X129.251 Y103.700 E0.09257
G1 X126.647 Y102.308 E0.09257
G1 X124.365 Y100.435 E0.09257
G1 X122.492 Y98.153 E0.09257
G1 X121.101 Y95.549 E0.09257
G1 X120.244 Y92.724 E0.09257
G1 X119.954 Y89.786 E0.09257
G1 X120.244 Y86.848 E0.09257
G1 X121.101 Y84.023 E0.09257
G1 X122.492 Y81.419 E0.09257
G1 X124.365 Y79.137 E0.09257
G1 X126.647 Y77.264 E0.09257
G1 X129.251 Y75.872 E0.09257
G1 X132.076 Y75.015 E0.09256
G1 X135.023 Y74.727 E0.09285
G1 X137.952 Y75.015 E0.09228
G1 X140.778 Y75.872 E0.09257
G1 X143.381 Y77.264 E0.09257
G1 X145.663 Y79.137 E0.09257
G1 X147.536 Y81.419 E0.09257
G1 X148.928 Y84.023 E0.09257
G1 X149.785 Y86.848 E0.09257
G1 X150.074 Y89.786 E0.09257
G1 X149.785 Y92.724 E0.09257
G1 X148.928 Y95.549 E0.09257
G1 X147.536 Y98.153 E0.09257
G1 X145.663 Y100.435 E0.09257
G1 X143.381 Y102.308 E0.09257
G1 X140.778 Y103.700 E0.09257
G1 X137.952 Y104.557 E0.09257
G1 X135.074 Y104.840 E0.09069
G1 X135.014 Y105.225 F10800.000
G1 F1200
G1 X132.002 Y104.928 E0.09490
G1 X129.106 Y104.050 E0.09490
G1 X126.437 Y102.623 E0.09490
G1 X124.097 Y100.703 E0.09490
G1 X122.177 Y98.364 E0.09490
G1 X120.751 Y95.694 E0.09490
G1 X119.872 Y92.798 E0.09490
G1 X119.575 Y89.786 E0.09490
G1 X119.872 Y86.774 E0.09490
G1 X120.751 Y83.878 E0.09490
G1 X122.177 Y81.209 E0.09490
G1 X124.097 Y78.869 E0.09490
G1 X126.437 Y76.949 E0.09490
G1 X129.106 Y75.522 E0.09490
G1 X132.002 Y74.644 E0.09489
G1 X135.023 Y74.348 E0.09518
G1 X138.026 Y74.644 E0.09461
G1 X140.923 Y75.522 E0.09490
G1 X143.592 Y76.949 E0.09490
G1 X145.931 Y78.869 E0.09490
G1 X147.851 Y81.209 E0.09490
G1 X149.278 Y83.878 E0.09490
G1 X150.157 Y86.774 E0.09490
G1 X150.453 Y89.786 E0.09490
G1 X150.157 Y92.798 E0.09490
G1 X149.278 Y95.694 E0.09490
G1 X147.851 Y98.364 E0.09490
G1 X145.931 Y100.703 E0.09490
G1 X143.592 Y102.623 E0.09490
G1 X140.923 Y104.050 E0.09490
G1 X138.026 Y104.928 E0.09490
G1 X135.074 Y105.219 E0.09301
G1 X134.814 Y104.879 F10800.000
G1 E-0.80000 F2100.00000
G1 Z0.800 F10800.000
G1 X129.638 Y103.699
G1 Z0.200
G1 E0.80000 F2100.00000
G1 F1200
G1 X127.578 Y101.639 E0.09178
G1 X127.507 Y102.639 F10800.000
G1 F1200
G1 X122.161 Y97.293 E0.23818
G1 X123.161 Y97.222 F10800.000
G1 F1200
G1 X121.101 Y95.162 E0.09178
G1 X121.546 Y96.142 F10800.000
G1 F1200
G1 X123.820 Y98.417 E0.10135
G1 X123.342 Y99.010 F10800.000
G1 F1200
G1 X125.790 Y101.458 E0.10908
G1 X126.383 Y100.980 F10800.000
G1 F1200
G1 X128.658 Y103.255 E0.10135
G1 X128.729 Y102.254 F10800.000
G1 F1200
G1 X130.153 Y103.678 E0.06343
G1 X130.922 Y103.911 E0.02532
G1 X130.057 Y103.046 E0.03853
G1 X130.826 Y103.280 E0.02532
G1 X131.691 Y104.145 E0.03853
G1 X132.132 Y104.278 E0.01450
G1 X132.386 Y104.303 E0.00804
G1 X131.596 Y103.513 E0.03520
G1 X132.245 Y103.710 E0.02137
G1 X132.337 Y103.719 E0.00294
G1 X132.980 Y104.362 E0.02863
G1 X133.574 Y104.420 E0.01881
G1 X132.932 Y103.778 E0.02863
G1 X133.526 Y103.836 E0.01881
G1 X134.169 Y104.479 E0.02863
G1 X134.763 Y104.537 E0.01881
G1 X134.120 Y103.895 E0.02863
G1 X134.715 Y103.953 E0.01881
G1 X135.296 Y104.534 E0.02589
G1 X135.784 Y104.486 E0.01544
G1 X135.256 Y103.959 E0.02349
G1 X135.744 Y103.911 E0.01544
G1 X136.271 Y104.438 E0.02349
G1 X136.759 Y104.390 E0.01544
G1 X136.232 Y103.863 E0.02349
G1 X136.720 Y103.815 E0.01544
G1 X137.247 Y104.342 E0.02349
G1 X137.735 Y104.294 E0.01544
G1 X137.207 Y103.767 E0.02349
G1 X137.695 Y103.719 E0.01544
G1 X138.171 Y104.195 E0.02121
G1 X138.582 Y104.070 E0.01353
G1 X138.120 Y103.608 E0.02059
G1 X138.531 Y103.483 E0.01353
G1 X138.993 Y103.945 E0.02059
G1 X139.405 Y103.821 E0.01353
G1 X138.942 Y103.359 E0.02059
G1 X139.353 Y103.234 E0.01353
G1 X139.816 Y103.696 E0.02059
G1 X140.227 Y103.571 E0.01353
G1 X139.765 Y103.109 E0.02059
G1 X140.176 Y102.984 E0.01353
G1 X140.638 Y103.447 E0.02059
G1 X140.669 Y103.437 E0.00102
G1 X140.992 Y103.265 E0.01153
G1 X140.566 Y102.839 E0.01898
G1 X140.915 Y102.652 E0.01247
G1 X141.341 Y103.078 E0.01898
G1 X141.690 Y102.891 E0.01247
G1 X141.264 Y102.465 E0.01898
G1 X141.613 Y102.279 E0.01247
G1 X142.039 Y102.705 E0.01898
G1 X142.388 Y102.518 E0.01247
G1 X141.962 Y102.092 E0.01898
G1 X142.312 Y101.906 E0.01247
G1 X142.738 Y102.332 E0.01898
G1 X143.087 Y102.145 E0.01247
G1 X142.661 Y101.719 E0.01898
G1 X142.902 Y101.590 E0.00860
G1 X142.993 Y101.515 E0.00372
G1 X143.402 Y101.925 E0.01825
G1 X143.697 Y101.683 E0.01199
G1 X143.287 Y101.274 E0.01825
G1 X143.581 Y101.032 E0.01199
G1 X143.991 Y101.442 E0.01825
G1 X144.285 Y101.200 E0.01199
G1 X143.876 Y100.791 E0.01825
G1 X144.170 Y100.549 E0.01199
G1 X144.580 Y100.959 E0.01825
G1 X144.874 Y100.717 E0.01199
G1 X144.464 Y100.308 E0.01825
G1 X144.759 Y100.066 E0.01199
G1 X145.168 Y100.476 E0.01825
G1 X145.462 Y100.234 E0.01199
G1 X145.053 Y99.825 E0.01825
G1 X145.294 Y99.530 E0.01199
G1 X145.704 Y99.940 E0.01825
G1 X145.945 Y99.646 E0.01199
G1 X145.536 Y99.236 E0.01825
G1 X145.777 Y98.942 E0.01199
G1 X146.187 Y99.351 E0.01825
G1 X146.429 Y99.057 E0.01199
G1 X146.019 Y98.648 E0.01825
G1 X146.260 Y98.353 E0.01199
G1 X146.670 Y98.763 E0.01825
G1 X146.912 Y98.469 E0.01199
G1 X146.502 Y98.059 E0.01825
G1 X146.743 Y97.765 E0.01199
G1 X147.153 Y98.174 E0.01825
G1 X147.300 Y97.995 E0.00730
G1 X147.373 Y97.858 E0.00488
G1 X146.947 Y97.433 E0.01898
G1 X147.134 Y97.083 E0.01247
G1 X147.560 Y97.509 E0.01898
G1 X147.746 Y97.160 E0.01247
G1 X147.320 Y96.734 E0.01898
G1 X147.507 Y96.385 E0.01247
G1 X147.933 Y96.811 E0.01898
G1 X148.120 Y96.462 E0.01247
G1 X147.694 Y96.036 E0.01898
G1 X147.880 Y95.687 E0.01247
G1 X148.306 Y96.113 E0.01898
G1 X148.493 Y95.763 E0.01247
G1 X148.067 Y95.338 E0.01898
G1 X148.130 Y95.219 E0.00424
G1 X148.213 Y94.947 E0.00894
G1 X148.675 Y95.410 E0.02059
G1 X148.800 Y94.999 E0.01353
G1 X148.337 Y94.536 E0.02059
G1 X148.462 Y94.125 E0.01353
G1 X148.924 Y94.587 E0.02059
G1 X149.049 Y94.176 E0.01353
G1 X148.587 Y93.714 E0.02059
G1 X148.712 Y93.303 E0.01353
G1 X149.174 Y93.765 E0.02059
G1 X149.298 Y93.354 E0.01353
G1 X148.836 Y92.892 E0.02059
G1 X148.938 Y92.556 E0.01107
G1 X148.947 Y92.467 E0.00281
G1 X149.423 Y92.943 E0.02121
G1 X149.506 Y92.669 E0.00903
G1 X149.522 Y92.506 E0.00514
G1 X148.995 Y91.979 E0.02349
G1 X149.043 Y91.491 E0.01544
G1 X149.570 Y92.019 E0.02349
G1 X149.618 Y91.531 E0.01544
G1 X149.091 Y91.004 E0.02349
G1 X149.139 Y90.516 E0.01544
G1 X149.666 Y91.043 E0.02349
G1 X149.714 Y90.555 E0.01544
G1 X149.187 Y90.028 E0.02349
G1 X149.211 Y89.786 E0.00766
G1 X149.181 Y89.487 E0.00948
G1 X149.763 Y90.068 E0.02589
G1 X149.790 Y89.786 E0.00891
G1 X149.765 Y89.535 E0.00795
G1 X149.123 Y88.892 E0.02863
G1 X149.064 Y88.298 E0.01881
G1 X149.707 Y88.940 E0.02863
G1 X149.648 Y88.346 E0.01881
G1 X149.006 Y87.704 E0.02863
G1 X148.947 Y87.109 E0.01881
G1 X149.590 Y87.752 E0.02863
G1 X149.531 Y87.157 E0.01881
G1 X148.741 Y86.367 E0.03520
G1 X148.508 Y85.598 E0.02532
G1 X149.373 Y86.463 E0.03853
G1 X149.139 Y85.694 E0.02532
G1 X148.275 Y84.829 E0.03853
G1 X148.130 Y84.353 E0.01567
G1 X147.896 Y83.915 E0.01567
G1 X149.161 Y85.179 E0.05635
G1 X148.927 Y84.410 F10800.000
G1 F1200
G1 X146.867 Y82.350 E0.09178
G1 X147.868 Y82.279 F10800.000
G1 F1200
G1 X142.521 Y76.933 E0.23818
G1 X142.450 Y77.933 F10800.000
G1 F1200
G1 X140.645 Y76.128 E0.08044
G1 X139.876 Y75.894 E0.02532
G1 X140.886 Y76.905 E0.04501
G1 X140.447 Y76.670 E0.01567
G1 X139.971 Y76.526 E0.01567
G1 X139.106 Y75.661 E0.03853
G1 X138.337 Y75.428 E0.02532
G1 X139.202 Y76.292 E0.03853
G1 X138.433 Y76.059 E0.02532
G1 X137.643 Y75.269 E0.03520
G1 X137.049 Y75.210 E0.01881
G1 X137.691 Y75.853 E0.02863
G1 X137.097 Y75.794 E0.01881
G1 X136.454 Y75.152 E0.02863
G1 X135.860 Y75.093 E0.01881
G1 X136.502 Y75.736 E0.02863
G1 X135.908 Y75.677 E0.01881
G1 X135.266 Y75.035 E0.02863
G1 X135.023 Y75.011 E0.00767
G1 X134.734 Y75.039 E0.00915
G1 X135.314 Y75.619 E0.02582
G1 X135.014 Y75.589 E0.00948
G1 X134.772 Y75.613 E0.00766
G1 X134.246 Y75.087 E0.02344
G1 X133.758 Y75.135 E0.01545
G1 X134.285 Y75.661 E0.02345
G1 X133.797 Y75.709 E0.01544
G1 X133.270 Y75.183 E0.02346
G1 X132.782 Y75.230 E0.01545
G1 X133.309 Y75.757 E0.02348
G1 X132.821 Y75.805 E0.01544
G1 X132.294 Y75.278 E0.02349
G1 X132.131 Y75.294 E0.00515
G1 X131.857 Y75.377 E0.00902
G1 X132.333 Y75.853 E0.02121
G1 X131.913 Y75.969 E0.01374
G1 X131.446 Y75.502 E0.02079
G1 X131.035 Y75.627 E0.01353
G1 X131.501 Y76.092 E0.02075
G1 X131.089 Y76.216 E0.01355
G1 X130.624 Y75.751 E0.02071
G1 X130.213 Y75.876 E0.01353
G1 X130.677 Y76.340 E0.02068
G1 X130.265 Y76.464 E0.01355
G1 X129.802 Y76.001 E0.02064
G1 X129.391 Y76.125 E0.01353
G1 X129.853 Y76.588 E0.02061
G1 X129.582 Y76.670 E0.00891
G1 X129.463 Y76.733 E0.00427
G1 X129.037 Y76.307 E0.01898
G1 X128.688 Y76.494 E0.01247
G1 X129.114 Y76.920 E0.01898
G1 X128.765 Y77.107 E0.01247
G1 X128.339 Y76.681 E0.01898
G1 X127.989 Y76.867 E0.01247
G1 X128.415 Y77.293 E0.01898
G1 X128.066 Y77.480 E0.01247
G1 X127.640 Y77.054 E0.01898
G1 X127.291 Y77.241 E0.01247
G1 X127.717 Y77.667 E0.01898
G1 X127.368 Y77.853 E0.01247
G1 X126.942 Y77.427 E0.01898
G1 X126.805 Y77.500 E0.00488
G1 X126.626 Y77.647 E0.00730
G1 X127.036 Y78.057 E0.01825
G1 X126.741 Y78.298 E0.01199
G1 X126.332 Y77.889 E0.01825
G1 X126.038 Y78.130 E0.01199
G1 X126.447 Y78.540 E0.01825
G1 X126.153 Y78.781 E0.01199
G1 X125.743 Y78.372 E0.01825
G1 X125.449 Y78.613 E0.01199
G1 X125.859 Y79.023 E0.01825
G1 X125.564 Y79.264 E0.01199
G1 X125.155 Y78.855 E0.01825
G1 X124.860 Y79.096 E0.01199
G1 X125.270 Y79.506 E0.01825
G1 X124.976 Y79.748 E0.01199
G1 X124.566 Y79.338 E0.01825
G1 X124.325 Y79.632 E0.01199
G1 X124.734 Y80.042 E0.01825
G1 X124.493 Y80.336 E0.01199
G1 X124.083 Y79.926 E0.01825
G1 X123.842 Y80.221 E0.01199
G1 X124.251 Y80.630 E0.01825
G1 X124.010 Y80.925 E0.01199
G1 X123.600 Y80.515 E0.01825
G1 X123.359 Y80.809 E0.01199
G1 X123.768 Y81.219 E0.01825
G1 X123.527 Y81.513 E0.01199
G1 X123.117 Y81.104 E0.01825
G1 X122.876 Y81.398 E0.01199
G1 X123.285 Y81.808 E0.01825
G1 X123.210 Y81.899 E0.00372
G1 X123.081 Y82.140 E0.00860
G1 X122.655 Y81.714 E0.01898
G1 X122.469 Y82.063 E0.01247
G1 X122.895 Y82.489 E0.01898
G1 X122.708 Y82.838 E0.01247
G1 X122.282 Y82.412 E0.01898
G1 X122.096 Y82.761 E0.01247
G1 X122.522 Y83.187 E0.01898
G1 X122.335 Y83.536 E0.01247
G1 X121.909 Y83.110 E0.01898
G1 X121.722 Y83.460 E0.01247
G1 X122.148 Y83.886 E0.01898
G1 X121.962 Y84.235 E0.01247
G1 X121.536 Y83.809 E0.01898
G1 X121.363 Y84.132 E0.01153
G1 X121.354 Y84.163 E0.00102
G1 X121.816 Y84.625 E0.02059
G1 X121.691 Y85.036 E0.01353
G1 X121.229 Y84.574 E0.02059
G1 X121.104 Y84.985 E0.01353
G1 X121.566 Y85.447 E0.02059
G1 X121.442 Y85.858 E0.01353
G1 X120.980 Y85.396 E0.02059
G1 X120.855 Y85.807 E0.01353
G1 X121.317 Y86.269 E0.02059
G1 X121.192 Y86.680 E0.01353
G1 X120.730 Y86.218 E0.02059
G1 X120.605 Y86.629 E0.01353
G1 X121.082 Y87.105 E0.02121
G1 X121.034 Y87.593 E0.01544
G1 X120.506 Y87.066 E0.02349
G1 X120.458 Y87.554 E0.01544
G1 X120.986 Y88.081 E0.02349
G1 X120.938 Y88.569 E0.01544
G1 X120.410 Y88.041 E0.02349
G1 X120.362 Y88.529 E0.01544
G1 X120.889 Y89.056 E0.02349
G1 X120.841 Y89.544 E0.01544
G1 X120.314 Y89.017 E0.02349
G1 X120.266 Y89.505 E0.01544
G1 X120.847 Y90.086 E0.02589
G1 X120.906 Y90.680 E0.01881
G1 X120.263 Y90.037 E0.02863
G1 X120.322 Y90.632 E0.01881
G1 X120.964 Y91.274 E0.02863
