; generated by PrusaSlicer 2.1.0+ on 2019-10-02 at 20:53:29 UTC

; 

; external perimeters extrusion width = 0.45mm
; perimeters extrusion width = 0.45mm
; infill extrusion width = 0.45mm
; solid infill extrusion width = 0.45mm
; top infill extrusion width = 0.40mm
; support material extrusion width = 0.35mm
; first layer extrusion width = 0.42mm

M73 P0 R99
M201 X9000 Y9000 Z500 E10000 ; sets maximum accelerations, mm/sec^2
M203 X500 Y500 Z12 E120 ; sets maximum feedrates, mm/sec
M204 P2000 R1500 T2000 ; sets acceleration (P, T) and retract acceleration (R), mm/sec^2
M205 X10.00 Y10.00 Z0.20 E2.50 ; sets the jerk limits, mm/sec
M205 S0 T0 ; sets the minimum extruding and travel feed rate, mm/sec
M107
M862.3 P "MK2.5SMMU2S" ; printer model check
M862.1 P0.4 ; nozzle diameter check
M115 U3.8.0 ; tell printer latest fw version
G90 ; use absolute coordinates
M83 ; extruder relative mode
M104 S230 ; set extruder temp
M140 S60 ; set bed temp
Tx
M190 S60 ; wait for bed temp
M109 S230 ; wait for extruder temp
G28 W ; home all without mesh bed level
G80 ; mesh bed leveling

G21 ; set units to millimeters

;go outside print area
G1 Y-3.0 F1000.0
G1 Z0.4 F1000.0
; select extruder
Tc
; purge line
G1 X55.0 F2000.0
G1 Z0.3 F1000.0
G92 E0.0
G1 X240.0 E25.0 F2200.0
M73 P0 R99
G1 Y-2.0 F1000.0
G1 X55.0 E25 F1400.0
G1 Z0.20 F1000.0
G1 X5.0 E4.0 F1000.0
G92 E0.0
G21 ; set units to millimeters
G90 ; use absolute coordinates
M83 ; use relative distances for extrusion
M900 K30 ; Filament gcode
;BEFORE_LAYER_CHANGE
G92 E0.0
;0.2


G1 E-0.80000 F2100.00000
G1 Z0.600 F10800.000
;AFTER_LAYER_CHANGE
;0.2
G1 X100.500 Y93.238
G1 Z0.200
G1 E0.80000 F2100.00000
M204 S1000
G1 F1200
G1 X100.805 Y92.588 E0.02251
G1 X101.162 Y92.156 E0.01758
G1 X103.610 Y89.854 E0.10535
G1 X104.213 Y89.494 E0.02202
G1 X104.891 Y89.312 E0.02202
G1 X126.729 Y89.291 E0.68470
G1 X127.236 Y89.343 E0.01598
G1 X127.719 Y89.492 E0.01586
G1 X128.167 Y89.735 E0.01598
G1 X128.555 Y90.059 E0.01586
G1 X130.703 Y92.704 E0.10685
G1 X130.977 Y93.216 E0.01820
G1 X131.129 Y93.776 E0.01820
G1 X131.158 Y114.153 E0.63891
G1 X131.045 Y114.862 E0.02251
G1 X130.739 Y115.512 E0.02251
G1 X126.193 Y120.403 E0.20936
G1 X125.624 Y120.815 E0.02202
G1 X124.961 Y121.058 E0.02214
G1 X123.349 Y121.285 E0.05106
G1 X107.449 Y121.285 E0.49854
G1 X106.732 Y121.175 E0.02275
G1 X106.071 Y120.866 E0.02288
G1 X102.713 Y117.931 E0.13983
G1 X100.798 Y115.331 E0.10125
G1 X100.430 Y114.407 E0.03119
G1 X100.386 Y93.951 E0.64139
G1 X100.491 Y93.297 E0.02075
G1 X100.860 Y93.356 F10800.000
G1 F1200
G1 X101.126 Y92.787 E0.01971
G1 X101.427 Y92.424 E0.01475
G1 X103.835 Y90.158 E0.10369
G1 X104.359 Y89.842 E0.01919
G1 X104.951 Y89.684 E0.01919
G1 X126.728 Y89.668 E0.68283
G1 X127.582 Y89.843 E0.02732
G1 X128.300 Y90.337 E0.02732
G1 X130.386 Y92.909 E0.10384
G1 X130.628 Y93.359 E0.01601
G1 X130.759 Y93.852 E0.01601
G1 X130.781 Y114.142 E0.63619
G1 X130.683 Y114.754 E0.01942
G1 X130.418 Y115.313 E0.01942
G1 X125.941 Y120.122 E0.20600
G1 X125.453 Y120.479 E0.01896
G1 X124.882 Y120.689 E0.01908
G1 X123.341 Y120.908 E0.04881
G1 X107.458 Y120.908 E0.49798
G1 X106.836 Y120.813 E0.01976
G1 X106.269 Y120.545 E0.01964
G1 X103.003 Y117.689 E0.13604
G1 X101.123 Y115.138 E0.09936
G1 X100.799 Y114.333 E0.02721
G1 X100.763 Y93.961 E0.63875
G1 X100.850 Y93.415 E0.01734
G1 E-0.80000 F2100.00000
G1 Z0.800 F10800.000
G1 X102.952 Y93.994
G1 Z0.200
G1 E0.80000 F2100.00000
G1 F1200
G1 X102.952 Y113.936 E0.62527
G1 X103.706 Y113.936 E0.02365
G1 X103.706 Y94.164 E0.61995
G1 X104.460 Y94.164 E0.02365
G1 X104.460 Y113.936 E0.61995
G1 X104.645 Y113.936 E0.00582
G1 X104.645 Y116.243 E0.07234
G1 X105.214 Y116.243 E0.01783
G1 X105.214 Y91.857 E0.76462
G1 X105.968 Y91.857 E0.02365
G1 X105.968 Y116.243 E0.76462
G1 X106.722 Y116.243 E0.02365
G1 X106.722 Y91.857 E0.76462
G1 X107.477 Y91.857 E0.02365
G1 X107.477 Y99.094 E0.22691
G1 X108.231 Y99.094 E0.02365
G1 X108.231 Y91.857 E0.22691
G1 X108.985 Y91.857 E0.02365
G1 X108.985 Y99.094 E0.22691
G1 X109.575 Y99.094 E0.01851
G1 X109.575 Y96.787 E0.07234
G1 X109.739 Y96.787 E0.00513
G1 X109.739 Y91.857 E0.15457
G1 X110.493 Y91.857 E0.02365
G1 X110.493 Y96.787 E0.15457
G1 X111.247 Y96.787 E0.02365
G1 X111.247 Y91.857 E0.15457
G1 X112.002 Y91.857 E0.02365
G1 X112.002 Y96.787 E0.15457
G1 X112.756 Y96.787 E0.02365
G1 X112.756 Y91.857 E0.15457
G1 X113.510 Y91.857 E0.02365
G1 X113.510 Y96.787 E0.15457
G1 X114.264 Y96.787 E0.02365
G1 X114.264 Y91.857 E0.15457
G1 X115.018 Y91.857 E0.02365
G1 X115.018 Y96.787 E0.15457
G1 X115.772 Y96.787 E0.02365
G1 X115.772 Y91.857 E0.15457
G1 X116.526 Y91.857 E0.02365
G1 X116.526 Y96.787 E0.15457
G1 X117.281 Y96.787 E0.02365
G1 X117.281 Y91.857 E0.15457
G1 X118.035 Y91.857 E0.02365
G1 X118.035 Y96.787 E0.15457
G1 X118.789 Y96.787 E0.02365
G1 X118.789 Y91.857 E0.15457
G1 X119.543 Y91.857 E0.02365
G1 X119.543 Y96.787 E0.15457
G1 X120.297 Y96.787 E0.02365
G1 X120.297 Y91.857 E0.15457
G1 X121.051 Y91.857 E0.02365
G1 X121.051 Y96.787 E0.15457
G1 X121.795 Y96.787 E0.02331
G1 X121.806 Y99.094 E0.07234
G1 X121.806 Y91.857 E0.22691
G1 X122.560 Y91.857 E0.02365
G1 X122.560 Y99.094 E0.22691
G1 X123.314 Y99.094 E0.02365
G1 X123.314 Y91.857 E0.22691
G1 X124.068 Y91.857 E0.02365
G1 X124.068 Y118.550 E0.83696
G1 X124.418 Y118.550 E0.01096
G1 X124.418 Y116.243 E0.07234
G1 X124.822 Y116.243 E0.01268
G1 X124.822 Y91.857 E0.76462
G1 X125.576 Y91.857 E0.02365
G1 X125.576 Y116.243 E0.76462
G1 X126.331 Y116.243 E0.02365
G1 X126.331 Y91.857 E0.76462
G1 X126.725 Y91.857 E0.01236
G1 X126.725 Y94.164 E0.07234
G1 X127.085 Y94.164 E0.01128
G1 X127.085 Y113.936 E0.61995
G1 X127.839 Y113.936 E0.02365
G1 X127.839 Y94.164 E0.61995
G1 X128.593 Y94.164 E0.02365
G1 X128.593 Y114.106 E0.62527
G1 E-0.80000 F2100.00000
G1 Z0.800 F10800.000
G1 X123.508 Y111.109
G1 Z0.200
G1 E0.80000 F2100.00000
G1 F1200
G1 X123.508 Y99.436 E0.29807
G1 X123.001 Y99.436 E0.01295
G1 X123.001 Y110.971 E0.29454
G1 X122.494 Y110.971 E0.01295
G1 X122.494 Y99.436 E0.29454
G1 X121.986 Y99.436 E0.01295
G1 X121.986 Y110.971 E0.29454
G1 X121.479 Y110.971 E0.01295
G1 X121.479 Y99.436 E0.29454
G1 X121.453 Y99.436 E0.00068
G1 X121.453 Y97.129 E0.05891
G1 X120.972 Y97.129 E0.01227
G1 X120.972 Y102.129 E0.12767
G1 X120.760 Y102.129 E0.00542
G1 X120.465 Y101.669 E0.01395
G1 X120.465 Y97.129 E0.11592
G1 X119.958 Y97.129 E0.01295
G1 X119.958 Y101.033 E0.09968
G1 X119.787 Y100.841 E0.00656
G1 X119.451 Y100.545 E0.01144
G1 X119.451 Y97.129 E0.08723
G1 X118.944 Y97.129 E0.01295
G1 X118.944 Y100.158 E0.07735
G1 X118.760 Y100.034 E0.00567
G1 X118.760 Y99.822 E0.00542
G1 X118.437 Y99.822 E0.00825
G1 X118.437 Y97.129 E0.06876
G1 X117.930 Y97.129 E0.01295
G1 X117.930 Y99.593 E0.06291
G1 X117.423 Y99.416 E0.01371
G1 X117.423 Y97.129 E0.05841
G1 X116.916 Y97.129 E0.01295
G1 X116.916 Y99.282 E0.05498
G1 X116.409 Y99.183 E0.01319
G1 X116.409 Y97.129 E0.05245
G1 X115.901 Y97.129 E0.01295
G1 X115.901 Y99.149 E0.05159
G1 X115.658 Y99.133 E0.00623
G1 X115.394 Y99.149 E0.00674
G1 X115.394 Y97.129 E0.05158
G1 X114.887 Y97.129 E0.01295
G1 X114.887 Y99.182 E0.05244
G1 X114.380 Y99.281 E0.01319
G1 X114.380 Y97.129 E0.05495
G1 X113.873 Y97.129 E0.01295
G1 X113.873 Y99.414 E0.05836
G1 X113.366 Y99.590 E0.01370
G1 X113.366 Y97.129 E0.06285
G1 X112.859 Y97.129 E0.01295
G1 X112.859 Y99.822 E0.06876
G1 X112.610 Y99.822 E0.00635
G1 X112.610 Y99.980 E0.00405
G1 X112.352 Y100.155 E0.00795
G1 X112.352 Y97.129 E0.07726
G1 X111.845 Y97.129 E0.01295
G1 X111.845 Y100.540 E0.08711
G1 X111.503 Y100.841 E0.01161
G1 X111.338 Y101.027 E0.00636
G1 X111.338 Y97.129 E0.09953
G1 X110.831 Y97.129 E0.01295
G1 X110.831 Y101.661 E0.11572
G1 X110.531 Y102.129 E0.01419
G1 X110.324 Y102.129 E0.00529
G1 X110.324 Y97.129 E0.12767
G1 X109.917 Y97.129 E0.01037
G1 X109.917 Y99.436 E0.05891
G1 X109.817 Y99.436 E0.00258
G1 X109.817 Y110.971 E0.29454
G1 X109.309 Y110.971 E0.01295
G1 X109.309 Y99.436 E0.29454
G1 X108.802 Y99.436 E0.01295
G1 X108.802 Y110.971 E0.29454
G1 X108.295 Y110.971 E0.01295
G1 X108.295 Y99.436 E0.29454
G1 X107.788 Y99.436 E0.01295
G1 X107.788 Y111.109 E0.29807
G1 E-0.80000 F2100.00000
G1 Z0.800 F10800.000
G1 X110.324 Y113.417
G1 Z0.200
G1 E0.80000 F2100.00000
G1 F1200
G1 X110.324 Y108.278 E0.13120
G1 X110.790 Y108.278 E0.01190
G1 X110.831 Y108.339 E0.00187
G1 X110.831 Y113.278 E0.12612
G1 X111.338 Y113.278 E0.01295
G1 X111.338 Y108.973 E0.10992
G1 X111.503 Y109.159 E0.00636
G1 X111.845 Y109.460 E0.01161
G1 X111.845 Y113.278 E0.09751
G1 X112.352 Y113.278 E0.01295
G1 X112.352 Y109.845 E0.08765
G1 X112.610 Y110.020 E0.00796
G1 X112.610 Y110.586 E0.01445
G1 X112.859 Y110.586 E0.00635
G1 X112.859 Y113.278 E0.06876
G1 X113.366 Y113.278 E0.01295
G1 X113.366 Y110.586 E0.06876
G1 X113.873 Y110.586 E0.01295
G1 X113.873 Y113.278 E0.06876
G1 X114.380 Y113.278 E0.01295
G1 X114.380 Y110.719 E0.06534
G1 X114.887 Y110.818 E0.01319
G1 X114.887 Y113.278 E0.06283
G1 X115.394 Y113.278 E0.01295
M73 P1 R98
G1 X115.394 Y110.851 E0.06197
G1 X115.658 Y110.867 E0.00674
G1 X115.901 Y110.851 E0.00623
G1 X115.901 Y113.278 E0.06198
G1 X116.409 Y113.278 E0.01295
G1 X116.409 Y110.817 E0.06284
G1 X116.916 Y110.718 E0.01319
G1 X116.916 Y113.278 E0.06537
G1 X117.423 Y113.278 E0.01295
G1 X117.423 Y110.586 E0.06876
G1 X117.930 Y110.586 E0.01295
G1 X117.930 Y113.278 E0.06876
G1 X118.437 Y113.278 E0.01295
G1 X118.437 Y110.586 E0.06876
G1 X118.760 Y110.586 E0.00825
G1 X118.760 Y109.966 E0.01582
G1 X118.944 Y109.842 E0.00567
G1 X118.944 Y113.278 E0.08774
G1 X119.451 Y113.278 E0.01295
G1 X119.451 Y109.455 E0.09762
G1 X119.787 Y109.159 E0.01144
G1 X119.958 Y108.967 E0.00656
G1 X119.958 Y113.278 E0.11008
G1 X120.465 Y113.278 E0.01295
G1 X120.465 Y108.331 E0.12631
G1 X120.501 Y108.278 E0.00163
G1 X120.972 Y108.278 E0.01203
G1 X120.972 Y113.417 E0.13120
G1 X123.314 Y118.720 F10800.000
G1 F1200
G1 X123.314 Y111.313 E0.23223
G1 X122.560 Y111.313 E0.02365
G1 X122.560 Y118.550 E0.22691
G1 X121.806 Y118.550 E0.02365
G1 X121.806 Y111.313 E0.22691
G1 X121.795 Y113.620 E0.07234
G1 X121.051 Y113.620 E0.02331
G1 X121.051 Y118.550 E0.15457
G1 X120.297 Y118.550 E0.02365
G1 X120.297 Y113.620 E0.15457
G1 X119.543 Y113.620 E0.02365
G1 X119.543 Y118.550 E0.15457
G1 X118.789 Y118.550 E0.02365
G1 X118.789 Y113.620 E0.15457
G1 X118.035 Y113.620 E0.02365
G1 X118.035 Y118.550 E0.15457
G1 X117.281 Y118.550 E0.02365
G1 X117.281 Y113.620 E0.15457
G1 X116.526 Y113.620 E0.02365
G1 X116.526 Y118.550 E0.15457
G1 X115.772 Y118.550 E0.02365
G1 X115.772 Y113.620 E0.15457
G1 X115.018 Y113.620 E0.02365
G1 X115.018 Y118.550 E0.15457
G1 X114.264 Y118.550 E0.02365
G1 X114.264 Y113.620 E0.15457
G1 X113.510 Y113.620 E0.02365
G1 X113.510 Y118.550 E0.15457
G1 X112.756 Y118.550 E0.02365
G1 X112.756 Y113.620 E0.15457
G1 X112.001 Y113.620 E0.02365
G1 X112.001 Y118.550 E0.15457
G1 X111.247 Y118.550 E0.02365
G1 X111.247 Y113.620 E0.15457
G1 X110.493 Y113.620 E0.02365
G1 X110.493 Y118.550 E0.15457
G1 X109.739 Y118.550 E0.02365
G1 X109.739 Y113.620 E0.15457
G1 X109.575 Y113.620 E0.00513
G1 X109.575 Y111.313 E0.07234
G1 X108.985 Y111.313 E0.01851
G1 X108.985 Y118.550 E0.22691
G1 X108.231 Y118.550 E0.02365
G1 X108.231 Y111.313 E0.22691
G1 X107.477 Y111.313 E0.02365
G1 X107.477 Y118.720 E0.23223
G1 E-0.80000 F2100.00000
G1 Z0.800 F10800.000
G1 X116.307 Y109.856
G1 Z0.200
G1 E0.80000 F2100.00000
G1 F1200
G1 X115.645 Y109.900 E0.02080
G1 X114.983 Y109.856 E0.02080
G1 X114.345 Y109.727 E0.02043
G1 X113.739 Y109.518 E0.02009
G1 X113.172 Y109.234 E0.01987
G1 X112.650 Y108.882 E0.01975
G1 X112.178 Y108.467 E0.01969
G1 X111.764 Y107.995 E0.01969
G1 X111.411 Y107.473 E0.01975
G1 X111.128 Y106.906 E0.01987
G1 X110.919 Y106.301 E0.02009
G1 X110.789 Y105.662 E0.02043
G1 X110.745 Y105.000 E0.02080
G1 X110.789 Y104.338 E0.02080
G1 X110.919 Y103.699 E0.02043
G1 X111.128 Y103.094 E0.02009
G1 X111.411 Y102.527 E0.01987
G1 X111.764 Y102.005 E0.01975
G1 X112.178 Y101.533 E0.01969
G1 X112.650 Y101.118 E0.01969
G1 X113.172 Y100.766 E0.01975
G1 X113.739 Y100.482 E0.01987
G1 X114.345 Y100.273 E0.02009
G1 X114.983 Y100.144 E0.02043
G1 X115.645 Y100.100 E0.02080
G1 X116.307 Y100.144 E0.02080
G1 X116.946 Y100.273 E0.02043
G1 X117.552 Y100.482 E0.02009
G1 X118.119 Y100.766 E0.01987
G1 X118.641 Y101.118 E0.01975
G1 X119.112 Y101.533 E0.01969
G1 X119.527 Y102.005 E0.01969
G1 X119.879 Y102.527 E0.01975
G1 X120.163 Y103.094 E0.01987
G1 X120.372 Y103.699 E0.02009
G1 X120.502 Y104.338 E0.02043
G1 X120.546 Y105.000 E0.02080
G1 X120.502 Y105.662 E0.02080
G1 X120.372 Y106.301 E0.02043
G1 X120.163 Y106.906 E0.02009
G1 X119.879 Y107.473 E0.01987
G1 X119.527 Y107.995 E0.01975
G1 X119.112 Y108.467 E0.01970
G1 X118.641 Y108.882 E0.01969
G1 X118.119 Y109.234 E0.01975
G1 X117.552 Y109.518 E0.01987
G1 X116.946 Y109.727 E0.02009
G1 X116.366 Y109.844 E0.01855
G1 X116.358 Y110.231 F10800.000
G1 F1200
G1 X115.645 Y110.278 E0.02238
G1 X114.933 Y110.231 E0.02238
G1 X114.245 Y110.091 E0.02201
G1 X113.592 Y109.866 E0.02165
G1 X112.982 Y109.560 E0.02141
G1 X112.419 Y109.181 E0.02127
G1 X111.911 Y108.734 E0.02121
G1 X111.464 Y108.226 E0.02121
G1 X111.085 Y107.664 E0.02127
G1 X110.779 Y107.053 E0.02141
G1 X110.554 Y106.400 E0.02165
G1 X110.415 Y105.712 E0.02201
G1 X110.367 Y105.000 E0.02238
G1 X110.415 Y104.288 E0.02238
G1 X110.554 Y103.600 E0.02201
G1 X110.779 Y102.947 E0.02165
G1 X111.085 Y102.336 E0.02141
G1 X111.464 Y101.774 E0.02127
G1 X111.911 Y101.266 E0.02121
G1 X112.419 Y100.819 E0.02121
G1 X112.982 Y100.440 E0.02127
G1 X113.592 Y100.134 E0.02141
G1 X114.245 Y99.909 E0.02165
G1 X114.933 Y99.769 E0.02201
G1 X115.645 Y99.722 E0.02238
G1 X116.358 Y99.769 E0.02238
G1 X117.046 Y99.909 E0.02201
G1 X117.698 Y100.134 E0.02165
G1 X118.309 Y100.440 E0.02141
G1 X118.872 Y100.819 E0.02127
G1 X119.379 Y101.266 E0.02121
G1 X119.826 Y101.774 E0.02121
G1 X120.206 Y102.336 E0.02127
G1 X120.511 Y102.947 E0.02141
G1 X120.737 Y103.600 E0.02165
G1 X120.876 Y104.288 E0.02201
G1 X120.923 Y105.000 E0.02238
G1 X120.876 Y105.712 E0.02238
G1 X120.737 Y106.400 E0.02201
G1 X120.511 Y107.053 E0.02165
G1 X120.206 Y107.664 E0.02141
G1 X119.826 Y108.226 E0.02127
G1 X119.379 Y108.734 E0.02121
G1 X118.872 Y109.181 E0.02121
G1 X118.309 Y109.560 E0.02127
G1 X117.698 Y109.866 E0.02141
G1 X117.046 Y110.091 E0.02165
G1 X116.416 Y110.219 E0.02013
G1 X116.113 Y109.914 F10800.000
G1 E-0.80000 F2100.00000
G1 Z0.800 F10800.000
G1 X113.277 Y109.160
G1 Z0.200
G1 E0.80000 F2100.00000
G1 F1200
G1 X111.485 Y107.368 E0.08104
G1 X111.079 Y106.418 F10800.000
G1 F1200
G1 X113.954 Y109.293 E0.13005
G1 X114.419 Y109.453 E0.01576
G1 X114.719 Y109.514 E0.00979
G1 X111.131 Y105.926 E0.16230
G1 X111.070 Y105.624 E0.00985
G1 X111.048 Y105.299 E0.01042
G1 X115.346 Y109.597 E0.19440
G1 X115.645 Y109.617 E0.00960
G1 X115.893 Y109.600 E0.00795
G1 X111.045 Y104.752 E0.21932
G1 X111.094 Y104.257 E0.01591
G1 X116.388 Y109.551 E0.23949
G1 X116.841 Y109.460 E0.01476
G1 X111.186 Y103.805 E0.25581
G1 X111.322 Y103.397 E0.01375
G1 X117.248 Y109.323 E0.26808
G1 X117.442 Y109.256 E0.00655
G1 X117.631 Y109.162 E0.00676
G1 X111.484 Y103.014 E0.27808
G1 X111.667 Y102.654 E0.01294
G1 X117.992 Y108.978 E0.28611
G1 X118.317 Y108.759 E0.01254
G1 X111.886 Y102.329 E0.29089
G1 X112.124 Y102.023 E0.01240
G1 X118.622 Y108.521 E0.29396
G1 X118.912 Y108.267 E0.01233
G1 X112.379 Y101.733 E0.29553
G1 X112.668 Y101.479 E0.01233
G1 X119.166 Y107.977 E0.29396
G1 X119.405 Y107.671 E0.01240
G1 X112.974 Y101.241 E0.29089
G1 X113.299 Y101.022 E0.01254
G1 X119.624 Y107.346 E0.28611
G1 X119.635 Y107.330 E0.00063
G1 X119.807 Y106.986 E0.01232
G1 X113.660 Y100.838 E0.27808
G1 X113.849 Y100.744 E0.00677
G1 X114.042 Y100.677 E0.00654
G1 X119.969 Y106.603 E0.26808
G1 X120.105 Y106.196 E0.01375
G1 X114.450 Y100.540 E0.25582
G1 X114.902 Y100.449 E0.01476
G1 X120.197 Y105.743 E0.23949
G1 X120.246 Y105.248 E0.01591
G1 X115.403 Y100.406 E0.21906
G1 X115.732 Y100.389 E0.01054
G1 X115.945 Y100.403 E0.00681
G1 X120.242 Y104.701 E0.19441
G1 X120.221 Y104.376 E0.01042
G1 X120.160 Y104.074 E0.00984
G1 X116.571 Y100.486 E0.16232
G1 X116.872 Y100.547 E0.00980
G1 X117.337 Y100.707 E0.01575
G1 X120.212 Y103.583 E0.13007
