; generated by PrusaSlicer 2.1.0+ on 2019-09-20 at 17:37:45 UTC

; 

; external perimeters extrusion width = 0.45mm
; perimeters extrusion width = 0.45mm
; infill extrusion width = 0.45mm
; solid infill extrusion width = 0.45mm
; top infill extrusion width = 0.40mm
; first layer extrusion width = 0.42mm

M73 P0 R52
M201 X9000 Y9000 Z500 E10000 ; sets maximum accelerations, mm/sec^2
M203 X500 Y500 Z12 E120 ; sets maximum feedrates, mm/sec
M204 P2000 R1500 T2000 ; sets acceleration (P, T) and retract acceleration (R), mm/sec^2
M205 X10.00 Y10.00 Z0.20 E2.50 ; sets the jerk limits, mm/sec
M205 S0 T0 ; sets the minimum extruding and travel feed rate, mm/sec
M107
M862.3 P "MK2.5SMMU2S" ; printer model check
M862.1 P0.4 ; nozzle diameter check
M115 U3.8.0 ; tell printer latest fw version
G90 ; use absolute coordinates
M83 ; extruder relative mode
M104 S230 ; set extruder temp
M140 S60 ; set bed temp
Tx
M190 S60 ; wait for bed temp
M109 S230 ; wait for extruder temp
G28 W ; home all without mesh bed level
G80 ; mesh bed leveling

G21 ; set units to millimeters

;go outside print area
G1 Y-3.0 F1000.0
G1 Z0.4 F1000.0
; select extruder
Tc
; purge line
G1 X55.0 F2000.0
G1 Z0.3 F1000.0
G92 E0.0
G1 X240.0 E25.0 F2200.0
M73 P0 R52
G1 Y-2.0 F1000.0
G1 X55.0 E25 F1400.0
G1 Z0.20 F1000.0
G1 X5.0 E4.0 F1000.0
G92 E0.0
G21 ; set units to millimeters
G90 ; use absolute coordinates
M83 ; use relative distances for extrusion
M900 K30 ; Filament gcode
;BEFORE_LAYER_CHANGE
G92 E0.0
;0.2


G1 E-0.80000 F2100.00000
G1 Z0.600 F10800.000
;AFTER_LAYER_CHANGE
;0.2
G1 X104.526 Y98.705
G1 Z0.200
G1 E0.80000 F2100.00000
M204 S1000
G1 F1074
G1 X105.177 Y98.303 E0.02398
G1 X105.902 Y98.095 E0.02364
G1 X108.182 Y97.724 E0.07245
G1 X133.836 Y97.723 E0.80436
G1 X134.660 Y97.859 E0.02619
G1 X137.892 Y99.102 E0.10856
G1 X138.502 Y99.487 E0.02263
G1 X138.984 Y100.029 E0.02275
G1 X139.240 Y100.528 E0.01758
G1 X139.382 Y101.071 E0.01758
G1 X139.375 Y102.692 E0.05083
G1 X139.237 Y103.199 E0.01647
G1 X138.996 Y103.670 E0.01660
G1 X138.664 Y104.082 E0.01660
G1 X138.258 Y104.415 E0.01647
G1 X137.514 Y104.751 E0.02557
G1 X109.434 Y112.236 E0.91117
G1 X105.713 Y112.277 E0.11669
G1 X105.110 Y112.200 E0.01906
G1 X104.559 Y111.993 E0.01845
G1 X104.067 Y111.663 E0.01857
G1 X103.664 Y111.229 E0.01857
G1 X103.373 Y110.718 E0.01845
G1 X103.167 Y109.760 E0.03071
G1 X103.194 Y101.350 E0.26370
G1 X103.351 Y100.767 E0.01894
G1 X104.023 Y99.280 E0.05115
G1 X104.487 Y98.751 E0.02207
G1 X104.769 Y98.997 F10800.000
G1 F1074
G1 X105.348 Y98.640 E0.02133
G1 X105.978 Y98.464 E0.02049
G1 X108.192 Y98.101 E0.07036
G1 X133.836 Y98.100 E0.80405
G1 X134.550 Y98.220 E0.02270
G1 X137.710 Y99.434 E0.10613
G1 X138.215 Y99.739 E0.01851
G1 X138.619 Y100.164 E0.01839
G1 X138.864 Y100.604 E0.01578
G1 X139.003 Y101.087 E0.01578
G1 X139.015 Y102.551 E0.04590
G1 X138.723 Y103.395 E0.02799
G1 X138.122 Y104.050 E0.02788
G1 X137.417 Y104.386 E0.02451
G1 X109.385 Y111.861 E0.90963
G1 X105.725 Y111.900 E0.11475
G1 X105.240 Y111.844 E0.01532
G1 X104.753 Y111.668 E0.01623
G1 X104.317 Y111.381 E0.01635
G1 X103.963 Y110.999 E0.01635
G1 X103.710 Y110.547 E0.01623
G1 X103.544 Y109.746 E0.02563
G1 X103.564 Y101.422 E0.26101
G1 X103.699 Y100.911 E0.01658
G1 X104.333 Y99.496 E0.04860
G1 X104.729 Y99.042 E0.01890
G1 F8640
G1 X105.348 Y98.640 E-0.17039
G1 X105.978 Y98.464 E-0.15088
G1 X107.853 Y98.156 E-0.43873
G1 E-0.04000 F2100.00000
G1 Z0.800 F10800.000
G1 X108.390 Y109.124
G1 Z0.200
G1 E0.80000 F2100.00000
G1 F1074
G1 X106.351 Y109.124 E0.06395
G1 X106.351 Y101.835 E0.22854
G1 X106.499 Y101.470 E0.01236
G1 X106.975 Y101.434 E0.01497
G1 X108.885 Y101.687 E0.06042
G1 X108.390 Y101.687 E0.01552
G1 X108.390 Y109.064 E0.23130
G1 X108.767 Y109.501 F10800.000
G1 F1074
G1 X105.974 Y109.501 E0.08759
G1 X105.974 Y101.762 E0.24267
G1 X106.237 Y101.111 E0.02200
G1 X106.985 Y101.055 E0.02353
G1 X109.439 Y101.380 E0.07762
G1 X111.793 Y101.380 E0.07380
G1 X118.829 Y101.483 E0.22062
G1 X123.112 Y101.483 E0.13431
G1 X135.668 Y101.342 E0.39371
G1 X136.289 Y101.598 E0.02107
G1 X136.289 Y102.064 E0.01462
G1 X108.767 Y102.064 E0.86294
G1 X108.767 Y109.441 E0.23130
G1 X108.538 Y109.174 F10800.000
G1 F8640
G1 X105.974 Y109.501 E-0.64521
G1 X105.974 Y109.004 E-0.11479
G1 E-0.04000 F2100.00000
G1 Z0.800 F10800.000
G1 X106.464 Y108.239
G1 Z0.200
G1 E0.80000 F2100.00000
G1 F1074
G1 X107.066 Y108.841 E0.02703
G1 X107.606 Y108.841 E0.01713
G1 X106.633 Y107.869 E0.04365
G1 X106.633 Y107.329 E0.01713
G1 X108.107 Y108.803 E0.06616
G1 X108.107 Y108.263 E0.01713
G1 X106.633 Y106.789 E0.06616
G1 X106.633 Y106.250 E0.01713
G1 X108.107 Y107.723 E0.06616
G1 X108.107 Y107.184 E0.01713
G1 X106.633 Y105.710 E0.06616
G1 X106.633 Y105.170 E0.01713
G1 X108.107 Y106.644 E0.06616
G1 X108.107 Y106.104 E0.01713
G1 X106.633 Y104.630 E0.06616
G1 X106.633 Y104.090 E0.01713
G1 X108.107 Y105.564 E0.06616
G1 X108.107 Y105.024 E0.01713
G1 X106.633 Y103.550 E0.06616
G1 X106.633 Y103.011 E0.01713
G1 X108.107 Y104.485 E0.06616
G1 X108.107 Y103.945 E0.01713
G1 X106.633 Y102.471 E0.06616
G1 X106.633 Y101.931 E0.01713
G1 X108.107 Y103.405 E0.06616
G1 X108.107 Y102.865 E0.01713
G1 X106.961 Y101.718 E0.05147
G1 X107.582 Y101.799 E0.01987
G1 X108.277 Y102.495 E0.03122
G1 F8640
G1 X107.582 Y101.799 E-0.22712
G1 X106.961 Y101.718 E-0.14459
G1 X108.107 Y102.865 E-0.37447
G1 X108.107 Y102.925 E-0.01382
G1 E-0.04000 F2100.00000
G1 Z0.800 F10800.000
G1 X109.073 Y101.700
G1 Z0.200
G1 E0.80000 F2100.00000
G1 F1074
G1 X109.427 Y101.722 E0.00905
G1 X114.136 Y101.739 E0.12014
G1
G1 X118.826 Y101.774 E0.07954
G1 X123.115 Y101.774 E0.07273
G1
G1 X127.416 Y101.749 E0.08972
G1
G1 X131.717 Y101.725 E0.10649
G1
G1 X136.018 Y101.701 E0.12327
M106 S255
;BEFORE_LAYER_CHANGE
G92 E0.0
;0.4


G1 F8640
G1 X132.726 Y101.719 E-0.76000
G1 E-0.04000 F2100.00000
G1 Z0.800 F10800.000
;AFTER_LAYER_CHANGE
;0.4
G1 X138.502 Y99.487
G1 Z0.400
G1 E0.80000 F2100.00000
G1 F900
G1 X138.984 Y100.029 E0.02275
G1 X139.240 Y100.528 E0.01758
G1 X139.382 Y101.071 E0.01758
G1 X139.375 Y102.692 E0.05083
G1 X139.237 Y103.199 E0.01647
G1 X138.996 Y103.670 E0.01660
G1 X138.664 Y104.082 E0.01660
G1 X138.258 Y104.415 E0.01647
G1 X137.514 Y104.751 E0.02557
G1 X109.434 Y112.236 E0.91117
G1 X105.713 Y112.277 E0.11669
G1 X105.110 Y112.200 E0.01906
G1 X104.559 Y111.993 E0.01845
G1 X104.067 Y111.663 E0.01857
G1 X103.664 Y111.229 E0.01857
G1 X103.373 Y110.718 E0.01845
G1 X103.167 Y109.760 E0.03071
G1 X103.194 Y101.350 E0.26370
G1 X103.351 Y100.767 E0.01894
G1 X104.023 Y99.280 E0.05115
G1 X104.526 Y98.705 E0.02395
G1 X105.177 Y98.303 E0.02398
G1 X105.902 Y98.095 E0.02364
G1 X108.182 Y97.724 E0.07245
G1 X133.836 Y97.723 E0.80436
G1 X134.660 Y97.859 E0.02619
G1 X137.892 Y99.102 E0.10856
G1 X138.452 Y99.455 E0.02075
G1 F8640
G1 X138.984 Y100.029 E-0.18091
G1 X139.240 Y100.528 E-0.12949
G1 X139.382 Y101.071 E-0.12949
G1 X139.376 Y102.457 E-0.32011
G1 E-0.04000 F2100.00000
G1 Z1.000 F10800.000
G1 X108.277 Y109.079
G1 Z0.400
G1 E0.80000 F2100.00000
M204 S800
G1 F900
G1 X106.380 Y109.079 E0.06421
G1 X106.380 Y101.869 E0.24405
G1 X106.644 Y101.221 E0.02370
G1 X107.698 Y101.026 E0.03629
G1 X108.963 Y101.026 E0.04283
G1 X109.912 Y101.152 E0.03240
G1 X112.679 Y101.192 E0.09365
G1 X129.431 Y101.192 E0.56706
G1 X134.178 Y101.139 E0.16069
G1 X135.324 Y101.642 E0.04237
G1 X108.277 Y101.642 E0.91552
G1 X108.277 Y109.019 E0.24971
M204 S1000
G1 X108.684 Y109.486 F10800.000
M204 S800
G1 F900
G1 X105.973 Y109.486 E0.09177
G1 X105.973 Y101.774 E0.26106
G1 X106.349 Y100.861 E0.03340
G1 X107.661 Y100.619 E0.04517
G1 X108.990 Y100.619 E0.04501
G1 X109.942 Y100.745 E0.03250
G1 X112.682 Y100.785 E0.09274
G1 X129.429 Y100.785 E0.56688
G1 X134.261 Y100.731 E0.16358
G1 X135.791 Y101.403 E0.05656
G1 X136.447 Y101.609 E0.02325
G1 X136.447 Y102.049 E0.01490
G1 X108.684 Y102.049 E0.93973
G1 X108.684 Y109.426 E0.24971
M204 S1000
G1 X108.455 Y109.159 F10800.000
G1 F8640
G1 X105.973 Y109.486 E-0.62615
G1 X105.973 Y108.907 E-0.13385
G1 E-0.04000 F2100.00000
G1 Z1.000 F10800.000
G1 X107.283 Y108.957
G1 Z0.400
G1 E0.80000 F2100.00000
M204 S2000
G1 F900
G1 X107.972 Y108.268 E0.03484
G1 X107.972 Y107.660 E0.02176
G1 X106.858 Y108.774 E0.05634
G1 X106.685 Y108.774 E0.00617
G1 X106.685 Y108.338 E0.01559
G1 X107.972 Y107.052 E0.06507
G1 X107.972 Y106.443 E0.02176
G1 X106.685 Y107.730 E0.06507
G1 X106.685 Y107.121 E0.02176
G1 X107.972 Y105.835 E0.06507
G1 X107.972 Y105.227 E0.02176
G1 X106.685 Y106.513 E0.06507
G1 X106.685 Y105.905 E0.02176
G1 X107.972 Y104.618 E0.06507
G1 X107.972 Y104.010 E0.02176
G1 X106.685 Y105.296 E0.06507
G1 X106.685 Y104.688 E0.02176
G1 X107.972 Y103.402 E0.06507
G1 X107.972 Y102.793 E0.02176
G1 X106.685 Y104.080 E0.06507
G1 X106.685 Y103.471 E0.02176
G1 X107.972 Y102.185 E0.06507
G1 X107.972 Y101.765 E0.01501
G1 X107.783 Y101.765 E0.00675
G1 X106.685 Y102.863 E0.05552
G1 X106.685 Y102.254 E0.02176
G1 X107.792 Y101.148 E0.05597
M204 S1000
G1 X108.073 Y101.334 F10800.000
G1 F900
G1 X108.943 Y101.334 E0.01512
G1 X109.259 Y101.355 E0.00551
G1
G1 X109.897 Y101.397 E0.00443
G1 X111.935 Y101.412 E0.01414
G1 F8640
G1 X109.897 Y101.397 E-0.47067
G1 X109.259 Y101.355 E-0.14750
G1 E-0.18183 F2100.00000
G1 Z1.000 F10800.000
G1 X130.403 Y101.412
G1 Z0.400
G1 E0.80000 F2100.00000
G1 F900
G1 X134.244 Y101.390 E0.03057
G1 F8640
G1 X130.953 Y101.409 E-0.76000
G1 E-0.04000 F2100.00000
G1 Z1.000 F10800.000
G1 X135.523 Y101.684
G1 Z0.400
G1 E0.80000 F2100.00000
G1 F900
G1 X135.821 Y101.738 E0.00650
G1
G1 X136.243 Y101.803 E0.00497
;BEFORE_LAYER_CHANGE
G92 E0.0
;0.6


G1 F8640
G1 X135.821 Y101.738 E-0.09851
G1 E-0.70149 F2100.00000
G1 Z1.000 F10800.000
;AFTER_LAYER_CHANGE
;0.6
G1 X138.502 Y99.487
G1 Z0.600
G1 E0.80000 F2100.00000
G1 F921
G1 X138.984 Y100.029 E0.02275
G1 X139.240 Y100.528 E0.01758
G1 X139.382 Y101.071 E0.01758
G1 X139.375 Y102.692 E0.05083
G1 X139.237 Y103.199 E0.01647
G1 X138.996 Y103.670 E0.01660
G1 X138.664 Y104.082 E0.01660
G1 X138.258 Y104.415 E0.01647
G1 X137.514 Y104.751 E0.02557
G1 X109.434 Y112.236 E0.91117
G1 X105.713 Y112.277 E0.11669
G1 X105.110 Y112.200 E0.01906
G1 X104.559 Y111.993 E0.01845
G1 X104.067 Y111.663 E0.01857
G1 X103.664 Y111.229 E0.01857
G1 X103.373 Y110.718 E0.01845
G1 X103.167 Y109.760 E0.03071
G1 X103.194 Y101.350 E0.26370
G1 X103.351 Y100.767 E0.01894
G1 X104.023 Y99.280 E0.05115
G1 X104.526 Y98.705 E0.02395
G1 X105.177 Y98.303 E0.02398
G1 X105.902 Y98.095 E0.02364
G1 X108.182 Y97.724 E0.07245
G1 X133.836 Y97.723 E0.80436
G1 X134.660 Y97.859 E0.02619
G1 X137.892 Y99.102 E0.10856
G1 X138.452 Y99.455 E0.02075
G1 F8640
G1 X138.984 Y100.029 E-0.18091
G1 X139.240 Y100.528 E-0.12949
G1 X139.382 Y101.071 E-0.12949
G1 X139.376 Y102.457 E-0.32011
G1 E-0.04000 F2100.00000
G1 Z1.200 F10800.000
G1 X108.209 Y109.079
G1 Z0.600
G1 E0.80000 F2100.00000
M73 P2 R51
M204 S800
G1 F921
G1 X106.365 Y109.079 E0.06243
G1 X106.365 Y101.869 E0.24405
G1 X106.640 Y101.217 E0.02397
G1 X108.288 Y100.921 E0.05666
G1 X133.703 Y100.921 E0.86030
G1 X135.369 Y101.642 E0.06143
G1 X108.209 Y101.642 E0.91933
G1 X108.209 Y109.019 E0.24971
M204 S1000
G1 X108.616 Y109.486 F10800.000
M204 S800
G1 F921
G1 X105.957 Y109.486 E0.08999
G1 X105.957 Y101.774 E0.26106
G1 X106.071 Y101.545 E0.00866
G1 X106.340 Y100.871 E0.02455
G1 X106.663 Y100.793 E0.01125
G1 X108.252 Y100.514 E0.05462
G1 X133.789 Y100.514 E0.86439
G1 X135.429 Y101.234 E0.06065
G1 X136.619 Y101.609 E0.04220
G1 X136.619 Y102.049 E0.01490
G1 X108.616 Y102.049 E0.94786
G1 X108.616 Y109.426 E0.24971
M204 S1000
G1 X108.387 Y109.158 F10800.000
G1 F8640
G1 X105.957 Y109.486 E-0.61402
G1 X105.957 Y108.854 E-0.14598
G1 E-0.04000 F2100.00000
G1 Z1.200 F10800.000
G1 X107.318 Y108.957
G1 Z0.600
G1 E0.80000 F2100.00000
M204 S2000
G1 F921
G1 X106.670 Y108.309 E0.03131
G1 X106.670 Y107.728 E0.01986
G1 X107.716 Y108.774 E0.05054
G1 X107.904 Y108.774 E0.00642
G1 X107.904 Y108.381 E0.01344
G1 X106.670 Y107.147 E0.05963
G1 X106.670 Y106.566 E0.01986
G1 X107.904 Y107.799 E0.05963
G1 X107.904 Y107.218 E0.01986
G1 X106.670 Y105.984 E0.05963
G1 X106.670 Y105.403 E0.01986
G1 X107.904 Y106.637 E0.05963
G1 X107.904 Y106.056 E0.01986
G1 X106.670 Y104.822 E0.05963
G1 X106.670 Y104.241 E0.01986
G1 X107.904 Y105.475 E0.05963
G1 X107.904 Y104.893 E0.01986
G1 X106.670 Y103.660 E0.05963
G1 X106.670 Y103.078 E0.01986
G1 X107.904 Y104.312 E0.05963
G1 X107.904 Y103.731 E0.01986
G1 X106.670 Y102.497 E0.05963
G1 X106.670 Y101.931 E0.01934
G1 X107.904 Y103.150 E0.05926
G1 X107.904 Y102.569 E0.01986
G1 X106.847 Y101.512 E0.05107
G1 X106.857 Y101.488 E0.00088
G1 X107.321 Y101.405 E0.01612
G1 X108.087 Y102.171 E0.03701
M204 S1000
G1 X108.005 Y101.309 F10800.000
G1 F921
G1 X108.319 Y101.281 E0.00822
G1 X134.018 Y101.281 E0.67133
G1 F8640
G1 X130.727 Y101.281 E-0.76000
G1 E-0.04000 F2100.00000
G1 Z1.200 F10800.000
G1 X135.570 Y101.673
G1 Z0.600
G1 E0.80000 F2100.00000
G1 F921
G1 X135.993 Y101.738 E0.00889
G1
G1 X136.415 Y101.803 E0.00535
;BEFORE_LAYER_CHANGE
G92 E0.0
;0.8


G1 F8640
G1 X135.993 Y101.738 E-0.09872
G1 E-0.70128 F2100.00000
G1 Z1.200 F10800.000
;AFTER_LAYER_CHANGE
;0.8
G1 X108.141 Y109.079
G1 Z0.800
G1 E0.80000 F2100.00000
M204 S800
G1 F900
G1 X106.349 Y109.079 E0.06065
G1 X106.349 Y101.869 E0.24405
G1 X106.481 Y101.604 E0.01004
G1 X106.628 Y101.234 E0.01347
G1 X106.975 Y101.150 E0.01208
G1 X108.282 Y100.921 E0.04489
G1 X133.725 Y100.921 E0.86121
G1 X134.924 Y101.448 E0.04435
G1 X135.541 Y101.642 E0.02189
G1 X108.141 Y101.642 E0.92746
G1 X108.141 Y109.019 E0.24971
M204 S1000
G1 X108.548 Y109.486 F10800.000
M204 S800
G1 F900
G1 X105.942 Y109.486 E0.08821
G1 X105.942 Y101.774 E0.26106
G1 X106.109 Y101.437 E0.01271
G1 X106.328 Y100.888 E0.02003
G1 X106.892 Y100.751 E0.01965
G1 X108.246 Y100.514 E0.04653
G1 X133.810 Y100.514 E0.86530
G1 X135.068 Y101.066 E0.04650
G1 X136.791 Y101.609 E0.06115
G1 X136.791 Y102.049 E0.01490
G1 X108.548 Y102.049 E0.95599
G1 X108.548 Y109.426 E0.24971
M204 S1000
G1 X108.319 Y109.158 F10800.000
G1 F8640
G1 X105.942 Y109.486 E-0.60190
G1 X105.942 Y108.802 E-0.15810
G1 E-0.04000 F2100.00000
G1 Z1.400 F10800.000
G1 X107.160 Y108.957
G1 Z0.800
G1 E0.80000 F2100.00000
M204 S2000
G1 F900
G1 X107.836 Y108.282 E0.03367
G1 X107.836 Y107.682 E0.02113
G1 X106.744 Y108.774 E0.05442
G1 X106.654 Y108.774 E0.00316
G1 X106.654 Y108.264 E0.01798
G1 X107.836 Y107.083 E0.05888
G1 X107.836 Y106.483 E0.02113
G1 X106.654 Y107.664 E0.05888
G1 X106.654 Y107.065 E0.02113
G1 X107.836 Y105.884 E0.05888
G1 X107.836 Y105.284 E0.02113
G1 X106.654 Y106.465 E0.05888
G1 X106.654 Y105.866 E0.02113
G1 X107.836 Y104.685 E0.05888
G1 X107.836 Y104.085 E0.02113
G1 X106.654 Y105.266 E0.05888
G1 X106.654 Y104.667 E0.02113
G1 X107.836 Y103.486 E0.05888
G1 X107.836 Y102.886 E0.02113
G1 X106.654 Y104.067 E0.05888
G1 X106.654 Y103.468 E0.02113
G1 X107.836 Y102.287 E0.05888
G1 X107.836 Y101.809 E0.01684
G1 X107.702 Y101.820 E0.00471
G1 X106.654 Y102.868 E0.05224
G1 X106.654 Y102.269 E0.02113
G1 X107.792 Y101.131 E0.05674
M204 S1000
G1 X107.937 Y101.314 F10800.000
G1 F900
G1 X108.313 Y101.281 E0.00985
G1 X134.039 Y101.281 E0.67202
G1 F8640
G1 X130.748 Y101.281 E-0.76000
G1 E-0.04000 F2100.00000
G1 Z1.400 F10800.000
G1 X135.742 Y101.673
G1 Z0.800
G1 E0.80000 F2100.00000
G1 F900
G1 X136.165 Y101.738 E0.00889
G1
G1 X136.587 Y101.803 E0.00535
;BEFORE_LAYER_CHANGE
G92 E0.0
;1


G1 F8640
G1 X136.165 Y101.738 E-0.09872
G1 E-0.70128 F2100.00000
G1 Z1.400 F10800.000
;AFTER_LAYER_CHANGE
;1
G1 X108.073 Y109.079
G1 Z1.000
G1 E0.80000 F2100.00000
M204 S800
G1 F900
G1 X106.333 Y109.079 E0.05887
G1 X106.333 Y101.869 E0.24405
G1 X106.519 Y101.496 E0.01410
G1 X106.617 Y101.251 E0.00895
G1 X107.205 Y101.109 E0.02048
G1 X108.276 Y100.921 E0.03680
G1 X133.746 Y100.921 E0.86212
G1 X134.562 Y101.279 E0.03018
G1 X135.710 Y101.642 E0.04074
G1 X108.073 Y101.642 E0.93548
G1 X108.073 Y109.019 E0.24971
M204 S1000
G1 X108.480 Y109.486 F10800.000
M204 S800
G1 F900
G1 X105.926 Y109.486 E0.08643
G1 X105.926 Y101.774 E0.26106
G1 X106.147 Y101.330 E0.01677
G1 X106.317 Y100.905 E0.01551
G1 X107.122 Y100.710 E0.02804
G1 X108.240 Y100.514 E0.03844
