; generated by PrusaSlicer 2.1.1+win64 on 2020-02-21 at 18:59:33 UTC

; 

; external perimeters extrusion width = 0.45mm
; perimeters extrusion width = 0.45mm
; infill extrusion width = 0.45mm
; solid infill extrusion width = 0.45mm
; top infill extrusion width = 0.40mm
; support material extrusion width = 0.35mm
; first layer extrusion width = 0.42mm

M73 P0 R221
M201 X9000 Y9000 Z500 E10000 ; sets maximum accelerations, mm/sec^2
M203 X500 Y500 Z12 E120 ; sets maximum feedrates, mm/sec
M204 P2000 R1500 T2000 ; sets acceleration (P, T) and retract acceleration (R), mm/sec^2
M205 X10.00 Y10.00 Z0.20 E4.50 ; sets the jerk limits, mm/sec
M205 S0 T0 ; sets the minimum extruding and travel feed rate, mm/sec
M107
M862.3 P "MK2.5SMMU2S" ; printer model check
M862.1 P0.4 ; nozzle diameter check
M115 U3.8.1 ; tell printer latest fw version
G90 ; use absolute coordinates
M83 ; extruder relative mode
M104 S215 ; set extruder temp
M140 S60 ; set bed temp
Tx
M190 S60 ; wait for bed temp
M109 S215 ; wait for extruder temp
G28 W ; home all without mesh bed level
G80 ; mesh bed leveling

;go outside print area
G1 Y-3.0 F1000.0
G1 Z0.4 F1000.0
; select extruder
Tc
; purge line
G1 X55.0 F2000.0
G1 Z0.3 F1000.0
G92 E0.0
G1 X240.0 E25.0 F2200.0
M73 P0 R220
G1 Y-2.0 F1000.0
G1 X55.0 E25 F1400.0
G1 Z0.20 F1000.0
G1 X5.0 E4.0 F1000.0
G92 E0.0
G21 ; set units to millimeters
G90 ; use absolute coordinates
M83 ; use relative distances for extrusion
M900 K30 ; Filament gcode
;BEFORE_LAYER_CHANGE
G92 E0.0
;0.2


G1 E-0.80000 F2100.00000
G1 Z0.600 F10800.000
;AFTER_LAYER_CHANGE
;0.2
G1 X12.195 Y134.165
G1 Z0.200
G1 E0.80000 F2100.00000
M204 S1000
G1 F1200
G1 X11.901 Y133.555 E0.02123
G1 X11.807 Y132.943 E0.01942
G1 X11.815 Y125.189 E0.24311
G1 X11.909 Y124.717 E0.01510
G1 X12.105 Y124.274 E0.01521
G1 X12.395 Y123.884 E0.01521
G1 X12.763 Y123.568 E0.01521
G1 X92.796 Y78.202 E2.88451
G1 X93.239 Y78.012 E0.01510
G1 X93.711 Y77.924 E0.01507
G1 X200.901 Y69.862 E3.37034
G1 X221.791 Y69.858 E0.65501
G1 X231.166 Y71.016 E0.29618
G1 X231.899 Y71.214 E0.02382
G1 X232.564 Y71.562 E0.02350
G1 X233.087 Y71.992 E0.02126
G1 X233.530 Y72.485 E0.02077
G1 X237.499 Y78.227 E0.21885
G1 X238.024 Y79.527 E0.04397
G1 X238.186 Y80.663 E0.03598
G1 X238.119 Y81.431 E0.02417
G1 X227.293 Y136.066 E1.74634
G1 X227.118 Y136.522 E0.01532
G1 X226.845 Y136.928 E0.01532
G1 X225.758 Y137.876 E0.04525
G1 X224.543 Y138.674 E0.04557
G1 X223.802 Y139.052 E0.02608
G1 X222.803 Y139.421 E0.03338
G1 X221.514 Y139.728 E0.04155
G1 X219.929 Y139.944 E0.05015
G1 X215.497 Y140.126 E0.13910
G1 X186.558 Y140.145 E0.90734
G1 X13.913 Y135.108 E5.41547
G1 X13.249 Y134.978 E0.02123
G1 X12.659 Y134.653 E0.02112
G1 X12.236 Y134.208 E0.01923
G1 F8640
G1 X11.901 Y133.555 E-0.16958
G1 X11.807 Y132.943 E-0.14298
G1 X11.809 Y131.005 E-0.44743
G1 E-0.04000 F2100.00000
G1 Z0.800 F10800.000
G1 X78.351 Y110.019
G1 Z0.200
G1 E0.80000 F2100.00000
G1 F1200
G1 X83.409 Y104.961 E0.22427
G1 X82.342 Y104.961 E0.03344
G1 X77.938 Y109.366 E0.19531
G1 X77.404 Y108.833 E0.02365
G1 X81.276 Y104.961 E0.17166
G1 X80.209 Y104.961 E0.03344
G1 X76.871 Y108.299 E0.14801
G1 X76.338 Y107.766 E0.02365
G1 X79.143 Y104.961 E0.12437
G1 X79.067 Y104.961 E0.00236
G1 X78.757 Y104.638 E0.01405
G1 X78.772 Y104.265 E0.01169
G1 X75.804 Y107.233 E0.13158
G1 X75.271 Y106.699 E0.02365
G1 X78.866 Y103.105 E0.15939
G1 X78.914 Y102.791 E0.00995
G1 X79.088 Y102.094 E0.02253
G1 X79.241 Y101.663 E0.01434
G1 X74.738 Y106.166 E0.19968
G1 X74.205 Y105.633 E0.02365
G1 X80.029 Y99.809 E0.25826
G1 X79.496 Y99.275 E0.02365
G1 X73.671 Y105.100 E0.25826
G1 X73.138 Y104.566 E0.02365
G1 X79.082 Y98.622 E0.26358
G1 F8640
G1 X76.755 Y100.949 E-0.76000
G1 E-0.04000 F2100.00000
G1 Z0.800 F10800.000
G1 X87.185 Y96.919
G1 Z0.200
G1 E0.80000 F2100.00000
G1 F1200
G1 X93.582 Y90.522 E0.28365
G1 X94.115 Y91.055 E0.02365
G1 X88.227 Y96.943 E0.26106
G1 X88.565 Y97.029 E0.01092
G1 X89.039 Y97.198 E0.01578
G1 X94.648 Y91.589 E0.24873
G1 X94.874 Y91.815 E0.01001
G1 X96.505 Y90.183 E0.07234
G1 X96.813 Y90.491 E0.01363
G1 X89.780 Y97.524 E0.31186
G1 X89.955 Y97.610 E0.00612
G1 X90.438 Y97.932 E0.01820
G1 X97.346 Y91.024 E0.30634
G1 X97.879 Y91.557 E0.02365
G1 X91.077 Y98.360 E0.30163
G1 X91.183 Y98.437 E0.00410
G1 X91.625 Y98.878 E0.01959
G1 X100.044 Y90.459 E0.37332
G1 X100.577 Y90.992 E0.02365
G1 X92.158 Y99.412 E0.37332
G1 X92.231 Y99.492 E0.00339
G1 X92.597 Y100.039 E0.02066
G1 X101.110 Y91.526 E0.37751
G1 X101.644 Y92.059 E0.02365
G1 X93.024 Y100.679 E0.38222
G1 X93.341 Y101.428 E0.02551
G1 X102.177 Y92.592 E0.39179
G1 X102.710 Y93.125 E0.02365
G1 X93.636 Y102.200 E0.40239
G1 X93.813 Y103.090 E0.02844
G1 X103.244 Y93.659 E0.41819
G1 X103.777 Y94.192 E0.02365
G1 X93.758 Y104.211 E0.44427
G1 F8640
G1 X96.085 Y101.884 E-0.76000
G1 E-0.04000 F2100.00000
G1 Z0.800 F10800.000
G1 X88.911 Y104.792
G1 Z0.200
G1 E0.80000 F2100.00000
G1 F1200
G1 X87.663 Y106.040 E0.05536
G1 X88.196 Y106.573 E0.02365
G1 X89.808 Y104.961 E0.07148
G1 X90.874 Y104.961 E0.03344
G1 X88.729 Y107.107 E0.09513
G1 X89.262 Y107.640 E0.02365
G1 X91.941 Y104.961 E0.11877
G1 X93.008 Y104.961 E0.03344
G1 X89.796 Y108.173 E0.14242
G1 X90.329 Y108.706 E0.02365
G1 X104.310 Y94.725 E0.61995
G1 X104.843 Y95.259 E0.02365
G1 X90.862 Y109.240 E0.61995
G1 X91.395 Y109.773 E0.02365
G1 X105.377 Y95.792 E0.61995
G1 X105.910 Y96.325 E0.02365
G1 X91.929 Y110.306 E0.61995
G1 X92.462 Y110.840 E0.02365
G1 X106.443 Y96.858 E0.61995
G1 X106.976 Y97.392 E0.02365
G1 X92.995 Y111.373 E0.61995
G1 X93.243 Y111.620 E0.01096
G1 X94.874 Y109.989 E0.07234
G1 X95.160 Y110.275 E0.01268
G1 X107.510 Y97.925 E0.54761
M73 P0 R219
G1 X108.043 Y98.458 E0.02365
G1 X95.693 Y110.808 E0.54761
G1 X96.226 Y111.341 E0.02365
G1 X108.576 Y98.991 E0.54761
G1 X108.855 Y99.270 E0.01236
G1 X107.224 Y100.902 E0.07234
G1 X107.478 Y101.156 E0.01128
G1 X98.391 Y110.243 E0.40294
G1 X98.924 Y110.776 E0.02365
G1 X108.011 Y101.689 E0.40294
G1 X108.545 Y102.223 E0.02365
G1 X99.338 Y111.430 E0.40826
G1 F8640
G1 X101.665 Y109.102 E-0.76000
G1 E-0.04000 F2100.00000
G1 Z0.800 F10800.000
G1 X89.006 Y103.848
G1 Z0.200
G1 E0.80000 F2100.00000
G1 F1200
G1 X79.903 Y103.848 E0.28543
G1 X79.911 Y103.647 E0.00632
G1 X80.004 Y103.021 E0.01983
G1 X80.158 Y102.405 E0.01991
G1 X80.372 Y101.807 E0.01991
G1 X80.643 Y101.233 E0.01991
G1 X80.970 Y100.688 E0.01991
G1 X81.348 Y100.178 E0.01991
G1 X81.775 Y99.708 E0.01991
G1 X82.245 Y99.281 E0.01991
G1 X82.755 Y98.903 E0.01991
G1 X83.300 Y98.576 E0.01991
G1 X83.874 Y98.305 E0.01991
G1 X84.472 Y98.091 E0.01991
G1 X85.088 Y97.936 E0.01991
G1 X85.716 Y97.843 E0.01991
G1 X86.351 Y97.812 E0.01991
G1 X86.979 Y97.843 E0.01973
G1 X87.613 Y97.937 E0.02010
G1 X88.229 Y98.091 E0.01991
G1 X88.827 Y98.305 E0.01991
G1 X89.388 Y98.570 E0.01946
G1 X90.455 Y99.283 E0.04022
G1 X91.352 Y100.180 E0.03976
G1 X92.056 Y101.234 E0.03976
G1 X92.542 Y102.406 E0.03976
G1 X92.791 Y103.661 E0.04014
G1 X92.799 Y103.848 E0.00587
G1 X89.066 Y103.848 E0.11704
G1 X89.006 Y104.225 F10800.000
G1 F1200
G1 X79.510 Y104.225 E0.29774
G1 X79.535 Y103.611 E0.01926
G1 X79.633 Y102.947 E0.02105
G1 X79.797 Y102.295 E0.02107
G1 X80.023 Y101.663 E0.02107
G1 X80.310 Y101.055 E0.02107
G1 X80.656 Y100.479 E0.02107
G1 X81.056 Y99.939 E0.02107
G1 X81.508 Y99.441 E0.02107
G1 X82.006 Y98.989 E0.02107
G1 X82.546 Y98.589 E0.02107
G1 X83.122 Y98.243 E0.02107
G1 X83.730 Y97.956 E0.02107
G1 X84.363 Y97.730 E0.02107
G1 X85.015 Y97.566 E0.02107
G1 X85.679 Y97.468 E0.02107
G1 X86.351 Y97.435 E0.02107
G1 X87.016 Y97.467 E0.02089
G1 X87.687 Y97.566 E0.02126
G1 X88.339 Y97.730 E0.02107
G1 X88.972 Y97.956 E0.02107
G1 X89.575 Y98.241 E0.02091
G1 X90.695 Y98.990 E0.04225
G1 X91.644 Y99.939 E0.04209
G1 X92.390 Y101.055 E0.04209
G1 X92.904 Y102.296 E0.04209
G1 X93.167 Y103.617 E0.04223
G1 X93.191 Y104.225 E0.01910
G1 X89.066 Y104.225 E0.12935
G1 X88.790 Y103.889 F10800.000
G1 F8640
G1 X85.775 Y104.225 E-0.76000
G1 E-0.04000 F2100.00000
G1 Z0.800 F10800.000
G1 X92.276 Y102.059
G1 Z0.200
G1 E0.80000 F2100.00000
G1 F1200
G1 X88.840 Y98.624 E0.15662
G1 X88.147 Y98.362 E0.02388
G1 X87.991 Y98.323 E0.00520
G1 X92.298 Y102.630 E0.19634
G1 X92.434 Y103.314 E0.02249
G1 X87.295 Y98.175 E0.23425
G1 X86.952 Y98.125 E0.01120
G1 X86.683 Y98.112 E0.00866
G1 X92.137 Y103.565 E0.24862
G1 X91.589 Y103.565 E0.01767
G1 X86.130 Y98.106 E0.24887
G1 X85.744 Y98.125 E0.01244
G1 X85.619 Y98.144 E0.00408
G1 X91.041 Y103.565 E0.24716
G1 X90.492 Y103.565 E0.01767
G1 X85.142 Y98.215 E0.24392
G1 X84.703 Y98.324 E0.01457
G1 X89.944 Y103.565 E0.23891
G1 X89.396 Y103.565 E0.01767
G1 X84.288 Y98.457 E0.23286
G1 X83.892 Y98.609 E0.01368
G1 X88.848 Y103.565 E0.22593
G1 X88.299 Y103.565 E0.01767
G1 X83.519 Y98.785 E0.21790
G1 X83.170 Y98.984 E0.01296
G1 X87.751 Y103.565 E0.20884
G1 X87.203 Y103.565 E0.01767
G1 X82.834 Y99.197 E0.19916
G1 X82.519 Y99.430 E0.01263
G1 X86.655 Y103.565 E0.18852
G1 X86.106 Y103.565 E0.01767
G1 X82.223 Y99.682 E0.17701
G1 X81.940 Y99.947 E0.01250
G1 X85.558 Y103.565 E0.16496
G1 X85.010 Y103.565 E0.01767
G1 X81.679 Y100.234 E0.15185
G1 X81.434 Y100.537 E0.01257
G1 X84.462 Y103.565 E0.13803
G1 X83.913 Y103.565 E0.01767
G1 X81.201 Y100.853 E0.12365
G1 X80.995 Y101.196 E0.01288
G1 X83.365 Y103.565 E0.10803
G1 X82.817 Y103.565 E0.01767
G1 X80.805 Y101.553 E0.09173
G1 X80.630 Y101.926 E0.01328
G1 X82.269 Y103.565 E0.07472
G1 X81.720 Y103.565 E0.01767
G1 X80.485 Y102.330 E0.05631
G1 X80.362 Y102.755 E0.01426
G1 X81.172 Y103.565 E0.03694
G1 X80.624 Y103.565 E0.01767
G1 X80.113 Y103.054 E0.02329
G1 F8640
G1 X80.624 Y103.565 E-0.16685
G1 X81.172 Y103.565 E-0.12659
G1 X80.362 Y102.755 E-0.26464
G1 X80.485 Y102.330 E-0.10217
G1 X80.791 Y102.636 E-0.09976
G1 E-0.04000 F2100.00000
G1 Z0.800 F10800.000
G1 X89.637 Y98.872
G1 Z0.200
G1 E0.80000 F2100.00000
G1 F1200
G1 X91.762 Y100.998 E0.09689
G1 F8640
G1 X89.637 Y98.872 E-0.69405
G1 E-0.10595 F2100.00000
G1 Z0.800 F10800.000
G1 X166.784 Y101.083
G1 Z0.200
G1 E0.80000 F2100.00000
G1 F1200
G1 X165.786 Y101.064 E0.03132
G1 X164.855 Y101.021 E0.02921
G1 X164.039 Y100.939 E0.02570
G1 X163.397 Y100.802 E0.02060
G1 X162.899 Y100.614 E0.01669
G1 X162.523 Y100.386 E0.01376
G1 X162.260 Y100.155 E0.01101
G1 X162.056 Y99.936 E0.00938
G1 X161.887 Y99.702 E0.00902
G1 X161.749 Y99.446 E0.00913
G1 X161.570 Y98.939 E0.01686
G1 X161.448 Y98.344 E0.01902
G1 X161.405 Y97.997 E0.01097
G1 X161.357 Y97.259 E0.02320
G1 X161.339 Y96.334 E0.02900
G1 X161.340 Y94.113 E0.06964
G1 X161.368 Y93.094 E0.03197
G1 X161.419 Y92.569 E0.01651
G1 X161.501 Y92.051 E0.01646
G1 X161.613 Y91.523 E0.01693
G1 X161.786 Y90.975 E0.01801
G1 X161.930 Y90.660 E0.01084
G1 X162.283 Y90.113 E0.02042
G1 X162.692 Y89.621 E0.02007
G1 X163.232 Y89.050 E0.02464
G1 X163.397 Y88.818 E0.00891
G1 X163.494 Y88.563 E0.00855
G1 X163.583 Y88.051 E0.01630
G1 X163.657 Y87.789 E0.00855
G1 X163.795 Y87.500 E0.01003
G1 X163.999 Y87.226 E0.01072
G1 X164.241 Y86.974 E0.01094
G1 X164.746 Y86.564 E0.02040
G1 X165.031 Y86.377 E0.01069
G1 X165.586 Y86.092 E0.01957
G1 X166.219 Y85.862 E0.02110
G1 X166.606 Y85.762 E0.01255
G1 X167.043 Y85.682 E0.01393
G1 X167.549 Y85.624 E0.01597
G1 X168.136 Y85.590 E0.01844
G1 X169.199 Y85.576 E0.03333
G1 X171.971 Y85.619 E0.08690
G1 X173.661 Y85.696 E0.05305
G1 X175.154 Y85.834 E0.04703
G1 X176.938 Y86.057 E0.05635
G1 X177.364 Y88.306 E0.07176
G1 X177.519 Y89.381 E0.03406
G1 X177.565 Y89.978 E0.01876
G1 X177.572 Y90.599 E0.01949
G1 X177.528 Y91.242 E0.02019
G1 X177.433 Y91.896 E0.02072
G1 X177.288 Y92.558 E0.02127
G1 X177.092 Y93.227 E0.02183
G1 X176.847 Y93.897 E0.02239
G1 X176.559 Y94.554 E0.02247
G1 X176.234 Y95.180 E0.02214
G1 X175.875 Y95.764 E0.02148
G1 X174.942 Y97.007 E0.04875
G1 X174.863 Y97.169 E0.00563
G1 X174.990 Y97.179 E0.00400
G1 X175.364 Y97.089 E0.01205
G1 X175.893 Y96.861 E0.01806
G1 X176.509 Y96.512 E0.02218
G1 X177.163 Y96.061 E0.02492
G1 X177.819 Y95.531 E0.02645
G1 X178.444 Y94.937 E0.02703
G1 X179.009 Y94.298 E0.02675
G1 X179.486 Y93.632 E0.02567
G1 X179.853 Y92.948 E0.02434
G1 X180.128 Y92.251 E0.02349
G1 X180.321 Y91.556 E0.02261
G1 X180.443 Y90.879 E0.02157
G1 X180.502 Y90.232 E0.02037
G1 X180.519 Y89.641 E0.01855
G1 X180.490 Y88.406 E0.03872
G1 X180.623 Y87.117 E0.04063
G1 X182.388 Y88.274 E0.06616
G1 X182.850 Y88.626 E0.01821
G1 X183.274 Y89.015 E0.01803
G1 X183.631 Y89.445 E0.01753
G1 X183.916 Y89.893 E0.01664
G1 X184.136 Y90.345 E0.01577
G1 X184.299 Y90.790 E0.01486
G1 X184.413 Y91.219 E0.01391
G1 X184.487 Y91.643 E0.01352
G1 X184.536 Y92.422 E0.02445
G1 X184.511 Y93.172 E0.02353
G1 X184.423 Y94.074 E0.02842
G1 X184.368 Y94.359 E0.00911
G1 X184.272 Y94.655 E0.00975
G1 X184.123 Y94.966 E0.01079
G1 X183.916 Y95.306 E0.01249
G1 X183.650 Y95.683 E0.01447
G1 X182.961 Y96.519 E0.03396
G1 X182.062 Y97.466 E0.04097
G1 X180.604 Y98.854 E0.06313
G1 X180.120 Y99.273 E0.02007
G1 X179.636 Y99.653 E0.01927
G1 X179.143 Y99.987 E0.01868
G1 X178.641 Y100.262 E0.01795
G1 X178.137 Y100.480 E0.01723
G1 X177.631 Y100.648 E0.01670
G1 X177.126 Y100.773 E0.01633
G1 X176.612 Y100.865 E0.01637
G1 X175.509 Y100.972 E0.03474
G1 X173.282 Y101.053 E0.06987
G1 X169.691 Y101.093 E0.11262
G1 X166.844 Y101.084 E0.08924
G1 X166.789 Y100.706 F10800.000
G1 F1200
G1 X165.798 Y100.687 E0.03107
G1 X164.882 Y100.644 E0.02874
G1 X164.098 Y100.566 E0.02473
G1 X163.504 Y100.439 E0.01905
G1 X163.064 Y100.273 E0.01472
G1 X162.747 Y100.081 E0.01162
G1 X162.523 Y99.884 E0.00937
G1 X162.348 Y99.696 E0.00806
G1 X162.207 Y99.502 E0.00751
G1 X162.095 Y99.293 E0.00743
G1 X161.935 Y98.838 E0.01513
G1 X161.821 Y98.283 E0.01776
G1 X161.780 Y97.961 E0.01016
G1 X161.734 Y97.243 E0.02258
G1 X161.716 Y96.330 E0.02862
G1 X161.717 Y94.118 E0.06936
G1 X161.744 Y93.117 E0.03140
G1 X161.793 Y92.617 E0.01574
G1 X161.872 Y92.120 E0.01580
G1 X161.978 Y91.619 E0.01606
G1 X162.138 Y91.111 E0.01670
G1 X162.261 Y90.842 E0.00926
G1 X162.587 Y90.337 E0.01885
G1 X162.975 Y89.872 E0.01897
G1 X163.517 Y89.297 E0.02478
G1 X163.737 Y88.985 E0.01198
G1 X163.859 Y88.664 E0.01076
G1 X163.951 Y88.135 E0.01683
G1 X164.011 Y87.922 E0.00693
G1 X164.119 Y87.696 E0.00785
G1 X164.288 Y87.470 E0.00883
G1 X164.497 Y87.252 E0.00948
G1 X164.969 Y86.869 E0.01907
G1 X165.221 Y86.703 E0.00946
G1 X165.737 Y86.438 E0.01819
G1 X166.331 Y86.223 E0.01979
G1 X166.688 Y86.130 E0.01156
G1 X167.099 Y86.055 E0.01311
G1 X167.581 Y85.999 E0.01523
G1 X168.149 Y85.967 E0.01784
G1 X169.199 Y85.953 E0.03291
G1 X171.959 Y85.996 E0.08655
G1 X173.635 Y86.072 E0.05260
G1 X175.114 Y86.209 E0.04656
G1 X176.618 Y86.397 E0.04755
G1 X176.992 Y88.368 E0.06289
G1 X177.144 Y89.423 E0.03341
G1 X177.188 Y89.995 E0.01799
G1 X177.195 Y90.589 E0.01863
G1 X177.153 Y91.202 E0.01926
G1 X177.062 Y91.828 E0.01985
G1 X176.922 Y92.465 E0.02044
G1 X176.734 Y93.109 E0.02103
G1 X176.497 Y93.757 E0.02162
G1 X176.219 Y94.391 E0.02172
G1 X175.906 Y94.995 E0.02133
G1 X175.563 Y95.552 E0.02050
G1 X174.618 Y96.810 E0.04933
G1 X174.484 Y97.087 E0.00966
G1 X174.473 Y97.294 E0.00650
G1 X174.546 Y97.436 E0.00499
G1 X174.712 Y97.535 E0.00607
G1 X175.020 Y97.559 E0.00969
G1 X175.483 Y97.448 E0.01494
G1 X176.061 Y97.200 E0.01973
G1 X176.709 Y96.832 E0.02335
G1 X177.389 Y96.363 E0.02589
G1 X178.068 Y95.814 E0.02737
G1 X178.716 Y95.199 E0.02802
G1 X179.305 Y94.533 E0.02788
G1 X179.806 Y93.832 E0.02704
G1 X180.196 Y93.107 E0.02579
G1 X180.486 Y92.371 E0.02480
G1 X180.690 Y91.640 E0.02379
G1 X180.817 Y90.930 E0.02263
G1 X180.879 Y90.255 E0.02126
G1 X180.896 Y89.642 E0.01923
G1 X180.868 Y88.421 E0.03827
G1 X180.935 Y87.772 E0.02045
G1 X182.170 Y88.582 E0.04631
G1 X182.608 Y88.915 E0.01725
G1 X183.000 Y89.275 E0.01668
G1 X183.325 Y89.667 E0.01598
G1 X183.586 Y90.077 E0.01523
G1 X183.788 Y90.493 E0.01450
G1 X183.939 Y90.904 E0.01372
G1 X184.044 Y91.300 E0.01285
G1 X184.112 Y91.688 E0.01235
G1 X184.159 Y92.427 E0.02323
G1 X184.134 Y93.147 E0.02258
G1 X184.050 Y94.020 E0.02750
G1 X184.003 Y94.265 E0.00782
G1 X183.921 Y94.515 E0.00823
G1 X183.791 Y94.786 E0.00942
G1 X183.601 Y95.099 E0.01149
G1 X183.350 Y95.454 E0.01362
G1 X182.679 Y96.269 E0.03310
G1 X181.795 Y97.199 E0.04025
G1 X180.350 Y98.575 E0.06255
