; generated by PrusaSlicer 2.1.1+win64 on 2020-04-09 at 22:23:34 UTC

; 

; external perimeters extrusion width = 0.60mm
; perimeters extrusion width = 0.43mm
; infill extrusion width = 0.45mm
; solid infill extrusion width = 0.70mm
; top infill extrusion width = 0.43mm
; support material extrusion width = 0.37mm
; first layer extrusion width = 0.42mm

M73 P0 R50
M201 X9000 Y9000 Z500 E10000 ; sets maximum accelerations, mm/sec^2
M203 X500 Y500 Z12 E120 ; sets maximum feedrates, mm/sec
M204 P2000 R1500 T2000 ; sets acceleration (P, T) and retract acceleration (R), mm/sec^2
M205 X10.00 Y10.00 Z0.20 E2.50 ; sets the jerk limits, mm/sec
M205 S0 T0 ; sets the minimum extruding and travel feed rate, mm/sec
M107
M862.3 P "MK2.5SMMU2S" ; printer model check
M862.1 P0.4 ; nozzle diameter check
M115 U3.8.0 ; tell printer latest fw version
G90 ; use absolute coordinates
M83 ; extruder relative mode
M104 S215 ; set extruder temp
M140 S60 ; set bed temp
Tx
M190 S60 ; wait for bed temp
M109 S215 ; wait for extruder temp
G28 W ; home all without mesh bed level
G80 ; mesh bed leveling

G21 ; set units to millimeters

;go outside print area
G1 Y-3.0 F1000.0
G1 Z0.4 F1000.0
; select extruder
Tc
; purge line
G1 X55.0 F2000.0
G1 Z0.3 F1000.0
G92 E0.0
G1 X240.0 E25.0 F2200.0
M73 P0 R50
G1 Y-2.0 F1000.0
G1 X55.0 E25 F1400.0
G1 Z0.20 F1000.0
G1 X5.0 E4.0 F1000.0
G92 E0.0
G21 ; set units to millimeters
G90 ; use absolute coordinates
M83 ; use relative distances for extrusion
M900 K30 ; Filament gcode
;BEFORE_LAYER_CHANGE
G92 E0.0
;0.2


G1 E-0.80000 F2100.00000
G1 Z0.600 F10800.000
;AFTER_LAYER_CHANGE
;0.2
G1 X83.025 Y136.647
G1 Z0.200
G1 E0.80000 F2100.00000
M204 S1000
G1 F1200
G1 X82.801 Y135.772 E0.02833
G1 X82.799 Y118.901 E0.52898
G1 X82.864 Y117.527 E0.04314
G1 X83.017 Y116.539 E0.03133
G1 X83.299 Y115.455 E0.03514
G1 X83.746 Y114.251 E0.04027
G1 X84.300 Y113.119 E0.03951
G1 X85.262 Y111.609 E0.05615
G1 X97.430 Y94.950 E0.64683
G1 X108.793 Y81.133 E0.56091
G1 X109.202 Y80.753 E0.01749
G1 X109.693 Y80.490 E0.01749
G1 X136.800 Y70.462 E0.90621
G1 X137.426 Y70.341 E0.01998
G1 X139.530 Y70.339 E0.06595
G1 X140.083 Y70.411 E0.01749
G1 X140.599 Y70.620 E0.01749
G1 X141.047 Y70.953 E0.01749
G1 X141.395 Y71.389 E0.01749
G1 X165.433 Y112.655 E1.49737
G1 X166.285 Y114.323 E0.05874
G1 X166.870 Y116.047 E0.05708
G1 X167.125 Y117.436 E0.04429
G1 X167.201 Y118.937 E0.04713
G1 X167.096 Y120.427 E0.04680
G1 X166.808 Y121.955 E0.04878
G1 X164.670 Y130.196 E0.26693
G1 X164.499 Y130.635 E0.01475
G1 X164.236 Y131.029 E0.01487
G1 X153.653 Y141.816 E0.47381
G1 X152.997 Y142.267 E0.02496
G1 X152.383 Y142.438 E0.01998
G1 X133.423 Y144.744 E0.59886
G1 X121.033 Y144.745 E0.38847
G1 X97.773 Y142.263 E0.73345
G1 X84.270 Y137.745 E0.44644
G1 X83.584 Y137.357 E0.02473
G1 X83.062 Y136.694 E0.02645
G1 E-0.80000 F2100.00000
G1 Z0.800 F10800.000
G1 X111.061 Y86.947
G1 Z0.200
G1 E0.80000 F2100.00000
G1 F1200
G1 X111.061 Y83.121 E0.11996
G1 X138.112 Y83.121 E0.84817
G1 X138.112 Y73.114 E0.31376
G1 X138.939 Y73.114 E0.02591
G1 X138.939 Y86.947 E0.43372
G1 X111.121 Y86.947 E0.87220
G1 E-0.80000 F2100.00000
G1 Z0.800 F10800.000
G1 X137.735 Y82.744
G1 Z0.200
G1 E0.80000 F2100.00000
G1 F1200
G1 X137.735 Y72.737 E0.31376
G1 X139.316 Y72.737 E0.04956
G1 X139.316 Y87.324 E0.45736
G1 X110.684 Y87.324 E0.89773
G1 X110.684 Y82.744 E0.14360
G1 X137.675 Y82.744 E0.84629
G1 X138.135 Y82.722 F10800.000
G1 E-0.80000 F2100.00000
G1 Z0.800 F10800.000
G1 X138.826 Y73.995
G1 Z0.200
G1 E0.80000 F2100.00000
G1 F1200
G1 X138.395 Y73.565 E0.01922
G1 X138.395 Y74.101 E0.01694
G1 X138.656 Y74.362 E0.01164
G1 X138.656 Y74.899 E0.01694
G1 X138.395 Y74.638 E0.01164
G1 X138.395 Y75.175 E0.01694
G1 X138.656 Y75.436 E0.01164
G1 X138.656 Y75.973 E0.01694
G1 X138.395 Y75.712 E0.01164
G1 X138.395 Y76.249 E0.01694
G1 X138.656 Y76.509 E0.01164
G1 X138.656 Y77.046 E0.01694
G1 X138.395 Y76.785 E0.01164
G1 X138.395 Y77.322 E0.01694
G1 X138.656 Y77.583 E0.01164
G1 X138.656 Y78.120 E0.01694
G1 X138.395 Y77.859 E0.01164
G1 X138.395 Y78.396 E0.01694
G1 X138.656 Y78.657 E0.01164
G1 X138.656 Y79.193 E0.01694
G1 X138.395 Y78.933 E0.01164
G1 X138.395 Y79.469 E0.01694
G1 X138.656 Y79.730 E0.01164
G1 X138.656 Y80.267 E0.01694
G1 X138.395 Y80.006 E0.01164
G1 X138.395 Y80.543 E0.01694
G1 X138.656 Y80.804 E0.01164
G1 X138.656 Y81.341 E0.01694
G1 X138.395 Y81.080 E0.01164
G1 X138.395 Y81.617 E0.01694
G1 X138.656 Y81.877 E0.01164
G1 X138.656 Y82.414 E0.01694
G1 X138.395 Y82.153 E0.01164
G1 X138.395 Y82.690 E0.01694
G1 X138.656 Y82.951 E0.01164
G1 X138.656 Y83.488 E0.01694
G1 X138.395 Y83.227 E0.01164
G1 X138.395 Y83.404 E0.00559
G1 X138.036 Y83.404 E0.01135
G1 X138.656 Y84.025 E0.02769
G1 X138.656 Y84.561 E0.01694
G1 X137.499 Y83.404 E0.05165
G1 X136.962 Y83.404 E0.01694
G1 X138.656 Y85.098 E0.07561
G1 X138.656 Y85.635 E0.01694
G1 X136.425 Y83.404 E0.09957
G1 X135.888 Y83.404 E0.01694
G1 X138.656 Y86.172 E0.12353
G1 X138.656 Y86.664 E0.01555
G1 X138.612 Y86.664 E0.00139
G1 X135.352 Y83.404 E0.14552
G1 X134.815 Y83.404 E0.01694
G1 X138.075 Y86.664 E0.14552
G1 X137.538 Y86.664 E0.01694
G1 X134.278 Y83.404 E0.14552
G1 X133.741 Y83.404 E0.01694
G1 X137.002 Y86.664 E0.14552
G1 X136.465 Y86.664 E0.01694
G1 X133.205 Y83.404 E0.14552
G1 X132.668 Y83.404 E0.01694
G1 X135.928 Y86.664 E0.14552
G1 X135.391 Y86.664 E0.01694
G1 X132.131 Y83.404 E0.14552
G1 X131.594 Y83.404 E0.01694
G1 X134.854 Y86.664 E0.14552
G1 X134.318 Y86.664 E0.01694
G1 X131.057 Y83.404 E0.14552
G1 X130.521 Y83.404 E0.01694
G1 X133.781 Y86.664 E0.14552
G1 X133.244 Y86.664 E0.01694
G1 X129.984 Y83.404 E0.14552
G1 X129.447 Y83.404 E0.01694
G1 X132.707 Y86.664 E0.14552
G1 X132.170 Y86.664 E0.01694
G1 X128.910 Y83.404 E0.14552
G1 X128.373 Y83.404 E0.01694
G1 X131.634 Y86.664 E0.14552
G1 X131.097 Y86.664 E0.01694
G1 X127.837 Y83.404 E0.14552
G1 X127.300 Y83.404 E0.01694
G1 X130.560 Y86.664 E0.14552
G1 X130.023 Y86.664 E0.01694
G1 X126.763 Y83.404 E0.14552
G1 X126.226 Y83.404 E0.01694
G1 X129.486 Y86.664 E0.14552
G1 X128.950 Y86.664 E0.01694
G1 X125.689 Y83.404 E0.14552
G1 X125.153 Y83.404 E0.01694
G1 X128.413 Y86.664 E0.14552
G1 X127.876 Y86.664 E0.01694
G1 X124.616 Y83.404 E0.14552
G1 X124.079 Y83.404 E0.01694
G1 X127.339 Y86.664 E0.14552
G1 X126.802 Y86.664 E0.01694
G1 X123.542 Y83.404 E0.14552
G1 X123.005 Y83.404 E0.01694
G1 X126.266 Y86.664 E0.14552
G1 X125.729 Y86.664 E0.01694
G1 X122.469 Y83.404 E0.14552
G1 X121.932 Y83.404 E0.01694
G1 X125.192 Y86.664 E0.14552
G1 X124.655 Y86.664 E0.01694
G1 X121.395 Y83.404 E0.14552
G1 X120.858 Y83.404 E0.01694
G1 X124.118 Y86.664 E0.14552
G1 X123.582 Y86.664 E0.01694
G1 X120.321 Y83.404 E0.14552
G1 X119.785 Y83.404 E0.01694
G1 X123.045 Y86.664 E0.14552
G1 X122.508 Y86.664 E0.01694
G1 X119.248 Y83.404 E0.14552
G1 X118.711 Y83.404 E0.01694
G1 X121.971 Y86.664 E0.14552
G1 X121.434 Y86.664 E0.01694
G1 X118.174 Y83.404 E0.14552
G1 X117.637 Y83.404 E0.01694
G1 X120.898 Y86.664 E0.14552
G1 X120.361 Y86.664 E0.01694
G1 X117.101 Y83.404 E0.14552
G1 X116.564 Y83.404 E0.01694
G1 X119.824 Y86.664 E0.14552
G1 X119.287 Y86.664 E0.01694
G1 X116.027 Y83.404 E0.14552
G1 X115.490 Y83.404 E0.01694
G1 X118.750 Y86.664 E0.14552
G1 X118.214 Y86.664 E0.01694
G1 X114.953 Y83.404 E0.14552
G1 X114.417 Y83.404 E0.01694
G1 X117.677 Y86.664 E0.14552
G1 X117.140 Y86.664 E0.01694
G1 X113.880 Y83.404 E0.14552
G1 X113.343 Y83.404 E0.01694
G1 X116.603 Y86.664 E0.14552
G1 X116.066 Y86.664 E0.01694
G1 X112.806 Y83.404 E0.14552
G1 X112.269 Y83.404 E0.01694
G1 X115.530 Y86.664 E0.14552
G1 X114.993 Y86.664 E0.01694
G1 X111.733 Y83.404 E0.14552
G1 X111.344 Y83.404 E0.01227
G1 X111.344 Y83.552 E0.00468
G1 X114.456 Y86.664 E0.13891
G1 X113.919 Y86.664 E0.01694
G1 X111.344 Y84.089 E0.11495
G1 X111.344 Y84.626 E0.01694
G1 X113.382 Y86.664 E0.09099
G1 X112.846 Y86.664 E0.01694
G1 X111.344 Y85.163 E0.06703
G1 X111.344 Y85.700 E0.01694
G1 X112.309 Y86.664 E0.04307
G1 X111.772 Y86.664 E0.01694
G1 X111.174 Y86.067 E0.02668
G1 E-0.80000 F2100.00000
G1 Z0.800 F10800.000
G1 X135.516 Y93.625
G1 Z0.200
G1 E0.80000 F2100.00000
G1 F1200
G1 X135.516 Y90.577 E0.09557
G1 X136.270 Y90.577 E0.02365
G1 X136.270 Y93.505 E0.09180
G1 X137.024 Y93.558 E0.02370
G1 X137.024 Y90.577 E0.09346
G1 X137.778 Y90.577 E0.02365
G1 X137.778 Y93.613 E0.09518
G1 X138.532 Y93.670 E0.02371
G1 X138.532 Y90.577 E0.09698
G1 X139.287 Y90.577 E0.02365
G1 X139.287 Y93.731 E0.09890
G1 X139.733 Y93.768 E0.01403
G1 X139.996 Y94.117 E0.01372
G1 X139.835 Y94.935 E0.02616
G1 X140.041 Y94.935 E0.00645
G1 X140.041 Y90.577 E0.13665
G1 X140.795 Y90.577 E0.02365
G1 X140.795 Y94.935 E0.13665
G1 X141.549 Y94.935 E0.02365
G1 X141.549 Y90.577 E0.13665
G1 X142.303 Y90.577 E0.02365
G1 X142.303 Y94.935 E0.13665
G1 X143.057 Y94.935 E0.02365
G1 X143.057 Y90.577 E0.13665
G1 X143.812 Y90.577 E0.02365
G1 X143.812 Y94.935 E0.13665
G1 X144.566 Y94.935 E0.02365
G1 X144.566 Y90.577 E0.13665
G1 X145.320 Y90.577 E0.02365
G1 X145.320 Y94.935 E0.13665
G1 X146.074 Y94.935 E0.02365
G1 X146.074 Y90.577 E0.13665
G1 X146.828 Y90.577 E0.02365
G1 X146.828 Y94.935 E0.13665
G1 X147.582 Y94.935 E0.02365
G1 X147.582 Y90.577 E0.13665
G1 X148.337 Y90.577 E0.02365
G1 X148.337 Y94.935 E0.13665
G1 X148.713 Y94.935 E0.01179
G1 X149.091 Y95.016 E0.01212
G1 X149.091 Y90.577 E0.13917
G1 X149.845 Y90.577 E0.02365
G1 X149.845 Y95.403 E0.15133
G1 E-0.80000 F2100.00000
G1 Z0.800 F10800.000
G1 X149.845 Y97.560
G1 Z0.200
G1 E0.80000 F2100.00000
G1 F1200
G1 X149.845 Y98.105 E0.01708
G1 E-0.80000 F2100.00000
G1 Z0.800 F10800.000
G1 X143.057 Y98.105
G1 Z0.200
G1 E0.80000 F2100.00000
G1 F1200
G1 X143.057 Y97.388 E0.02247
G1 X142.303 Y97.254 E0.02402
G1 X142.303 Y97.935 E0.02136
G1 X141.549 Y97.935 E0.02365
G1 X141.549 Y97.143 E0.02483
G1 X140.795 Y97.045 E0.02385
G1 X140.795 Y97.935 E0.02792
G1 X140.041 Y97.935 E0.02365
G1 X140.041 Y96.953 E0.03079
G1 X139.287 Y96.867 E0.02380
G1 X139.287 Y97.935 E0.03348
G1 X138.532 Y97.935 E0.02365
G1 X138.532 Y96.787 E0.03601
G1 X137.778 Y96.710 E0.02377
G1 X137.778 Y97.935 E0.03842
G1 X137.024 Y97.935 E0.02365
G1 X137.024 Y96.637 E0.04072
G1 X136.453 Y96.583 E0.01799
G1 X136.270 Y97.511 E0.02965
G1 X136.270 Y98.105 E0.01863
G1 E-0.80000 F2100.00000
G1 Z0.800 F10800.000
G1 X149.845 Y126.454
G1 Z0.200
G1 E0.80000 F2100.00000
G1 F1200
G1 X149.845 Y126.075 E0.01186
G1 X150.599 Y126.211 E0.02403
G1 X150.599 Y126.536 E0.01020
G1 X151.353 Y126.694 E0.02416
G1 X151.353 Y126.346 E0.01089
G1 X152.107 Y126.482 E0.02403
G1 X152.107 Y126.963 E0.01510
G1 E-0.80000 F2100.00000
G1 Z0.800 F10800.000
G1 X147.582 Y128.903
G1 Z0.200
G1 E0.80000 F2100.00000
G1 F1200
G1 X147.582 Y132.213 E0.10379
G1 X148.337 Y132.213 E0.02365
G1 X148.337 Y128.950 E0.10232
G1 X148.703 Y128.951 E0.01149
G1 X149.091 Y128.992 E0.01222
G1 X149.091 Y132.383 E0.10631
G1 E-0.80000 F2100.00000
G1 Z0.800 F10800.000
G1 X146.353 Y132.726
G1 Z0.200
G1 E0.80000 F2100.00000
G1 F1200
G1 X146.353 Y129.808 E0.07937
G1 X146.525 Y129.643 E0.00646
G1 X146.848 Y129.387 E0.01123
G1 X146.848 Y134.821 E0.14780
G1 X146.074 Y135.362 F10800.000
G1 F1200
G1 X146.074 Y132.428 E0.09202
G1 X145.665 Y130.694 E0.05586
G1 X145.320 Y131.157 E0.01810
G1 X145.320 Y135.359 E0.13174
M73 P2 R49
G1 X144.566 Y135.522 E0.02420
G1 X144.566 Y132.136 E0.10619
G1 X144.196 Y132.569 E0.01786
G1 X143.812 Y132.975 E0.01754
G1 X143.812 Y135.853 E0.09023
G1 E-0.80000 F2100.00000
G1 Z0.800 F10800.000
G1 X142.394 Y137.272
G1 Z0.200
G1 E0.80000 F2100.00000
G1 F1200
G1 X142.394 Y134.102 E0.08621
G1 X142.889 Y133.741 E0.01665
G1 X142.889 Y137.139 E0.09240
G1 X143.384 Y137.139 E0.01346
G1 X143.384 Y135.715 E0.03871
G1 X143.410 Y135.838 E0.00342
G1 X143.719 Y136.042 E0.01008
G1 X143.879 Y136.009 E0.00444
G1 X143.879 Y137.139 E0.03073
G1 X144.374 Y137.139 E0.01346
G1 X144.374 Y135.906 E0.03352
G1 X144.869 Y135.801 E0.01376
G1 X144.869 Y137.139 E0.03638
G1 X145.364 Y137.139 E0.01346
G1 X145.364 Y135.693 E0.03932
G1 X145.859 Y135.582 E0.01379
G1 X145.859 Y137.139 E0.04234
G1 X146.353 Y137.139 E0.01346
G1 X146.353 Y135.468 E0.04543
G1 X146.848 Y135.343 E0.01389
G1 X146.848 Y137.139 E0.04885
G1 X147.343 Y137.139 E0.01346
G1 X147.343 Y132.549 E0.12483
G1 X147.838 Y132.549 E0.01346
G1 X147.838 Y137.139 E0.12483
G1 X148.333 Y137.139 E0.01346
G1 X148.333 Y132.549 E0.12483
G1 X148.828 Y132.549 E0.01346
G1 X148.828 Y137.272 E0.12844
G1 X152.107 Y140.267 F10800.000
G1 F1200
G1 X152.107 Y129.680 E0.33196
G1 X151.353 Y129.518 E0.02418
G1 X151.353 Y140.098 E0.33171
G1 X150.599 Y140.098 E0.02365
G1 X150.599 Y129.329 E0.33765
G1 X149.845 Y129.139 E0.02438
G1 X149.845 Y140.098 E0.34361
G1 X149.091 Y140.098 E0.02365
G1 X149.091 Y137.475 E0.08224
G1 X148.337 Y137.475 E0.02365
G1 X148.337 Y140.098 E0.08224
G1 X147.582 Y140.098 E0.02365
G1 X147.582 Y137.475 E0.08224
G1 X146.828 Y137.475 E0.02365
G1 X146.828 Y140.098 E0.08224
G1 X146.074 Y140.098 E0.02365
G1 X146.074 Y137.475 E0.08224
G1 X145.320 Y137.475 E0.02365
G1 X145.320 Y140.098 E0.08224
G1 X144.566 Y140.098 E0.02365
G1 X144.566 Y137.475 E0.08224
G1 X143.812 Y137.475 E0.02365
G1 X143.812 Y140.098 E0.08224
G1 X143.057 Y140.098 E0.02365
G1 X143.057 Y137.475 E0.08224
G1 X142.303 Y137.475 E0.02365
G1 X142.303 Y140.098 E0.08224
G1 X141.549 Y140.098 E0.02365
G1 X141.549 Y134.657 E0.17058
G1 X140.795 Y135.015 E0.02617
G1 X140.795 Y140.098 E0.15936
G1 X140.041 Y140.098 E0.02365
G1 X140.041 Y135.306 E0.15024
G1 X139.287 Y135.536 E0.02473
G1 X139.287 Y140.098 E0.14301
G1 X138.532 Y140.098 E0.02365
G1 X138.532 Y135.718 E0.13734
G1 X137.778 Y135.858 E0.02405
G1 X137.778 Y140.267 E0.13824
G1 E-0.80000 F2100.00000
G1 Z0.800 F10800.000
G1 X133.253 Y142.562
G1 Z0.200
G1 E0.80000 F2100.00000
G1 F1200
G1 X133.253 Y136.042 E0.20444
G1 X132.499 Y135.954 E0.02381
G1 X132.499 Y142.393 E0.20187
G1 X131.745 Y142.393 E0.02365
G1 X131.745 Y135.826 E0.20588
G1 X130.991 Y135.648 E0.02430
G1 X130.991 Y137.387 E0.05454
G1 X130.237 Y137.435 E0.02369
G1 X130.237 Y135.239 E0.06885
G1 X127.974 Y137.706 F10800.000
G1 F1200
G1 X127.974 Y136.770 E0.02934
G1 X127.220 Y136.770 E0.02365
G1 X127.220 Y137.557 E0.02468
G1 X126.466 Y137.571 E0.02365
G1 X126.466 Y133.240 E0.13581
G1 E-0.80000 F2100.00000
G1 Z0.800 F10800.000
G1 X121.187 Y130.939
G1 Z0.200
G1 E0.80000 F2100.00000
G1 F1200
G1 X121.187 Y130.050 E0.02787
G1 E-0.80000 F2100.00000
G1 Z0.800 F10800.000
G1 X115.908 Y133.315
G1 Z0.200
G1 E0.80000 F2100.00000
G1 F1200
G1 X115.908 Y133.101 E0.00672
G1 X115.154 Y133.101 E0.02365
G1 X115.154 Y133.183 E0.00258
G1 X114.399 Y133.132 E0.02370
G1 X114.399 Y132.931 E0.00630
G1 E-0.80000 F2100.00000
G1 Z0.800 F10800.000
G1 X114.681 Y137.272
G1 Z0.200
G1 E0.80000 F2100.00000
G1 F1200
G1 X114.681 Y136.055 E0.03308
G1 X114.186 Y136.030 E0.01348
G1 X114.186 Y137.139 E0.03017
G1 X113.691 Y137.139 E0.01346
G1 X113.691 Y135.994 E0.03114
G1 X113.269 Y135.958 E0.01152
G1 X113.196 Y136.898 E0.02565
G1 X113.196 Y137.272 E0.01016
G1 X112.701 Y137.272 F10800.000
G1 F1200
G1 X112.701 Y136.979 E0.00795
G1 E-0.80000 F2100.00000
G1 Z0.800 F10800.000
G1 X110.227 Y137.272
G1 Z0.200
G1 E0.80000 F2100.00000
G1 F1200
G1 X110.227 Y136.754 E0.01408
G1 X109.732 Y136.674 E0.01363
G1 X109.732 Y137.139 E0.01264
G1 X109.237 Y137.139 E0.01346
G1 X109.237 Y134.984 E0.05861
G1 X108.742 Y134.758 E0.01479
G1 X108.742 Y137.139 E0.06475
G1 X108.247 Y137.139 E0.01346
G1 X108.247 Y134.347 E0.07592
G1 X109.874 Y135.095 F10800.000
G1 F1200
G1 X109.874 Y136.529 E0.04497
G1 X117.416 Y140.267 F10800.000
G1 F1200
G1 X117.416 Y135.966 E0.13486
G1 X116.662 Y136.050 E0.02379
G1 X116.662 Y140.098 E0.12690
G1 X115.908 Y140.098 E0.02365
G1 X115.908 Y136.095 E0.12550
G1 X115.157 Y136.104 E0.02355
G1 X115.154 Y140.098 E0.12522
G1 X114.399 Y140.098 E0.02365
G1 X114.399 Y137.475 E0.08224
G1 X113.645 Y137.475 E0.02365
G1 X113.645 Y140.098 E0.08224
G1 X112.891 Y140.098 E0.02365
G1 X112.891 Y137.475 E0.08224
G1 X112.190 Y137.475 E0.02199
G1 X112.190 Y136.706 E0.02412
G1 X112.799 Y136.787 E0.01928
G1 X112.874 Y136.727 E0.00301
G1 X112.891 Y135.953 E0.02426
G1 X112.137 Y135.844 E0.02389
G1 X112.137 Y140.098 E0.13336
G1 X111.383 Y140.098 E0.02365
G1 X111.383 Y135.700 E0.13789
