; generated by PrusaSlicer 2.2.0+win64 on 2020-07-30 at 16:52:01 UTC

; 

; external perimeters extrusion width = 0.45mm
; perimeters extrusion width = 0.45mm
; infill extrusion width = 0.45mm
; solid infill extrusion width = 0.45mm
; top infill extrusion width = 0.40mm
; support material extrusion width = 0.35mm
; first layer extrusion width = 0.42mm

M73 P0 R16
M201 X9000 Y9000 Z500 E10000 ; sets maximum accelerations, mm/sec^2
M203 X500 Y500 Z12 E120 ; sets maximum feedrates, mm/sec
M204 P2000 R1500 T2000 ; sets acceleration (P, T) and retract acceleration (R), mm/sec^2
M205 X10.00 Y10.00 Z0.20 E2.50 ; sets the jerk limits, mm/sec
M205 S0 T0 ; sets the minimum extruding and travel feed rate, mm/sec
M107
M862.3 P "MK2.5SMMU2S" ; printer model check
M862.1 P0.4 ; nozzle diameter check
M115 U3.8.0 ; tell printer latest fw version
G90 ; use absolute coordinates
M83 ; extruder relative mode
M104 S215 ; set extruder temp
M140 S60 ; set bed temp
Tx
M190 S60 ; wait for bed temp
M109 S215 ; wait for extruder temp
G28 W ; home all without mesh bed level
G80 ; mesh bed leveling

G21 ; set units to millimeters

;go outside print area
G1 Y-3.0 F1000.0
G1 Z0.4 F1000.0
; select extruder
Tc
; purge line
G1 X55.0 F2000.0
G1 Z0.3 F1000.0
G92 E0.0
G1 X240.0 E25.0 F2200.0
M73 P0 R16
G1 Y-2.0 F1000.0
G1 X55.0 E25 F1400.0
G1 Z0.20 F1000.0
G1 X5.0 E4.0 F1000.0
G92 E0.0
G21 ; set units to millimeters
G90 ; use absolute coordinates
M83 ; use relative distances for extrusion
M900 K0.06 ; Filament gcode LA 1.5
M900 K30 ; Filament gcode LA 1.0
;BEFORE_LAYER_CHANGE
G92 E0.0
;0.2


G1 E-0.80000 F2100.00000
G1 Z0.600 F10800.000
;AFTER_LAYER_CHANGE
;0.2
G1 X96.904 Y92.727
G1 Z0.200
G1 E0.80000 F2100.00000
M204 S1000
G1 F1200.000
G1 X97.777 Y92.006 E0.03549
G1 X116.694 Y80.872 E0.68827
G1 X117.478 Y80.732 E0.02496
G1 X132.496 Y80.732 E0.47086
G1 X133.117 Y80.815 E0.01965
G1 X133.691 Y81.056 E0.01953
G1 X152.182 Y91.928 E0.67256
G1 X152.715 Y92.301 E0.02040
G1 X153.236 Y92.831 E0.02331
G1 X153.703 Y93.559 E0.02711
G1 X153.938 Y94.159 E0.02022
G1 X154.079 Y94.855 E0.02224
G1 X154.094 Y95.446 E0.01855
G1 X153.181 Y105.922 E0.32971
G1 X153.072 Y106.527 E0.01927
G1 X152.859 Y107.128 E0.01998
G1 X142.005 Y126.409 E0.69376
G1 X141.166 Y127.426 E0.04135
G1 X140.496 Y128.007 E0.02779
G1 X139.622 Y128.553 E0.03233
G1 X138.729 Y128.933 E0.03042
G1 X137.893 Y129.149 E0.02708
G1 X136.694 Y129.268 E0.03779
G1 X113.240 Y129.268 E0.73537
G1 X112.099 Y129.150 E0.03596
G1 X111.274 Y128.938 E0.02672
G1 X110.445 Y128.591 E0.02816
G1 X109.319 Y127.866 E0.04201
G1 X108.660 Y127.265 E0.02795
G1 X107.986 Y126.411 E0.03411
G1 X97.124 Y107.076 E0.69535
G1 X96.842 Y105.966 E0.03593
G1 X95.933 Y95.577 E0.32698
G1 X95.996 Y94.553 E0.03215
G1 X96.264 Y93.709 E0.02777
G1 X96.872 Y92.778 E0.03487
G1 E-0.80000 F2100.00000
G1 Z0.800 F10800.000
G1 X147.080 Y106.428
G1 Z0.200
G1 E0.80000 F2100.00000
G1 F1200.000
G1 X144.831 Y106.428 E0.07051
G1 X144.662 Y106.414 E0.00532
G1 X144.389 Y106.321 E0.00905
G1 X144.262 Y106.238 E0.00474
G1 X144.072 Y106.031 E0.00883
G1 X143.954 Y105.765 E0.00910
G1 X143.925 Y105.598 E0.00532
G1 X143.029 Y95.356 E0.32235
G1 X143.028 Y95.186 E0.00535
G1 X143.051 Y95.047 E0.00441
G1 X143.099 Y94.903 E0.00476
G1 X143.168 Y94.775 E0.00456
G1 X143.365 Y94.561 E0.00913
G1 X143.616 Y94.424 E0.00897
G1 X143.763 Y94.386 E0.00475
G1 X143.931 Y94.372 E0.00528
G1 X150.232 Y94.372 E0.19756
G1 X150.402 Y94.387 E0.00536
G1 X150.540 Y94.422 E0.00447
G1 X150.796 Y94.562 E0.00914
G1 X150.992 Y94.775 E0.00909
G1 X151.108 Y95.041 E0.00909
G1 X151.131 Y95.191 E0.00476
G1 X151.131 Y95.356 E0.00517
G1 X150.235 Y105.598 E0.32236
G1 X150.206 Y105.765 E0.00531
G1 X150.158 Y105.902 E0.00455
G1 X150.004 Y106.139 E0.00887
G1 X149.892 Y106.242 E0.00478
G1 X149.648 Y106.374 E0.00869
G1 X149.489 Y106.415 E0.00514
G1 X147.140 Y106.428 E0.07366
G1 X147.080 Y106.805 F10800.000
G1 F1200.000
G1 X144.815 Y106.805 E0.07100
G1 X144.600 Y106.787 E0.00678
G1 X144.405 Y106.738 E0.00630
G1 X144.209 Y106.654 E0.00669
G1 X144.030 Y106.536 E0.00672
G1 X143.883 Y106.401 E0.00627
G1 X143.755 Y106.238 E0.00648
G1 X143.653 Y106.048 E0.00677
G1 X143.587 Y105.859 E0.00625
G1 X143.551 Y105.646 E0.00678
G1 X142.652 Y95.374 E0.32332
G1 X142.651 Y95.156 E0.00682
G1 X142.684 Y94.956 E0.00636
G1 X142.752 Y94.753 E0.00673
G1 X142.850 Y94.569 E0.00653
G1 X142.975 Y94.408 E0.00638
G1 X143.132 Y94.263 E0.00671
G1 X143.306 Y94.148 E0.00653
G1 X143.492 Y94.066 E0.00640
G1 X143.700 Y94.013 E0.00672
G1 X143.915 Y93.995 E0.00677
G1 X150.248 Y93.995 E0.19856
G1 X150.465 Y94.014 E0.00683
G1 X150.663 Y94.065 E0.00641
G1 X150.850 Y94.147 E0.00640
G1 X151.029 Y94.263 E0.00668
G1 X151.182 Y94.404 E0.00653
G1 X151.309 Y94.569 E0.00654
G1 X151.408 Y94.753 E0.00654
G1 X151.475 Y94.950 E0.00653
G1 X151.509 Y95.162 E0.00673
G1 X151.508 Y95.374 E0.00663
G1 X150.609 Y105.646 E0.32333
G1 X150.572 Y105.859 E0.00677
G1 X150.504 Y106.055 E0.00650
G1 X150.405 Y106.237 E0.00651
G1 X150.282 Y106.395 E0.00627
G1 X150.124 Y106.541 E0.00674
G1 X149.950 Y106.654 E0.00649
G1 X149.771 Y106.732 E0.00614
G1 X149.552 Y106.788 E0.00710
G1 X149.344 Y106.805 E0.00652
G1 X147.140 Y106.805 E0.06912
G1 X146.879 Y106.459 F10800.000
G1 E-0.80000 F2100.00000
G1 Z0.800 F10800.000
G1 X151.015 Y95.178
G1 Z0.200
G1 E0.80000 F2100.00000
G1 F1200.000
G1 X150.630 Y94.793 E0.01741
G1 X150.436 Y94.688 E0.00706
G1 X150.219 Y94.655 E0.00700
G1 X149.948 Y94.655 E0.00868
G1 X150.831 Y95.538 E0.03992
G1 X150.787 Y96.038 E0.01606
G1 X149.404 Y94.655 E0.06255
G1 X148.860 Y94.655 E0.01740
G1 X150.743 Y96.538 E0.08517
G1 X150.700 Y97.038 E0.01606
G1 X148.316 Y94.655 E0.10779
G1 X147.772 Y94.655 E0.01740
G1 X150.656 Y97.539 E0.13042
G1 X150.612 Y98.039 E0.01606
G1 X147.228 Y94.655 E0.15304
G1 X146.684 Y94.655 E0.01740
G1 X150.568 Y98.539 E0.17566
G1 X150.524 Y99.039 E0.01606
G1 X146.140 Y94.655 E0.19829
G1 X145.596 Y94.655 E0.01740
G1 X150.481 Y99.539 E0.22091
G1 X150.437 Y100.040 E0.01606
G1 X145.053 Y94.655 E0.24353
G1 X144.509 Y94.655 E0.01740
G1 X150.393 Y100.540 E0.26615
G1 X150.349 Y101.040 E0.01606
G1 X143.965 Y94.655 E0.28878
G1 X143.821 Y94.665 E0.00460
G1 X143.624 Y94.733 E0.00668
G1 X143.554 Y94.788 E0.00285
G1 X150.306 Y101.540 E0.30539
G1 X150.262 Y102.040 E0.01606
G1 X143.337 Y95.116 E0.31319
G1 X143.311 Y95.220 E0.00344
G1 X143.340 Y95.662 E0.01416
G1 X150.218 Y102.540 E0.31110
G1 X150.174 Y103.041 E0.01606
G1 X143.392 Y96.258 E0.30676
G1 X143.444 Y96.854 E0.01914
G1 X150.131 Y103.541 E0.30243
G1 X150.087 Y104.041 E0.01606
G1 X143.496 Y97.450 E0.29809
G1 X143.548 Y98.046 E0.01914
G1 X150.043 Y104.541 E0.29375
G1 X149.999 Y105.041 E0.01606
G1 X143.600 Y98.642 E0.28941
G1 X143.653 Y99.239 E0.01914
G1 X149.956 Y105.541 E0.28507
G1 X149.903 Y105.776 E0.00770
G1 X149.801 Y105.931 E0.00592
G1 X143.705 Y99.835 E0.27574
G1 X143.757 Y100.431 E0.01914
G1 X149.455 Y106.128 E0.25770
G1 X149.317 Y106.145 E0.00442
G1 X148.928 Y106.145 E0.01247
G1 X143.809 Y101.027 E0.23150
G1 X143.861 Y101.623 E0.01914
G1 X148.384 Y106.145 E0.20454
G1 X147.840 Y106.145 E0.01740
G1 X143.913 Y102.219 E0.17758
G1 X143.966 Y102.815 E0.01914
G1 X147.296 Y106.145 E0.15062
G1 X146.752 Y106.145 E0.01740
G1 X144.018 Y103.411 E0.12366
G1 X144.070 Y104.007 E0.01914
G1 X146.208 Y106.145 E0.09670
G1 X145.664 Y106.145 E0.01740
G1 X144.122 Y104.603 E0.06974
G1 X144.174 Y105.199 E0.01914
G1 X145.120 Y106.145 E0.04278
G1 X144.720 Y106.135 E0.01279
G1 X144.514 Y106.065 E0.00696
G1 X144.042 Y105.611 E0.02093
G1 E-0.80000 F2100.00000
G1 Z0.800 F10800.000
G1 X124.995 Y124.481
G1 Z0.200
G1 E0.80000 F2100.00000
G1 F1200.000
G1 X124.545 Y124.441 E0.01415
G1 X124.109 Y124.324 E0.01415
G1 X123.700 Y124.134 E0.01415
G1 X123.331 Y123.875 E0.01415
G1 X123.011 Y123.556 E0.01415
G1 X122.752 Y123.186 E0.01415
G1 X122.562 Y122.777 E0.01415
G1 X122.445 Y122.341 E0.01415
G1 X122.406 Y121.891 E0.01415
G1 X122.445 Y121.442 E0.01415
G1 X122.562 Y121.006 E0.01415
G1 X122.752 Y120.597 E0.01415
G1 X123.011 Y120.227 E0.01415
G1 X123.331 Y119.908 E0.01415
G1 X123.700 Y119.649 E0.01415
G1 X124.109 Y119.458 E0.01415
G1 X124.545 Y119.341 E0.01415
G1 X124.975 Y119.304 E0.01353
G1 X125.442 Y119.341 E0.01469
G1 X125.880 Y119.458 E0.01423
G1 X126.290 Y119.649 E0.01415
G1 X126.659 Y119.908 E0.01415
G1 X126.978 Y120.227 E0.01415
G1 X127.226 Y120.580 E0.01353
G1 X127.427 Y121.003 E0.01469
G1 X127.545 Y121.442 E0.01423
G1 X127.584 Y121.891 E0.01415
G1 X127.545 Y122.341 E0.01415
G1 X127.428 Y122.777 E0.01415
G1 X127.237 Y123.186 E0.01415
G1 X126.978 Y123.556 E0.01415
G1 X126.659 Y123.875 E0.01415
G1 X126.290 Y124.134 E0.01415
G1 X125.880 Y124.324 E0.01415
G1 X125.445 Y124.441 E0.01415
G1 X125.055 Y124.475 E0.01227
G1 X124.995 Y124.102 F10800.000
G1 F1200.000
G1 X124.611 Y124.068 E0.01208
G1 X124.239 Y123.969 E0.01208
G1 X123.889 Y123.806 E0.01208
G1 X123.574 Y123.585 E0.01208
G1 X123.301 Y123.312 E0.01208
G1 X123.080 Y122.997 E0.01208
G1 X122.917 Y122.647 E0.01208
G1 X122.818 Y122.275 E0.01208
G1 X122.784 Y121.891 E0.01208
G1 X122.818 Y121.507 E0.01208
G1 X122.917 Y121.135 E0.01208
G1 X123.080 Y120.786 E0.01208
G1 X123.301 Y120.470 E0.01208
G1 X123.574 Y120.198 E0.01208
G1 X123.889 Y119.977 E0.01208
G1 X124.239 Y119.814 E0.01208
G1 X124.611 Y119.714 E0.01208
G1 X124.977 Y119.682 E0.01151
G1 X125.378 Y119.714 E0.01262
G1 X125.751 Y119.814 E0.01211
G1 X126.100 Y119.977 E0.01208
G1 X126.416 Y120.198 E0.01208
G1 X126.688 Y120.470 E0.01208
G1 X126.899 Y120.771 E0.01151
G1 X127.072 Y121.134 E0.01262
G1 X127.172 Y121.507 E0.01211
G1 X127.206 Y121.891 E0.01208
G1 X127.172 Y122.275 E0.01208
G1 X127.072 Y122.647 E0.01208
G1 X126.909 Y122.997 E0.01208
G1 X126.688 Y123.312 E0.01208
G1 X126.416 Y123.585 E0.01208
G1 X126.100 Y123.806 E0.01208
G1 X125.751 Y123.969 E0.01208
G1 X125.379 Y124.068 E0.01208
G1 X125.055 Y124.097 E0.01020
G1 X124.802 Y124.436 F10800.000
G1 E-0.80000 F2100.00000
G1 Z0.800 F10800.000
G1 X124.995 Y126.304
G1 Z0.200
G1 E0.80000 F2100.00000
G1 F1200.000
G1 X113.325 Y126.304 E0.36591
G1 X112.753 Y126.258 E0.01797
G1 X112.220 Y126.126 E0.01723
G1 X111.715 Y125.911 E0.01723
G1 X111.250 Y125.617 E0.01723
G1 X110.839 Y125.252 E0.01723
G1 X110.492 Y124.826 E0.01723
G1 X110.218 Y124.350 E0.01723
G1 X110.034 Y123.864 E0.01629
G1 X109.914 Y123.296 E0.01823
G1 X109.893 Y122.749 E0.01716
G1 X109.960 Y122.203 E0.01723
G1 X110.121 Y121.653 E0.01797
G1 X118.085 Y100.766 E0.70089
G1 X118.085 Y83.696 E0.53523
G1 X131.905 Y83.696 E0.43331
G1 X131.905 Y100.766 E0.53523
G1 X139.869 Y121.653 E0.70089
G1 X140.030 Y122.203 E0.01797
G1 X140.097 Y122.749 E0.01723
G1 X140.075 Y123.298 E0.01723
G1 X139.966 Y123.836 E0.01723
G1 X139.772 Y124.350 E0.01723
G1 X139.498 Y124.826 E0.01723
G1 X139.151 Y125.252 E0.01723
G1 X138.739 Y125.617 E0.01723
G1 X138.275 Y125.911 E0.01723
G1 X137.770 Y126.126 E0.01723
G1 X137.236 Y126.258 E0.01723
G1 X136.665 Y126.304 E0.01797
G1 X125.055 Y126.304 E0.36403
G1 X124.995 Y126.681 F10800.000
G1 F1200.000
G1 X113.310 Y126.681 E0.36639
G1 X112.693 Y126.631 E0.01940
G1 X112.100 Y126.485 E0.01914
G1 X111.539 Y126.246 E0.01914
G1 X111.023 Y125.919 E0.01914
G1 X110.566 Y125.514 E0.01914
G1 X110.181 Y125.041 E0.01914
G1 X109.876 Y124.512 E0.01914
G1 X109.671 Y123.971 E0.01815
G1 X109.539 Y123.342 E0.02014
G1 X109.515 Y122.733 E0.01911
G1 X109.590 Y122.127 E0.01914
G1 X109.763 Y121.533 E0.01941
G1 X117.708 Y100.697 E0.69919
G1 X117.708 Y83.319 E0.54487
G1 X132.282 Y83.319 E0.45696
G1 X132.282 Y100.697 E0.54487
G1 X140.227 Y121.533 E0.69919
G1 X140.400 Y122.127 E0.01941
G1 X140.475 Y122.733 E0.01914
G1 X140.451 Y123.343 E0.01914
G1 X140.330 Y123.941 E0.01914
G1 X140.114 Y124.512 E0.01914
G1 X139.809 Y125.041 E0.01914
G1 X139.424 Y125.514 E0.01914
G1 X138.967 Y125.919 E0.01914
G1 X138.451 Y126.246 E0.01914
G1 X137.890 Y126.485 E0.01914
G1 X137.297 Y126.631 E0.01914
G1 X136.680 Y126.681 E0.01940
G1 X125.055 Y126.681 E0.36450
G1 X124.794 Y126.335 F10800.000
G1 X124.533 Y126.191
G1 F1200.000
G1 X113.065 Y114.724 E0.51210
G1 X112.917 Y115.113 E0.01314
G1 X123.826 Y126.021 E0.48716
G1 X123.289 Y126.021 E0.01696
G1 X112.769 Y115.501 E0.46979
G1 X112.621 Y115.890 E0.01314
G1 X122.752 Y126.021 E0.45243
G1 X122.215 Y126.021 E0.01696
G1 X112.472 Y116.279 E0.43507
G1 X112.324 Y116.668 E0.01314
G1 X121.678 Y126.021 E0.41771
G1 X121.141 Y126.021 E0.01696
G1 X112.176 Y117.057 E0.40034
G1 X112.028 Y117.445 E0.01314
G1 X120.604 Y126.021 E0.38298
G1 X120.067 Y126.021 E0.01696
G1 X111.879 Y117.834 E0.36562
G1 X111.731 Y118.223 E0.01314
G1 X119.529 Y126.021 E0.34825
G1 X118.992 Y126.021 E0.01696
G1 X111.583 Y118.612 E0.33089
G1 X111.435 Y119.001 E0.01314
G1 X118.455 Y126.021 E0.31353
M73 P6 R15
G1 X117.918 Y126.021 E0.01696
G1 X111.286 Y119.389 E0.29616
G1 X111.138 Y119.778 E0.01314
G1 X117.381 Y126.021 E0.27880
G1 X116.844 Y126.021 E0.01696
G1 X110.990 Y120.167 E0.26144
G1 X110.842 Y120.556 E0.01314
G1 X116.307 Y126.021 E0.24407
G1 X115.770 Y126.021 E0.01696
G1 X110.693 Y120.945 E0.22671
G1 X110.545 Y121.334 E0.01314
G1 X115.233 Y126.021 E0.20935
G1 X114.696 Y126.021 E0.01696
G1 X110.397 Y121.722 E0.19198
G1 X110.274 Y122.137 E0.01365
G1 X114.159 Y126.021 E0.17348
G1 X113.622 Y126.021 E0.01696
G1 X110.197 Y122.596 E0.15295
G1 X110.176 Y122.761 E0.00523
G1 X110.191 Y123.128 E0.01159
G1 X113.063 Y125.999 E0.12825
G1 X112.799 Y125.978 E0.00835
G1 X112.408 Y125.881 E0.01273
G1 X110.305 Y123.779 E0.09389
G1 X110.474 Y124.229 E0.01518
G1 X110.726 Y124.665 E0.01591
G1 X111.040 Y125.050 E0.01568
G1 X111.823 Y125.834 E0.03501
G1 E-0.80000 F2100.00000
G1 Z0.800 F10800.000
G1 X115.158 Y108.760
G1 Z0.200
G1 E0.80000 F2100.00000
G1 F1200.000
G1 X125.456 Y119.058 E0.45988
G1 X124.888 Y119.027 E0.01795
G1 X115.141 Y109.280 E0.43527
G1 X114.993 Y109.669 E0.01314
G1 X124.409 Y119.085 E0.42049
G1 X123.989 Y119.202 E0.01377
G1 X114.845 Y110.058 E0.40836
G1 X114.696 Y110.447 E0.01314
G1 X123.622 Y119.373 E0.39862
G1 X123.298 Y119.585 E0.01225
G1 X114.548 Y110.836 E0.39074
G1 X114.400 Y111.224 E0.01314
G1 X123.007 Y119.832 E0.38437
G1 X122.748 Y120.110 E0.01200
G1 X114.252 Y111.613 E0.37943
G1 X114.103 Y112.002 E0.01314
G1 X122.527 Y120.426 E0.37618
G1 X122.351 Y120.787 E0.01269
G1 X113.955 Y112.391 E0.37496
G1 X113.807 Y112.780 E0.01314
G1 X122.219 Y121.192 E0.37567
G1 X122.165 Y121.392 E0.00655
G1 X122.143 Y121.653 E0.00825
G1 X113.658 Y113.169 E0.37888
G1 X113.510 Y113.557 E0.01314
G1 X122.148 Y122.195 E0.38575
G1 X122.165 Y122.390 E0.00617
G1 X122.300 Y122.884 E0.01615
G1 X113.362 Y113.946 E0.39913
G1 X113.214 Y114.335 E0.01314
G1 X124.900 Y126.021 E0.52188
G1 X125.437 Y126.021 E0.01696
G1 X124.002 Y124.587 E0.06407
G1 X124.496 Y124.721 E0.01615
G1 X124.691 Y124.738 E0.00617
G1 X125.974 Y126.021 E0.05732
G1 X126.511 Y126.021 E0.01696
G1 X125.234 Y124.744 E0.05706
G1 X125.494 Y124.721 E0.00825
G1 X125.694 Y124.667 E0.00655
G1 X127.048 Y126.021 E0.06048
G1 X127.585 Y126.021 E0.01696
G1 X126.099 Y124.535 E0.06639
G1 X126.460 Y124.359 E0.01269
G1 X128.123 Y126.021 E0.07423
G1 X128.660 Y126.021 E0.01696
G1 X126.776 Y124.138 E0.08410
G1 X127.055 Y123.879 E0.01200
G1 X129.197 Y126.021 E0.09566
G1 X129.734 Y126.021 E0.01696
G1 X127.301 Y123.588 E0.10865
G1 X127.513 Y123.264 E0.01225
G1 X130.271 Y126.021 E0.12315
G1 X130.808 Y126.021 E0.01696
G1 X127.684 Y122.897 E0.13951
G1 X127.801 Y122.477 E0.01377
G1 X131.345 Y126.021 E0.15826
G1 X131.882 Y126.021 E0.01696
G1 X127.859 Y121.998 E0.17967
G1 X127.868 Y121.891 E0.00339
G1 X127.828 Y121.430 E0.01462
G1 X132.419 Y126.021 E0.20504
G1 X132.956 Y126.021 E0.01696
G1 X115.438 Y108.503 E0.78233
G1 X115.586 Y108.114 E0.01314
G1 X133.493 Y126.021 E0.79970
G1 X134.030 Y126.021 E0.01696
G1 X115.734 Y107.725 E0.81706
G1 X115.882 Y107.336 E0.01314
G1 X134.567 Y126.021 E0.83442
G1 X135.104 Y126.021 E0.01696
G1 X116.031 Y106.948 E0.85179
G1 X116.179 Y106.559 E0.01314
G1 X135.641 Y126.021 E0.86915
G1 X136.179 Y126.021 E0.01696
G1 X116.327 Y106.170 E0.88651
G1 X116.475 Y105.781 E0.01314
G1 X136.711 Y126.017 E0.90367
G1 X137.206 Y125.974 E0.01568
G1 X116.624 Y105.392 E0.91914
G1 X116.772 Y105.004 E0.01314
