; generated by PrusaSlicer 2.2.0+win64 on 2020-11-03 at 17:52:41 UTC

; 

; external perimeters extrusion width = 0.60mm
; perimeters extrusion width = 0.43mm
; infill extrusion width = 0.45mm
; solid infill extrusion width = 0.70mm
; top infill extrusion width = 0.43mm
; first layer extrusion width = 0.42mm

M73 P0 R34
M201 X9000 Y9000 Z500 E10000 ; sets maximum accelerations, mm/sec^2
M203 X500 Y500 Z12 E120 ; sets maximum feedrates, mm/sec
M204 P2000 R1500 T2000 ; sets acceleration (P, T) and retract acceleration (R), mm/sec^2
M205 X10.00 Y10.00 Z0.20 E2.50 ; sets the jerk limits, mm/sec
M205 S0 T0 ; sets the minimum extruding and travel feed rate, mm/sec
M107
M862.3 P "MK2.5SMMU2S" ; printer model check
M862.1 P0.4 ; nozzle diameter check
M115 U3.8.0 ; tell printer latest fw version
G90 ; use absolute coordinates
M83 ; extruder relative mode
M104 S215 ; set extruder temp
M140 S60 ; set bed temp
Tx
M190 S60 ; wait for bed temp
M109 S215 ; wait for extruder temp
G28 W ; home all without mesh bed level
G80 ; mesh bed leveling

G21 ; set units to millimeters

;go outside print area
G1 Y-3.0 F1000.0
G1 Z0.4 F1000.0
; select extruder
Tc
; purge line
G1 X55.0 F2000.0
G1 Z0.3 F1000.0
G92 E0.0
G1 X240.0 E25.0 F2200.0
M73 P0 R34
G1 Y-2.0 F1000.0
G1 X55.0 E25 F1400.0
G1 Z0.20 F1000.0
G1 X5.0 E4.0 F1000.0
G92 E0.0
G21 ; set units to millimeters
G90 ; use absolute coordinates
M83 ; use relative distances for extrusion
M900 K0.06 ; Filament gcode LA 1.5
M900 K30 ; Filament gcode LA 1.0
;BEFORE_LAYER_CHANGE
G92 E0.0
;0.2


G1 E-0.80000 F2100.00000
G1 Z0.600 F10800.000
;AFTER_LAYER_CHANGE
;0.2
G1 X68.763 Y112.947
G1 Z0.200
G1 E0.80000 F2100.00000
M204 S1000
G1 F1200.000
G1 X69.142 Y112.268 E0.02437
G1 X89.591 Y91.836 E0.90638
G1 X132.496 Y63.231 E1.61681
G1 X132.991 Y62.998 E0.01716
G1 X133.526 Y62.884 E0.01716
G1 X136.254 Y62.873 E0.08552
G1 X136.793 Y62.936 E0.01704
G1 X137.301 Y63.118 E0.01692
G1 X137.758 Y63.413 E0.01704
G1 X138.134 Y63.801 E0.01692
G1 X181.095 Y121.129 E2.24620
G1 X181.301 Y121.656 E0.01775
G1 X181.376 Y122.221 E0.01787
G1 X181.376 Y144.773 E0.70709
G1 X181.239 Y145.546 E0.02461
G1 X180.858 Y146.232 E0.02461
G1 X180.482 Y146.608 E0.01668
G1 X180.035 Y146.890 E0.01657
G1 X179.533 Y147.066 E0.01668
G1 X179.008 Y147.127 E0.01657
G1 X70.989 Y147.127 E3.38686
G1 X70.209 Y146.991 E0.02484
G1 X69.519 Y146.609 E0.02473
G1 X69.147 Y146.238 E0.01645
G1 X68.864 Y145.792 E0.01657
G1 X68.687 Y145.295 E0.01657
G1 X68.624 Y144.774 E0.01645
G1 X68.624 Y113.712 E0.97392
G1 X68.752 Y113.006 E0.02249
G1 E-0.80000 F2100.00000
G1 Z0.800 F10800.000
G1 X114.537 Y86.963
G1 Z0.200
G1 E0.80000 F2100.00000
G1 F1200.000
G1 X114.537 Y86.037 E0.02903
G1 X134.537 Y86.037 E0.62709
G1 X134.537 Y66.037 E0.62708
G1 X135.463 Y66.037 E0.02902
G1 X135.463 Y86.963 E0.65611
G1 X114.597 Y86.963 E0.65422
G1 E-0.80000 F2100.00000
G1 Z0.800 F10800.000
G1 X134.160 Y85.660
G1 Z0.200
G1 E0.80000 F2100.00000
G1 F1200.000
G1 X134.160 Y65.660 E0.62708
G1 X135.840 Y65.660 E0.05266
G1 X135.840 Y87.340 E0.67976
G1 X114.160 Y87.340 E0.67975
G1 X114.160 Y85.660 E0.05268
G1 X134.100 Y85.660 E0.62521
G1 X134.560 Y85.649 F10800.000
G1 E-0.80000 F2100.00000
G1 Z0.800 F10800.000
G1 X114.721 Y86.150
G1 Z0.200
G1 E0.80000 F2100.00000
G1 F1200.000
G1 X115.251 Y86.680 E0.02373
G1 X115.790 Y86.680 E0.01706
G1 X115.429 Y86.320 E0.01613
G1 X115.968 Y86.320 E0.01706
G1 X116.328 Y86.680 E0.01613
G1 X116.867 Y86.680 E0.01706
G1 X116.507 Y86.320 E0.01613
G1 X117.045 Y86.320 E0.01706
G1 X117.405 Y86.680 E0.01613
G1 X117.944 Y86.680 E0.01706
G1 X117.584 Y86.320 E0.01613
G1 X118.122 Y86.320 E0.01706
G1 X118.483 Y86.680 E0.01613
G1 X119.021 Y86.680 E0.01706
G1 X118.661 Y86.320 E0.01613
G1 X119.200 Y86.320 E0.01706
G1 X119.560 Y86.680 E0.01613
G1 X120.099 Y86.680 E0.01706
G1 X119.738 Y86.320 E0.01613
G1 X120.277 Y86.320 E0.01706
G1 X120.637 Y86.680 E0.01613
G1 X121.176 Y86.680 E0.01706
G1 X120.816 Y86.320 E0.01613
G1 X121.354 Y86.320 E0.01706
G1 X121.714 Y86.680 E0.01613
G1 X122.253 Y86.680 E0.01706
G1 X121.893 Y86.320 E0.01613
G1 X122.431 Y86.320 E0.01706
G1 X122.792 Y86.680 E0.01613
G1 X123.330 Y86.680 E0.01706
G1 X122.970 Y86.320 E0.01613
G1 X123.509 Y86.320 E0.01706
G1 X123.869 Y86.680 E0.01613
G1 X124.408 Y86.680 E0.01706
G1 X124.047 Y86.320 E0.01613
G1 X124.586 Y86.320 E0.01706
G1 X124.946 Y86.680 E0.01613
G1 X125.485 Y86.680 E0.01706
G1 X125.125 Y86.320 E0.01613
G1 X125.663 Y86.320 E0.01706
G1 X126.023 Y86.680 E0.01613
G1 X126.562 Y86.680 E0.01706
G1 X126.202 Y86.320 E0.01613
G1 X126.740 Y86.320 E0.01706
G1 X127.101 Y86.680 E0.01613
G1 X127.639 Y86.680 E0.01706
G1 X127.279 Y86.320 E0.01613
G1 X127.818 Y86.320 E0.01706
G1 X128.178 Y86.680 E0.01613
G1 X128.717 Y86.680 E0.01706
G1 X128.356 Y86.320 E0.01613
G1 X128.895 Y86.320 E0.01706
G1 X129.255 Y86.680 E0.01613
G1 X129.794 Y86.680 E0.01706
G1 X129.434 Y86.320 E0.01613
G1 X129.972 Y86.320 E0.01706
G1 X130.332 Y86.680 E0.01613
G1 X130.871 Y86.680 E0.01706
G1 X130.511 Y86.320 E0.01613
G1 X131.049 Y86.320 E0.01706
G1 X131.410 Y86.680 E0.01613
G1 X131.948 Y86.680 E0.01706
G1 X131.588 Y86.320 E0.01613
G1 X132.127 Y86.320 E0.01706
G1 X132.487 Y86.680 E0.01613
G1 X133.026 Y86.680 E0.01706
G1 X132.665 Y86.320 E0.01613
G1 X133.204 Y86.320 E0.01706
G1 X133.564 Y86.680 E0.01613
G1 X134.103 Y86.680 E0.01706
G1 X133.743 Y86.320 E0.01613
G1 X134.281 Y86.320 E0.01706
G1 X134.641 Y86.680 E0.01613
G1 X135.180 Y86.680 E0.01706
G1 X134.820 Y86.320 E0.01613
G1 X134.820 Y85.782 E0.01705
G1 X135.180 Y86.141 E0.01611
G1 X135.180 Y85.603 E0.01706
G1 X134.820 Y85.243 E0.01611
G1 X134.820 Y84.704 E0.01706
G1 X135.180 Y85.064 E0.01611
G1 X135.180 Y84.526 E0.01706
G1 X134.820 Y84.166 E0.01611
G1 X134.820 Y83.627 E0.01706
G1 X135.180 Y83.987 E0.01611
G1 X135.180 Y83.448 E0.01706
G1 X134.820 Y83.089 E0.01611
G1 X134.820 Y82.550 E0.01706
G1 X135.180 Y82.910 E0.01611
G1 X135.180 Y82.371 E0.01706
G1 X134.820 Y82.011 E0.01611
G1 X134.820 Y81.473 E0.01706
G1 X135.180 Y81.832 E0.01611
G1 X135.180 Y81.294 E0.01706
G1 X134.820 Y80.934 E0.01611
G1 X134.820 Y80.395 E0.01706
G1 X135.180 Y80.755 E0.01611
G1 X135.180 Y80.217 E0.01706
G1 X134.820 Y79.857 E0.01611
G1 X134.820 Y79.318 E0.01706
G1 X135.180 Y79.678 E0.01611
G1 X135.180 Y79.139 E0.01706
G1 X134.820 Y78.780 E0.01611
G1 X134.820 Y78.241 E0.01706
G1 X135.180 Y78.601 E0.01611
G1 X135.180 Y78.062 E0.01706
G1 X134.820 Y77.702 E0.01611
G1 X134.820 Y77.164 E0.01706
G1 X135.180 Y77.523 E0.01611
G1 X135.180 Y76.985 E0.01706
G1 X134.820 Y76.625 E0.01611
G1 X134.820 Y76.086 E0.01706
G1 X135.180 Y76.446 E0.01611
G1 X135.180 Y75.908 E0.01706
G1 X134.820 Y75.548 E0.01611
G1 X134.820 Y75.009 E0.01706
G1 X135.180 Y75.369 E0.01611
G1 X135.180 Y74.830 E0.01706
G1 X134.820 Y74.471 E0.01611
G1 X134.820 Y73.932 E0.01706
G1 X135.180 Y74.292 E0.01611
G1 X135.180 Y73.753 E0.01706
G1 X134.820 Y73.393 E0.01611
G1 X134.820 Y72.855 E0.01706
G1 X135.180 Y73.214 E0.01611
G1 X135.180 Y72.676 E0.01706
G1 X134.820 Y72.316 E0.01611
G1 X134.820 Y71.777 E0.01706
G1 X135.180 Y72.137 E0.01611
G1 X135.180 Y71.599 E0.01706
G1 X134.820 Y71.239 E0.01611
G1 X134.820 Y70.700 E0.01706
G1 X135.180 Y71.060 E0.01611
G1 X135.180 Y70.521 E0.01706
G1 X134.820 Y70.162 E0.01611
G1 X134.820 Y69.623 E0.01706
G1 X135.180 Y69.983 E0.01611
G1 X135.180 Y69.444 E0.01706
G1 X134.820 Y69.084 E0.01611
G1 X134.820 Y68.546 E0.01706
G1 X135.180 Y68.905 E0.01611
G1 X135.180 Y68.367 E0.01706
G1 X134.820 Y68.007 E0.01611
G1 X134.820 Y67.468 E0.01706
G1 X135.180 Y67.828 E0.01611
G1 X135.180 Y67.290 E0.01706
G1 X134.820 Y66.930 E0.01611
G1 X134.820 Y66.391 E0.01706
G1 X135.350 Y66.921 E0.02371
G1 E-0.80000 F2100.00000
G1 Z0.800 F10800.000
G1 X148.787 Y94.537
G1 Z0.200
G1 E0.80000 F2100.00000
G1 F1200.000
G1 X149.713 Y94.537 E0.02902
G1 X149.713 Y115.463 E0.65611
G1 X128.787 Y115.463 E0.65611
G1 X128.787 Y114.537 E0.02903
G1 X148.787 Y114.537 E0.62709
G1 X148.787 Y94.597 E0.62520
G1 E-0.80000 F2100.00000
G1 Z0.800 F10800.000
G1 X148.410 Y114.160
G1 Z0.200
G1 E0.80000 F2100.00000
G1 F1200.000
G1 X148.410 Y94.160 E0.62708
G1 X150.090 Y94.160 E0.05266
G1 X150.090 Y115.840 E0.67976
G1 X128.410 Y115.840 E0.67975
G1 X128.410 Y114.160 E0.05268
G1 X148.350 Y114.160 E0.62521
G1 X148.810 Y114.149 F10800.000
G1 E-0.80000 F2100.00000
G1 Z0.800 F10800.000
G1 X128.971 Y114.650
G1 Z0.200
G1 E0.80000 F2100.00000
G1 F1200.000
G1 X129.501 Y115.180 E0.02373
G1 X130.039 Y115.180 E0.01706
G1 X129.679 Y114.820 E0.01613
G1 X130.218 Y114.820 E0.01706
G1 X130.578 Y115.180 E0.01613
G1 X131.117 Y115.180 E0.01706
G1 X130.756 Y114.820 E0.01613
G1 X131.295 Y114.820 E0.01706
G1 X131.655 Y115.180 E0.01613
G1 X132.194 Y115.180 E0.01706
G1 X131.834 Y114.820 E0.01613
G1 X132.372 Y114.820 E0.01706
G1 X132.732 Y115.180 E0.01613
G1 X133.271 Y115.180 E0.01706
G1 X132.911 Y114.820 E0.01613
G1 X133.449 Y114.820 E0.01706
G1 X133.810 Y115.180 E0.01613
G1 X134.348 Y115.180 E0.01706
G1 X133.988 Y114.820 E0.01613
G1 X134.527 Y114.820 E0.01706
G1 X134.887 Y115.180 E0.01613
G1 X135.426 Y115.180 E0.01706
G1 X135.065 Y114.820 E0.01613
G1 X135.604 Y114.820 E0.01706
G1 X135.964 Y115.180 E0.01613
G1 X136.503 Y115.180 E0.01706
G1 X136.143 Y114.820 E0.01613
G1 X136.681 Y114.820 E0.01706
G1 X137.041 Y115.180 E0.01613
G1 X137.580 Y115.180 E0.01706
G1 X137.220 Y114.820 E0.01613
G1 X137.758 Y114.820 E0.01706
G1 X138.119 Y115.180 E0.01613
G1 X138.657 Y115.180 E0.01706
G1 X138.297 Y114.820 E0.01613
G1 X138.836 Y114.820 E0.01706
G1 X139.196 Y115.180 E0.01613
G1 X139.735 Y115.180 E0.01706
G1 X139.374 Y114.820 E0.01613
G1 X139.913 Y114.820 E0.01706
G1 X140.273 Y115.180 E0.01613
G1 X140.812 Y115.180 E0.01706
G1 X140.452 Y114.820 E0.01613
G1 X140.990 Y114.820 E0.01706
G1 X141.350 Y115.180 E0.01613
G1 X141.889 Y115.180 E0.01706
G1 X141.529 Y114.820 E0.01613
G1 X142.067 Y114.820 E0.01706
G1 X142.428 Y115.180 E0.01613
G1 X142.966 Y115.180 E0.01706
G1 X142.606 Y114.820 E0.01613
G1 X143.145 Y114.820 E0.01706
G1 X143.505 Y115.180 E0.01613
G1 X144.044 Y115.180 E0.01706
G1 X143.683 Y114.820 E0.01613
G1 X144.222 Y114.820 E0.01706
G1 X144.582 Y115.180 E0.01613
G1 X145.121 Y115.180 E0.01706
G1 X144.761 Y114.820 E0.01613
G1 X145.299 Y114.820 E0.01706
G1 X145.659 Y115.180 E0.01613
G1 X146.198 Y115.180 E0.01706
G1 X145.838 Y114.820 E0.01613
G1 X146.377 Y114.820 E0.01706
G1 X146.737 Y115.180 E0.01613
G1 X147.275 Y115.180 E0.01706
G1 X146.915 Y114.820 E0.01613
G1 X147.454 Y114.820 E0.01706
G1 X147.814 Y115.180 E0.01613
G1 X148.353 Y115.180 E0.01706
G1 X147.992 Y114.820 E0.01613
G1 X148.531 Y114.820 E0.01706
G1 X148.891 Y115.180 E0.01613
G1 X149.430 Y115.180 E0.01706
G1 X149.070 Y114.820 E0.01613
G1 X149.070 Y114.282 E0.01705
G1 X149.430 Y114.641 E0.01611
G1 X149.430 Y114.103 E0.01706
G1 X149.070 Y113.743 E0.01611
G1 X149.070 Y113.204 E0.01706
G1 X149.430 Y113.564 E0.01611
G1 X149.430 Y113.026 E0.01706
G1 X149.070 Y112.666 E0.01611
G1 X149.070 Y112.127 E0.01706
G1 X149.430 Y112.487 E0.01611
G1 X149.430 Y111.948 E0.01706
G1 X149.070 Y111.588 E0.01611
G1 X149.070 Y111.050 E0.01706
G1 X149.430 Y111.410 E0.01611
G1 X149.430 Y110.871 E0.01706
G1 X149.070 Y110.511 E0.01611
G1 X149.070 Y109.973 E0.01706
G1 X149.430 Y110.332 E0.01611
G1 X149.430 Y109.794 E0.01706
G1 X149.070 Y109.434 E0.01611
G1 X149.070 Y108.895 E0.01706
G1 X149.430 Y109.255 E0.01611
G1 X149.430 Y108.717 E0.01706
G1 X149.070 Y108.357 E0.01611
G1 X149.070 Y107.818 E0.01706
G1 X149.430 Y108.178 E0.01611
G1 X149.430 Y107.639 E0.01706
G1 X149.070 Y107.279 E0.01611
G1 X149.070 Y106.741 E0.01706
G1 X149.430 Y107.101 E0.01611
G1 X149.430 Y106.562 E0.01706
G1 X149.070 Y106.202 E0.01611
G1 X149.070 Y105.664 E0.01706
G1 X149.430 Y106.023 E0.01611
G1 X149.430 Y105.485 E0.01706
G1 X149.070 Y105.125 E0.01611
G1 X149.070 Y104.586 E0.01706
G1 X149.430 Y104.946 E0.01611
G1 X149.430 Y104.407 E0.01706
G1 X149.070 Y104.048 E0.01611
G1 X149.070 Y103.509 E0.01706
G1 X149.430 Y103.869 E0.01611
G1 X149.430 Y103.330 E0.01706
G1 X149.070 Y102.970 E0.01611
G1 X149.070 Y102.432 E0.01706
G1 X149.430 Y102.792 E0.01611
G1 X149.430 Y102.253 E0.01706
G1 X149.070 Y101.893 E0.01611
G1 X149.070 Y101.355 E0.01706
G1 X149.430 Y101.714 E0.01611
G1 X149.430 Y101.176 E0.01706
G1 X149.070 Y100.816 E0.01611
G1 X149.070 Y100.277 E0.01706
G1 X149.430 Y100.637 E0.01611
G1 X149.430 Y100.098 E0.01706
G1 X149.070 Y99.739 E0.01611
G1 X149.070 Y99.200 E0.01706
G1 X149.430 Y99.560 E0.01611
G1 X149.430 Y99.021 E0.01706
G1 X149.070 Y98.661 E0.01611
G1 X149.070 Y98.123 E0.01706
G1 X149.430 Y98.483 E0.01611
G1 X149.430 Y97.944 E0.01706
G1 X149.070 Y97.584 E0.01611
G1 X149.070 Y97.046 E0.01706
G1 X149.430 Y97.405 E0.01611
G1 X149.430 Y96.867 E0.01706
G1 X149.070 Y96.507 E0.01611
G1 X149.070 Y95.968 E0.01706
G1 X149.430 Y96.328 E0.01611
G1 X149.430 Y95.789 E0.01706
G1 X149.070 Y95.430 E0.01611
G1 X149.070 Y94.891 E0.01706
G1 X149.599 Y95.421 E0.02371
G1 E-0.80000 F2100.00000
G1 Z0.800 F10800.000
G1 X120.288 Y114.537
G1 Z0.200
G1 E0.80000 F2100.00000
G1 F1200.000
G1 X120.288 Y94.537 E0.62708
G1 X121.213 Y94.537 E0.02902
G1 X121.213 Y115.463 E0.65611
M73 P3 R33
G1 X100.287 Y115.463 E0.65611
G1 X100.287 Y114.537 E0.02903
G1 X120.228 Y114.537 E0.62521
G1 X119.910 Y114.160 F10800.000
G1 F1200.000
G1 X119.910 Y94.160 E0.62708
G1 X121.590 Y94.160 E0.05266
G1 X121.590 Y115.840 E0.67976
G1 X99.910 Y115.840 E0.67975
G1 X99.910 Y114.160 E0.05268
G1 X119.850 Y114.160 E0.62521
G1 X120.310 Y114.149 F10800.000
G1 E-0.80000 F2100.00000
G1 Z0.800 F10800.000
G1 X100.471 Y114.650
G1 Z0.200
G1 E0.80000 F2100.00000
G1 F1200.000
G1 X101.001 Y115.180 E0.02373
G1 X101.540 Y115.180 E0.01706
G1 X101.179 Y114.820 E0.01613
G1 X101.718 Y114.820 E0.01706
G1 X102.078 Y115.180 E0.01613
G1 X102.617 Y115.180 E0.01706
G1 X102.257 Y114.820 E0.01613
G1 X102.795 Y114.820 E0.01706
G1 X103.156 Y115.180 E0.01613
G1 X103.694 Y115.180 E0.01706
G1 X103.334 Y114.820 E0.01613
G1 X103.873 Y114.820 E0.01706
G1 X104.233 Y115.180 E0.01613
G1 X104.771 Y115.180 E0.01706
G1 X104.411 Y114.820 E0.01613
G1 X104.950 Y114.820 E0.01706
G1 X105.310 Y115.180 E0.01613
G1 X105.849 Y115.180 E0.01706
G1 X105.488 Y114.820 E0.01613
G1 X106.027 Y114.820 E0.01706
G1 X106.387 Y115.180 E0.01613
G1 X106.926 Y115.180 E0.01706
G1 X106.566 Y114.820 E0.01613
G1 X107.104 Y114.820 E0.01706
G1 X107.465 Y115.180 E0.01613
G1 X108.003 Y115.180 E0.01706
G1 X107.643 Y114.820 E0.01613
G1 X108.182 Y114.820 E0.01706
G1 X108.542 Y115.180 E0.01613
G1 X109.080 Y115.180 E0.01706
G1 X108.720 Y114.820 E0.01613
G1 X109.259 Y114.820 E0.01706
G1 X109.619 Y115.180 E0.01613
G1 X110.158 Y115.180 E0.01706
G1 X109.797 Y114.820 E0.01613
G1 X110.336 Y114.820 E0.01706
G1 X110.696 Y115.180 E0.01613
G1 X111.235 Y115.180 E0.01706
G1 X110.875 Y114.820 E0.01613
G1 X111.413 Y114.820 E0.01706
G1 X111.774 Y115.180 E0.01613
G1 X112.312 Y115.180 E0.01706
G1 X111.952 Y114.820 E0.01613
G1 X112.491 Y114.820 E0.01706
G1 X112.851 Y115.180 E0.01613
G1 X113.389 Y115.180 E0.01706
G1 X113.029 Y114.820 E0.01613
G1 X113.568 Y114.820 E0.01706
G1 X113.928 Y115.180 E0.01613
G1 X114.467 Y115.180 E0.01706
G1 X114.106 Y114.820 E0.01613
G1 X114.645 Y114.820 E0.01706
G1 X115.005 Y115.180 E0.01613
G1 X115.544 Y115.180 E0.01706
G1 X115.184 Y114.820 E0.01613
G1 X115.722 Y114.820 E0.01706
G1 X116.083 Y115.180 E0.01613
G1 X116.621 Y115.180 E0.01706
G1 X116.261 Y114.820 E0.01613
G1 X116.800 Y114.820 E0.01706
G1 X117.160 Y115.180 E0.01613
G1 X117.698 Y115.180 E0.01706
G1 X117.338 Y114.820 E0.01613
G1 X117.877 Y114.820 E0.01706
G1 X118.237 Y115.180 E0.01613
G1 X118.776 Y115.180 E0.01706
G1 X118.415 Y114.820 E0.01613
G1 X118.954 Y114.820 E0.01706
G1 X119.314 Y115.180 E0.01613
G1 X119.853 Y115.180 E0.01706
G1 X119.493 Y114.820 E0.01613
G1 X120.031 Y114.820 E0.01706
G1 X120.392 Y115.180 E0.01613
G1 X120.930 Y115.180 E0.01706
G1 X120.570 Y114.820 E0.01613
G1 X120.570 Y114.282 E0.01705
G1 X120.930 Y114.641 E0.01611
G1 X120.930 Y114.103 E0.01706
G1 X120.570 Y113.743 E0.01611
G1 X120.570 Y113.204 E0.01706
G1 X120.930 Y113.564 E0.01611
G1 X120.930 Y113.026 E0.01706
G1 X120.570 Y112.666 E0.01611
G1 X120.570 Y112.127 E0.01706
G1 X120.930 Y112.487 E0.01611
