; generated by PrusaSlicer 2.1.1+win64 on 2019-12-14 at 01:26:55 UTC

; 

; external perimeters extrusion width = 0.45mm
; perimeters extrusion width = 0.45mm
; infill extrusion width = 0.45mm
; solid infill extrusion width = 0.45mm
; top infill extrusion width = 0.40mm
; first layer extrusion width = 0.42mm

M73 P0 R285
M201 X9000 Y9000 Z500 E10000 ; sets maximum accelerations, mm/sec^2
M203 X500 Y500 Z12 E120 ; sets maximum feedrates, mm/sec
M204 P2000 R1500 T2000 ; sets acceleration (P, T) and retract acceleration (R), mm/sec^2
M205 X10.00 Y10.00 Z0.20 E2.50 ; sets the jerk limits, mm/sec
M205 S0 T0 ; sets the minimum extruding and travel feed rate, mm/sec
M107
M862.3 P "MK2.5SMMU2S" ; printer model check
M862.1 P0.4 ; nozzle diameter check
M115 U3.8.1 ; tell printer latest fw version
G90 ; use absolute coordinates
M83 ; extruder relative mode
M104 S215 ; set extruder temp
M140 S60 ; set bed temp
Tx
M190 S60 ; wait for bed temp
M109 S215 ; wait for extruder temp
G28 W ; home all without mesh bed level
G80 ; mesh bed leveling

;go outside print area
G1 Y-3.0 F1000.0
G1 Z0.4 F1000.0
; select extruder
Tc
; purge line
G1 X55.0 F2000.0
G1 Z0.3 F1000.0
G92 E0.0
G1 X240.0 E25.0 F2200.0
M73 P0 R285
G1 Y-2.0 F1000.0
G1 X55.0 E25 F1400.0
G1 Z0.20 F1000.0
G1 X5.0 E4.0 F1000.0
G92 E0.0
G21 ; set units to millimeters
G90 ; use absolute coordinates
M83 ; use relative distances for extrusion
M900 K30 ; Filament gcode
;BEFORE_LAYER_CHANGE
G92 E0.0
;0.2


G1 E-0.80000 F2100.00000
G1 Z0.600 F10800.000
;AFTER_LAYER_CHANGE
;0.2
G1 X14.291 Y205.655
G1 Z0.200
G1 E0.80000 F2100.00000
M204 S1000
G1 F1200
G1 X14.042 Y204.824 E0.02721
G1 X14.043 Y197.562 E0.22769
G1 X27.058 Y80.244 E3.70098
G1 X41.323 Y4.959 E2.40253
G1 X41.488 Y4.449 E0.01680
G1 X41.770 Y3.997 E0.01669
G1 X42.115 Y3.656 E0.01521
G1 X42.523 Y3.401 E0.01510
G1 X42.981 Y3.241 E0.01521
G1 X43.459 Y3.185 E0.01510
G1 X179.028 Y3.185 E4.25067
G1 X179.807 Y3.330 E0.02484
G1 X180.484 Y3.742 E0.02484
G1 X218.883 Y38.367 E1.62116
G1 X219.272 Y38.839 E0.01919
G1 X219.515 Y39.397 E0.01908
G1 X235.957 Y154.079 E3.63256
G1 X235.967 Y204.647 E1.58551
G1 X235.839 Y205.363 E0.02281
G1 X235.480 Y206.000 E0.02293
G1 X235.136 Y206.342 E0.01521
G1 X234.721 Y206.600 E0.01532
G1 X234.263 Y206.759 E0.01521
G1 X233.780 Y206.813 E0.01521
G1 X16.218 Y206.813 E6.82152
G1 X15.490 Y206.688 E0.02315
G1 X14.846 Y206.327 E0.02315
G1 X14.329 Y205.702 E0.02544
G1 F8640
G1 X14.042 Y204.824 E-0.21319
G1 X14.043 Y202.456 E-0.54681
G1 E-0.04000 F2100.00000
G1 Z0.800 F10800.000
G1 X34.494 Y114.191
G1 Z0.200
G1 E0.80000 F2100.00000
G1 F1200
G1 X29.990 Y114.191 E0.14122
G1 X29.990 Y101.905 E0.38525
G1 X30.722 Y99.875 E0.06763
G1 X38.266 Y99.875 E0.23653
G1 X38.998 Y101.905 E0.06764
G1 X38.998 Y114.191 E0.38525
G1 X34.554 Y114.191 E0.13934
G1 X34.173 Y113.952 F10800.000
G1 X34.494 Y113.814
G1 F1200
G1 X30.367 Y113.814 E0.12940
G1 X30.367 Y101.970 E0.37136
G1 X30.986 Y100.253 E0.05726
G1 X38.001 Y100.253 E0.21993
G1 X38.621 Y101.970 E0.05727
G1 X38.621 Y113.814 E0.37136
G1 X34.554 Y113.814 E0.12752
G1 F8640
G1 X31.262 Y113.814 E-0.76000
G1 E-0.04000 F2100.00000
G1 Z0.800 F10800.000
G1 X30.480 Y112.937
G1 Z0.200
G1 E0.80000 F2100.00000
G1 F1200
G1 X31.074 Y113.532 E0.02642
G1 X31.609 Y113.532 E0.01680
G1 X30.650 Y112.572 E0.04264
G1 X30.650 Y112.038 E0.01680
G1 X32.143 Y113.532 E0.06639
G1 X32.678 Y113.532 E0.01680
G1 X30.650 Y111.503 E0.09015
G1 X30.650 Y110.969 E0.01680
G1 X33.212 Y113.532 E0.11391
G1 X33.747 Y113.532 E0.01680
G1 X30.650 Y110.434 E0.13767
G1 X30.650 Y109.900 E0.01680
G1 X34.281 Y113.532 E0.16143
G1 X34.816 Y113.532 E0.01680
G1 X30.650 Y109.365 E0.18519
G1 X30.650 Y108.831 E0.01680
G1 X35.351 Y113.532 E0.20894
G1 X35.885 Y113.532 E0.01680
G1 X30.650 Y108.296 E0.23270
G1 X30.650 Y107.762 E0.01680
G1 X36.420 Y113.532 E0.25646
M73 P0 R284
G1 X36.954 Y113.532 E0.01680
G1 X30.650 Y107.227 E0.28022
G1 X30.650 Y106.692 E0.01680
G1 X37.489 Y113.532 E0.30398
G1 X38.023 Y113.532 E0.01680
G1 X30.650 Y106.158 E0.32774
G1 X30.650 Y105.623 E0.01680
G1 X38.338 Y113.312 E0.34173
G1 X38.338 Y112.777 E0.01680
G1 X30.650 Y105.089 E0.34173
G1 X30.650 Y104.554 E0.01680
G1 X38.338 Y112.243 E0.34173
G1 X38.338 Y111.708 E0.01680
G1 X30.650 Y104.020 E0.34173
G1 X30.650 Y103.485 E0.01680
G1 X38.338 Y111.174 E0.34173
G1 X38.338 Y110.639 E0.01680
G1 X30.650 Y102.951 E0.34173
G1 X30.650 Y102.416 E0.01680
G1 X38.338 Y110.105 E0.34173
G1 X38.338 Y109.570 E0.01680
G1 X30.686 Y101.918 E0.34010
G1 X30.828 Y101.525 E0.01312
G1 X38.338 Y109.036 E0.33380
G1 X38.338 Y108.501 E0.01680
G1 X30.970 Y101.133 E0.32751
G1 X31.111 Y100.740 E0.01312
G1 X38.338 Y107.967 E0.32121
G1 X38.338 Y107.432 E0.01680
G1 X31.441 Y100.535 E0.30654
G1 X31.976 Y100.535 E0.01680
G1 X38.338 Y106.898 E0.28278
G1 X38.338 Y106.363 E0.01680
G1 X32.510 Y100.535 E0.25902
G1 X33.045 Y100.535 E0.01680
G1 X38.338 Y105.828 E0.23526
G1 X38.338 Y105.294 E0.01680
G1 X33.580 Y100.535 E0.21150
G1 X34.114 Y100.535 E0.01680
G1 X38.338 Y104.759 E0.18774
G1 X38.338 Y104.225 E0.01680
G1 X34.649 Y100.535 E0.16399
G1 X35.183 Y100.535 E0.01680
G1 X38.338 Y103.690 E0.14023
G1 X38.338 Y103.156 E0.01680
G1 X35.718 Y100.535 E0.11647
G1 X36.252 Y100.535 E0.01680
G1 X38.338 Y102.621 E0.09271
G1 X38.338 Y102.087 E0.01680
G1 X36.787 Y100.535 E0.06895
G1 X37.321 Y100.535 E0.01680
G1 X38.356 Y101.570 E0.04600
G1 F8640
G1 X37.321 Y100.535 E-0.33795
G1 X36.787 Y100.535 E-0.12343
G1 X37.701 Y101.450 E-0.29862
G1 E-0.04000 F2100.00000
G1 Z0.800 F10800.000
G1 X35.046 Y135.526
G1 Z0.200
G1 E0.80000 F2100.00000
G1 F1200
G1 X30.542 Y135.526 E0.14122
G1 X30.542 Y123.239 E0.38525
G1 X31.274 Y121.210 E0.06763
G1 X38.818 Y121.210 E0.23653
G1 X39.551 Y123.239 E0.06764
G1 X39.551 Y135.526 E0.38525
G1 X35.106 Y135.526 E0.13934
G1 X34.726 Y135.287 F10800.000
G1 X35.046 Y135.149
G1 F1200
G1 X30.919 Y135.149 E0.12940
G1 X30.919 Y123.305 E0.37136
G1 X31.539 Y121.588 E0.05726
G1 X38.553 Y121.588 E0.21993
G1 X39.174 Y123.305 E0.05727
G1 X39.174 Y135.149 E0.37136
G1 X35.106 Y135.149 E0.12752
G1 F8640
G1 X31.815 Y135.149 E-0.76000
G1 E-0.04000 F2100.00000
G1 Z0.800 F10800.000
G1 X31.032 Y134.272
G1 Z0.200
G1 E0.80000 F2100.00000
G1 F1200
G1 X31.627 Y134.867 E0.02642
G1 X32.161 Y134.867 E0.01680
G1 X31.202 Y133.907 E0.04264
G1 X31.202 Y133.373 E0.01680
G1 X32.696 Y134.867 E0.06639
G1 X33.230 Y134.867 E0.01680
G1 X31.202 Y132.838 E0.09015
G1 X31.202 Y132.304 E0.01680
G1 X33.765 Y134.867 E0.11391
G1 X34.300 Y134.867 E0.01680
G1 X31.202 Y131.769 E0.13767
G1 X31.202 Y131.235 E0.01680
G1 X34.834 Y134.867 E0.16143
G1 X35.369 Y134.867 E0.01680
G1 X31.202 Y130.700 E0.18519
G1 X31.202 Y130.166 E0.01680
G1 X35.903 Y134.867 E0.20894
G1 X36.438 Y134.867 E0.01680
G1 X31.202 Y129.631 E0.23270
G1 X31.202 Y129.096 E0.01680
G1 X36.972 Y134.867 E0.25646
G1 X37.507 Y134.867 E0.01680
G1 X31.202 Y128.562 E0.28022
G1 X31.202 Y128.027 E0.01680
G1 X38.041 Y134.867 E0.30398
G1 X38.576 Y134.867 E0.01680
G1 X31.202 Y127.493 E0.32774
G1 X31.202 Y126.958 E0.01680
G1 X38.891 Y134.647 E0.34173
G1 X38.891 Y134.112 E0.01680
G1 X31.202 Y126.424 E0.34173
G1 X31.202 Y125.889 E0.01680
G1 X38.891 Y133.578 E0.34173
G1 X38.891 Y133.043 E0.01680
G1 X31.202 Y125.355 E0.34173
G1 X31.202 Y124.820 E0.01680
G1 X38.891 Y132.509 E0.34173
G1 X38.891 Y131.974 E0.01680
G1 X31.202 Y124.286 E0.34173
G1 X31.202 Y123.751 E0.01680
G1 X38.891 Y131.440 E0.34173
G1 X38.891 Y130.905 E0.01680
G1 X31.239 Y123.253 E0.34010
G1 X31.381 Y122.860 E0.01312
G1 X38.891 Y130.371 E0.33380
G1 X38.891 Y129.836 E0.01680
G1 X31.522 Y122.468 E0.32751
G1 X31.664 Y122.075 E0.01312
G1 X38.891 Y129.302 E0.32121
G1 X38.891 Y128.767 E0.01680
G1 X31.994 Y121.870 E0.30654
G1 X32.529 Y121.870 E0.01680
G1 X38.891 Y128.232 E0.28278
G1 X38.891 Y127.698 E0.01680
G1 X33.063 Y121.870 E0.25902
G1 X33.598 Y121.870 E0.01680
G1 X38.891 Y127.163 E0.23526
G1 X38.891 Y126.629 E0.01680
G1 X34.132 Y121.870 E0.21150
G1 X34.667 Y121.870 E0.01680
G1 X38.891 Y126.094 E0.18774
G1 X38.891 Y125.560 E0.01680
G1 X35.201 Y121.870 E0.16399
G1 X35.736 Y121.870 E0.01680
G1 X38.891 Y125.025 E0.14023
G1 X38.891 Y124.491 E0.01680
G1 X36.270 Y121.870 E0.11647
G1 X36.805 Y121.870 E0.01680
G1 X38.891 Y123.956 E0.09271
G1 X38.891 Y123.422 E0.01680
G1 X37.339 Y121.870 E0.06895
G1 X37.874 Y121.870 E0.01680
G1 X38.909 Y122.905 E0.04600
G1 F8640
G1 X37.874 Y121.870 E-0.33795
G1 X37.339 Y121.870 E-0.12343
G1 X38.254 Y122.785 E-0.29862
G1 E-0.04000 F2100.00000
G1 Z0.800 F10800.000
G1 X33.941 Y92.857
G1 Z0.200
G1 E0.80000 F2100.00000
G1 F1200
G1 X29.437 Y92.857 E0.14122
G1 X29.437 Y80.570 E0.38525
G1 X30.169 Y78.541 E0.06763
G1 X37.713 Y78.541 E0.23653
G1 X38.445 Y80.570 E0.06764
G1 X38.445 Y92.857 E0.38525
G1 X34.001 Y92.857 E0.13934
G1 X33.621 Y92.617 F10800.000
G1 X33.941 Y92.479
G1 F1200
G1 X29.814 Y92.479 E0.12940
G1 X29.814 Y80.636 E0.37136
G1 X30.434 Y78.918 E0.05726
G1 X37.448 Y78.918 E0.21993
G1 X38.068 Y80.636 E0.05727
G1 X38.068 Y92.479 E0.37136
G1 X34.001 Y92.479 E0.12752
G1 F8640
G1 X30.710 Y92.479 E-0.76000
G1 E-0.04000 F2100.00000
G1 Z0.800 F10800.000
G1 X29.927 Y91.602
G1 Z0.200
G1 E0.80000 F2100.00000
G1 F1200
G1 X30.522 Y92.197 E0.02642
G1 X31.056 Y92.197 E0.01680
G1 X30.097 Y91.237 E0.04264
G1 X30.097 Y90.703 E0.01680
G1 X31.591 Y92.197 E0.06639
G1 X32.125 Y92.197 E0.01680
G1 X30.097 Y90.168 E0.09015
G1 X30.097 Y89.634 E0.01680
G1 X32.660 Y92.197 E0.11391
G1 X33.194 Y92.197 E0.01680
G1 X30.097 Y89.099 E0.13767
G1 X30.097 Y88.565 E0.01680
G1 X33.729 Y92.197 E0.16143
G1 X34.263 Y92.197 E0.01680
G1 X30.097 Y88.030 E0.18519
G1 X30.097 Y87.496 E0.01680
G1 X34.798 Y92.197 E0.20894
G1 X35.332 Y92.197 E0.01680
G1 X30.097 Y86.961 E0.23270
G1 X30.097 Y86.427 E0.01680
G1 X35.867 Y92.197 E0.25646
G1 X36.401 Y92.197 E0.01680
G1 X30.097 Y85.892 E0.28022
G1 X30.097 Y85.358 E0.01680
G1 X36.936 Y92.197 E0.30398
G1 X37.471 Y92.197 E0.01680
G1 X30.097 Y84.823 E0.32774
G1 X30.097 Y84.288 E0.01680
G1 X37.785 Y91.977 E0.34173
G1 X37.785 Y91.442 E0.01680
G1 X30.097 Y83.754 E0.34173
G1 X30.097 Y83.219 E0.01680
G1 X37.785 Y90.908 E0.34173
G1 X37.785 Y90.373 E0.01680
G1 X30.097 Y82.685 E0.34173
G1 X30.097 Y82.150 E0.01680
G1 X37.785 Y89.839 E0.34173
G1 X37.785 Y89.304 E0.01680
G1 X30.097 Y81.616 E0.34173
G1 X30.097 Y81.081 E0.01680
G1 X37.785 Y88.770 E0.34173
G1 X37.785 Y88.235 E0.01680
G1 X30.134 Y80.583 E0.34010
G1 X30.275 Y80.191 E0.01312
G1 X37.785 Y87.701 E0.33380
G1 X37.785 Y87.166 E0.01680
G1 X30.417 Y79.798 E0.32751
G1 X30.559 Y79.405 E0.01312
G1 X37.785 Y86.632 E0.32121
G1 X37.785 Y86.097 E0.01680
G1 X30.889 Y79.200 E0.30654
G1 X31.423 Y79.200 E0.01680
G1 X37.785 Y85.563 E0.28278
G1 X37.785 Y85.028 E0.01680
G1 X31.958 Y79.200 E0.25902
G1 X32.492 Y79.200 E0.01680
G1 X37.785 Y84.494 E0.23526
G1 X37.785 Y83.959 E0.01680
G1 X33.027 Y79.200 E0.21150
G1 X33.561 Y79.200 E0.01680
G1 X37.785 Y83.424 E0.18774
G1 X37.785 Y82.890 E0.01680
G1 X34.096 Y79.200 E0.16399
G1 X34.630 Y79.200 E0.01680
G1 X37.785 Y82.355 E0.14023
G1 X37.785 Y81.821 E0.01680
G1 X35.165 Y79.200 E0.11647
G1 X35.700 Y79.200 E0.01680
G1 X37.785 Y81.286 E0.09271
G1 X37.785 Y80.752 E0.01680
G1 X36.234 Y79.200 E0.06895
G1 X36.769 Y79.200 E0.01680
G1 X37.804 Y80.235 E0.04600
G1 F8640
G1 X36.769 Y79.200 E-0.33795
G1 X36.234 Y79.200 E-0.12343
G1 X37.149 Y80.115 E-0.29862
G1 E-0.04000 F2100.00000
G1 Z0.800 F10800.000
G1 X122.668 Y20.837
G1 Z0.200
G1 E0.80000 F2100.00000
G1 F1200
G1 X118.163 Y20.837 E0.14122
G1 X118.163 Y8.550 E0.38525
G1 X118.895 Y6.521 E0.06763
G1 X126.439 Y6.521 E0.23653
G1 X127.172 Y8.550 E0.06764
G1 X127.172 Y20.837 E0.38525
G1 X122.728 Y20.837 E0.13934
G1 X122.347 Y20.598 F10800.000
G1 X122.668 Y20.460
G1 F1200
G1 X118.540 Y20.460 E0.12940
G1 X118.540 Y8.616 E0.37136
G1 X119.160 Y6.898 E0.05726
G1 X126.175 Y6.898 E0.21993
G1 X126.795 Y8.616 E0.05727
G1 X126.795 Y20.460 E0.37136
G1 X122.728 Y20.460 E0.12752
G1 F8640
G1 X119.436 Y20.460 E-0.76000
G1 E-0.04000 F2100.00000
G1 Z0.800 F10800.000
G1 X118.654 Y19.583
G1 Z0.200
G1 E0.80000 F2100.00000
G1 F1200
G1 X119.248 Y20.177 E0.02642
G1 X119.783 Y20.177 E0.01680
G1 X118.823 Y19.218 E0.04264
G1 X118.823 Y18.684 E0.01680
G1 X120.317 Y20.177 E0.06639
G1 X120.852 Y20.177 E0.01680
G1 X118.823 Y18.149 E0.09015
G1 X118.823 Y17.614 E0.01680
G1 X121.386 Y20.177 E0.11391
G1 X121.921 Y20.177 E0.01680
G1 X118.823 Y17.080 E0.13767
G1 X118.823 Y16.545 E0.01680
G1 X122.455 Y20.177 E0.16143
G1 X122.990 Y20.177 E0.01680
G1 X118.823 Y16.011 E0.18519
G1 X118.823 Y15.476 E0.01680
G1 X123.524 Y20.177 E0.20894
G1 X124.059 Y20.177 E0.01680
G1 X118.823 Y14.942 E0.23270
G1 X118.823 Y14.407 E0.01680
G1 X124.593 Y20.177 E0.25646
M73 P0 R283
G1 X125.128 Y20.177 E0.01680
G1 X118.823 Y13.873 E0.28022
G1 X118.823 Y13.338 E0.01680
G1 X125.662 Y20.177 E0.30398
G1 X126.197 Y20.177 E0.01680
G1 X118.823 Y12.804 E0.32774
G1 X118.823 Y12.269 E0.01680
G1 X126.512 Y19.958 E0.34173
G1 X126.512 Y19.423 E0.01680
G1 X118.823 Y11.735 E0.34173
G1 X118.823 Y11.200 E0.01680
G1 X126.512 Y18.889 E0.34173
G1 X126.512 Y18.354 E0.01680
G1 X118.823 Y10.666 E0.34173
G1 X118.823 Y10.131 E0.01680
G1 X126.512 Y17.820 E0.34173
G1 X126.512 Y17.285 E0.01680
G1 X118.823 Y9.596 E0.34173
G1 X118.823 Y9.062 E0.01680
G1 X126.512 Y16.750 E0.34173
G1 X126.512 Y16.216 E0.01680
G1 X118.860 Y8.564 E0.34010
G1 X119.002 Y8.171 E0.01312
G1 X126.512 Y15.681 E0.33380
G1 X126.512 Y15.147 E0.01680
G1 X119.143 Y7.778 E0.32751
G1 X119.285 Y7.386 E0.01312
G1 X126.512 Y14.612 E0.32121
G1 X126.512 Y14.078 E0.01680
G1 X119.615 Y7.181 E0.30654
G1 X120.150 Y7.181 E0.01680
G1 X126.512 Y13.543 E0.28278
G1 X126.512 Y13.009 E0.01680
G1 X120.684 Y7.181 E0.25902
G1 X121.219 Y7.181 E0.01680
G1 X126.512 Y12.474 E0.23526
G1 X126.512 Y11.940 E0.01680
G1 X121.753 Y7.181 E0.21150
G1 X122.288 Y7.181 E0.01680
G1 X126.512 Y11.405 E0.18774
G1 X126.512 Y10.871 E0.01680
G1 X122.822 Y7.181 E0.16399
G1 X123.357 Y7.181 E0.01680
G1 X126.512 Y10.336 E0.14023
G1 X126.512 Y9.802 E0.01680
G1 X123.891 Y7.181 E0.11647
G1 X124.426 Y7.181 E0.01680
G1 X126.512 Y9.267 E0.09271
G1 X126.512 Y8.732 E0.01680
G1 X124.960 Y7.181 E0.06895
G1 X125.495 Y7.181 E0.01680
G1 X126.530 Y8.216 E0.04600
G1 F8640
G1 X125.495 Y7.181 E-0.33795
G1 X124.960 Y7.181 E-0.12343
G1 X125.875 Y8.096 E-0.29862
G1 E-0.04000 F2100.00000
G1 Z0.800 F10800.000
G1 X175.395 Y148.080
G1 Z0.200
G1 E0.80000 F2100.00000
G1 F1200
G1 X138.766 Y148.080 E1.14847
G1 X138.766 Y126.857 E0.66542
G1 X135.997 Y126.857 E0.08681
G1 X135.997 Y120.577 E0.19690
G1 X138.766 Y120.577 E0.08681
G1 X138.766 Y113.135 E0.23334
G1 X135.997 Y113.135 E0.08681
G1 X135.997 Y107.040 E0.19112
G1 X138.766 Y107.040 E0.08681
G1 X138.766 Y99.380 E0.24015
G1 X135.997 Y99.380 E0.08681
G1 X135.997 Y93.562 E0.18242
G1 X138.766 Y93.562 E0.08681
G1 X138.766 Y86.030 E0.23618
G1 X135.997 Y86.030 E0.08681
G1 X135.997 Y80.353 E0.17798
G1 X138.766 Y80.353 E0.08681
G1 X138.766 Y72.676 E0.24073
G1 X135.997 Y72.676 E0.08681
G1 X135.997 Y66.595 E0.19066
G1 X138.766 Y66.595 E0.08681
G1 X138.766 Y59.225 E0.23106
G1 X135.997 Y59.225 E0.08681
G1 X135.997 Y52.924 E0.19759
G1 X138.766 Y52.924 E0.08681
G1 X138.766 Y45.421 E0.23526
G1 X135.997 Y45.421 E0.08681
G1 X135.997 Y39.242 E0.19373
G1 X138.766 Y39.242 E0.08681
G1 X138.766 Y34.036 E0.16323
G1 X133.593 Y34.036 E0.16220
G1 X133.593 Y5.583 E0.89210
G1 X178.814 Y5.583 E1.41790
G1 X178.814 Y29.685 E0.75568
G1 X164.070 Y29.685 E0.46232
G1 X164.070 Y67.813 E1.19547
G1 X186.466 Y67.813 E0.70222
G1 X186.466 Y40.192 E0.86602
G1 X190.389 Y40.192 E0.12301
G1 X190.389 Y67.813 E0.86602
G1 X209.767 Y67.813 E0.60760
G1 X209.767 Y40.192 E0.86602
G1 X217.196 Y40.192 E0.23293
G1 X217.196 Y45.618 E0.17013
G1 X214.397 Y45.618 E0.08776
G1 X214.397 Y53.442 E0.24529
G1 X217.196 Y53.442 E0.08776
G1 X217.196 Y59.046 E0.17572
G1 X214.397 Y59.046 E0.08776
G1 X214.397 Y66.661 E0.23878
G1 X217.196 Y66.661 E0.08776
G1 X217.196 Y72.676 E0.18857
G1 X214.397 Y72.676 E0.08776
G1 X214.397 Y80.353 E0.24073
G1 X217.196 Y80.353 E0.08776
G1 X217.196 Y86.030 E0.17798
G1 X214.397 Y86.030 E0.08776
G1 X214.397 Y93.562 E0.23618
G1 X217.196 Y93.562 E0.08776
G1 X217.196 Y99.670 E0.19150
