; generated by PrusaSlicer 2.2.0+win64 on 2020-11-03 at 17:52:09 UTC

; 

; external perimeters extrusion width = 0.60mm
; perimeters extrusion width = 0.43mm
; infill extrusion width = 0.45mm
; solid infill extrusion width = 0.70mm
; top infill extrusion width = 0.43mm
; first layer extrusion width = 0.42mm

M73 P0 R12
M201 X9000 Y9000 Z500 E10000 ; sets maximum accelerations, mm/sec^2
M203 X500 Y500 Z12 E120 ; sets maximum feedrates, mm/sec
M204 P2000 R1500 T2000 ; sets acceleration (P, T) and retract acceleration (R), mm/sec^2
M205 X10.00 Y10.00 Z0.20 E2.50 ; sets the jerk limits, mm/sec
M205 S0 T0 ; sets the minimum extruding and travel feed rate, mm/sec
M107
M862.3 P "MK2.5SMMU2S" ; printer model check
M862.1 P0.4 ; nozzle diameter check
M115 U3.8.0 ; tell printer latest fw version
G90 ; use absolute coordinates
M83 ; extruder relative mode
M104 S215 ; set extruder temp
M140 S60 ; set bed temp
Tx
M190 S60 ; wait for bed temp
M109 S215 ; wait for extruder temp
G28 W ; home all without mesh bed level
G80 ; mesh bed leveling

G21 ; set units to millimeters

;go outside print area
G1 Y-3.0 F1000.0
G1 Z0.4 F1000.0
; select extruder
Tc
; purge line
G1 X55.0 F2000.0
G1 Z0.3 F1000.0
G92 E0.0
G1 X240.0 E25.0 F2200.0
M73 P0 R12
G1 Y-2.0 F1000.0
G1 X55.0 E25 F1400.0
G1 Z0.20 F1000.0
G1 X5.0 E4.0 F1000.0
G92 E0.0
G21 ; set units to millimeters
G90 ; use absolute coordinates
M83 ; use relative distances for extrusion
M900 K0.06 ; Filament gcode LA 1.5
M900 K30 ; Filament gcode LA 1.0
;BEFORE_LAYER_CHANGE
G92 E0.0
;0.2


G1 E-0.80000 F2100.00000
G1 Z0.600 F10800.000
;AFTER_LAYER_CHANGE
;0.2
G1 X102.744 Y108.349
G1 Z0.200
G1 E0.80000 F2100.00000
M204 S1000
G1 F1200.000
G1 X102.565 Y107.550 E0.02567
G1 X102.573 Y104.715 E0.08890
G1 X102.778 Y103.950 E0.02484
G1 X103.224 Y103.294 E0.02484
G1 X123.393 Y83.134 E0.89413
G1 X123.963 Y82.772 E0.02119
G1 X124.609 Y82.586 E0.02107
G1 X127.443 Y82.562 E0.08887
G1 X128.331 Y82.736 E0.02837
G1 X129.087 Y83.226 E0.02825
G1 X146.752 Y100.891 E0.78328
G1 X147.256 Y101.651 E0.02860
G1 X147.437 Y102.541 E0.02849
G1 X147.435 Y125.179 E0.70978
G1 X147.308 Y125.835 E0.02095
G1 X147.004 Y126.429 E0.02095
G1 X146.546 Y126.916 E0.02095
G1 X145.971 Y127.256 E0.02095
G1 X145.081 Y127.438 E0.02849
G1 X122.561 Y127.438 E0.70609
G1 X122.073 Y127.387 E0.01538
G1 X121.609 Y127.239 E0.01526
G1 X120.891 Y126.752 E0.02720
G1 X103.259 Y109.120 E0.78184
G1 X102.777 Y108.399 E0.02719
G1 E-0.80000 F2100.00000
G1 Z0.800 F10800.000
G1 X105.727 Y106.652
G1 Z0.200
G1 E0.80000 F2100.00000
G1 F1200.000
G1 X105.727 Y105.726 E0.02903
G1 X125.727 Y105.726 E0.62709
G1 X125.727 Y85.727 E0.62708
G1 X126.652 Y85.727 E0.02902
G1 X126.652 Y106.652 E0.65611
G1 X105.787 Y106.652 E0.65422
G1 E-0.80000 F2100.00000
G1 Z0.800 F10800.000
G1 X125.350 Y105.349
G1 Z0.200
G1 E0.80000 F2100.00000
G1 F1200.000
G1 X125.350 Y85.349 E0.62708
G1 X127.029 Y85.349 E0.05266
G1 X127.029 Y107.029 E0.67976
G1 X105.350 Y107.029 E0.67975
G1 X105.350 Y105.349 E0.05268
G1 X125.290 Y105.349 E0.62521
G1 X125.750 Y105.338 F10800.000
G1 E-0.80000 F2100.00000
G1 Z0.800 F10800.000
G1 X105.910 Y105.840
G1 Z0.200
G1 E0.80000 F2100.00000
G1 F1200.000
G1 X106.440 Y106.370 E0.02373
G1 X106.979 Y106.370 E0.01706
G1 X106.619 Y106.009 E0.01613
G1 X107.157 Y106.009 E0.01706
G1 X107.518 Y106.370 E0.01613
G1 X108.056 Y106.370 E0.01706
G1 X107.696 Y106.009 E0.01613
G1 X108.235 Y106.009 E0.01706
G1 X108.595 Y106.370 E0.01613
G1 X109.133 Y106.370 E0.01706
G1 X108.773 Y106.009 E0.01613
G1 X109.312 Y106.009 E0.01706
G1 X109.672 Y106.370 E0.01613
G1 X110.211 Y106.370 E0.01706
G1 X109.850 Y106.009 E0.01613
G1 X110.389 Y106.009 E0.01706
G1 X110.749 Y106.370 E0.01613
G1 X111.288 Y106.370 E0.01706
G1 X110.928 Y106.009 E0.01613
G1 X111.466 Y106.009 E0.01706
G1 X111.827 Y106.370 E0.01613
G1 X112.365 Y106.370 E0.01706
G1 X112.005 Y106.009 E0.01613
G1 X112.544 Y106.009 E0.01706
G1 X112.904 Y106.370 E0.01613
G1 X113.442 Y106.370 E0.01706
G1 X113.082 Y106.009 E0.01613
G1 X113.621 Y106.009 E0.01706
G1 X113.981 Y106.370 E0.01613
G1 X114.520 Y106.370 E0.01706
G1 X114.159 Y106.009 E0.01613
G1 X114.698 Y106.009 E0.01706
G1 X115.058 Y106.370 E0.01613
G1 X115.597 Y106.370 E0.01706
G1 X115.237 Y106.009 E0.01613
G1 X115.775 Y106.009 E0.01706
G1 X116.136 Y106.370 E0.01613
G1 X116.674 Y106.370 E0.01706
G1 X116.314 Y106.009 E0.01613
G1 X116.853 Y106.009 E0.01706
G1 X117.213 Y106.370 E0.01613
G1 X117.751 Y106.370 E0.01706
G1 X117.391 Y106.009 E0.01613
G1 X117.930 Y106.009 E0.01706
G1 X118.290 Y106.370 E0.01613
G1 X118.829 Y106.370 E0.01706
G1 X118.468 Y106.009 E0.01613
G1 X119.007 Y106.009 E0.01706
G1 X119.367 Y106.370 E0.01613
G1 X119.906 Y106.370 E0.01706
G1 X119.546 Y106.009 E0.01613
G1 X120.084 Y106.009 E0.01706
G1 X120.445 Y106.370 E0.01613
G1 X120.983 Y106.370 E0.01706
G1 X120.623 Y106.009 E0.01613
G1 X121.162 Y106.009 E0.01706
G1 X121.522 Y106.370 E0.01613
G1 X122.060 Y106.370 E0.01706
G1 X121.700 Y106.009 E0.01613
G1 X122.239 Y106.009 E0.01706
G1 X122.599 Y106.370 E0.01613
G1 X123.138 Y106.370 E0.01706
G1 X122.777 Y106.009 E0.01613
G1 X123.316 Y106.009 E0.01706
G1 X123.676 Y106.370 E0.01613
G1 X124.215 Y106.370 E0.01706
G1 X123.855 Y106.009 E0.01613
G1 X124.393 Y106.009 E0.01706
G1 X124.754 Y106.370 E0.01613
G1 X125.292 Y106.370 E0.01706
G1 X124.932 Y106.009 E0.01613
G1 X125.471 Y106.009 E0.01706
G1 X125.831 Y106.370 E0.01613
G1 X126.369 Y106.370 E0.01706
G1 X126.009 Y106.009 E0.01613
G1 X126.010 Y105.471 E0.01705
G1 X126.369 Y105.831 E0.01611
G1 X126.369 Y105.292 E0.01706
G1 X126.010 Y104.932 E0.01611
G1 X126.010 Y104.394 E0.01706
G1 X126.369 Y104.754 E0.01611
G1 X126.369 Y104.215 E0.01706
G1 X126.010 Y103.855 E0.01611
G1 X126.010 Y103.317 E0.01706
G1 X126.369 Y103.676 E0.01611
G1 X126.369 Y103.138 E0.01706
G1 X126.010 Y102.778 E0.01611
G1 X126.010 Y102.239 E0.01706
G1 X126.369 Y102.599 E0.01611
G1 X126.369 Y102.060 E0.01706
G1 X126.010 Y101.701 E0.01611
G1 X126.010 Y101.162 E0.01706
G1 X126.369 Y101.522 E0.01611
G1 X126.369 Y100.983 E0.01706
G1 X126.010 Y100.623 E0.01611
G1 X126.010 Y100.085 E0.01706
G1 X126.369 Y100.445 E0.01611
G1 X126.369 Y99.906 E0.01706
G1 X126.010 Y99.546 E0.01611
G1 X126.010 Y99.008 E0.01706
G1 X126.369 Y99.367 E0.01611
G1 X126.369 Y98.829 E0.01706
G1 X126.010 Y98.469 E0.01611
G1 X126.010 Y97.930 E0.01706
G1 X126.369 Y98.290 E0.01611
G1 X126.369 Y97.751 E0.01706
G1 X126.010 Y97.392 E0.01611
G1 X126.010 Y96.853 E0.01706
G1 X126.369 Y97.213 E0.01611
G1 X126.369 Y96.674 E0.01706
G1 X126.010 Y96.314 E0.01611
G1 X126.010 Y95.776 E0.01706
G1 X126.369 Y96.136 E0.01611
G1 X126.369 Y95.597 E0.01706
G1 X126.010 Y95.237 E0.01611
G1 X126.010 Y94.698 E0.01706
G1 X126.369 Y95.058 E0.01611
G1 X126.369 Y94.520 E0.01706
G1 X126.010 Y94.160 E0.01611
G1 X126.010 Y93.621 E0.01706
G1 X126.369 Y93.981 E0.01611
G1 X126.369 Y93.442 E0.01706
G1 X126.010 Y93.083 E0.01611
G1 X126.010 Y92.544 E0.01706
G1 X126.369 Y92.904 E0.01611
G1 X126.369 Y92.365 E0.01706
G1 X126.010 Y92.005 E0.01611
G1 X126.010 Y91.467 E0.01706
G1 X126.369 Y91.827 E0.01611
G1 X126.369 Y91.288 E0.01706
G1 X126.010 Y90.928 E0.01611
G1 X126.010 Y90.389 E0.01706
G1 X126.369 Y90.749 E0.01611
G1 X126.369 Y90.211 E0.01706
G1 X126.010 Y89.851 E0.01611
G1 X126.010 Y89.312 E0.01706
G1 X126.369 Y89.672 E0.01611
G1 X126.369 Y89.133 E0.01706
G1 X126.010 Y88.774 E0.01611
G1 X126.010 Y88.235 E0.01706
G1 X126.369 Y88.595 E0.01611
G1 X126.369 Y88.056 E0.01706
G1 X126.010 Y87.696 E0.01611
G1 X126.010 Y87.158 E0.01706
G1 X126.369 Y87.518 E0.01611
G1 X126.369 Y86.979 E0.01706
G1 X126.010 Y86.619 E0.01611
G1 X126.010 Y86.080 E0.01706
G1 X126.539 Y86.610 E0.02371
G1 E-0.80000 F2100.00000
G1 Z0.800 F10800.000
G1 X143.348 Y103.348
G1 Z0.200
G1 E0.80000 F2100.00000
G1 F1200.000
G1 X144.273 Y103.348 E0.02902
G1 X144.273 Y124.273 E0.65611
G1 X123.348 Y124.273 E0.65611
G1 X123.348 Y123.348 E0.02903
G1 X143.348 Y123.348 E0.62709
G1 X143.348 Y103.408 E0.62520
G1 E-0.80000 F2100.00000
G1 Z0.800 F10800.000
G1 X142.971 Y122.971
G1 Z0.200
G1 E0.80000 F2100.00000
G1 F1200.000
G1 X142.971 Y102.971 E0.62708
G1 X144.650 Y102.971 E0.05266
G1 X144.650 Y124.651 E0.67976
G1 X122.971 Y124.651 E0.67975
G1 X122.971 Y122.971 E0.05268
G1 X142.911 Y122.971 E0.62521
G1 X143.371 Y122.959 F10800.000
G1 E-0.80000 F2100.00000
G1 Z0.800 F10800.000
G1 X123.531 Y123.461
G1 Z0.200
G1 E0.80000 F2100.00000
G1 F1200.000
G1 X124.061 Y123.991 E0.02373
G1 X124.600 Y123.991 E0.01706
G1 X124.240 Y123.630 E0.01613
G1 X124.778 Y123.630 E0.01706
G1 X125.139 Y123.991 E0.01613
G1 X125.677 Y123.991 E0.01706
G1 X125.317 Y123.630 E0.01613
G1 X125.856 Y123.630 E0.01706
G1 X126.216 Y123.991 E0.01613
G1 X126.755 Y123.991 E0.01706
G1 X126.394 Y123.630 E0.01613
G1 X126.933 Y123.630 E0.01706
G1 X127.293 Y123.991 E0.01613
G1 X127.832 Y123.991 E0.01706
G1 X127.472 Y123.630 E0.01613
G1 X128.010 Y123.630 E0.01706
G1 X128.370 Y123.991 E0.01613
G1 X128.909 Y123.991 E0.01706
G1 X128.549 Y123.630 E0.01613
G1 X129.087 Y123.630 E0.01706
G1 X129.448 Y123.991 E0.01613
G1 X129.986 Y123.991 E0.01706
G1 X129.626 Y123.630 E0.01613
G1 X130.165 Y123.630 E0.01706
G1 X130.525 Y123.991 E0.01613
G1 X131.064 Y123.991 E0.01706
G1 X130.703 Y123.630 E0.01613
G1 X131.242 Y123.630 E0.01706
G1 X131.602 Y123.991 E0.01613
G1 X132.141 Y123.991 E0.01706
G1 X131.781 Y123.630 E0.01613
G1 X132.319 Y123.630 E0.01706
G1 X132.679 Y123.991 E0.01613
G1 X133.218 Y123.991 E0.01706
G1 X132.858 Y123.630 E0.01613
G1 X133.396 Y123.630 E0.01706
G1 X133.757 Y123.991 E0.01613
G1 X134.295 Y123.991 E0.01706
G1 X133.935 Y123.630 E0.01613
G1 X134.474 Y123.630 E0.01706
G1 X134.834 Y123.991 E0.01613
G1 X135.373 Y123.991 E0.01706
G1 X135.012 Y123.630 E0.01613
G1 X135.551 Y123.630 E0.01706
G1 X135.911 Y123.991 E0.01613
G1 X136.450 Y123.991 E0.01706
G1 X136.090 Y123.630 E0.01613
G1 X136.628 Y123.630 E0.01706
G1 X136.988 Y123.991 E0.01613
G1 X137.527 Y123.991 E0.01706
G1 X137.167 Y123.630 E0.01613
G1 X137.705 Y123.630 E0.01706
G1 X138.066 Y123.991 E0.01613
G1 X138.604 Y123.991 E0.01706
G1 X138.244 Y123.630 E0.01613
G1 X138.783 Y123.630 E0.01706
G1 X139.143 Y123.991 E0.01613
G1 X139.682 Y123.991 E0.01706
G1 X139.321 Y123.630 E0.01613
G1 X139.860 Y123.630 E0.01706
G1 X140.220 Y123.991 E0.01613
G1 X140.759 Y123.991 E0.01706
G1 X140.399 Y123.630 E0.01613
G1 X140.937 Y123.630 E0.01706
G1 X141.297 Y123.991 E0.01613
G1 X141.836 Y123.991 E0.01706
G1 X141.476 Y123.630 E0.01613
G1 X142.014 Y123.630 E0.01706
G1 X142.375 Y123.991 E0.01613
G1 X142.913 Y123.991 E0.01706
G1 X142.553 Y123.630 E0.01613
G1 X143.092 Y123.630 E0.01706
G1 X143.452 Y123.991 E0.01613
G1 X143.991 Y123.991 E0.01706
G1 X143.630 Y123.630 E0.01613
G1 X143.631 Y123.092 E0.01705
G1 X143.991 Y123.452 E0.01611
G1 X143.991 Y122.913 E0.01706
G1 X143.631 Y122.554 E0.01611
G1 X143.631 Y122.015 E0.01706
G1 X143.991 Y122.375 E0.01611
G1 X143.991 Y121.836 E0.01706
G1 X143.631 Y121.476 E0.01611
G1 X143.631 Y120.938 E0.01706
G1 X143.991 Y121.297 E0.01611
G1 X143.991 Y120.759 E0.01706
G1 X143.631 Y120.399 E0.01611
G1 X143.631 Y119.860 E0.01706
G1 X143.991 Y120.220 E0.01611
G1 X143.991 Y119.682 E0.01706
G1 X143.631 Y119.322 E0.01611
G1 X143.631 Y118.783 E0.01706
G1 X143.991 Y119.143 E0.01611
G1 X143.991 Y118.604 E0.01706
G1 X143.631 Y118.244 E0.01611
G1 X143.631 Y117.706 E0.01706
G1 X143.991 Y118.066 E0.01611
G1 X143.991 Y117.527 E0.01706
G1 X143.631 Y117.167 E0.01611
G1 X143.631 Y116.629 E0.01706
G1 X143.991 Y116.988 E0.01611
G1 X143.991 Y116.450 E0.01706
G1 X143.631 Y116.090 E0.01611
G1 X143.631 Y115.551 E0.01706
G1 X143.991 Y115.911 E0.01611
G1 X143.991 Y115.373 E0.01706
G1 X143.631 Y115.013 E0.01611
G1 X143.631 Y114.474 E0.01706
G1 X143.991 Y114.834 E0.01611
G1 X143.991 Y114.295 E0.01706
G1 X143.631 Y113.935 E0.01611
G1 X143.631 Y113.397 E0.01706
G1 X143.991 Y113.757 E0.01611
G1 X143.991 Y113.218 E0.01706
G1 X143.631 Y112.858 E0.01611
G1 X143.631 Y112.320 E0.01706
G1 X143.991 Y112.679 E0.01611
G1 X143.991 Y112.141 E0.01706
G1 X143.631 Y111.781 E0.01611
G1 X143.631 Y111.242 E0.01706
G1 X143.991 Y111.602 E0.01611
G1 X143.991 Y111.064 E0.01706
G1 X143.631 Y110.704 E0.01611
G1 X143.631 Y110.165 E0.01706
G1 X143.991 Y110.525 E0.01611
G1 X143.991 Y109.986 E0.01706
G1 X143.631 Y109.626 E0.01611
G1 X143.631 Y109.088 E0.01706
G1 X143.991 Y109.448 E0.01611
G1 X143.991 Y108.909 E0.01706
G1 X143.631 Y108.549 E0.01611
G1 X143.631 Y108.011 E0.01706
G1 X143.991 Y108.370 E0.01611
G1 X143.991 Y107.832 E0.01706
G1 X143.631 Y107.472 E0.01611
G1 X143.631 Y106.933 E0.01706
G1 X143.991 Y107.293 E0.01611
G1 X143.991 Y106.755 E0.01706
G1 X143.631 Y106.395 E0.01611
G1 X143.631 Y105.856 E0.01706
G1 X143.991 Y106.216 E0.01611
G1 X143.991 Y105.677 E0.01706
G1 X143.631 Y105.317 E0.01611
G1 X143.631 Y104.779 E0.01706
G1 X143.991 Y105.139 E0.01611
G1 X143.991 Y104.600 E0.01706
G1 X143.631 Y104.240 E0.01611
G1 X143.631 Y103.702 E0.01706
G1 X144.160 Y104.231 E0.02371
M106 S175.95
;BEFORE_LAYER_CHANGE
G92 E0.0
;0.55


G1 E-0.80000 F2100.00000
G1 Z0.800 F10800.000
;AFTER_LAYER_CHANGE
;0.55
G1 X147.256 Y101.651
G1 Z0.550
G1 E0.80000 F2100.00000
G1 F1914
G1 X147.437 Y102.541 E0.04560
G1 X147.435 Y125.179 E1.13608
G1 X147.308 Y125.835 E0.03353
G1 X147.004 Y126.429 E0.03353
G1 X146.546 Y126.916 E0.03353
G1 X145.971 Y127.256 E0.03353
G1 X145.081 Y127.438 E0.04560
G1 X122.561 Y127.438 E1.13018
G1 X122.073 Y127.387 E0.02462
G1 X121.609 Y127.239 E0.02443
G1 X120.891 Y126.752 E0.04353
G1 X103.259 Y109.120 E1.25143
G1 X102.744 Y108.349 E0.04653
G1 X102.565 Y107.550 E0.04108
G1 X102.573 Y104.715 E0.14230
G1 X102.778 Y103.950 E0.03977
G1 X103.224 Y103.294 E0.03977
G1 X123.393 Y83.134 E1.43115
G1 X123.963 Y82.772 E0.03391
G1 X124.609 Y82.586 E0.03372
G1 X127.443 Y82.562 E0.14224
G1 X128.331 Y82.736 E0.04541
G1 X129.087 Y83.226 E0.04522
G1 X146.752 Y100.891 E1.25372
G1 X147.223 Y101.601 E0.04277
G1 E-0.80000 F2100.00000
G1 Z1.150 F10800.000
G1 X125.680 Y105.679
G1 Z0.550
G1 E0.80000 F2100.00000
M204 S800
G1 F1914
G1 X125.680 Y85.679 E1.03282
G1 X126.699 Y85.679 E0.05266
G1 X126.699 Y106.700 E1.08550
G1 X105.679 Y106.700 E1.08549
G1 X105.679 Y105.679 E0.05269
G1 X125.620 Y105.679 E1.02973
M204 S1000
G1 X125.240 Y105.239 F10800.000
M204 S800
G1 F1914
G1 X125.240 Y85.239 E1.52756
G1 X127.139 Y85.239 E0.14509
G1 X127.139 Y107.139 E1.67268
G1 X105.240 Y107.139 E1.67266
G1 X105.240 Y105.239 E0.14512
G1 X125.180 Y105.239 E1.52299
M204 S1000
G1 X125.640 Y105.227 F10800.000
G1 X125.312 Y106.613
M204 S2000
G1 F1914
G1 X126.332 Y105.593 E0.13496
G1 X126.332 Y104.684 E0.08505
G1 X126.047 Y104.969 E0.03770
G1 X126.047 Y104.060 E0.08505
G1 X126.332 Y103.775 E0.03770
G1 X126.332 Y102.866 E0.08505
G1 X126.047 Y103.151 E0.03770
G1 X126.047 Y102.241 E0.08505
G1 X126.332 Y101.956 E0.03770
G1 X126.332 Y101.047 E0.08505
G1 X126.047 Y101.332 E0.03770
G1 X126.047 Y100.423 E0.08505
G1 X126.332 Y100.138 E0.03770
G1 X126.332 Y99.229 E0.08505
G1 X126.047 Y99.514 E0.03770
G1 X126.047 Y98.605 E0.08505
G1 X126.332 Y98.320 E0.03770
G1 X126.332 Y97.411 E0.08505
G1 X126.047 Y97.696 E0.03770
G1 X126.047 Y96.786 E0.08505
G1 X126.332 Y96.501 E0.03770
G1 X126.332 Y95.592 E0.08505
G1 X126.047 Y95.877 E0.03770
M73 P9 R11
G1 X126.047 Y94.968 E0.08505
G1 X126.332 Y94.683 E0.03770
G1 X126.332 Y93.774 E0.08505
G1 X126.047 Y94.059 E0.03770
G1 X126.047 Y93.150 E0.08505
G1 X126.332 Y92.865 E0.03770
G1 X126.332 Y91.955 E0.08505
G1 X126.047 Y92.240 E0.03770
G1 X126.047 Y91.331 E0.08505
G1 X126.332 Y91.046 E0.03770
G1 X126.332 Y90.137 E0.08505
G1 X126.047 Y90.422 E0.03770
G1 X126.047 Y89.513 E0.08505
G1 X126.332 Y89.228 E0.03770
G1 X126.332 Y88.319 E0.08505
G1 X126.047 Y88.604 E0.03770
G1 X126.047 Y87.695 E0.08505
G1 X126.332 Y87.410 E0.03770
G1 X126.332 Y86.500 E0.08505
G1 X125.766 Y87.067 E0.07490
M204 S1000
G1 E-0.80000 F2100.00000
G1 Z1.150 F10800.000
G1 X124.403 Y106.613
G1 Z0.550
G1 E0.80000 F2100.00000
M204 S2000
G1 F1914
G1 X124.969 Y106.047 E0.07496
G1 X124.060 Y106.047 E0.08505
G1 X123.775 Y106.332 E0.03776
G1 X122.866 Y106.332 E0.08505
G1 X123.151 Y106.047 E0.03776
G1 X122.242 Y106.047 E0.08505
G1 X121.956 Y106.332 E0.03776
G1 X121.047 Y106.332 E0.08505
