; generated by PrusaSlicer 2.0.0+ on 2019-09-10 at 12:17:04

; 

; external perimeters extrusion width = 0.45mm
; perimeters extrusion width = 0.45mm
; infill extrusion width = 0.45mm
; solid infill extrusion width = 0.45mm
; top infill extrusion width = 0.40mm
; first layer extrusion width = 0.42mm

; external perimeters extrusion width = 0.45mm
; perimeters extrusion width = 0.45mm
; infill extrusion width = 0.45mm
; solid infill extrusion width = 0.45mm
; top infill extrusion width = 0.40mm
; first layer extrusion width = 0.42mm

M73 P0 R35
M201 X9000 Y9000 Z500 E10000 ; sets maximum accelerations, mm/sec^2
M203 X500 Y500 Z12 E120 ; sets maximum feedrates, mm/sec
M204 P2000 R1500 T2000 ; sets acceleration (P, T) and retract acceleration (R), mm/sec^2
M205 X10.00 Y10.00 Z0.20 E2.50 ; sets the jerk limits, mm/sec
M205 S0 T0 ; sets the minimum extruding and travel feed rate, mm/sec
M107
M115 U3.7.2 ; tell printer latest fw version
G90 ; use absolute coordinates
M83 ; extruder relative mode
M104 S215 ; set extruder temp
M140 S60 ; set bed temp
M190 S60 ; wait for bed temp
M109 S215 ; wait for extruder temp
G28 W ; home all without mesh bed level
G80 ; mesh bed leveling
G21 ; set units to millimeters

; Send the filament type to the MMU2.0 unit.
; E stands for extruder number, F stands for filament type (0: default; 1:flex; 2: PVA)
M403 E0 F0
M403 E1 F0
M403 E2 F0
M403 E3 F0
M403 E4 F0


;go outside print area
G1 Y-3.0 F1000.0
G1 Z0.4 F1000.0
; select extruder
T0
; initial load
G1 X55.0 E29.0 F1073.0
M73 P0 R35
G1 X5.0 E29.0 F1800.0
G1 X55.0 E8.0 F2000.0
G1 Z0.3 F1000.0
G92 E0.0
G1 X240.0 E25.0 F2200.0
G1 Y-2.0 F1000.0
G1 X55.0 E25 F1400.0
G1 Z0.20 F1000.0
G1 X5.0 E4.0 F1000.0
G92 E0.0

G92 E0.0
G21 ; set units to millimeters
G90 ; use absolute coordinates
M83 ; use relative distances for extrusion
T0
M900 K30 ; Filament gcode
G1 Z0.200 F10800.000
;BEFORE_LAYER_CHANGE
G92 E0.0
;0.2


G1 E-0.80000 F2100.00000
G1 Z0.800 F10800.000
G1 Z0.200
;AFTER_LAYER_CHANGE
;0.2
M900 K0
G1 E-2.20000 F2100.00000
G1 Z0.800 F10800.000
G1 X233.000 Y140.000
G1 Z0.200
G1 E3.00000 F2100.00000
;-------------------------------------
; CP WIPE TOWER FIRST LAYER BRIM START
G1 X233.000 Y154.060 E0.8016 F2400
G1 X230.457 Y154.517  F7000
G1 Y139.543 E0.6260 F2100
G1 X169.543 E2.5466
G1 Y154.517 E0.6260
G1 X230.457 E2.5466
G1 X230.914 Y154.974  F7000
G1 Y139.086 E0.6642 F2100
G1 X169.086 E2.5849
G1 Y154.974 E0.6642
G1 X230.914 E2.5849
G1 X231.371 Y155.431  F7000
G1 Y138.629 E0.7025 F2100
G1 X168.629 E2.6231
G1 Y155.431 E0.7025
G1 X231.371 E2.6231
G1 X231.828 Y155.888  F7000
G1 Y138.172 E0.7407 F2100
G1 X168.172 E2.6613
G1 Y155.888 E0.7407
G1 X231.828 E2.6613
G1 X230.000 Y154.060  F7000
G1 X170.000
G1 X230.000
; CP WIPE TOWER FIRST LAYER BRIM END
;-----------------------------------
G1 X229.500 Y140.500  F7200
;--------------------
; CP EMPTY GRID START
; layer #1
G1 X230.000
G1 Y140.000
G1 Y154.060 E0.5344 F1450
G1 X170.000 E2.2804
G1 Y140.000 E0.5344
G1 X230.000 E2.2804
G1 X229.500
G1 Y140.500
G1 Y153.560 E0.4964
G1 X170.500 E2.2424
G1 Y140.500 E0.4964
G1 X229.500 E2.2424
G1 Y153.560
G1 X229.000 Y153.037  E0.0275
G1 X171.000 E2.2044
G1 Y152.513 E0.0199
G1 X229.000 E2.2044
G1 Y151.990 E0.0199
G1 X171.000 E2.2044
M73 P3 R34
G1 Y151.467 E0.0199
G1 X229.000 E2.2044
G1 Y150.943 E0.0199
G1 X171.000 E2.2044
G1 Y150.420 E0.0199
G1 X229.000 E2.2044
G1 Y149.897 E0.0199
G1 X171.000 E2.2044
G1 Y149.373 E0.0199
G1 X229.000 E2.2044
G1 Y148.850 E0.0199
G1 X171.000 E2.2044
G1 Y148.327 E0.0199
G1 X229.000 E2.2044
G1 Y147.803 E0.0199
G1 X171.000 E2.2044
G1 Y147.280 E0.0199
G1 X229.000 E2.2044
G1 Y146.757 E0.0199
G1 X171.000 E2.2044
G1 Y146.233 E0.0199
G1 X229.000 E2.2044
G1 Y145.710 E0.0199
G1 X171.000 E2.2044
G1 Y145.187 E0.0199
G1 X229.000 E2.2044
G1 Y144.663 E0.0199
G1 X171.000 E2.2044
G1 Y144.140 E0.0199
G1 X229.000 E2.2044
G1 Y143.617 E0.0199
G1 X171.000 E2.2044
G1 Y143.093 E0.0199
G1 X229.000 E2.2044
G1 Y142.570 E0.0199
G1 X171.000 E2.2044
G1 Y142.047 E0.0199
G1 X229.000 E2.2044
G1 Y141.523 E0.0199
G1 X171.000 E2.2044
G1 Y141.000 E0.0199
G1 X229.000 E2.2044
G1 X171.000
; CP EMPTY GRID END
;------------------







M900 K30 ; Filament gcode
G1 F8640
G1 X167.709 Y141.000 E-0.76000
G1 E-0.04000 F2100.00000
G1 Z0.800 F10800.000
G1 X140.416 Y117.212
G1 Z0.200
G1 E0.80000 F2100.00000
M204 S1000
G1 F1200
G1 X139.038 Y118.773 E0.06529
G1 X137.595 Y120.105 E0.06156
G1 X135.975 Y121.320 E0.06349
G1 X134.242 Y122.360 E0.06336
G1 X132.408 Y123.218 E0.06349
G1 X130.496 Y123.883 E0.06349
G1 X128.529 Y124.348 E0.06336
G1 X126.521 Y124.608 E0.06349
G1 X124.529 Y124.661 E0.06250
G1 X122.478 Y124.505 E0.06448
G1 X120.490 Y124.143 E0.06336
G1 X118.545 Y123.578 E0.06349
G1 X116.749 Y122.851 E0.06076
G1 X114.885 Y121.867 E0.06609
G1 X113.275 Y120.788 E0.06076
G1 X111.230 Y119.033 E0.08450
G1 X110.204 Y117.956 E0.04665
G1 X108.950 Y116.366 E0.06349
G1 X107.882 Y114.683 E0.06250
G1 X106.963 Y112.839 E0.06460
G1 X106.264 Y110.980 E0.06225
G1 X105.748 Y109.018 E0.06361
G1 X105.437 Y107.021 E0.06336
G1 X105.333 Y104.968 E0.06448
G1 X105.437 Y102.977 E0.06250
G1 X105.749 Y100.976 E0.06349
G1 X106.265 Y99.018 E0.06349
G1 X106.977 Y97.127 E0.06336
G1 X107.884 Y95.312 E0.06361
G1 X108.967 Y93.610 E0.06326
G1 X110.223 Y92.022 E0.06349
G1 X111.570 Y90.635 E0.06062
G1 X113.187 Y89.276 E0.06623
G1 X114.839 Y88.161 E0.06250
G1 X116.632 Y87.202 E0.06373
G1 X118.029 Y86.616 E0.04749
G1 X119.929 Y86.005 E0.06260
G1 X121.040 Y85.742 E0.03580
G1 X122.982 Y85.442 E0.06161
G1 X125.004 Y85.339 E0.06347
G1 X126.550 Y85.394 E0.04851
G1 X128.558 Y85.658 E0.06350
G1 X130.502 Y86.118 E0.06262
G1 X132.436 Y86.793 E0.06423
G1 X134.244 Y87.641 E0.06262
G1 X135.980 Y88.683 E0.06347
G1 X137.596 Y89.896 E0.06338
G1 X139.063 Y91.252 E0.06262
G1 X140.419 Y92.792 E0.06434
G1 X141.591 Y94.439 E0.06336
G1 X142.590 Y96.204 E0.06361
G1 X143.378 Y98.000 E0.06150
G1 X144.009 Y99.958 E0.06448
G1 X144.342 Y101.472 E0.04863
G1 X144.634 Y103.886 E0.07622
G1 X144.667 Y105.033 E0.03599
G1 X144.599 Y106.561 E0.04795
G1 X144.335 Y108.564 E0.06335
G1 X143.877 Y110.499 E0.06235
G1 X143.210 Y112.414 E0.06359
G1 X142.577 Y113.822 E0.04838
G1 X141.575 Y115.586 E0.06361
M73 P6 R33
G1 X140.451 Y117.163 E0.06074
G1 F8640
G1 X139.038 Y118.773 E-0.49457
G1 X138.193 Y119.553 E-0.26543
G1 E-0.04000 F2100.00000
G1 Z0.800 F10800.000
G1 X137.949 Y115.248
G1 Z0.200
G1 E0.80000 F2100.00000
G1 F1200
G1 X136.764 Y116.586 E0.05605
G1 X135.579 Y117.680 E0.05058
G1 X134.219 Y118.701 E0.05332
G1 X132.761 Y119.576 E0.05331
G1 X131.221 Y120.297 E0.05331
G1 X129.615 Y120.855 E0.05331
G1 X127.961 Y121.246 E0.05331
G1 X126.274 Y121.464 E0.05331
G1 X124.575 Y121.508 E0.05331
G1 X122.880 Y121.377 E0.05331
G1 X121.207 Y121.072 E0.05331
G1 X119.575 Y120.597 E0.05331
G1 X118.000 Y119.956 E0.05331
G1 X116.499 Y119.157 E0.05331
G1 X115.089 Y118.209 E0.05327
G1 X113.721 Y117.059 E0.05605
G1 X112.596 Y115.902 E0.05058
G1 X111.541 Y114.568 E0.05332
G1 X110.629 Y113.134 E0.05331
G1 X109.868 Y111.613 E0.05331
G1 X109.269 Y110.022 E0.05331
G1 X108.836 Y108.378 E0.05331
G1 X108.574 Y106.698 E0.05331
G1 X108.486 Y105.000 E0.05331
G1 X108.574 Y103.302 E0.05331
G1 X108.836 Y101.622 E0.05331
G1 X109.269 Y99.978 E0.05331
G1 X109.868 Y98.387 E0.05331
G1 X110.629 Y96.866 E0.05331
G1 X111.541 Y95.432 E0.05331
G1 X112.596 Y94.099 E0.05331
G1 X113.783 Y92.881 E0.05331
G1 X115.088 Y91.792 E0.05331
G1 X116.499 Y90.843 E0.05331
G1 X118.000 Y90.043 E0.05332
G1 X119.494 Y89.434 E0.05058
G1 X121.208 Y88.928 E0.05606
G1 X122.795 Y88.636 E0.05056
G1 X124.496 Y88.496 E0.05353
G1 X124.728 Y88.496 E0.00728
G1 X126.274 Y88.536 E0.04850
G1 X127.961 Y88.754 E0.05331
G1 X129.615 Y89.145 E0.05331
G1 X131.221 Y89.703 E0.05331
G1 X132.761 Y90.424 E0.05331
G1 X134.219 Y91.299 E0.05331
G1 X135.578 Y92.320 E0.05331
G1 X136.826 Y93.474 E0.05331
G1 X137.949 Y94.752 E0.05331
G1 X138.934 Y96.137 E0.05331
G1 X139.771 Y97.617 E0.05331
G1 X140.452 Y99.175 E0.05331
G1 X140.969 Y100.794 E0.05331
G1 X141.317 Y102.459 E0.05331
G1 X141.492 Y104.157 E0.05355
G1 X141.514 Y104.999 E0.02638
G1 X141.486 Y105.927 E0.02914
G1 X141.301 Y107.626 E0.05357
G1 X140.969 Y109.204 E0.05056
G1 X140.419 Y110.905 E0.05606
G1 X139.771 Y112.383 E0.05058
G1 X138.934 Y113.863 E0.05332
G1 X137.984 Y115.199 E0.05139
G1 X138.291 Y115.417 F10800.000
G1 F1200
G1 X137.034 Y116.850 E0.05977
G1 X135.820 Y117.970 E0.05178
G1 X134.429 Y119.014 E0.05453
G1 X132.938 Y119.909 E0.05453
G1 X131.363 Y120.647 E0.05453
G1 X129.721 Y121.218 E0.05453
G1 X128.028 Y121.617 E0.05453
G1 X126.304 Y121.841 E0.05453
G1 X124.565 Y121.886 E0.05453
G1 X122.831 Y121.751 E0.05453
G1 X121.120 Y121.440 E0.05453
G1 X119.451 Y120.953 E0.05453
G1 X117.840 Y120.298 E0.05453
G1 X116.305 Y119.481 E0.05453
G1 X114.862 Y118.510 E0.05452
G1 X113.464 Y117.335 E0.05728
G1 X112.313 Y116.151 E0.05178
G1 X111.233 Y114.787 E0.05453
G1 X110.300 Y113.320 E0.05453
G1 X109.522 Y111.764 E0.05453
G1 X108.909 Y110.137 E0.05453
G1 X108.466 Y108.455 E0.05453
G1 X108.198 Y106.737 E0.05453
G1 X108.109 Y105.000 E0.05453
G1 X108.198 Y103.263 E0.05453
G1 X108.466 Y101.545 E0.05453
G1 X108.909 Y99.863 E0.05453
G1 X109.522 Y98.236 E0.05453
G1 X110.300 Y96.680 E0.05453
G1 X111.233 Y95.213 E0.05453
G1 X112.313 Y93.849 E0.05453
G1 X113.526 Y92.604 E0.05453
G1 X114.862 Y91.490 E0.05453
G1 X116.305 Y90.519 E0.05453
G1 X117.840 Y89.702 E0.05453
G1 X119.369 Y89.077 E0.05178
G1 X121.121 Y88.560 E0.05728
G1 X122.745 Y88.262 E0.05177
G1 X124.480 Y88.119 E0.05460
G1 X124.733 Y88.119 E0.00792
G1 X126.304 Y88.159 E0.04926
G1 X128.028 Y88.383 E0.05453
G1 X129.721 Y88.782 E0.05453
G1 X131.363 Y89.353 E0.05453
G1 X132.938 Y90.091 E0.05453
G1 X134.429 Y90.986 E0.05453
G1 X135.820 Y92.030 E0.05453
G1 X137.097 Y93.211 E0.05453
G1 X138.245 Y94.517 E0.05453
G1 X139.252 Y95.935 E0.05453
G1 X140.109 Y97.448 E0.05453
G1 X140.805 Y99.042 E0.05453
G1 X141.334 Y100.698 E0.05453
G1 X141.690 Y102.401 E0.05453
G1 X141.869 Y104.133 E0.05461
G1 X141.891 Y105.000 E0.02717
G1 X141.862 Y105.954 E0.02993
G1 X141.674 Y107.685 E0.05462
G1 X141.334 Y109.301 E0.05177
G1 X140.772 Y111.039 E0.05728
G1 X140.109 Y112.552 E0.05178
G1 X139.252 Y114.065 E0.05453
G1 X138.326 Y115.368 E0.05012
G1 X137.896 Y115.359 F10800.000
G1 F8640
G1 X137.034 Y116.850 E-0.45399
G1 X136.060 Y117.749 E-0.30601
G1 E-0.04000 F2100.00000
G1 Z0.800 F10800.000
G1 X139.762 Y97.877
G1 Z0.200
G1 E0.80000 F2100.00000
G1 F1200
G1 X132.497 Y90.612 E0.32234
G1 X131.493 Y90.143 E0.03475
G1 X139.847 Y98.496 E0.37063
G1 X140.187 Y99.275 E0.02666
G1 X140.232 Y99.415 E0.00461
G1 X130.605 Y89.788 E0.42711
G1 X129.787 Y89.504 E0.02718
G1 X140.482 Y100.198 E0.47451
G1 X140.716 Y100.966 E0.02518
G1 X129.052 Y89.302 E0.51752
G1 X128.354 Y89.137 E0.02251
G1 X140.857 Y101.641 E0.55476
G1 X140.998 Y102.315 E0.02162
G1 X127.686 Y89.004 E0.59062
G1 X127.073 Y88.924 E0.01939
G1 X141.082 Y102.932 E0.62152
G1 X141.143 Y103.528 E0.01877
G1 X126.460 Y88.845 E0.65145
G1 X126.253 Y88.818 E0.00656
G1 X125.892 Y88.810 E0.01133
G1 X141.205 Y104.123 E0.67940
G1 X141.223 Y104.675 E0.01733
G1 X125.346 Y88.798 E0.70443
G1 X124.800 Y88.786 E0.01713
G1 X141.225 Y105.210 E0.72873
G1 X141.209 Y105.728 E0.01625
G1 X124.279 Y88.798 E0.75117
G1 X123.786 Y88.838 E0.01552
G1 X141.169 Y106.222 E0.77129
G1 X141.117 Y106.703 E0.01519
G1 X123.293 Y88.879 E0.79084
G1 X122.803 Y88.922 E0.01544
G1 X141.065 Y107.185 E0.81027
G1 X141.006 Y107.659 E0.01499
G1 X122.352 Y89.005 E0.82763
G1 X121.901 Y89.088 E0.01438
G1 X140.913 Y108.100 E0.84352
G1 X140.820 Y108.540 E0.01413
G1 X121.450 Y89.171 E0.85941
G1 X121.023 Y89.277 E0.01381
G1 X140.727 Y108.981 E0.87424
G1 X140.610 Y109.397 E0.01356
G1 X120.611 Y89.399 E0.88731
G1 X120.199 Y89.520 E0.01348
G1 X140.479 Y109.801 E0.89981
G1 X140.349 Y110.204 E0.01330
G1 X119.787 Y89.642 E0.91230
G1 X119.392 Y89.781 E0.01313
G1 X140.219 Y110.607 E0.92404
G1 X140.072 Y110.994 E0.01298
G1 X119.013 Y89.935 E0.93434
G1 X118.634 Y90.090 E0.01284
G1 X139.909 Y111.365 E0.94393
G1 X139.746 Y111.736 E0.01271
G1 X118.255 Y90.245 E0.95352
G1 X117.896 Y90.419 E0.01253
G1 X139.584 Y112.107 E0.96224
G1 X139.403 Y112.459 E0.01244
G1 X117.548 Y90.604 E0.96967
G1 X117.200 Y90.790 E0.01238
G1 X139.210 Y112.800 E0.97657
G1 X139.017 Y113.141 E0.01228
G1 X116.852 Y90.975 E0.98346
G1 X116.515 Y91.173 E0.01223
G1 X138.824 Y113.482 E0.98982
G1 X138.622 Y113.813 E0.01218
G1 X116.196 Y91.387 E0.99500
G1 X115.877 Y91.602 E0.01206
G1 X138.400 Y114.125 E0.99932
G1 X138.179 Y114.437 E0.01201
G1 X115.558 Y91.816 E1.00363
G1 X115.241 Y92.033 E0.01205
G1 X137.957 Y114.749 E1.00787
G1 X137.735 Y115.060 E0.01201
G1 X114.950 Y92.275 E1.01094
G1 X114.659 Y92.518 E0.01189
G1 X137.486 Y115.344 E1.01278
M73 P9 R32
G1 X137.235 Y115.627 E0.01186
G1 X114.368 Y92.761 E1.01457
G1 X114.077 Y93.003 E0.01189
G1 X136.985 Y115.910 E1.01635
G1 X136.734 Y116.194 E0.01186
G1 X113.804 Y93.264 E1.01735
G1 X113.541 Y93.534 E0.01184
G1 X136.475 Y116.468 E1.01754
G1 X136.198 Y116.724 E0.01185
G1 X113.278 Y93.804 E1.01692
G1 X113.014 Y94.075 E0.01184
G1 X135.920 Y116.980 E1.01629
G1 X135.643 Y117.236 E0.01185
G1 X112.757 Y94.351 E1.01540
G1 X112.521 Y94.649 E0.01192
G1 X135.362 Y117.489 E1.01340
G1 X135.057 Y117.718 E0.01196
G1 X112.286 Y94.947 E1.01034
G1 X112.050 Y95.244 E0.01192
G1 X134.752 Y117.947 E1.00727
G1 X134.447 Y118.176 E0.01196
G1 X111.814 Y95.542 E1.00421
G1 X111.602 Y95.863 E0.01208
G1 X134.143 Y118.404 E1.00011
G1 X133.817 Y118.612 E0.01212
G1 X111.394 Y96.190 E0.99486
G1 X111.187 Y96.516 E0.01213
G1 X133.483 Y118.812 E0.98928
G1 X133.150 Y119.013 E0.01220
G1 X110.979 Y96.842 E0.98369
G1 X110.786 Y97.183 E0.01229
G1 X132.817 Y119.213 E0.97745
G1 X132.470 Y119.400 E0.01235
G1 X110.609 Y97.538 E0.96996
G1 X110.431 Y97.894 E0.01248
G1 X132.107 Y119.570 E0.96173
G1 X131.743 Y119.740 E0.01259
G1 X110.253 Y98.250 E0.95349
G1 X110.085 Y98.615 E0.01262
G1 X131.380 Y119.910 E0.94484
G1 X131.008 Y120.072 E0.01273
G1 X109.938 Y99.003 E0.93480
G1 X109.792 Y99.390 E0.01299
G1 X130.612 Y120.209 E0.92372
G1 X130.216 Y120.347 E0.01315
G1 X109.646 Y99.778 E0.91264
G1 X109.509 Y100.174 E0.01316
G1 X129.820 Y120.485 E0.90115
G1 X129.414 Y120.612 E0.01335
G1 X109.398 Y100.597 E0.88807
G1 X109.287 Y101.019 E0.01370
G1 X128.982 Y120.714 E0.87385
G1 X128.550 Y120.816 E0.01392
G1 X109.176 Y101.441 E0.85963
G1 X109.082 Y101.881 E0.01410
G1 X128.119 Y120.918 E0.84465
G1 X127.666 Y120.999 E0.01443
G1 X109.010 Y102.343 E0.82776
G1 X108.938 Y102.804 E0.01466
G1 X127.194 Y121.060 E0.80999
G1 X126.721 Y121.121 E0.01495
G1 X108.866 Y103.266 E0.79222
G1 X108.833 Y103.767 E0.01575
G1 X126.248 Y121.182 E0.77269
G1 X125.728 Y121.195 E0.01633
G1 X108.807 Y104.274 E0.75077
G1 X108.781 Y104.782 E0.01594
G1 X125.208 Y121.209 E0.72885
G1 X124.688 Y121.222 E0.01633
G1 X108.786 Y105.321 E0.70553
G1 X108.815 Y105.883 E0.01767
G1 X124.121 Y121.189 E0.67911
G1 X123.543 Y121.145 E0.01820
G1 X108.844 Y106.446 E0.65216
G1 X108.856 Y106.669 E0.00700
G1 X108.915 Y107.050 E0.01211
G1 X122.964 Y121.100 E0.62335
G1 X122.318 Y120.987 E0.02058
G1 X109.013 Y107.682 E0.59031
G1 X109.112 Y108.314 E0.02007
G1 X121.666 Y120.868 E0.55699
G1 X121.272 Y120.796 E0.01255
G1 X120.973 Y120.710 E0.00976
G1 X109.302 Y109.038 E0.51785
G1 X109.493 Y109.762 E0.02350
G1 X120.221 Y120.490 E0.47599
G1 X119.668 Y120.329 E0.01807
G1 X119.429 Y120.232 E0.00808
G1 X109.784 Y110.587 E0.42795
M73 P12 R31
G1 X110.107 Y111.444 E0.02872
G1 X118.839 Y120.175 E0.38742
G1 F8640
G1 X116.511 Y117.848 E-0.76000
G1 E-0.04000 F2100.00000
G1 Z0.800 F10800.000
G1 X117.910 Y119.780
G1 Z0.200
G1 E0.80000 F2100.00000
G1 F1200
G1 X110.247 Y112.117 E0.34000
G1 F8640
G1 X112.574 Y114.445 E-0.76000
G1 E-0.04000 F2100.00000
G1 Z0.800 F10800.000
G1 X110.820 Y113.224
G1 Z0.200
G1 E0.80000 F2100.00000
G1 F1200
G1 X116.769 Y119.173 E0.26394
G1 F8640
G1 X114.441 Y116.845 E-0.76000
G1 E-0.04000 F2100.00000
G1 Z0.800 F10800.000
G1 X115.229 Y118.166
G1 Z0.200
G1 E0.80000 F2100.00000
G1 F1200
G1 X111.892 Y114.830 E0.14802
G1 F8640
G1 X114.220 Y117.157 E-0.76000
G1 E-0.04000 F2100.00000
G1 Z0.800 F10800.000
