; generated by PrusaSlicer 2.2.0+win64 on 2020-08-18 at 17:40:52 UTC

; 

; external perimeters extrusion width = 0.45mm
; perimeters extrusion width = 0.45mm
; infill extrusion width = 0.45mm
; solid infill extrusion width = 0.45mm
; top infill extrusion width = 0.40mm
; first layer extrusion width = 0.42mm

; external perimeters extrusion width = 0.45mm
; perimeters extrusion width = 0.45mm
; infill extrusion width = 0.45mm
; solid infill extrusion width = 0.45mm
; top infill extrusion width = 0.40mm
; first layer extrusion width = 0.42mm

; external perimeters extrusion width = 0.45mm
; perimeters extrusion width = 0.45mm
; infill extrusion width = 0.45mm
; solid infill extrusion width = 0.45mm
; top infill extrusion width = 0.40mm
; first layer extrusion width = 0.42mm

M73 P0 R35
M201 X9000 Y9000 Z500 E10000 ; sets maximum accelerations, mm/sec^2
M203 X500 Y500 Z12 E120 ; sets maximum feedrates, mm/sec
M204 P2000 R1500 T2000 ; sets acceleration (P, T) and retract acceleration (R), mm/sec^2
M205 X10.00 Y10.00 Z0.20 E4.50 ; sets the jerk limits, mm/sec
M205 S0 T0 ; sets the minimum extruding and travel feed rate, mm/sec
M107
M862.3 P "MK2.5SMMU2S" ; printer model check
M862.1 P0.4 ; nozzle diameter check
M115 U3.9.0 ; tell printer latest fw version
G90 ; use absolute coordinates
M83 ; extruder relative mode
M104 S215 ; set extruder temp
M140 S60 ; set bed temp
M190 S60 ; wait for bed temp
M109 S215 ; wait for extruder temp
G28 W ; home all without mesh bed level
G80 ; mesh bed leveling

; Send the filament type to the MMU2.0 unit.
; E stands for extruder number, F stands for filament type (0: default; 1:flex; 2: PVA)
M403 E0 F0
M403 E1 F0
M403 E2 F0
M403 E3 F0
M403 E4 F0


;go outside print area
G1 Y-3.0 F1000.0
G1 Z0.4 F1000.0
; select extruder
T0
; initial load
G1 X55.0 E29.0 F1073.0
M73 P0 R35
G1 X5.0 E29.0 F1800.0
G1 X55.0 E8.0 F2000.0
G1 Z0.3 F1000.0
G92 E0.0
G1 X240.0 E25.0 F2200.0
G1 Y-2.0 F1000.0
G1 X55.0 E25 F1400.0
G1 Z0.20 F1000.0
G1 X5.0 E4.0 F1000.0
G92 E0.0

G92 E0.0
G21 ; set units to millimeters
G90 ; use absolute coordinates
M83 ; use relative distances for extrusion
T0
M900 K0.06 ; Filament gcode LA 1.5
M900 K30 ; Filament gcode LA 1.0
G1 Z0.200 F10800.000
;BEFORE_LAYER_CHANGE
G92 E0.0
;0.2


G1 E-0.80000 F2100.00000
G1 Z0.800 F10800.000
G1 Z0.200
;AFTER_LAYER_CHANGE
;0.2
G1 E-2.20000 F2100.00000
G1 Z0.800 F10800.000
G1 X155.943 Y75.804
G1 Z0.200
G1 E3.00000 F2100.00000
;-------------------------------------
; CP WIPE TOWER FIRST LAYER BRIM START
G1  X155.943 Y89.864  E0.8016 F2400
G1  X153.400 Y90.321   F7000
G1  Y75.347  E0.6260 F2100
G1  X92.486  E2.5466
G1  Y90.321  E0.6260
G1  X153.400  E2.5466
G1  X153.857 Y90.778   F7000
G1  Y74.890  E0.6642 F2100
G1  X92.029  E2.5849
G1  Y90.778  E0.6642
G1  X153.857  E2.5849
G1  X154.314 Y91.235   F7000
G1  Y74.433  E0.7025 F2100
G1  X91.572  E2.6231
G1  Y91.235  E0.7025
G1  X154.314  E2.6231
G1  X154.771 Y91.692   F7000
G1  Y73.976  E0.7407 F2100
G1  X91.115  E2.6613
G1  Y91.692  E0.7407
G1  X154.771  E2.6613
G1  X152.943 Y89.864   F7000
G1  X92.943 
G1  X152.943 
; CP WIPE TOWER FIRST LAYER BRIM END
;-----------------------------------
G1  X152.443 Y76.304   F7200
;--------------------
; CP EMPTY GRID START
; layer #1
G1  X152.943 
G1  Y75.804 
G1  Y89.864  E0.5344 F1450
G1  X92.943  E2.2804
G1  Y75.804  E0.5344
G1  X152.943  E2.2804
G1  X152.443 
G1  Y76.304 
G1  Y89.364  E0.4964
G1  X93.443  E2.2424
G1  Y76.304  E0.4964
G1  X152.443  E2.2424
G1  Y89.364 
G1  X151.943 Y88.841   E0.0275
G1  X93.943  E2.2044
G1  Y88.317  E0.0199
G1  X151.943  E2.2044
G1  Y87.794  E0.0199
G1  X93.943  E2.2044
M73 P3 R34
G1  Y87.271  E0.0199
G1  X151.943  E2.2044
G1  Y86.747  E0.0199
G1  X93.943  E2.2044
G1  Y86.224  E0.0199
G1  X151.943  E2.2044
G1  Y85.701  E0.0199
G1  X93.943  E2.2044
G1  Y85.177  E0.0199
G1  X151.943  E2.2044
G1  Y84.654  E0.0199
G1  X93.943  E2.2044
G1  Y84.131  E0.0199
G1  X151.943  E2.2044
G1  Y83.607  E0.0199
G1  X93.943  E2.2044
G1  Y83.084  E0.0199
G1  X151.943  E2.2044
G1  Y82.561  E0.0199
G1  X93.943  E2.2044
G1  Y82.037  E0.0199
G1  X151.943  E2.2044
G1  Y81.514  E0.0199
G1  X93.943  E2.2044
G1  Y80.991  E0.0199
G1  X151.943  E2.2044
G1  Y80.467  E0.0199
G1  X93.943  E2.2044
G1  Y79.944  E0.0199
G1  X151.943  E2.2044
G1  Y79.421  E0.0199
G1  X93.943  E2.2044
G1  Y78.897  E0.0199
G1  X151.943  E2.2044
G1  Y78.374  E0.0199
G1  X93.943  E2.2044
G1  Y77.851  E0.0199
G1  X151.943  E2.2044
G1  Y77.327  E0.0199
G1  X93.943  E2.2044
G1  Y76.804  E0.0199
G1  X151.943  E2.2044
G1  X93.943 
; CP EMPTY GRID END
;------------------







G1 F8640.000
G1 X90.652 Y76.804 E-0.76000
G1 E-0.04000 F2100.00000
G1 Z0.800 F10800.000
G1 X88.611 Y73.060
G1 Z0.200
G1 E0.80000 F2100.00000
M204 S1000
G1 F1200.000
G1 X88.894 Y72.451 E0.02107
G1 X89.268 Y72.006 E0.01823
G1 X89.736 Y71.667 E0.01811
G1 X90.271 Y71.451 E0.01811
G1 X90.847 Y71.370 E0.01823
G1 X155.004 Y71.370 E2.01159
G1 X155.853 Y71.528 E0.02708
G1 X156.586 Y71.977 E0.02696
G1 X157.114 Y72.660 E0.02708
G1 X157.363 Y73.487 E0.02708
G1 X157.377 Y91.928 E0.57820
G1 X157.311 Y92.479 E0.01740
G1 X142.463 Y125.717 E1.14139
M73 P6 R33
G1 X141.424 Y127.562 E0.06641
G1 X140.274 Y129.178 E0.06216
G1 X138.950 Y130.684 E0.06288
G1 X137.479 Y132.046 E0.06288
G1 X135.878 Y133.248 E0.06276
G1 X134.159 Y134.280 E0.06288
G1 X132.346 Y135.129 E0.06276
G1 X130.452 Y135.789 E0.06288
G1 X128.579 Y136.234 E0.06037
G1 X126.512 Y136.508 E0.06538
G1 X124.511 Y136.561 E0.06276
G1 X122.507 Y136.406 E0.06300
G1 X120.620 Y136.066 E0.06013
G1 X118.612 Y135.489 E0.06550
G1 X116.831 Y134.768 E0.06025
G1 X114.528 Y133.505 E0.08235
G1 X112.916 Y132.357 E0.06203
G1 X111.405 Y131.029 E0.06310
G1 X110.046 Y129.560 E0.06274
G1 X108.812 Y127.908 E0.06465
G1 X108.057 Y126.695 E0.04480
G1 X88.695 Y92.843 E1.22276
G1 X88.509 Y91.946 E0.02872
G1 X88.509 Y73.724 E0.57132
G1 X88.602 Y73.119 E0.01919
G1 F8640.000
G1 X88.894 Y72.451 E-0.16850
G1 X89.268 Y72.006 E-0.13423
G1 X89.736 Y71.667 E-0.13336
G1 X90.271 Y71.451 E-0.13336
G1 X90.847 Y71.370 E-0.13423
G1 X91.091 Y71.370 E-0.05634
G1 E-0.04000 F2100.00000
G1 Z0.800 F10800.000
G1 X124.691 Y133.593
G1 Z0.200
G1 E0.80000 F2100.00000
G1 F1200.000
G1 X122.881 Y133.465 E0.05688
G1 X121.209 Y133.160 E0.05331
G1 X119.576 Y132.685 E0.05331
G1 X118.001 Y132.045 E0.05331
G1 X116.500 Y131.246 E0.05331
G1 X115.091 Y130.297 E0.05327
G1 X113.722 Y129.147 E0.05605
G1 X112.598 Y127.990 E0.05058
G1 X111.542 Y126.657 E0.05332
G1 X110.630 Y125.222 E0.05331
G1 X109.870 Y123.701 E0.05331
G1 X109.270 Y122.110 E0.05331
G1 X108.837 Y120.466 E0.05331
G1 X108.575 Y118.786 E0.05331
G1 X108.488 Y117.088 E0.05331
G1 X108.575 Y115.390 E0.05331
G1 X108.837 Y113.710 E0.05331
G1 X109.270 Y112.066 E0.05331
G1 X109.870 Y110.475 E0.05331
G1 X110.630 Y108.955 E0.05331
G1 X111.542 Y107.520 E0.05331
G1 X112.598 Y106.187 E0.05331
G1 X113.784 Y104.969 E0.05331
G1 X115.090 Y103.880 E0.05331
G1 X116.500 Y102.931 E0.05331
G1 X118.002 Y102.132 E0.05332
G1 X119.495 Y101.522 E0.05058
G1 X121.210 Y101.016 E0.05606
G1 X122.796 Y100.725 E0.05056
G1 X124.497 Y100.584 E0.05353
G1 X126.276 Y100.624 E0.05578
G1 X127.962 Y100.842 E0.05331
G1 X129.617 Y101.233 E0.05331
G1 X131.223 Y101.791 E0.05331
G1 X132.762 Y102.512 E0.05331
G1 X134.220 Y103.387 E0.05331
G1 X135.580 Y104.408 E0.05331
G1 X136.828 Y105.563 E0.05331
G1 X137.950 Y106.840 E0.05331
G1 X138.935 Y108.226 E0.05331
G1 X139.773 Y109.705 E0.05331
G1 X140.454 Y111.263 E0.05331
G1 X140.971 Y112.883 E0.05331
G1 X141.318 Y114.547 E0.05331
G1 X141.494 Y116.246 E0.05355
G1 X141.516 Y117.087 E0.02638
G1 X141.487 Y118.016 E0.02914
G1 X141.303 Y119.714 E0.05357
G1 X140.971 Y121.292 E0.05056
G1 X140.421 Y122.994 E0.05606
G1 X139.773 Y124.471 E0.05058
G1 X138.935 Y125.951 E0.05332
G1 X137.951 Y127.336 E0.05327
G1 X136.766 Y128.674 E0.05605
G1 X135.580 Y129.769 E0.05058
G1 X134.220 Y130.789 E0.05332
G1 X132.762 Y131.665 E0.05331
G1 X131.223 Y132.385 E0.05331
G1 X129.617 Y132.944 E0.05331
G1 X127.962 Y133.334 E0.05331
G1 X126.276 Y133.553 E0.05331
G1 X124.751 Y133.592 E0.04784
G1 X124.567 Y133.974 F10800.000
G1 F1200.000
G1 X122.833 Y133.840 E0.05453
G1 X121.122 Y133.528 E0.05453
G1 X119.452 Y133.042 E0.05453
G1 X117.841 Y132.387 E0.05453
G1 X116.306 Y131.569 E0.05453
G1 X114.864 Y130.599 E0.05452
G1 X113.465 Y129.423 E0.05728
G1 X112.314 Y128.239 E0.05178
G1 X111.235 Y126.875 E0.05453
G1 X110.301 Y125.408 E0.05453
G1 X109.524 Y123.852 E0.05453
G1 X108.910 Y122.225 E0.05453
G1 X108.468 Y120.543 E0.05453
G1 X108.200 Y118.825 E0.05453
G1 X108.110 Y117.088 E0.05453
G1 X108.200 Y115.352 E0.05453
G1 X108.468 Y113.633 E0.05453
G1 X108.910 Y111.952 E0.05453
G1 X109.524 Y110.324 E0.05453
G1 X110.301 Y108.769 E0.05453
G1 X111.235 Y107.301 E0.05453
G1 X112.314 Y105.938 E0.05453
G1 X113.528 Y104.692 E0.05453
G1 X114.863 Y103.578 E0.05453
G1 X116.306 Y102.607 E0.05453
G1 X117.841 Y101.790 E0.05453
G1 X119.370 Y101.166 E0.05178
G1 X121.122 Y100.649 E0.05728
G1 X122.746 Y100.350 E0.05177
G1 X124.482 Y100.207 E0.05460
G1 X126.305 Y100.248 E0.05718
G1 X128.030 Y100.471 E0.05453
G1 X129.722 Y100.870 E0.05453
G1 X131.365 Y101.442 E0.05453
G1 X132.940 Y102.179 E0.05453
G1 X134.431 Y103.074 E0.05453
G1 X135.822 Y104.118 E0.05453
G1 X137.098 Y105.299 E0.05453
G1 X138.246 Y106.606 E0.05453
G1 X139.254 Y108.023 E0.05453
G1 X140.110 Y109.536 E0.05453
G1 X140.807 Y111.130 E0.05453
G1 X141.336 Y112.787 E0.05453
G1 X141.691 Y114.489 E0.05453
G1 X141.871 Y116.222 E0.05461
G1 X141.893 Y117.088 E0.02717
G1 X141.864 Y118.042 E0.02993
G1 X141.676 Y119.774 E0.05462
G1 X141.336 Y121.390 E0.05177
G1 X140.774 Y123.128 E0.05728
G1 X140.110 Y124.640 E0.05178
G1 X139.254 Y126.154 E0.05453
G1 X138.246 Y127.571 E0.05452
G1 X137.035 Y128.939 E0.05728
G1 X135.822 Y130.059 E0.05178
G1 X134.431 Y131.103 E0.05453
G1 X132.940 Y131.998 E0.05453
G1 X131.365 Y132.735 E0.05453
G1 X129.722 Y133.306 E0.05453
G1 X128.030 Y133.706 E0.05453
G1 X126.305 Y133.929 E0.05453
G1 X124.627 Y133.972 E0.05265
G1 X124.376 Y133.622 F10800.000
G1 F8640.000
G1 X122.833 Y133.840 E-0.41534
G1 X121.364 Y133.572 E-0.34466
G1 E-0.04000 F2100.00000
G1 Z0.800 F10800.000
G1 X139.130 Y108.799
G1 Z0.200
G1 E0.80000 F2100.00000
G1 F1200.000
G1 X133.790 Y103.459 E0.23691
G1 X132.629 Y102.762 E0.04247
G1 X132.498 Y102.701 E0.00455
G1 X139.376 Y109.579 E0.30517
G1 X139.519 Y109.832 E0.00913
G1 X139.848 Y110.585 E0.02577
G1 X131.495 Y102.231 E0.37063
G1 X131.116 Y102.054 E0.01313
G1 X130.607 Y101.877 E0.01691
G1 X140.233 Y111.503 E0.42711
G1 X140.483 Y112.287 E0.02581
G1 X129.789 Y101.592 E0.47451
G1 X129.538 Y101.505 E0.00834
G1 X129.053 Y101.391 E0.01561
G1 X140.718 Y113.055 E0.51752
G1 X140.858 Y113.729 E0.02162
G1 X128.355 Y101.226 E0.55476
G1 X127.911 Y101.121 E0.01431
G1 X127.688 Y101.092 E0.00707
G1 X140.999 Y114.404 E0.59062
G1 X141.039 Y114.591 E0.00599
G1 X141.083 Y115.021 E0.01357
G1 X127.075 Y101.013 E0.62152
G1 X126.462 Y100.933 E0.01939
G1 X141.145 Y115.616 E0.65145
G1 X141.206 Y116.211 E0.01877
G1 X125.893 Y100.898 E0.67940
G1 X125.348 Y100.886 E0.01713
G1 X141.224 Y116.763 E0.70443
G1 X141.226 Y117.298 E0.01680
G1 X124.802 Y100.874 E0.72873
G1 X124.506 Y100.867 E0.00928
G1 X124.280 Y100.886 E0.00711
G1 X141.210 Y117.816 E0.75117
G1 X141.171 Y118.310 E0.01555
G1 X123.787 Y100.927 E0.77129
G1 X123.294 Y100.967 E0.01552
G1 X141.119 Y118.792 E0.79084
G1 X141.066 Y119.273 E0.01519
G1 X122.804 Y101.011 E0.81026
G1 X122.353 Y101.094 E0.01438
G1 X141.007 Y119.747 E0.82763
G1 X140.914 Y120.188 E0.01413
G1 X121.903 Y101.176 E0.84352
G1 X121.452 Y101.259 E0.01438
G1 X140.822 Y120.629 E0.85941
G1 X140.729 Y121.070 E0.01413
G1 X121.025 Y101.366 E0.87424
G1 X120.613 Y101.487 E0.01348
G1 X140.611 Y121.486 E0.88731
G1 X140.481 Y121.889 E0.01330
G1 X120.201 Y101.609 E0.89980
G1 X119.789 Y101.730 E0.01348
G1 X140.350 Y122.292 E0.91230
G1 X140.220 Y122.695 E0.01330
G1 X119.394 Y101.869 E0.92404
G1 X119.015 Y102.024 E0.01284
G1 X140.073 Y123.082 E0.93434
G1 X139.911 Y123.453 E0.01271
G1 X118.636 Y102.178 E0.94393
G1 X118.257 Y102.333 E0.01284
G1 X139.748 Y123.824 E0.95352
G1 X139.585 Y124.195 E0.01271
G1 X117.898 Y102.507 E0.96224
G1 X117.550 Y102.693 E0.01238
G1 X139.405 Y124.548 E0.96967
G1 X139.212 Y124.889 E0.01228
G1 X117.201 Y102.878 E0.97656
G1 X116.853 Y103.064 E0.01238
G1 X139.019 Y125.229 E0.98346
G1 X138.826 Y125.570 E0.01228
G1 X116.517 Y103.261 E0.98982
G1 X116.198 Y103.476 E0.01206
G1 X138.624 Y125.901 E0.99500
G1 X138.402 Y126.213 E0.01201
G1 X115.879 Y103.690 E0.99932
M73 P9 R32
G1 X115.560 Y103.905 E0.01206
G1 X138.180 Y126.525 E1.00363
G1 X137.959 Y126.837 E0.01201
G1 X115.243 Y104.121 E1.00787
G1 X114.952 Y104.364 E0.01189
G1 X137.737 Y127.149 E1.01094
G1 X137.487 Y127.433 E0.01186
G1 X114.661 Y104.606 E1.01278
G1 X114.370 Y104.849 E0.01189
G1 X137.237 Y127.716 E1.01456
G1 X136.986 Y127.999 E0.01186
G1 X114.079 Y105.092 E1.01635
G1 X113.806 Y105.352 E0.01184
G1 X136.735 Y128.282 E1.01735
G1 X136.476 Y128.556 E0.01184
G1 X113.543 Y105.623 E1.01754
G1 X113.279 Y105.893 E0.01184
G1 X136.199 Y128.813 E1.01692
G1 X135.922 Y129.069 E0.01185
G1 X113.016 Y106.163 E1.01629
G1 X112.759 Y106.439 E0.01184
G1 X135.644 Y129.325 E1.01540
G1 X135.363 Y129.578 E0.01185
G1 X112.523 Y106.737 E1.01340
G1 X112.287 Y107.035 E0.01192
G1 X135.059 Y129.807 E1.01034
G1 X134.754 Y130.035 E0.01196
G1 X112.051 Y107.333 E1.00727
G1 X111.816 Y107.631 E0.01192
G1 X134.449 Y130.264 E1.00421
G1 X134.144 Y130.493 E0.01196
G1 X111.603 Y107.952 E1.00011
G1 X111.396 Y108.278 E0.01213
G1 X133.818 Y130.701 E0.99486
G1 X133.485 Y130.901 E0.01220
G1 X111.188 Y108.604 E0.98928
G1 X110.981 Y108.930 E0.01213
G1 X133.152 Y131.101 E0.98369
G1 X132.818 Y131.301 E0.01220
G1 X110.788 Y109.271 E0.97745
G1 X110.610 Y109.627 E0.01248
G1 X132.472 Y131.488 E0.96996
G1 X132.108 Y131.659 E0.01259
G1 X110.432 Y109.983 E0.96173
G1 X110.255 Y110.338 E0.01248
G1 X131.745 Y131.829 E0.95349
G1 X131.381 Y131.999 E0.01259
G1 X110.086 Y110.704 E0.94484
G1 X109.940 Y111.091 E0.01299
G1 X131.009 Y132.160 E0.93480
G1 X130.613 Y132.298 E0.01315
G1 X109.794 Y111.479 E0.92372
G1 X109.648 Y111.866 E0.01299
G1 X130.217 Y132.436 E0.91264
G1 X129.821 Y132.573 E0.01315
G1 X109.511 Y112.263 E0.90115
G1 X109.400 Y112.685 E0.01370
G1 X129.415 Y132.701 E0.88807
G1 X128.984 Y132.803 E0.01392
G1 X109.288 Y113.107 E0.87385
G1 X109.177 Y113.530 E0.01370
G1 X128.552 Y132.905 E0.85963
G1 X128.120 Y133.006 E0.01392
G1 X109.083 Y113.969 E0.84465
G1 X109.011 Y114.431 E0.01466
G1 X127.667 Y133.087 E0.82776
G1 X127.195 Y133.149 E0.01495
G1 X108.939 Y114.893 E0.80999
G1 X108.867 Y115.354 E0.01466
G1 X126.723 Y133.210 E0.79222
G1 X126.250 Y133.270 E0.01496
G1 X108.835 Y115.855 E0.77268
G1 X108.809 Y116.363 E0.01594
G1 X125.730 Y133.284 E0.75076
G1 X125.209 Y133.297 E0.01633
G1 X108.782 Y116.870 E0.72884
G1 X108.771 Y117.088 E0.00685
G1 X108.788 Y117.409 E0.01007
G1 X124.689 Y133.311 E0.70553
G1 X124.123 Y133.278 E0.01780
G1 X108.817 Y117.972 E0.67911
M73 P12 R31
G1 X108.846 Y118.534 E0.01767
G1 X123.544 Y133.233 E0.65216
G1 X122.966 Y133.188 E0.01820
G1 X108.917 Y119.139 E0.62335
G1 X109.015 Y119.771 E0.02007
G1 X122.320 Y133.075 E0.59031
G1 X121.667 Y132.957 E0.02081
G1 X109.113 Y120.403 E0.55699
G1 X109.303 Y121.126 E0.02347
G1 X120.975 Y132.798 E0.51785
G1 X120.222 Y132.579 E0.02459
G1 X109.494 Y121.851 E0.47599
G1 X109.540 Y122.024 E0.00563
G1 X109.785 Y122.676 E0.02184
G1 X119.431 Y132.321 E0.42794
G1 X118.531 Y131.955 E0.03046
G1 X110.108 Y123.532 E0.37372
G1 X110.628 Y124.585 E0.03684
G1 X117.500 Y131.458 E0.30492
G1 X116.646 Y131.003 E0.03036
G1 X116.236 Y130.727 E0.01552
G1 X110.822 Y125.313 E0.24022
M106 S130.05
;BEFORE_LAYER_CHANGE
G92 E0.0
;0.4


G1 F8640.000
G1 X113.149 Y127.640 E-0.76000
G1 E-0.04000 F2100.00000
G1 Z0.800 F10800.000
;AFTER_LAYER_CHANGE
;0.4
M104 S210 ; set temperature
G1 E-2.20000 F2100.00000
G1 X93.443 Y89.364 F10800.000
G1 Z0.400
G1 E3.00000 F2100.00000
;--------------------
; CP EMPTY GRID START
; layer #2
G1  X92.943 Y89.364 
G1  Y89.864 
G1  Y75.804  E0.5344 F2900
G1  X152.943  E2.2804
G1  Y89.864  E0.5344
