; generated by PrusaSlicer 2.1.1+win64 on 2020-01-16 at 20:11:00 UTC

; 

; external perimeters extrusion width = 0.45mm
; perimeters extrusion width = 0.45mm
; infill extrusion width = 0.45mm
; solid infill extrusion width = 0.45mm
; top infill extrusion width = 0.40mm
; first layer extrusion width = 0.42mm

; external perimeters extrusion width = 0.45mm
; perimeters extrusion width = 0.45mm
; infill extrusion width = 0.45mm
; solid infill extrusion width = 0.45mm
; top infill extrusion width = 0.40mm
; first layer extrusion width = 0.42mm

M73 P0 R66
M201 X9000 Y9000 Z500 E10000 ; sets maximum accelerations, mm/sec^2
M203 X500 Y500 Z12 E120 ; sets maximum feedrates, mm/sec
M204 P2000 R1500 T2000 ; sets acceleration (P, T) and retract acceleration (R), mm/sec^2
M205 X10.00 Y10.00 Z0.20 E2.50 ; sets the jerk limits, mm/sec
M205 S0 T0 ; sets the minimum extruding and travel feed rate, mm/sec
M107
M862.3 P "MK2.5SMMU2S" ; printer model check
M862.1 P0.4 ; nozzle diameter check
M115 U3.8.1 ; tell printer latest fw version
G90 ; use absolute coordinates
M83 ; extruder relative mode
M104 S215 ; set extruder temp
M140 S60 ; set bed temp
M190 S60 ; wait for bed temp
M109 S215 ; wait for extruder temp
G28 W ; home all without mesh bed level
G80 ; mesh bed leveling

; Send the filament type to the MMU2.0 unit.
; E stands for extruder number, F stands for filament type (0: default; 1:flex; 2: PVA)
M403 E0 F0
M403 E1 F0
M403 E2 F0
M403 E3 F0
M403 E4 F0


;go outside print area
G1 Y-3.0 F1000.0
G1 Z0.4 F1000.0
; select extruder
T0
; initial load
G1 X55.0 E29.0 F1073.0
M73 P0 R65
G1 X5.0 E29.0 F1800.0
G1 X55.0 E8.0 F2000.0
G1 Z0.3 F1000.0
G92 E0.0
G1 X240.0 E25.0 F2200.0
G1 Y-2.0 F1000.0
G1 X55.0 E25 F1400.0
G1 Z0.20 F1000.0
G1 X5.0 E4.0 F1000.0
G92 E0.0

G92 E0.0
G21 ; set units to millimeters
G90 ; use absolute coordinates
M83 ; use relative distances for extrusion
T0
M900 K30 ; Filament gcode
G1 Z0.200 F10800.000
;BEFORE_LAYER_CHANGE
G92 E0.0
;0.2


G1 E-0.80000 F2100.00000
G1 Z0.800 F10800.000
G1 Z0.200
;AFTER_LAYER_CHANGE
;0.2
G1 E-2.20000 F2100.00000
G1 Z0.800 F10800.000
G1 X233.000 Y140.000
G1 Z0.200
G1 E3.00000 F2100.00000
;-------------------------------------
; CP WIPE TOWER FIRST LAYER BRIM START
G1  X233.000 Y154.060 E0.8016 F2400
G1  X230.457 Y154.517  F7000
G1  Y139.543 E0.6260 F2100
G1  X169.543 E2.5466
G1  Y154.517 E0.6260
G1  X230.457 E2.5466
G1  X230.914 Y154.974  F7000
G1  Y139.086 E0.6642 F2100
G1  X169.086 E2.5849
G1  Y154.974 E0.6642
G1  X230.914 E2.5849
G1  X231.371 Y155.431  F7000
G1  Y138.629 E0.7025 F2100
G1  X168.629 E2.6231
G1  Y155.431 E0.7025
G1  X231.371 E2.6231
G1  X231.828 Y155.888  F7000
G1  Y138.172 E0.7407 F2100
G1  X168.172 E2.6613
G1  Y155.888 E0.7407
G1  X231.828 E2.6613
G1  X230.000 Y154.060  F7000
G1  X170.000
G1  X230.000
; CP WIPE TOWER FIRST LAYER BRIM END
;-----------------------------------

G1 F8640
G1 X226.709 Y154.060 E-0.76000
G1 E-0.04000 F2100.00000
G1 Z0.800 F10800.000
G1 X136.912 Y132.728
G1 Z0.200
G1 E0.80000 F2100.00000
M204 S1000
G1 F1200
G1 X136.500 Y133.939 E0.04010
G1 X135.739 Y135.377 E0.05102
G1 X134.875 Y136.483 E0.04400
G1 X133.934 Y137.359 E0.04033
G1 X132.513 Y138.296 E0.05337
G1 X131.131 Y138.871 E0.04692
G1 X129.917 Y139.171 E0.03920
G1 X128.676 Y139.281 E0.03906
G1 X120.709 Y139.251 E0.24981
G1 X119.344 Y139.014 E0.04343
G1 X117.991 Y138.543 E0.04493
G1 X116.732 Y137.852 E0.04504
G1 X115.592 Y136.954 E0.04551
G1 X114.633 Y135.898 E0.04473
G1 X113.848 Y134.682 E0.04537
G1 X113.275 Y133.358 E0.04525
G1 X112.918 Y131.900 E0.04707
G1 X112.811 Y130.541 E0.04271
G1 X112.851 Y79.032 E1.61503
G1 X113.088 Y77.674 E0.04323
G1 X113.499 Y76.467 E0.03998
G1 X114.257 Y75.031 E0.05091
G1 X115.122 Y73.922 E0.04412
G1 X116.061 Y73.047 E0.04021
G1 X117.444 Y72.126 E0.05212
G1 X118.732 Y71.570 E0.04397
G1 X120.246 Y71.210 E0.04879
G1 X121.473 Y71.114 E0.03861
G1 X128.504 Y71.114 E0.22043
G1 X129.305 Y71.153 E0.02516
G1 X130.545 Y71.362 E0.03943
G1 X131.907 Y71.817 E0.04503
G1 X133.244 Y72.533 E0.04755
G1 X134.332 Y73.380 E0.04322
G1 X135.358 Y74.492 E0.04747
G1 X136.145 Y75.707 E0.04537
G1 X136.723 Y77.037 E0.04548
G1 X137.078 Y78.477 E0.04650
G1 X137.189 Y79.860 E0.04351
G1 X137.149 Y131.369 E1.61503
G1 X136.922 Y132.669 E0.04135
G1 F8640
G1 X136.500 Y133.939 E-0.30897
G1 X135.739 Y135.377 E-0.37573
G1 X135.538 Y135.634 E-0.07530
G1 E-0.04000 F2100.00000
G1 Z0.800 F10800.000
G1 X132.645 Y132.003
G1 Z0.200
G1 E0.80000 F2100.00000
G1 F1200
G1 X132.344 Y132.686 E0.02340
G1 X131.937 Y133.305 E0.02323
G1 X131.441 Y133.842 E0.02293
G1 X130.861 Y134.289 E0.02296
G1 X130.218 Y134.633 E0.02288
G1 X129.533 Y134.863 E0.02266
G1 X128.833 Y134.974 E0.02222
G1 X128.511 Y134.986 E0.01009
G1 X121.476 Y134.986 E0.22058
G1 X120.789 Y134.929 E0.02161
G1 X120.094 Y134.754 E0.02245
G1 X119.436 Y134.465 E0.02255
G1 X118.833 Y134.073 E0.02254
G1 X118.296 Y133.580 E0.02286
G1 X117.847 Y133.004 E0.02289
G1 X117.495 Y132.359 E0.02305
G1 X117.253 Y131.661 E0.02315
G1 X117.129 Y130.937 E0.02305
G1 X117.113 Y130.551 E0.01211
G1 X117.113 Y79.902 E1.58804
G1 X117.172 Y79.186 E0.02255
G1 X117.355 Y78.462 E0.02341
G1 X117.656 Y77.779 E0.02340
G1 X118.063 Y77.159 E0.02323
G1 X118.559 Y76.623 E0.02293
G1 X119.139 Y76.175 E0.02297
G1 X119.782 Y75.831 E0.02287
G1 X120.467 Y75.601 E0.02266
G1 X121.167 Y75.490 E0.02222
G1 X121.489 Y75.478 E0.01009
G1 X128.524 Y75.478 E0.22058
G1 X129.211 Y75.535 E0.02161
G1 X129.905 Y75.711 E0.02244
G1 X130.564 Y75.999 E0.02256
G1 X131.167 Y76.392 E0.02255
G1 X131.704 Y76.885 E0.02286
G1 X132.153 Y77.460 E0.02288
G1 X132.505 Y78.106 E0.02305
G1 X132.747 Y78.803 E0.02315
G1 X132.871 Y79.528 E0.02305
G1 X132.887 Y79.914 E0.01211
G1 X132.887 Y130.562 E1.58804
G1 X132.828 Y131.279 E0.02255
G1 X132.659 Y131.945 E0.02153
G1 X132.294 Y131.852 F10800.000
G1 F1200
G1 X132.012 Y132.505 E0.02231
G1 X131.639 Y133.072 E0.02126
G1 X131.185 Y133.563 E0.02096
G1 X130.656 Y133.972 E0.02099
G1 X130.068 Y134.286 E0.02090
G1 X129.442 Y134.496 E0.02068
G1 X128.796 Y134.598 E0.02052
G1 X128.504 Y134.609 E0.00916
G1 X121.491 Y134.609 E0.21987
G1 X120.851 Y134.556 E0.02015
G1 X120.217 Y134.396 E0.02050
G1 X119.615 Y134.132 E0.02060
G1 X119.065 Y133.774 E0.02059
G1 X118.574 Y133.323 E0.02091
G1 X118.163 Y132.797 E0.02094
G1 X117.841 Y132.206 E0.02110
G1 X117.620 Y131.567 E0.02119
G1 X117.505 Y130.897 E0.02133
G1 X117.490 Y130.543 E0.01111
G1 X117.490 Y79.918 E1.58730
M73 P2 R64
G1 X117.545 Y79.248 E0.02108
G1 X117.713 Y78.585 E0.02144
G1 X117.988 Y77.959 E0.02142
G1 X118.361 Y77.393 E0.02126
G1 X118.815 Y76.902 E0.02096
G1 X119.345 Y76.493 E0.02099
G1 X119.932 Y76.179 E0.02089
G1 X120.558 Y75.969 E0.02068
G1 X121.204 Y75.866 E0.02052
G1 X121.496 Y75.855 E0.00916
G1 X128.509 Y75.855 E0.21987
G1 X129.149 Y75.908 E0.02015
G1 X129.783 Y76.069 E0.02049
G1 X130.385 Y76.332 E0.02061
G1 X130.935 Y76.691 E0.02060
G1 X131.426 Y77.142 E0.02091
G1 X131.837 Y77.668 E0.02093
G1 X132.159 Y78.259 E0.02110
G1 X132.380 Y78.897 E0.02119
G1 X132.495 Y79.568 E0.02133
G1 X132.510 Y79.922 E0.01111
G1 X132.510 Y130.547 E1.58730
G1 X132.455 Y131.217 E0.02108
G1 X132.308 Y131.794 E0.01866
G1 X132.558 Y132.153 F10800.000
G1 F8640
G1 X132.012 Y132.505 E-0.17798
G1 X131.639 Y133.072 E-0.15658
G1 X131.185 Y133.563 E-0.15435
G1 X130.656 Y133.972 E-0.15455
G1 X130.211 Y134.210 E-0.11654
G1 E-0.04000 F2100.00000
G1 Z0.800 F10800.000
G1 X134.220 Y132.045
G1 Z0.200
G1 E0.80000 F2100.00000
G1 F1200
G1 X133.898 Y132.972 E0.03076
G1 X133.428 Y133.836 E0.03084
G1 X132.825 Y134.609 E0.03072
G1 X132.102 Y135.273 E0.03077
G1 X131.288 Y135.804 E0.03049
G1 X130.398 Y136.194 E0.03049
G1 X129.460 Y136.431 E0.03032
G1 X128.476 Y136.512 E0.03096
G1 X121.512 Y136.512 E0.21833
G1 X121.019 Y136.491 E0.01547
G1 X120.043 Y136.326 E0.03107
G1 X119.125 Y136.007 E0.03045
G1 X118.266 Y135.537 E0.03071
G1 X117.496 Y134.931 E0.03072
G1 X116.835 Y134.205 E0.03078
G1 X116.301 Y133.380 E0.03083
G1 X115.909 Y132.475 E0.03092
G1 X115.669 Y131.520 E0.03087
G1 X115.587 Y130.514 E0.03164
G1 X115.587 Y79.939 E1.58573
G1 X115.610 Y79.407 E0.01671
G1 X115.780 Y78.419 E0.03143
G1 X116.102 Y77.492 E0.03076
G1 X116.572 Y76.628 E0.03084
G1 X117.175 Y75.856 E0.03072
G1 X117.898 Y75.192 E0.03077
G1 X118.712 Y74.661 E0.03049
G1 X119.602 Y74.271 E0.03049
G1 X120.540 Y74.034 E0.03032
G1 X121.524 Y73.952 E0.03096
G1 X128.488 Y73.952 E0.21833
G1 X128.954 Y73.972 E0.01464
G1 X129.958 Y74.139 E0.03192
G1 X130.875 Y74.458 E0.03042
G1 X131.734 Y74.928 E0.03071
G1 X132.504 Y75.534 E0.03072
G1 X133.165 Y76.259 E0.03078
G1 X133.699 Y77.085 E0.03083
G1 X134.091 Y77.990 E0.03092
G1 X134.331 Y78.945 E0.03087
G1 X134.413 Y79.951 E0.03164
G1 X134.413 Y130.525 E1.58573
G1 X134.390 Y131.058 E0.01671
G1 X134.230 Y131.986 E0.02954
G1 X134.601 Y132.050 F10800.000
G1 F1200
G1 X134.586 Y132.140 E0.00285
G1 X134.244 Y133.125 E0.03270
G1 X133.744 Y134.044 E0.03279
G1 X133.103 Y134.865 E0.03267
G1 X132.335 Y135.571 E0.03272
G1 X131.468 Y136.137 E0.03244
G1 X130.520 Y136.552 E0.03245
G1 X129.522 Y136.804 E0.03228
G1 X128.491 Y136.889 E0.03243
G1 X121.504 Y136.889 E0.21907
G1 X120.980 Y136.867 E0.01646
G1 X119.948 Y136.692 E0.03280
G1 X118.972 Y136.353 E0.03242
G1 X118.057 Y135.853 E0.03268
G1 X117.238 Y135.208 E0.03269
G1 X116.535 Y134.436 E0.03274
G1 X115.967 Y133.558 E0.03278
G1 X115.550 Y132.596 E0.03287
G1 X115.296 Y131.581 E0.03281
G1 X115.210 Y130.529 E0.03309
G1 X115.210 Y79.931 E1.58648
G1 X115.235 Y79.367 E0.01772
G1 X115.414 Y78.325 E0.03315
G1 X115.756 Y77.339 E0.03271
G1 X116.256 Y76.421 E0.03279
G1 X116.897 Y75.599 E0.03267
G1 X117.665 Y74.893 E0.03272
G1 X118.532 Y74.328 E0.03244
G1 X119.480 Y73.913 E0.03245
G1 X120.478 Y73.660 E0.03228
G1 X121.509 Y73.575 E0.03243
G1 X128.496 Y73.575 E0.21907
G1 X128.993 Y73.596 E0.01561
G1 X130.052 Y73.772 E0.03365
G1 X131.028 Y74.112 E0.03241
G1 X131.943 Y74.612 E0.03268
G1 X132.762 Y75.256 E0.03269
G1 X133.465 Y76.029 E0.03274
G1 X134.033 Y76.906 E0.03278
G1 X134.450 Y77.868 E0.03287
G1 X134.704 Y78.883 E0.03281
G1 X134.790 Y79.935 E0.03309
G1 X134.790 Y130.533 E1.58648
G1 X134.765 Y131.098 E0.01772
G1 X134.612 Y131.991 E0.02841
G1 X134.517 Y132.083 F10800.000
G1 F8640
G1 X134.586 Y132.140 E-0.03486
G1 X134.244 Y133.125 E-0.24085
G1 X133.744 Y134.044 E-0.24144
G1 X133.103 Y134.865 E-0.24061
G1 X133.096 Y134.872 E-0.00223
G1 E-0.04000 F2100.00000
G1 Z0.800 F10800.000
G1 X120.284 Y136.252
G1 Z0.200
G1 E0.80000 F2100.00000
G1 F1200
G1 X116.098 Y132.066 E0.18564
G1 X116.177 Y132.384 E0.01027
G1 X116.403 Y132.905 E0.01782
G1 X119.524 Y136.026 E0.13841
G1 F8640
G1 X117.197 Y133.698 E-0.76000
G1 E-0.04000 F2100.00000
G1 Z0.800 F10800.000
G1 X119.241 Y134.676
G1 Z0.200
G1 E0.80000 F2100.00000
G1 F1200
G1 X120.719 Y136.154 E0.06552
G1 X121.049 Y136.210 E0.01051
G1 X121.319 Y136.221 E0.00848
G1 X120.161 Y135.062 E0.05139
G1 X120.742 Y135.209 E0.01881
G1 X120.850 Y135.218 E0.00340
G1 X121.861 Y136.229 E0.04484
G1 X122.395 Y136.229 E0.01673
G1 X121.432 Y135.266 E0.04271
G1 X121.968 Y135.269 E0.01681
G1 X122.928 Y136.229 E0.04259
G1 X123.461 Y136.229 E0.01673
G1 X122.501 Y135.269 E0.04259
G1 X123.034 Y135.269 E0.01673
G1 X123.995 Y136.229 E0.04259
G1 X124.528 Y136.229 E0.01673
G1 X123.568 Y135.269 E0.04259
G1 X124.101 Y135.269 E0.01673
G1 X125.061 Y136.229 E0.04259
G1 X125.595 Y136.229 E0.01673
G1 X124.635 Y135.269 E0.04259
G1 X125.168 Y135.269 E0.01673
G1 X126.128 Y136.229 E0.04259
G1 X126.662 Y136.229 E0.01673
G1 X125.701 Y135.269 E0.04259
G1 X126.235 Y135.269 E0.01673
G1 X127.195 Y136.229 E0.04259
G1 X127.728 Y136.229 E0.01673
G1 X126.768 Y135.269 E0.04259
G1 X127.301 Y135.269 E0.01673
G1 X128.262 Y136.229 E0.04259
G1 X128.770 Y136.204 E0.01595
G1 X127.835 Y135.269 E0.04147
G1 X128.368 Y135.269 E0.01673
G1 X129.262 Y136.163 E0.03966
G1 X129.413 Y136.151 E0.00475
G1 X129.709 Y136.076 E0.00956
G1 X128.885 Y135.252 E0.03654
G1 X129.345 Y135.179 E0.01461
G1 X130.135 Y135.969 E0.03502
G1 X130.306 Y135.926 E0.00553
G1 X130.528 Y135.828 E0.00760
G1 X129.778 Y135.079 E0.03323
G1 X130.178 Y134.945 E0.01321
G1 X130.898 Y135.666 E0.03197
G1 X131.153 Y135.554 E0.00872
G1 X131.254 Y135.488 E0.00378
G1 X130.545 Y134.779 E0.03146
G1 X130.893 Y134.593 E0.01236
G1 X131.577 Y135.278 E0.03036
G1 X131.900 Y135.067 E0.01209
G1 X131.210 Y134.377 E0.03060
G1 X131.511 Y134.145 E0.01192
G1 X132.182 Y134.816 E0.02975
G1 X132.460 Y134.560 E0.01184
G1 X131.785 Y133.886 E0.02992
G1 X132.042 Y133.609 E0.01184
G1 X132.718 Y134.286 E0.03002
G1 X132.952 Y133.986 E0.01192
G1 X132.274 Y133.308 E0.03008
G1 X132.485 Y132.986 E0.01208
G1 X133.186 Y133.686 E0.03107
G1 X133.375 Y133.342 E0.01232
G1 X132.673 Y132.640 E0.03112
G1 X132.836 Y132.270 E0.01269
G1 X133.563 Y132.996 E0.03222
G1 X133.638 Y132.857 E0.00496
G1 X133.720 Y132.621 E0.00786
G1 X132.970 Y131.870 E0.03329
G1 X133.078 Y131.445 E0.01377
G1 X133.858 Y132.225 E0.03460
G1 X133.945 Y131.974 E0.00831
G1 X133.974 Y131.807 E0.00532
G1 X133.137 Y130.971 E0.03710
G1 X133.170 Y130.470 E0.01573
G1 X134.052 Y131.352 E0.03912
G1 X134.108 Y131.027 E0.01034
G1 X134.114 Y130.881 E0.00459
G1 X133.170 Y129.937 E0.04188
G1 X133.170 Y129.403 E0.01673
G1 X134.130 Y130.364 E0.04259
G1 X134.130 Y129.830 E0.01673
G1 X133.170 Y128.870 E0.04259
G1 X133.170 Y128.337 E0.01673
G1 X134.130 Y129.297 E0.04259
G1 X134.130 Y128.764 E0.01673
G1 X133.170 Y127.803 E0.04259
G1 X133.170 Y127.270 E0.01673
G1 X134.130 Y128.230 E0.04259
G1 X134.130 Y127.697 E0.01673
G1 X133.170 Y126.737 E0.04259
G1 X133.170 Y126.203 E0.01673
G1 X134.130 Y127.163 E0.04259
G1 X134.130 Y126.630 E0.01673
G1 X133.170 Y125.670 E0.04259
G1 X133.170 Y125.136 E0.01673
G1 X134.130 Y126.097 E0.04259
G1 X134.130 Y125.563 E0.01673
G1 X133.170 Y124.603 E0.04259
G1 X133.170 Y124.070 E0.01673
G1 X134.130 Y125.030 E0.04259
G1 X134.130 Y124.497 E0.01673
G1 X133.170 Y123.536 E0.04259
G1 X133.170 Y123.003 E0.01673
G1 X134.130 Y123.963 E0.04259
G1 X134.130 Y123.430 E0.01673
G1 X133.170 Y122.470 E0.04259
G1 X133.170 Y121.936 E0.01673
G1 X134.130 Y122.896 E0.04259
G1 X134.130 Y122.363 E0.01673
G1 X133.170 Y121.403 E0.04259
G1 X133.170 Y120.869 E0.01673
G1 X134.130 Y121.830 E0.04259
G1 X134.130 Y121.296 E0.01673
G1 X133.170 Y120.336 E0.04259
G1 X133.170 Y119.803 E0.01673
G1 X134.130 Y120.763 E0.04259
G1 X134.130 Y120.230 E0.01673
G1 X133.170 Y119.269 E0.04259
G1 X133.170 Y118.736 E0.01673
G1 X134.130 Y119.696 E0.04259
G1 X134.130 Y119.163 E0.01673
G1 X133.170 Y118.203 E0.04259
G1 X133.170 Y117.669 E0.01673
G1 X134.130 Y118.629 E0.04259
G1 X134.130 Y118.096 E0.01673
G1 X133.170 Y117.136 E0.04259
G1 X133.170 Y116.602 E0.01673
G1 X134.130 Y117.563 E0.04259
G1 X134.130 Y117.029 E0.01673
G1 X133.170 Y116.069 E0.04259
G1 X133.170 Y115.536 E0.01673
G1 X134.130 Y116.496 E0.04259
G1 X134.130 Y115.963 E0.01673
G1 X133.170 Y115.002 E0.04259
G1 X133.170 Y114.469 E0.01673
G1 X134.130 Y115.429 E0.04259
G1 X134.130 Y114.896 E0.01673
G1 X133.170 Y113.936 E0.04259
G1 X133.170 Y113.402 E0.01673
G1 X134.130 Y114.362 E0.04259
G1 X134.130 Y113.829 E0.01673
G1 X133.170 Y112.869 E0.04259
G1 X133.170 Y112.335 E0.01673
G1 X134.130 Y113.296 E0.04259
G1 X134.130 Y112.762 E0.01673
G1 X133.170 Y111.802 E0.04259
G1 X133.170 Y111.269 E0.01673
G1 X134.130 Y112.229 E0.04259
G1 X134.130 Y111.696 E0.01673
G1 X133.170 Y110.735 E0.04259
G1 X133.170 Y110.202 E0.01673
G1 X134.130 Y111.162 E0.04259
G1 X134.130 Y110.629 E0.01673
G1 X133.170 Y109.669 E0.04259
G1 X133.170 Y109.135 E0.01673
G1 X134.130 Y110.096 E0.04259
G1 X134.130 Y109.562 E0.01673
G1 X133.170 Y108.602 E0.04259
G1 X133.170 Y108.069 E0.01673
G1 X134.130 Y109.029 E0.04259
G1 X134.130 Y108.495 E0.01673
G1 X133.170 Y107.535 E0.04259
G1 X133.170 Y107.002 E0.01673
G1 X134.130 Y107.962 E0.04259
G1 X134.130 Y107.429 E0.01673
G1 X133.170 Y106.468 E0.04259
G1 X133.170 Y105.935 E0.01673
G1 X134.130 Y106.895 E0.04259
G1 X134.130 Y106.362 E0.01673
G1 X133.170 Y105.402 E0.04259
G1 X133.170 Y104.868 E0.01673
G1 X134.130 Y105.829 E0.04259
G1 X134.130 Y105.295 E0.01673
G1 X133.170 Y104.335 E0.04259
G1 X133.170 Y103.802 E0.01673
G1 X134.130 Y104.762 E0.04259
G1 X134.130 Y104.228 E0.01673
