; generated by PrusaSlicer 2.2.0+win64 on 2020-08-18 at 17:43:41 UTC

; 

; external perimeters extrusion width = 0.45mm
; perimeters extrusion width = 0.45mm
; infill extrusion width = 0.45mm
; solid infill extrusion width = 0.45mm
; top infill extrusion width = 0.40mm
; first layer extrusion width = 0.42mm

; external perimeters extrusion width = 0.45mm
; perimeters extrusion width = 0.45mm
; infill extrusion width = 0.45mm
; solid infill extrusion width = 0.45mm
; top infill extrusion width = 0.40mm
; first layer extrusion width = 0.42mm

; external perimeters extrusion width = 0.45mm
; perimeters extrusion width = 0.45mm
; infill extrusion width = 0.45mm
; solid infill extrusion width = 0.45mm
; top infill extrusion width = 0.40mm
; first layer extrusion width = 0.42mm

; external perimeters extrusion width = 0.45mm
; perimeters extrusion width = 0.45mm
; infill extrusion width = 0.45mm
; solid infill extrusion width = 0.45mm
; top infill extrusion width = 0.40mm
; first layer extrusion width = 0.42mm

M73 P0 R65
M201 X9000 Y9000 Z500 E10000 ; sets maximum accelerations, mm/sec^2
M203 X500 Y500 Z12 E120 ; sets maximum feedrates, mm/sec
M204 P2000 R1500 T2000 ; sets acceleration (P, T) and retract acceleration (R), mm/sec^2
M205 X10.00 Y10.00 Z0.20 E4.50 ; sets the jerk limits, mm/sec
M205 S0 T0 ; sets the minimum extruding and travel feed rate, mm/sec
M107
M862.3 P "MK2.5SMMU2S" ; printer model check
M862.1 P0.4 ; nozzle diameter check
M115 U3.9.0 ; tell printer latest fw version
G90 ; use absolute coordinates
M83 ; extruder relative mode
M104 S215 ; set extruder temp
M140 S60 ; set bed temp
M190 S60 ; wait for bed temp
M109 S215 ; wait for extruder temp
G28 W ; home all without mesh bed level
G80 ; mesh bed leveling

; Send the filament type to the MMU2.0 unit.
; E stands for extruder number, F stands for filament type (0: default; 1:flex; 2: PVA)
M403 E0 F0
M403 E1 F0
M403 E2 F0
M403 E3 F0
M403 E4 F0


;go outside print area
G1 Y-3.0 F1000.0
G1 Z0.4 F1000.0
; select extruder
T0
; initial load
G1 X55.0 E29.0 F1073.0
M73 P0 R64
G1 X5.0 E29.0 F1800.0
G1 X55.0 E8.0 F2000.0
G1 Z0.3 F1000.0
G92 E0.0
G1 X240.0 E25.0 F2200.0
G1 Y-2.0 F1000.0
G1 X55.0 E25 F1400.0
G1 Z0.20 F1000.0
G1 X5.0 E4.0 F1000.0
G92 E0.0

G92 E0.0
G21 ; set units to millimeters
G90 ; use absolute coordinates
M83 ; use relative distances for extrusion
T0
M900 K0.06 ; Filament gcode LA 1.5
M900 K30 ; Filament gcode LA 1.0
G1 Z0.200 F10800.000
;BEFORE_LAYER_CHANGE
G92 E0.0
;0.2


G1 E-0.80000 F2100.00000
G1 Z0.800 F10800.000
G1 Z0.200
;AFTER_LAYER_CHANGE
;0.2
G1 E-2.20000 F2100.00000
G1 Z0.800 F10800.000
G1 X168.943 Y68.972
G1 Z0.200
G1 E3.00000 F2100.00000
;-------------------------------------
; CP WIPE TOWER FIRST LAYER BRIM START
G1  X168.943 Y83.032  E0.8016 F2400
G1  X166.400 Y83.489   F7000
G1  Y68.515  E0.6260 F2100
G1  X105.486  E2.5466
G1  Y83.489  E0.6260
G1  X166.400  E2.5466
G1  X166.857 Y83.946   F7000
G1  Y68.058  E0.6642 F2100
G1  X105.029  E2.5849
G1  Y83.946  E0.6642
G1  X166.857  E2.5849
G1  X167.314 Y84.403   F7000
G1  Y67.601  E0.7025 F2100
G1  X104.572  E2.6231
G1  Y84.403  E0.7025
G1  X167.314  E2.6231
G1  X167.771 Y84.860   F7000
G1  Y67.144  E0.7407 F2100
G1  X104.115  E2.6613
G1  Y84.860  E0.7407
G1  X167.771  E2.6613
G1  X165.943 Y83.032   F7000
G1  X105.943 
G1  X165.943 
; CP WIPE TOWER FIRST LAYER BRIM END
;-----------------------------------

G1 F8640.000
G1 X162.652 Y83.032 E-0.76000
G1 E-0.04000 F2100.00000
G1 Z0.800 F10800.000
G1 X170.150 Y65.900
G1 Z0.200
G1 E0.80000 F2100.00000
M204 S1000
G1 F1200.000
G1 X170.372 Y66.758 E0.02778
G1 X170.375 Y85.191 E0.57797
G1 X170.299 Y85.691 E0.01585
G1 X170.122 Y86.161 E0.01574
G1 X169.849 Y86.582 E0.01574
G1 X169.492 Y86.939 E0.01585
G1 X98.791 Y137.578 E2.72672
G1 X97.647 Y138.319 E0.04272
G1 X96.275 Y138.917 E0.04693
G1 X94.703 Y139.288 E0.05065
G1 X93.456 Y139.384 E0.03921
G1 X85.596 Y139.342 E0.24645
G1 X84.069 Y139.053 E0.04872
G1 X82.865 Y138.626 E0.04007
G1 X81.737 Y138.018 E0.04017
G1 X80.446 Y137.036 E0.05089
G1 X79.462 Y135.966 E0.04557
G1 X78.634 Y134.696 E0.04754
G1 X78.049 Y133.355 E0.04586
G1 X77.688 Y131.922 E0.04633
G1 X77.567 Y130.526 E0.04394
G1 X77.567 Y79.715 E1.59315
G1 X77.610 Y78.892 E0.02584
G1 X77.832 Y77.606 E0.04090
G1 X78.371 Y76.056 E0.05145
G1 X79.030 Y74.855 E0.04297
G1 X79.816 Y73.834 E0.04039
G1 X80.986 Y72.722 E0.05061
G1 X82.236 Y71.901 E0.04688
G1 X83.550 Y71.322 E0.04503
G1 X103.128 Y64.662 E0.64841
G1 X103.663 Y64.548 E0.01716
G1 X168.004 Y64.538 E2.01735
G1 X168.878 Y64.706 E0.02790
G1 X169.626 Y65.180 E0.02778
G1 X170.114 Y65.851 E0.02602
G1 F8640.000
G1 X170.372 Y66.758 E-0.21755
G1 X170.372 Y69.107 E-0.54245
G1 E-0.04000 F2100.00000
G1 Z0.800 F10800.000
G1 X89.899 Y134.889
G1 Z0.200
G1 E0.80000 F2100.00000
G1 F1200.000
G1 X86.419 Y134.894 E0.10909
G1 X85.732 Y134.837 E0.02164
G1 X85.038 Y134.662 E0.02245
G1 X84.379 Y134.373 E0.02255
G1 X83.776 Y133.980 E0.02255
G1 X83.239 Y133.487 E0.02286
G1 X82.789 Y132.912 E0.02289
G1 X82.438 Y132.266 E0.02305
G1 X82.196 Y131.569 E0.02315
G1 X82.073 Y130.845 E0.02304
G1 X82.056 Y130.459 E0.01211
G1 X82.056 Y79.810 E1.58804
G1 X82.115 Y79.093 E0.02256
G1 X82.299 Y78.370 E0.02340
G1 X82.599 Y77.687 E0.02341
G1 X83.006 Y77.067 E0.02322
G1 X83.502 Y76.531 E0.02293
G1 X84.082 Y76.083 E0.02297
G1 X84.725 Y75.739 E0.02287
G1 X85.411 Y75.509 E0.02267
G1 X86.111 Y75.398 E0.02222
G1 X93.467 Y75.386 E0.23066
M73 P2 R63
G1 X94.155 Y75.443 E0.02162
G1 X94.849 Y75.619 E0.02245
G1 X95.508 Y75.907 E0.02255
G1 X96.110 Y76.300 E0.02255
G1 X96.647 Y76.793 E0.02286
G1 X97.097 Y77.369 E0.02289
G1 X97.448 Y78.014 E0.02305
G1 X97.690 Y78.712 E0.02315
G1 X97.814 Y79.436 E0.02304
G1 X97.830 Y79.822 E0.01211
G1 X97.830 Y130.470 E1.58804
G1 X97.771 Y131.187 E0.02256
G1 X97.588 Y131.911 E0.02340
G1 X97.287 Y132.594 E0.02341
G1 X96.880 Y133.213 E0.02322
G1 X96.384 Y133.750 E0.02293
G1 X95.804 Y134.198 E0.02297
G1 X95.161 Y134.541 E0.02287
G1 X94.475 Y134.771 E0.02267
G1 X93.765 Y134.884 E0.02255
G1 X89.959 Y134.889 E0.11935
G1 X89.801 Y134.512 F10800.000
G1 F1200.000
G1 X86.435 Y134.517 E0.10555
G1 X85.794 Y134.464 E0.02016
G1 X85.160 Y134.304 E0.02049
G1 X84.558 Y134.040 E0.02060
G1 X84.008 Y133.682 E0.02060
G1 X83.517 Y133.231 E0.02091
G1 X83.106 Y132.704 E0.02094
G1 X82.784 Y132.113 E0.02110
G1 X82.563 Y131.475 E0.02119
G1 X82.448 Y130.805 E0.02132
G1 X82.433 Y130.451 E0.01111
G1 X82.433 Y79.826 E1.58730
G1 X82.489 Y79.156 E0.02109
G1 X82.656 Y78.493 E0.02143
G1 X82.932 Y77.867 E0.02143
G1 X83.304 Y77.301 E0.02125
G1 X83.758 Y76.810 E0.02096
G1 X84.288 Y76.401 E0.02099
G1 X84.875 Y76.087 E0.02089
G1 X85.501 Y75.877 E0.02069
G1 X86.147 Y75.774 E0.02052
G1 X93.452 Y75.763 E0.22902
G1 X94.092 Y75.816 E0.02016
G1 X94.726 Y75.977 E0.02049
G1 X95.328 Y76.240 E0.02060
G1 X95.878 Y76.599 E0.02060
G1 X96.369 Y77.050 E0.02091
G1 X96.780 Y77.576 E0.02094
G1 X97.102 Y78.167 E0.02110
G1 X97.324 Y78.806 E0.02119
G1 X97.438 Y79.476 E0.02132
G1 X97.453 Y79.830 E0.01111
G1 X97.453 Y130.455 E1.58730
G1 X97.398 Y131.125 E0.02109
G1 X97.230 Y131.788 E0.02143
G1 X96.955 Y132.413 E0.02143
G1 X96.582 Y132.980 E0.02125
G1 X96.128 Y133.471 E0.02096
G1 X95.599 Y133.880 E0.02099
G1 X95.011 Y134.194 E0.02089
G1 X94.385 Y134.404 E0.02069
G1 X93.735 Y134.507 E0.02064
G1 X89.861 Y134.512 E0.12147
G1 X89.604 Y134.861 F10800.000
G1 F8640.000
G1 X86.569 Y134.517 E-0.76000
G1 E-0.04000 F2100.00000
G1 Z0.800 F10800.000
G1 X89.943 Y136.420
G1 Z0.200
G1 E0.80000 F2100.00000
G1 F1200.000
G1 X86.455 Y136.420 E0.10935
G1 X85.963 Y136.399 E0.01547
G1 X84.986 Y136.234 E0.03107
G1 X84.068 Y135.915 E0.03045
G1 X83.209 Y135.445 E0.03071
G1 X82.439 Y134.839 E0.03072
G1 X81.778 Y134.113 E0.03078
G1 X81.244 Y133.288 E0.03083
G1 X80.852 Y132.383 E0.03092
G1 X80.613 Y131.428 E0.03087
G1 X80.530 Y130.422 E0.03164
G1 X80.530 Y79.847 E1.58573
G1 X80.554 Y79.315 E0.01671
G1 X80.724 Y78.327 E0.03143
G1 X81.045 Y77.400 E0.03076
G1 X81.515 Y76.536 E0.03084
G1 X82.118 Y75.764 E0.03072
G1 X82.841 Y75.100 E0.03077
G1 X83.655 Y74.569 E0.03049
G1 X84.546 Y74.179 E0.03049
G1 X85.483 Y73.942 E0.03032
G1 X86.467 Y73.860 E0.03096
G1 X93.431 Y73.860 E0.21833
G1 X93.897 Y73.880 E0.01464
G1 X94.901 Y74.047 E0.03192
G1 X95.818 Y74.366 E0.03042
G1 X96.677 Y74.836 E0.03071
G1 X97.447 Y75.442 E0.03072
G1 X98.108 Y76.167 E0.03078
G1 X98.642 Y76.993 E0.03083
G1 X99.035 Y77.898 E0.03092
G1 X99.274 Y78.853 E0.03087
G1 X99.356 Y79.859 E0.03164
G1 X99.356 Y130.433 E1.58573
G1 X99.333 Y130.966 E0.01671
G1 X99.163 Y131.953 E0.03143
G1 X98.841 Y132.880 E0.03076
G1 X98.371 Y133.744 E0.03084
G1 X97.768 Y134.517 E0.03072
G1 X97.046 Y135.181 E0.03077
G1 X96.231 Y135.712 E0.03049
G1 X95.341 Y136.102 E0.03049
G1 X94.403 Y136.339 E0.03032
G1 X93.419 Y136.420 E0.03096
G1 X90.003 Y136.420 E0.10710
G1 X89.943 Y136.797 F10800.000
G1 F1200.000
G1 X86.447 Y136.797 E0.10960
G1 X85.923 Y136.775 E0.01646
G1 X84.892 Y136.600 E0.03280
G1 X83.915 Y136.261 E0.03242
G1 X83.001 Y135.761 E0.03268
G1 X82.181 Y135.116 E0.03269
G1 X81.478 Y134.344 E0.03274
G1 X80.910 Y133.466 E0.03278
G1 X80.493 Y132.505 E0.03287
G1 X80.239 Y131.489 E0.03281
G1 X80.153 Y130.438 E0.03309
G1 X80.153 Y79.839 E1.58647
G1 X80.178 Y79.275 E0.01772
G1 X80.357 Y78.233 E0.03315
G1 X80.699 Y77.248 E0.03271
G1 X81.199 Y76.329 E0.03279
G1 X81.840 Y75.507 E0.03267
G1 X82.608 Y74.801 E0.03272
G1 X83.475 Y74.236 E0.03244
G1 X84.423 Y73.821 E0.03245
G1 X85.421 Y73.569 E0.03228
G1 X86.452 Y73.483 E0.03243
G1 X93.439 Y73.483 E0.21907
G1 X93.936 Y73.504 E0.01561
G1 X94.995 Y73.680 E0.03365
G1 X95.971 Y74.020 E0.03241
G1 X96.886 Y74.520 E0.03268
G1 X97.705 Y75.165 E0.03269
G1 X98.408 Y75.937 E0.03274
G1 X98.976 Y76.814 E0.03278
G1 X99.393 Y77.776 E0.03287
G1 X99.647 Y78.791 E0.03281
G1 X99.733 Y79.843 E0.03309
G1 X99.733 Y130.441 E1.58647
G1 X99.708 Y131.006 E0.01772
G1 X99.529 Y132.048 E0.03315
G1 X99.187 Y133.033 E0.03270
G1 X98.687 Y133.952 E0.03279
G1 X98.046 Y134.773 E0.03267
G1 X97.278 Y135.479 E0.03272
G1 X96.411 Y136.045 E0.03244
G1 X95.463 Y136.460 E0.03245
G1 X94.465 Y136.712 E0.03228
G1 X93.434 Y136.797 E0.03243
G1 X90.003 Y136.797 E0.10759
G1 X89.741 Y136.452 F10800.000
G1 F8640.000
G1 X86.712 Y136.797 E-0.76000
G1 E-0.04000 F2100.00000
G1 Z0.800 F10800.000
G1 X85.227 Y136.160
G1 Z0.200
G1 E0.80000 F2100.00000
G1 F1200.000
G1 X81.041 Y131.974 E0.18565
G1 X81.120 Y132.292 E0.01028
G1 X81.346 Y132.813 E0.01781
G1 X84.467 Y135.934 E0.13842
G1 F8640.000
G1 X82.140 Y133.607 E-0.76000
G1 E-0.04000 F2100.00000
G1 Z0.800 F10800.000
G1 X98.866 Y77.794
G1 Z0.200
G1 E0.80000 F2100.00000
G1 F1200.000
G1 X95.694 Y74.622 E0.14070
G1 X94.877 Y74.338 E0.02714
G1 X98.845 Y78.307 E0.17602
G1 X98.994 Y78.899 E0.01915
G1 X99.002 Y78.996 E0.00306
G1 X97.472 Y77.467 E0.06783
G1 X97.708 Y77.900 E0.01544
G1 X97.886 Y78.414 E0.01709
G1 X99.049 Y79.577 E0.05157
G1 X99.073 Y79.870 E0.00921
G1 X99.073 Y80.135 E0.00830
G1 X98.044 Y79.106 E0.04564
G1 X98.095 Y79.406 E0.00956
G1 X98.108 Y79.703 E0.00932
G1 X99.073 Y80.668 E0.04280
G1 X99.073 Y81.201 E0.01673
G1 X98.113 Y80.241 E0.04259
G1 X98.113 Y80.775 E0.01673
G1 X99.073 Y81.735 E0.04259
G1 X99.073 Y82.268 E0.01673
G1 X98.113 Y81.308 E0.04259
G1 X98.113 Y81.841 E0.01673
G1 X99.073 Y82.802 E0.04259
G1 X99.073 Y83.335 E0.01673
G1 X98.113 Y82.375 E0.04259
G1 X98.113 Y82.908 E0.01673
G1 X99.073 Y83.868 E0.04259
G1 X99.073 Y84.402 E0.01673
G1 X98.113 Y83.441 E0.04259
G1 X98.113 Y83.975 E0.01673
G1 X99.073 Y84.935 E0.04259
G1 X99.073 Y85.468 E0.01673
G1 X98.113 Y84.508 E0.04259
G1 X98.113 Y85.042 E0.01673
G1 X99.073 Y86.002 E0.04259
G1 X99.073 Y86.535 E0.01673
G1 X98.113 Y85.575 E0.04259
G1 X98.113 Y86.108 E0.01673
G1 X99.073 Y87.069 E0.04259
G1 X99.073 Y87.602 E0.01673
G1 X98.113 Y86.642 E0.04259
G1 X98.113 Y87.175 E0.01673
G1 X99.073 Y88.135 E0.04259
G1 X99.073 Y88.669 E0.01673
G1 X98.113 Y87.708 E0.04259
G1 X98.113 Y88.242 E0.01673
G1 X99.073 Y89.202 E0.04259
G1 X99.073 Y89.735 E0.01673
G1 X98.113 Y88.775 E0.04259
G1 X98.113 Y89.309 E0.01673
G1 X99.073 Y90.269 E0.04259
G1 X99.073 Y90.802 E0.01673
G1 X98.113 Y89.842 E0.04259
G1 X98.113 Y90.375 E0.01673
G1 X99.073 Y91.335 E0.04259
G1 X99.073 Y91.869 E0.01673
G1 X98.113 Y90.909 E0.04259
G1 X98.113 Y91.442 E0.01673
G1 X99.073 Y92.402 E0.04259
G1 X99.073 Y92.936 E0.01673
G1 X98.113 Y91.975 E0.04259
G1 X98.113 Y92.509 E0.01673
G1 X99.073 Y93.469 E0.04259
G1 X99.073 Y94.002 E0.01673
G1 X98.113 Y93.042 E0.04259
G1 X98.113 Y93.575 E0.01673
G1 X99.073 Y94.536 E0.04259
G1 X99.073 Y95.069 E0.01673
G1 X98.113 Y94.109 E0.04259
G1 X98.113 Y94.642 E0.01673
G1 X99.073 Y95.602 E0.04259
G1 X99.073 Y96.136 E0.01673
G1 X98.113 Y95.176 E0.04259
G1 X98.113 Y95.709 E0.01673
G1 X99.073 Y96.669 E0.04259
G1 X99.073 Y97.203 E0.01673
G1 X98.113 Y96.242 E0.04259
G1 X98.113 Y96.776 E0.01673
G1 X99.073 Y97.736 E0.04259
G1 X99.073 Y98.269 E0.01673
G1 X98.113 Y97.309 E0.04259
G1 X98.113 Y97.842 E0.01673
G1 X99.073 Y98.803 E0.04259
G1 X99.073 Y99.336 E0.01673
G1 X98.113 Y98.376 E0.04259
G1 X98.113 Y98.909 E0.01673
G1 X99.073 Y99.869 E0.04259
G1 X99.073 Y100.403 E0.01673
G1 X98.113 Y99.443 E0.04259
G1 X98.113 Y99.976 E0.01673
G1 X99.073 Y100.936 E0.04259
G1 X99.073 Y101.470 E0.01673
G1 X98.113 Y100.509 E0.04259
G1 X98.113 Y101.043 E0.01673
G1 X99.073 Y102.003 E0.04259
G1 X99.073 Y102.536 E0.01673
G1 X98.113 Y101.576 E0.04259
G1 X98.113 Y102.109 E0.01673
G1 X99.073 Y103.070 E0.04259
G1 X99.073 Y103.603 E0.01673
G1 X98.113 Y102.643 E0.04259
G1 X98.113 Y103.176 E0.01673
G1 X99.073 Y104.136 E0.04259
G1 X99.073 Y104.670 E0.01673
G1 X98.113 Y103.710 E0.04259
G1 X98.113 Y104.243 E0.01673
G1 X99.073 Y105.203 E0.04259
G1 X99.073 Y105.737 E0.01673
G1 X98.113 Y104.776 E0.04259
G1 X98.113 Y105.310 E0.01673
G1 X99.073 Y106.270 E0.04259
G1 X99.073 Y106.803 E0.01673
G1 X98.113 Y105.843 E0.04259
G1 X98.113 Y106.376 E0.01673
G1 X99.073 Y107.337 E0.04259
G1 X99.073 Y107.870 E0.01673
G1 X98.113 Y106.910 E0.04259
G1 X98.113 Y107.443 E0.01673
G1 X99.073 Y108.403 E0.04259
G1 X99.073 Y108.937 E0.01673
G1 X98.113 Y107.976 E0.04259
G1 X98.113 Y108.510 E0.01673
G1 X99.073 Y109.470 E0.04259
G1 X99.073 Y110.003 E0.01673
G1 X98.113 Y109.043 E0.04259
G1 X98.113 Y109.577 E0.01673
G1 X99.073 Y110.537 E0.04259
G1 X99.073 Y111.070 E0.01673
G1 X98.113 Y110.110 E0.04259
G1 X98.113 Y110.643 E0.01673
G1 X99.073 Y111.604 E0.04259
G1 X99.073 Y112.137 E0.01673
G1 X98.113 Y111.177 E0.04259
G1 X98.113 Y111.710 E0.01673
G1 X99.073 Y112.670 E0.04259
G1 X99.073 Y113.204 E0.01673
G1 X98.113 Y112.243 E0.04259
G1 X98.113 Y112.777 E0.01673
G1 X99.073 Y113.737 E0.04259
G1 X99.073 Y114.270 E0.01673
G1 X98.113 Y113.310 E0.04259
G1 X98.113 Y113.844 E0.01673
G1 X99.073 Y114.804 E0.04259
G1 X99.073 Y115.337 E0.01673
G1 X98.113 Y114.377 E0.04259
G1 X98.113 Y114.910 E0.01673
G1 X99.073 Y115.871 E0.04259
G1 X99.073 Y116.404 E0.01673
G1 X98.113 Y115.444 E0.04259
G1 X98.113 Y115.977 E0.01673
G1 X99.073 Y116.937 E0.04259
G1 X99.073 Y117.471 E0.01673
G1 X98.113 Y116.510 E0.04259
G1 X98.113 Y117.044 E0.01673
G1 X99.073 Y118.004 E0.04259
G1 X99.073 Y118.537 E0.01673
G1 X98.113 Y117.577 E0.04259
G1 X98.113 Y118.111 E0.01673
G1 X99.073 Y119.071 E0.04259
G1 X99.073 Y119.604 E0.01673
G1 X98.113 Y118.644 E0.04259
G1 X98.113 Y119.177 E0.01673
G1 X99.073 Y120.138 E0.04259
G1 X99.073 Y120.671 E0.01673
G1 X98.113 Y119.711 E0.04259
G1 X98.113 Y120.244 E0.01673
G1 X99.073 Y121.204 E0.04259
G1 X99.073 Y121.738 E0.01673
G1 X98.113 Y120.777 E0.04259
G1 X98.113 Y121.311 E0.01673
G1 X99.073 Y122.271 E0.04259
G1 X99.073 Y122.804 E0.01673
G1 X98.113 Y121.844 E0.04259
G1 X98.113 Y122.377 E0.01673
G1 X99.073 Y123.338 E0.04259
G1 X99.073 Y123.871 E0.01673
G1 X98.113 Y122.911 E0.04259
G1 X98.113 Y123.444 E0.01673
G1 X99.073 Y124.404 E0.04259
G1 X99.073 Y124.938 E0.01673
G1 X98.113 Y123.978 E0.04259
G1 X98.113 Y124.511 E0.01673
G1 X99.073 Y125.471 E0.04259
G1 X99.073 Y126.005 E0.01673
G1 X98.113 Y125.044 E0.04259
G1 X98.113 Y125.578 E0.01673
G1 X99.073 Y126.538 E0.04259
G1 X99.073 Y127.071 E0.01673
G1 X98.113 Y126.111 E0.04259
G1 X98.113 Y126.644 E0.01673
