; generated by PrusaSlicer 2.0.0+ on 2019-07-18 at 14:07:11

; 

; external perimeters extrusion width = 0.45mm
; perimeters extrusion width = 0.45mm
; infill extrusion width = 0.45mm
; solid infill extrusion width = 0.45mm
; top infill extrusion width = 0.40mm
; first layer extrusion width = 0.42mm

; external perimeters extrusion width = 0.45mm
; perimeters extrusion width = 0.45mm
; infill extrusion width = 0.45mm
; solid infill extrusion width = 0.45mm
; top infill extrusion width = 0.40mm
; first layer extrusion width = 0.42mm

M73 P0 R60
M201 X9000 Y9000 Z500 E10000 ; sets maximum accelerations, mm/sec^2
M203 X500 Y500 Z12 E120 ; sets maximum feedrates, mm/sec
M204 P2000 R1500 T2000 ; sets acceleration (P, T) and retract acceleration (R), mm/sec^2
M205 X10.00 Y10.00 Z0.20 E2.50 ; sets the jerk limits, mm/sec
M205 S0 T0 ; sets the minimum extruding and travel feed rate, mm/sec
M107
M115 U3.7.1 ; tell printer latest fw version
G90 ; use absolute coordinates
M83 ; extruder relative mode
M104 S215 ; set extruder temp
M140 S60 ; set bed temp
M190 S60 ; wait for bed temp
M109 S215 ; wait for extruder temp
G28 W ; home all without mesh bed level
G80 ; mesh bed leveling
G21 ; set units to millimeters

; Send the filament type to the MMU2.0 unit.
; E stands for extruder number, F stands for filament type (0: default; 1:flex; 2: PVA)
M403 E0 F0
M403 E1 F0
M403 E2 F0
M403 E3 F0
M403 E4 F0


;go outside print area
G1 Y-3.0 F1000.0
G1 Z0.4 F1000.0
; select extruder
T0
; initial load
G1 X55.0 E29.0 F1073.0
M73 P0 R60
G1 X5.0 E29.0 F1800.0
G1 X55.0 E8.0 F2000.0
G1 Z0.3 F1000.0
G92 E0.0
G1 X240.0 E25.0 F2200.0
G1 Y-2.0 F1000.0
G1 X55.0 E25 F1400.0
G1 Z0.20 F1000.0
G1 X5.0 E4.0 F1000.0
G92 E0.0

G92 E0.0
G21 ; set units to millimeters
G90 ; use absolute coordinates
M83 ; use relative distances for extrusion
T0
M900 K30 ; Filament gcode
G1 Z0.200 F10800.000
;BEFORE_LAYER_CHANGE
G92 E0.0
;0.2


G1 E-0.80000 F2100.00000
G1 Z0.800 F10800.000
G1 Z0.200
;AFTER_LAYER_CHANGE
;0.2
M900 K0
G1 E-2.20000 F2100.00000
G1 Z0.800 F10800.000
G1 X233.000 Y140.000
G1 Z0.200
G1 E3.00000 F2100.00000
;-------------------------------------
; CP WIPE TOWER FIRST LAYER BRIM START
G1 X233.000 Y154.060 E0.8016 F2400
G1 X230.457 Y154.517  F7000
G1 Y139.543 E0.6260 F2100
G1 X169.543 E2.5466
G1 Y154.517 E0.6260
G1 X230.457 E2.5466
G1 X230.914 Y154.974  F7000
G1 Y139.086 E0.6642 F2100
G1 X169.086 E2.5849
G1 Y154.974 E0.6642
G1 X230.914 E2.5849
G1 X231.371 Y155.431  F7000
G1 Y138.629 E0.7025 F2100
G1 X168.629 E2.6231
G1 Y155.431 E0.7025
G1 X231.371 E2.6231
G1 X231.828 Y155.888  F7000
G1 Y138.172 E0.7407 F2100
G1 X168.172 E2.6613
G1 Y155.888 E0.7407
G1 X231.828 E2.6613
G1 X230.000 Y154.060  F7000
G1 X170.000
G1 X230.000
; CP WIPE TOWER FIRST LAYER BRIM END
;-----------------------------------

M900 K30 ; Filament gcode
G1 F8640
G1 X226.709 Y154.060 E-0.76000
G1 E-0.04000 F2100.00000
G1 Z0.800 F10800.000
G1 X136.908 Y132.651
G1 Z0.200
G1 E0.80000 F2100.00000
M204 S1000
G1 F1200
G1 X136.496 Y133.854 E0.03989
G1 X135.733 Y135.293 E0.05105
G1 X134.872 Y136.393 E0.04380
G1 X133.929 Y137.270 E0.04037
G1 X132.510 Y138.205 E0.05330
G1 X131.131 Y138.779 E0.04684
G1 X129.917 Y139.078 E0.03918
G1 X128.676 Y139.188 E0.03906
G1 X120.694 Y139.156 E0.25028
G1 X119.325 Y138.916 E0.04359
G1 X117.974 Y138.442 E0.04488
G1 X116.721 Y137.752 E0.04486
G1 X115.584 Y136.853 E0.04542
G1 X114.626 Y135.796 E0.04476
G1 X113.844 Y134.582 E0.04528
G1 X113.273 Y133.259 E0.04516
G1 X112.918 Y131.803 E0.04698
G1 X112.811 Y130.448 E0.04263
G1 X112.852 Y78.927 E1.61540
G1 X113.092 Y77.566 E0.04335
G1 X113.504 Y76.362 E0.03989
G1 X114.263 Y74.930 E0.05082
G1 X115.128 Y73.824 E0.04403
G1 X116.065 Y72.952 E0.04015
G1 X117.447 Y72.033 E0.05204
G1 X118.732 Y71.478 E0.04389
G1 X120.246 Y71.118 E0.04877
G1 X121.473 Y71.022 E0.03860
G1 X128.504 Y71.022 E0.22043
G1 X129.324 Y71.062 E0.02575
G1 X130.561 Y71.274 E0.03936
G1 X131.922 Y71.731 E0.04499
G1 X133.258 Y72.450 E0.04759
G1 X134.340 Y73.295 E0.04302
G1 X135.365 Y74.409 E0.04750
G1 X136.149 Y75.622 E0.04528
G1 X136.725 Y76.951 E0.04539
G1 X137.078 Y78.384 E0.04629
G1 X137.189 Y79.768 E0.04354
G1 X137.148 Y131.289 E1.61540
G1 X136.918 Y132.592 E0.04147
G1 F8640
G1 X136.496 Y133.854 E-0.30744
G1 X135.733 Y135.293 E-0.37594
G1 X135.529 Y135.554 E-0.07662
G1 E-0.04000 F2100.00000
G1 Z0.800 F10800.000
G1 X131.777 Y130.948
G1 Z0.200
G1 E0.80000 F2100.00000
G1 F1200
G1 X131.540 Y131.582 E0.02122
G1 X131.218 Y132.165 E0.02086
G1 X130.820 Y132.681 E0.02043
G1 X130.357 Y133.119 E0.01997
G1 X129.842 Y133.468 E0.01952
G1 X129.288 Y133.723 E0.01913
G1 X128.707 Y133.877 E0.01884
G1 X128.088 Y133.931 E0.01949
G1 X121.916 Y133.931 E0.19353
G1 X121.297 Y133.877 E0.01949
G1 X120.716 Y133.723 E0.01884
G1 X120.161 Y133.468 E0.01913
G1 X119.648 Y133.120 E0.01945
G1 X119.162 Y132.653 E0.02113
G1 X118.786 Y132.165 E0.01933
G1 X118.464 Y131.582 E0.02086
G1 X118.227 Y130.948 E0.02122
G1 X118.082 Y130.279 E0.02147
G1 X118.032 Y129.571 E0.02226
G1 X118.032 Y80.344 E1.54347
G1 X118.082 Y79.636 E0.02226
G1 X118.227 Y78.967 E0.02147
G1 X118.464 Y78.333 E0.02122
G1 X118.786 Y77.751 E0.02086
G1 X119.184 Y77.234 E0.02043
G1 X119.646 Y76.796 E0.01997
G1 X120.161 Y76.447 E0.01952
G1 X120.716 Y76.192 E0.01913
G1 X121.297 Y76.038 E0.01884
G1 X121.916 Y75.984 E0.01949
G1 X128.088 Y75.984 E0.19353
G1 X128.676 Y76.035 E0.01851
G1 X129.290 Y76.193 E0.01988
G1 X129.842 Y76.447 E0.01906
G1 X130.357 Y76.796 E0.01952
G1 X130.820 Y77.234 E0.01997
G1 X131.217 Y77.749 E0.02037
G1 X131.552 Y78.365 E0.02201
G1 X131.777 Y78.967 E0.02012
G1 X131.922 Y79.636 E0.02147
G1 X131.972 Y80.344 E0.02226
G1 X131.972 Y129.571 E1.54347
G1 X131.922 Y130.279 E0.02226
G1 X131.789 Y130.890 E0.01959
G1 X132.158 Y130.970 F10800.000
G1 F1200
G1 X131.883 Y131.740 E0.02566
G1 X131.534 Y132.372 E0.02263
G1 X131.101 Y132.934 E0.02226
G1 X130.595 Y133.413 E0.02185
G1 X130.028 Y133.798 E0.02146
G1 X129.416 Y134.079 E0.02112
G1 X128.773 Y134.250 E0.02087
G1 X128.105 Y134.309 E0.02103
G1 X121.899 Y134.309 E0.19456
G1 X121.231 Y134.250 E0.02103
G1 X120.588 Y134.079 E0.02087
G1 X119.976 Y133.798 E0.02112
G1 X119.410 Y133.414 E0.02144
G1 X118.881 Y132.905 E0.02302
G1 X118.470 Y132.372 E0.02110
G1 X118.121 Y131.740 E0.02263
G1 X117.864 Y131.055 E0.02295
G1 X117.708 Y130.333 E0.02317
G1 X117.655 Y129.584 E0.02352
G1 X117.655 Y80.331 E1.54431
M73 P2 R59
G1 X117.708 Y79.582 E0.02352
G1 X117.864 Y78.860 E0.02317
G1 X118.121 Y78.175 E0.02295
G1 X118.470 Y77.543 E0.02263
G1 X118.903 Y76.981 E0.02226
G1 X119.409 Y76.502 E0.02185
G1 X119.976 Y76.117 E0.02146
G1 X120.588 Y75.836 E0.02112
G1 X121.231 Y75.665 E0.02087
G1 X121.899 Y75.607 E0.02103
G1 X128.105 Y75.607 E0.19456
G1 X128.740 Y75.662 E0.02000
G1 X129.417 Y75.836 E0.02192
G1 X130.028 Y76.117 E0.02110
G1 X130.595 Y76.502 E0.02146
G1 X131.101 Y76.981 E0.02185
G1 X131.533 Y77.542 E0.02223
G1 X131.896 Y78.209 E0.02378
G1 X132.139 Y78.860 E0.02181
G1 X132.296 Y79.582 E0.02317
G1 X132.349 Y80.331 E0.02352
G1 X132.349 Y129.584 E1.54431
G1 X132.296 Y130.333 E0.02352
G1 X132.171 Y130.911 E0.01855
G1 X131.770 Y131.068 F10800.000
G1 F8640
G1 X131.883 Y131.740 E-0.20269
G1 X131.534 Y132.372 E-0.16666
G1 X131.101 Y132.934 E-0.16390
G1 X130.595 Y133.413 E-0.16093
G1 X130.359 Y133.574 E-0.06582
G1 E-0.04000 F2100.00000
G1 Z0.800 F10800.000
G1 X120.333 Y133.423
G1 Z0.200
G1 E0.80000 F2100.00000
G1 F1200
G1 X118.718 Y131.808 E0.07178
G1 F8640
G1 X120.333 Y133.423 E-0.52740
G1 E-0.27260 F2100.00000
G1 Z0.800 F10800.000
G1 X118.329 Y130.884
G1 Z0.200
G1 E0.80000 F2100.00000
G1 F1200
G1 X120.933 Y133.488 E0.11572
G1 X121.346 Y133.598 E0.01342
G1 X121.599 Y133.620 E0.00800
G1 X118.403 Y130.424 E0.14205
G1 X118.363 Y130.239 E0.00594
G1 X118.333 Y129.819 E0.01322
G1 X122.162 Y133.649 E0.17018
G1 X122.697 Y133.649 E0.01680
G1 X118.315 Y129.267 E0.19475
G1 X118.315 Y128.732 E0.01680
G1 X123.231 Y133.649 E0.21850
G1 X123.766 Y133.649 E0.01680
G1 X118.315 Y128.198 E0.24225
G1 X118.315 Y127.663 E0.01680
G1 X124.300 Y133.649 E0.26601
G1 X124.835 Y133.649 E0.01680
G1 X118.315 Y127.129 E0.28976
G1 X118.315 Y126.594 E0.01680
G1 X125.369 Y133.649 E0.31351
G1 X125.904 Y133.649 E0.01680
G1 X118.315 Y126.060 E0.33727
G1 X118.315 Y125.525 E0.01680
G1 X126.438 Y133.649 E0.36102
G1 X126.973 Y133.649 E0.01680
G1 X118.315 Y124.991 E0.38477
G1 X118.315 Y124.456 E0.01680
G1 X127.507 Y133.649 E0.40852
G1 X128.042 Y133.649 E0.01680
G1 X118.315 Y123.922 E0.43228
G1 X118.315 Y123.387 E0.01680
G1 X128.536 Y133.609 E0.45425
G1 X128.658 Y133.598 E0.00386
G1 X128.975 Y133.513 E0.01031
G1 X118.315 Y122.853 E0.47378
G1 X118.315 Y122.318 E0.01680
G1 X129.370 Y133.374 E0.49133
G1 X129.732 Y133.201 E0.01260
G1 X118.315 Y121.784 E0.50741
G1 X118.315 Y121.249 E0.01680
G1 X130.050 Y132.985 E0.52156
G1 X130.180 Y132.898 E0.00491
G1 X130.343 Y132.743 E0.00706
G1 X118.315 Y120.715 E0.53455
G1 X118.315 Y120.181 E0.01680
G1 X130.616 Y132.482 E0.54670
G1 X130.849 Y132.180 E0.01198
G1 X118.315 Y119.646 E0.55703
G1 X118.315 Y119.112 E0.01680
G1 X131.063 Y131.860 E0.56656
G1 X131.253 Y131.516 E0.01236
G1 X118.315 Y118.577 E0.57502
G1 X118.315 Y118.043 E0.01680
G1 X131.406 Y131.133 E0.58178
G1 X131.505 Y130.869 E0.00889
G1 X131.535 Y130.728 E0.00451
G1 X118.315 Y117.508 E0.58753
G1 X118.315 Y116.974 E0.01680
G1 X131.630 Y130.289 E0.59176
G1 X131.672 Y129.797 E0.01552
G1 X118.315 Y116.439 E0.59364
G1 X118.315 Y115.905 E0.01680
G1 X131.689 Y129.279 E0.59438
G1 X131.689 Y128.745 E0.01680
G1 X118.315 Y115.370 E0.59438
G1 X118.315 Y114.836 E0.01680
G1 X131.689 Y128.210 E0.59438
G1 X131.689 Y127.676 E0.01680
G1 X118.315 Y114.301 E0.59438
G1 X118.315 Y113.767 E0.01680
G1 X131.689 Y127.141 E0.59438
G1 X131.689 Y126.607 E0.01680
G1 X118.315 Y113.232 E0.59438
G1 X118.315 Y112.698 E0.01680
G1 X131.689 Y126.072 E0.59438
G1 X131.689 Y125.538 E0.01680
G1 X118.315 Y112.163 E0.59438
G1 X118.315 Y111.629 E0.01680
G1 X131.689 Y125.003 E0.59438
G1 X131.689 Y124.469 E0.01680
G1 X118.315 Y111.094 E0.59438
G1 X118.315 Y110.560 E0.01680
G1 X131.689 Y123.934 E0.59438
G1 X131.689 Y123.400 E0.01680
G1 X118.315 Y110.026 E0.59438
G1 X118.315 Y109.491 E0.01680
G1 X131.689 Y122.865 E0.59438
G1 X131.689 Y122.331 E0.01680
G1 X118.315 Y108.957 E0.59438
G1 X118.315 Y108.422 E0.01680
G1 X131.689 Y121.797 E0.59438
G1 X131.689 Y121.262 E0.01680
G1 X118.315 Y107.888 E0.59438
G1 X118.315 Y107.353 E0.01680
G1 X131.689 Y120.728 E0.59438
G1 X131.689 Y120.193 E0.01680
G1 X118.315 Y106.819 E0.59438
G1 X118.315 Y106.284 E0.01680
G1 X131.689 Y119.659 E0.59438
G1 X131.689 Y119.124 E0.01680
G1 X118.315 Y105.750 E0.59438
G1 X118.315 Y105.215 E0.01680
G1 X131.689 Y118.590 E0.59438
G1 X131.689 Y118.055 E0.01680
G1 X118.315 Y104.681 E0.59438
G1 X118.315 Y104.146 E0.01680
G1 X131.689 Y117.521 E0.59438
G1 X131.689 Y116.986 E0.01680
G1 X118.315 Y103.612 E0.59438
G1 X118.315 Y103.077 E0.01680
G1 X131.689 Y116.452 E0.59438
G1 X131.689 Y115.917 E0.01680
G1 X118.315 Y102.543 E0.59438
G1 X118.315 Y102.008 E0.01680
G1 X131.689 Y115.383 E0.59438
G1 X131.689 Y114.848 E0.01680
G1 X118.315 Y101.474 E0.59438
G1 X118.315 Y100.939 E0.01680
G1 X131.689 Y114.314 E0.59438
G1 X131.689 Y113.779 E0.01680
G1 X118.315 Y100.405 E0.59438
G1 X118.315 Y99.871 E0.01680
G1 X131.689 Y113.245 E0.59438
G1 X131.689 Y112.711 E0.01680
G1 X118.315 Y99.336 E0.59438
G1 X118.315 Y98.802 E0.01680
G1 X131.689 Y112.176 E0.59438
G1 X131.689 Y111.642 E0.01680
G1 X118.315 Y98.267 E0.59438
G1 X118.315 Y97.733 E0.01680
G1 X131.689 Y111.107 E0.59438
G1 X131.689 Y110.573 E0.01680
G1 X118.315 Y97.198 E0.59438
G1 X118.315 Y96.664 E0.01680
G1 X131.689 Y110.038 E0.59438
G1 X131.689 Y109.504 E0.01680
G1 X118.315 Y96.129 E0.59438
M73 P3 R58
G1 X118.315 Y95.595 E0.01680
G1 X131.689 Y108.969 E0.59438
G1 X131.689 Y108.435 E0.01680
G1 X118.315 Y95.060 E0.59438
G1 X118.315 Y94.526 E0.01680
G1 X131.689 Y107.900 E0.59438
G1 X131.689 Y107.366 E0.01680
G1 X118.315 Y93.991 E0.59438
G1 X118.315 Y93.457 E0.01680
G1 X131.689 Y106.831 E0.59438
G1 X131.689 Y106.297 E0.01680
G1 X118.315 Y92.922 E0.59438
G1 X118.315 Y92.388 E0.01680
G1 X131.689 Y105.762 E0.59438
G1 X131.689 Y105.228 E0.01680
G1 X118.315 Y91.853 E0.59438
G1 X118.315 Y91.319 E0.01680
G1 X131.689 Y104.693 E0.59438
G1 X131.689 Y104.159 E0.01680
G1 X118.315 Y90.785 E0.59438
G1 X118.315 Y90.250 E0.01680
G1 X131.689 Y103.624 E0.59438
G1 X131.689 Y103.090 E0.01680
G1 X118.315 Y89.716 E0.59438
G1 X118.315 Y89.181 E0.01680
G1 X131.689 Y102.556 E0.59438
G1 X131.689 Y102.021 E0.01680
G1 X118.315 Y88.647 E0.59438
G1 X118.315 Y88.112 E0.01680
G1 X131.689 Y101.487 E0.59438
G1 X131.689 Y100.952 E0.01680
G1 X118.315 Y87.578 E0.59438
G1 X118.315 Y87.043 E0.01680
G1 X131.689 Y100.418 E0.59438
G1 X131.689 Y99.883 E0.01680
G1 X118.315 Y86.509 E0.59438
G1 X118.315 Y85.974 E0.01680
G1 X131.689 Y99.349 E0.59438
G1 X131.689 Y98.814 E0.01680
G1 X118.315 Y85.440 E0.59438
G1 X118.315 Y84.905 E0.01680
G1 X131.689 Y98.280 E0.59438
G1 X131.689 Y97.745 E0.01680
G1 X118.315 Y84.371 E0.59438
G1 X118.315 Y83.836 E0.01680
G1 X131.689 Y97.211 E0.59438
G1 X131.689 Y96.676 E0.01680
G1 X118.315 Y83.302 E0.59438
G1 X118.315 Y82.767 E0.01680
G1 X131.689 Y96.142 E0.59438
G1 X131.689 Y95.607 E0.01680
G1 X118.315 Y82.233 E0.59438
G1 X118.315 Y81.698 E0.01680
G1 X131.689 Y95.073 E0.59438
G1 X131.689 Y94.538 E0.01680
G1 X118.315 Y81.164 E0.59438
G1 X118.315 Y80.630 E0.01680
G1 X131.689 Y94.004 E0.59438
G1 X131.689 Y93.470 E0.01680
G1 X118.332 Y80.112 E0.59362
G1 X118.375 Y79.621 E0.01550
G1 X131.689 Y92.935 E0.59171
G1 X131.689 Y92.401 E0.01680
G1 X118.470 Y79.181 E0.58748
G1 X118.499 Y79.047 E0.00434
G1 X118.600 Y78.777 E0.00904
G1 X131.689 Y91.866 E0.58170
G1 X131.689 Y91.332 E0.01680
G1 X118.753 Y78.395 E0.57491
G1 X118.943 Y78.051 E0.01236
G1 X131.689 Y90.797 E0.56646
G1 X131.689 Y90.263 E0.01680
G1 X119.158 Y77.731 E0.55691
G1 X119.390 Y77.429 E0.01198
G1 X131.689 Y89.728 E0.54657
G1 X131.689 Y89.194 E0.01680
G1 X119.664 Y77.169 E0.53440
G1 X119.824 Y77.018 E0.00692
G1 X119.957 Y76.927 E0.00505
G1 X131.689 Y88.659 E0.52139
G1 X131.689 Y88.125 E0.01680
G1 X120.275 Y76.711 E0.50724
G1 X120.638 Y76.539 E0.01261
G1 X131.689 Y87.590 E0.49113
G1 X131.689 Y87.056 E0.01680
G1 X121.034 Y76.400 E0.47355
G1 X121.346 Y76.317 E0.01015
G1 X121.474 Y76.306 E0.00405
G1 X131.689 Y86.521 E0.45399
G1 X131.689 Y85.987 E0.01680
G1 X121.969 Y76.266 E0.43199
G1 X122.503 Y76.266 E0.01680
G1 X131.689 Y85.452 E0.40824
G1 X131.689 Y84.918 E0.01680
G1 X123.038 Y76.266 E0.38449
G1 X123.572 Y76.266 E0.01680
G1 X131.689 Y84.383 E0.36074
G1 X131.689 Y83.849 E0.01680
G1 X124.107 Y76.266 E0.33698
G1 X124.641 Y76.266 E0.01680
G1 X131.689 Y83.315 E0.31323
G1 X131.689 Y82.780 E0.01680
G1 X125.175 Y76.266 E0.28948
G1 X125.710 Y76.266 E0.01680
G1 X131.689 Y82.246 E0.26572
G1 X131.689 Y81.711 E0.01680
G1 X126.244 Y76.266 E0.24197
G1 X126.779 Y76.266 E0.01680
G1 X131.689 Y81.177 E0.21822
G1 X131.689 Y80.642 E0.01680
G1 X127.313 Y76.266 E0.19447
G1 X127.848 Y76.266 E0.01680
G1 X131.670 Y80.089 E0.16988
G1 X131.641 Y79.676 E0.01300
G1 X131.599 Y79.483 E0.00620
G1 X128.412 Y76.296 E0.14166
G1 X128.628 Y76.315 E0.00683
G1 X129.082 Y76.431 E0.01472
G1 X131.673 Y79.023 E0.11516
G1 F8640
G1 X129.346 Y76.695 E-0.76000
G1 E-0.04000 F2100.00000
G1 Z0.800 F10800.000
G1 X131.272 Y78.087
G1 Z0.200
G1 E0.80000 F2100.00000
G1 F1200
G1 X129.683 Y76.498 E0.07061
M900 K0
G1 F8640
G1 X131.272 Y78.087 E-0.51886
G1 E-2.48114 F2100.00000
G1 Z0.800 F10800.000
G1 X229.750 Y153.810
G1 Z0.200
G1 E3.00000 F2100.00000
;--------------------
; CP TOOLCHANGE START
; toolchange #1
; material : PLA
;--------------------
M220 B
M220 S100
; CP TOOLCHANGE UNLOAD
G1 X229.250 Y153.420 
G1 F1341
G1 X223.671 E0.2816
G1 F1452
G1 X217.626 E0.3051
G1 F1644
G1 X210.785 E0.3453
G1 F1899
G1 X202.881 E0.3990
G1 F2266
G1 X193.449 E0.4761
G1 F2745
G1 X182.025 E0.5767
G1 F3224
G1 X170.750 E0.5691
G1 Y152.640 F7200
G1 F3224
G1 X172.892 E0.1081
G1 F3639
G1 X188.036 E0.7644
G1 F3926
G1 X204.375 E0.8248
G1 F4038
G1 X221.180 E0.8483
G1 E-15.0000 F6000
G1 E-24.5000 F1200
G1 E-7.0000 F600
G1 E-3.5000 F360
M104 S215
