; generated by PrusaSlicer 2.1.0+ on 2019-10-17 at 20:32:42 UTC

; 

; external perimeters extrusion width = 0.45mm
; perimeters extrusion width = 0.45mm
; infill extrusion width = 0.45mm
; solid infill extrusion width = 0.45mm
; top infill extrusion width = 0.40mm
; support material extrusion width = 0.35mm
; first layer extrusion width = 0.42mm

M73 P0 R9
M201 X9000 Y9000 Z500 E10000 ; sets maximum accelerations, mm/sec^2
M203 X500 Y500 Z12 E120 ; sets maximum feedrates, mm/sec
M204 P2000 R1500 T2000 ; sets acceleration (P, T) and retract acceleration (R), mm/sec^2
M205 X10.00 Y10.00 Z0.20 E2.50 ; sets the jerk limits, mm/sec
M205 S0 T0 ; sets the minimum extruding and travel feed rate, mm/sec
M107
M862.3 P "MK2.5SMMU2S" ; printer model check
M862.1 P0.4 ; nozzle diameter check
M115 U3.8.0 ; tell printer latest fw version
G90 ; use absolute coordinates
M83 ; extruder relative mode
M104 S230 ; set extruder temp
M140 S60 ; set bed temp
Tx
M190 S60 ; wait for bed temp
M109 S230 ; wait for extruder temp
G28 W ; home all without mesh bed level
G80 ; mesh bed leveling

G21 ; set units to millimeters

;go outside print area
G1 Y-3.0 F1000.0
G1 Z0.4 F1000.0
; select extruder
Tc
; purge line
G1 X55.0 F2000.0
G1 Z0.3 F1000.0
G92 E0.0
G1 X240.0 E25.0 F2200.0
M73 P1 R9
G1 Y-2.0 F1000.0
G1 X55.0 E25 F1400.0
G1 Z0.20 F1000.0
G1 X5.0 E4.0 F1000.0
G92 E0.0
G21 ; set units to millimeters
G90 ; use absolute coordinates
M83 ; use relative distances for extrusion
M900 K30 ; Filament gcode
;BEFORE_LAYER_CHANGE
G92 E0.0
;0.2


G1 E-0.80000 F2100.00000
G1 Z0.600 F10800.000
;AFTER_LAYER_CHANGE
;0.2
G1 X111.292 Y99.268
G1 Z0.200
G1 E0.80000 F2100.00000
M204 S1000
G1 F1200
G1 X111.474 Y98.618 E0.02116
G1 X111.818 Y98.038 E0.02116
G1 X113.273 Y96.559 E0.06503
G1 X113.686 Y96.235 E0.01647
G1 X114.318 Y95.947 E0.02177
G1 X115.008 Y95.839 E0.02189
G1 X134.929 Y95.838 E0.62464
G1 X135.471 Y95.896 E0.01709
G1 X135.989 Y96.067 E0.01709
G1 X136.455 Y96.342 E0.01697
G1 X136.857 Y96.711 E0.01709
G1 X138.051 Y98.314 E0.06269
G1 X138.244 Y98.812 E0.01675
G1 X138.474 Y99.873 E0.03405
G1 X138.430 Y109.669 E0.30716
G1 X138.252 Y110.230 E0.01845
G1 X137.951 Y110.735 E0.01845
G1 X136.435 Y112.527 E0.07358
G1 X135.914 Y112.962 E0.02128
G1 X135.279 Y113.252 E0.02189
G1 X134.589 Y113.359 E0.02189
G1 X115.189 Y113.347 E0.60827
G1 X114.481 Y113.173 E0.02288
G1 X113.850 Y112.806 E0.02288
G1 X111.994 Y110.973 E0.08179
G1 X111.664 Y110.554 E0.01672
G1 X111.380 Y109.938 E0.02128
G1 X111.269 Y109.268 E0.02128
G1 X111.292 Y99.328 E0.31167
G1 X111.666 Y99.329 F10800.000
G1 F1200
G1 X111.825 Y98.756 E0.01863
G1 X112.128 Y98.254 E0.01839
G1 X113.537 Y96.828 E0.06285
G1 X113.909 Y96.540 E0.01475
G1 X114.445 Y96.302 E0.01839
G1 X115.022 Y96.216 E0.01828
G1 X134.929 Y96.216 E0.62419
G1 X135.397 Y96.266 E0.01475
G1 X135.843 Y96.416 E0.01475
G1 X136.247 Y96.657 E0.01475
G1 X136.593 Y96.982 E0.01487
G1 X137.714 Y98.483 E0.05876
G1 X138.027 Y99.456 E0.03204
G1 X138.099 Y99.921 E0.01475
G1 X138.063 Y109.585 E0.30300
G1 X137.908 Y110.075 E0.01612
G1 X137.644 Y110.516 E0.01612
G1 X136.160 Y112.269 E0.07202
G1 X135.688 Y112.659 E0.01919
G1 X135.155 Y112.895 E0.01828
G1 X134.575 Y112.982 E0.01839
G1 X115.231 Y112.972 E0.60652
G1 X114.612 Y112.819 E0.01998
G1 X114.064 Y112.494 E0.01998
G1 X112.262 Y110.709 E0.07952
G1 X111.969 Y110.331 E0.01498
G1 X111.735 Y109.809 E0.01794
G1 X111.645 Y109.244 E0.01794
G1 X111.666 Y99.389 E0.30900
G1 F8640
G1 X111.825 Y98.756 E-0.15061
G1 X112.128 Y98.254 E-0.13546
G1 X113.537 Y96.828 E-0.46281
G1 X113.575 Y96.799 E-0.01112
G1 E-0.04000 F2100.00000
G1 Z0.800 F10800.000
G1 X134.929 Y98.404
G1 Z0.200
G1 E0.80000 F2100.00000
G1 F1200
G1 X115.056 Y98.404 E0.62312
G1 X114.517 Y98.943 E0.02389
G1 X135.228 Y98.943 E0.64938
G1 X135.767 Y99.481 E0.02389
G1 X113.978 Y99.481 E0.68316
G1 X113.833 Y99.627 E0.00646
G1 X113.833 Y100.020 E0.01232
G1 X135.912 Y100.020 E0.69229
G1 X135.912 Y100.559 E0.01689
G1 X113.833 Y100.559 E0.69229
G1 X113.833 Y101.098 E0.01689
G1 X135.912 Y101.098 E0.69229
G1 X135.912 Y101.636 E0.01689
G1 X113.833 Y101.636 E0.69229
G1 X113.833 Y102.175 E0.01689
G1 X135.912 Y102.175 E0.69229
G1 X135.912 Y102.714 E0.01689
G1 X113.833 Y102.714 E0.69229
G1 X113.833 Y103.252 E0.01689
G1 X135.912 Y103.252 E0.69229
G1 X135.912 Y103.791 E0.01689
G1 X113.833 Y103.791 E0.69229
G1 X113.833 Y104.330 E0.01689
G1 X135.912 Y104.330 E0.69229
G1 X135.912 Y104.868 E0.01689
G1 X113.833 Y104.868 E0.69229
G1 X113.833 Y105.407 E0.01689
G1 X135.912 Y105.407 E0.69229
G1 X135.912 Y105.946 E0.01689
G1 X113.833 Y105.946 E0.69229
G1 X113.833 Y106.484 E0.01689
G1 X135.912 Y106.484 E0.69229
G1 X135.912 Y107.023 E0.01689
G1 X113.833 Y107.023 E0.69229
G1 X113.833 Y107.562 E0.01689
G1 X135.912 Y107.562 E0.69229
G1 X135.912 Y108.100 E0.01689
G1 X113.833 Y108.100 E0.69229
G1 X113.833 Y108.639 E0.01689
G1 X135.912 Y108.639 E0.69229
G1 X135.912 Y109.178 E0.01689
G1 X113.833 Y109.178 E0.69229
G1 X114.365 Y109.716 E0.02374
G1 X135.380 Y109.716 E0.65893
G1 X134.842 Y110.255 E0.02389
G1 X114.904 Y110.255 E0.62515
G1 X115.442 Y110.794 E0.02389
G1 X134.543 Y110.794 E0.59889
M106 S255
;BEFORE_LAYER_CHANGE
G92 E0.0
;0.5


G1 F8640
G1 X131.252 Y110.794 E-0.76000
G1 E-0.04000 F2100.00000
G1 Z0.800 F10800.000
;AFTER_LAYER_CHANGE
;0.5
G1 X135.279 Y113.252
G1 Z0.500
G1 E0.80000 F2100.00000
G1 F1117
G1 X134.589 Y113.359 E0.03097
G1 X115.189 Y113.347 E0.86047
G1 X114.481 Y113.173 E0.03236
G1 X113.850 Y112.806 E0.03236
G1 X111.994 Y110.973 E0.11570
G1 X111.664 Y110.554 E0.02365
G1 X111.380 Y109.938 E0.03010
G1 X111.269 Y109.268 E0.03010
G1 X111.292 Y99.268 E0.44356
G1 X111.474 Y98.618 E0.02993
G1 X111.818 Y98.038 E0.02993
G1 X113.273 Y96.559 E0.09199
G1 X113.686 Y96.235 E0.02330
G1 X114.318 Y95.947 E0.03080
G1 X115.008 Y95.839 E0.03097
G1 X134.929 Y95.838 E0.88363
G1 X135.471 Y95.896 E0.02418
G1 X135.989 Y96.067 E0.02418
G1 X136.455 Y96.342 E0.02400
G1 X136.857 Y96.711 E0.02418
G1 X138.051 Y98.314 E0.08868
G1 X138.244 Y98.812 E0.02369
G1 X138.474 Y99.873 E0.04816
G1 X138.430 Y109.669 E0.43451
G1 X138.252 Y110.230 E0.02610
G1 X137.951 Y110.735 E0.02609
G1 X136.435 Y112.527 E0.10409
G1 X135.914 Y112.962 E0.03010
G1 X135.334 Y113.227 E0.02831
G1 F8640
G1 X134.589 Y113.359 E-0.17461
G1 X132.054 Y113.357 E-0.58539
G1 E-0.04000 F2100.00000
G1 Z1.100 F10800.000
G1 X133.303 Y108.503
G1 Z0.500
G1 E0.80000 F2100.00000
G1 F1117
G1 X133.303 Y100.504 E0.28497
G1 X133.244 Y100.445 E0.00296
G1 X132.796 Y100.445 E0.01597
G1 X132.796 Y108.366 E0.28219
G1 X132.289 Y108.366 E0.01806
G1 X132.289 Y100.445 E0.28219
G1 X131.782 Y100.445 E0.01806
G1 X131.782 Y108.366 E0.28219
G1 X131.275 Y108.366 E0.01806
G1 X131.275 Y100.445 E0.28219
G1 X130.768 Y100.445 E0.01806
G1 X130.768 Y108.366 E0.28219
G1 X130.261 Y108.366 E0.01806
G1 X130.261 Y100.445 E0.28219
G1 X129.754 Y100.445 E0.01806
G1 X129.754 Y108.366 E0.28219
G1 X129.247 Y108.366 E0.01806
G1 X129.247 Y100.445 E0.28219
G1 X128.739 Y100.445 E0.01806
G1 X128.739 Y108.366 E0.28219
G1 X128.232 Y108.366 E0.01806
G1 X128.232 Y100.445 E0.28219
G1 X127.725 Y100.445 E0.01806
G1 X127.725 Y108.366 E0.28219
G1 X127.218 Y108.366 E0.01806
G1 X127.218 Y100.445 E0.28219
G1 X126.711 Y100.445 E0.01806
G1 X126.711 Y108.366 E0.28219
G1 X126.204 Y108.366 E0.01806
G1 X126.204 Y100.445 E0.28219
G1 X125.697 Y100.445 E0.01806
G1 X125.697 Y108.366 E0.28219
M73 P12 R8
G1 X125.190 Y108.366 E0.01806
G1 X125.190 Y100.445 E0.28219
G1 X124.683 Y100.445 E0.01806
G1 X124.683 Y108.366 E0.28219
G1 X124.176 Y108.366 E0.01806
G1 X124.176 Y100.445 E0.28219
G1 X123.669 Y100.445 E0.01806
G1 X123.669 Y108.366 E0.28219
G1 X123.162 Y108.366 E0.01806
G1 X123.162 Y100.445 E0.28219
G1 X122.654 Y100.445 E0.01806
G1 X122.654 Y108.366 E0.28219
G1 X122.147 Y108.366 E0.01806
G1 X122.147 Y100.445 E0.28219
G1 X121.640 Y100.445 E0.01806
G1 X121.640 Y108.366 E0.28219
G1 X121.133 Y108.366 E0.01806
G1 X121.133 Y100.445 E0.28219
G1 X120.626 Y100.445 E0.01806
G1 X120.626 Y108.366 E0.28219
G1 X120.119 Y108.366 E0.01806
G1 X120.119 Y100.445 E0.28219
G1 X119.612 Y100.445 E0.01806
G1 X119.612 Y108.366 E0.28219
G1 X119.105 Y108.366 E0.01806
G1 X119.105 Y100.445 E0.28219
G1 X118.598 Y100.445 E0.01806
G1 X118.598 Y108.366 E0.28219
G1 X118.091 Y108.366 E0.01806
G1 X118.091 Y100.445 E0.28219
G1 X117.584 Y100.445 E0.01806
G1 X117.584 Y108.366 E0.28219
G1 X117.077 Y108.366 E0.01806
G1 X117.077 Y100.445 E0.28219
G1 X116.570 Y100.445 E0.01806
G1 X116.570 Y108.505 E0.28711
;BEFORE_LAYER_CHANGE
G92 E0.0
;0.8


G1 F8640
G1 X116.570 Y105.213 E-0.76000
G1 E-0.04000 F2100.00000
G1 Z1.100 F10800.000
;AFTER_LAYER_CHANGE
;0.8
G1 X111.380 Y109.938
G1 Z0.800
G1 E0.80000 F2100.00000
G1 F970
G1 X111.269 Y109.268 E0.03010
G1 X111.292 Y99.268 E0.44356
G1 X111.474 Y98.618 E0.02993
G1 X111.818 Y98.038 E0.02993
G1 X113.273 Y96.559 E0.09199
G1 X113.686 Y96.235 E0.02330
G1 X114.318 Y95.947 E0.03080
G1 X115.008 Y95.839 E0.03097
G1 X134.929 Y95.838 E0.88363
G1 X135.471 Y95.896 E0.02418
G1 X135.989 Y96.067 E0.02418
G1 X136.455 Y96.342 E0.02400
G1 X136.857 Y96.711 E0.02418
G1 X138.051 Y98.314 E0.08868
G1 X138.244 Y98.812 E0.02369
G1 X138.474 Y99.873 E0.04816
G1 X138.430 Y109.669 E0.43451
G1 X138.252 Y110.230 E0.02610
G1 X137.951 Y110.735 E0.02609
G1 X136.435 Y112.527 E0.10409
G1 X135.914 Y112.962 E0.03010
G1 X135.279 Y113.252 E0.03097
G1 X134.589 Y113.359 E0.03097
G1 X115.189 Y113.347 E0.86047
G1 X114.481 Y113.173 E0.03236
G1 X113.850 Y112.806 E0.03236
G1 X111.994 Y110.973 E0.11570
G1 X111.664 Y110.554 E0.02365
G1 X111.405 Y109.992 E0.02744
G1 F8640
G1 X111.269 Y109.268 E-0.17011
G1 X111.275 Y106.714 E-0.58989
G1 E-0.04000 F2100.00000
G1 Z1.400 F10800.000
G1 X117.077 Y108.005
G1 Z0.800
G1 E0.80000 F2100.00000
G1 F970
G1 X117.077 Y100.945 E0.25149
G1 X117.584 Y100.945 E0.01806
G1 X117.584 Y107.866 E0.24656
G1 X118.091 Y107.866 E0.01806
G1 X118.091 Y100.945 E0.24656
G1 X118.598 Y100.945 E0.01806
G1 X118.598 Y107.866 E0.24656
G1 X119.105 Y107.866 E0.01806
G1 X119.105 Y100.945 E0.24656
G1 X119.612 Y100.945 E0.01806
G1 X119.612 Y107.866 E0.24656
G1 X120.119 Y107.866 E0.01806
G1 X120.119 Y100.945 E0.24656
G1 X120.626 Y100.945 E0.01806
G1 X120.626 Y107.866 E0.24656
G1 X121.133 Y107.866 E0.01806
G1 X121.133 Y100.945 E0.24656
G1 X121.640 Y100.945 E0.01806
G1 X121.640 Y107.866 E0.24656
G1 X122.147 Y107.866 E0.01806
G1 X122.147 Y100.945 E0.24656
G1 X122.654 Y100.945 E0.01806
G1 X122.654 Y107.866 E0.24656
G1 X123.162 Y107.866 E0.01806
G1 X123.162 Y100.945 E0.24656
G1 X123.669 Y100.945 E0.01806
G1 X123.669 Y107.866 E0.24656
G1 X124.176 Y107.866 E0.01806
G1 X124.176 Y100.945 E0.24656
G1 X124.683 Y100.945 E0.01806
G1 X124.683 Y107.866 E0.24656
G1 X125.190 Y107.866 E0.01806
G1 X125.190 Y100.945 E0.24656
G1 X125.697 Y100.945 E0.01806
G1 X125.697 Y107.866 E0.24656
G1 X126.204 Y107.866 E0.01806
G1 X126.204 Y100.945 E0.24656
G1 X126.711 Y100.945 E0.01806
G1 X126.711 Y107.866 E0.24656
G1 X127.218 Y107.866 E0.01806
G1 X127.218 Y100.945 E0.24656
G1 X127.725 Y100.945 E0.01806
G1 X127.725 Y107.866 E0.24656
G1 X128.232 Y107.866 E0.01806
G1 X128.232 Y100.945 E0.24656
G1 X128.739 Y100.945 E0.01806
G1 X128.739 Y107.866 E0.24656
G1 X129.247 Y107.866 E0.01806
G1 X129.247 Y100.945 E0.24656
G1 X129.754 Y100.945 E0.01806
G1 X129.754 Y107.866 E0.24656
G1 X130.261 Y107.866 E0.01806
G1 X130.261 Y100.945 E0.24656
G1 X130.768 Y100.945 E0.01806
G1 X130.768 Y107.866 E0.24656
G1 X131.275 Y107.866 E0.01806
G1 X131.275 Y100.945 E0.24656
G1 X131.782 Y100.945 E0.01806
G1 X131.782 Y107.866 E0.24656
G1 X132.289 Y107.866 E0.01806
G1 X132.289 Y100.945 E0.24656
G1 X132.796 Y100.945 E0.01806
G1 X132.796 Y108.005 E0.25149
;BEFORE_LAYER_CHANGE
G92 E0.0
;1.3


G1 F8640
G1 X132.796 Y104.713 E-0.76000
G1 E-0.04000 F2100.00000
G1 Z1.400 F10800.000
;AFTER_LAYER_CHANGE
;1.3
G1 X129.566 Y104.713
G1 Z1.300
G1 E0.80000 F2100.00000
M204 S800
G1 F1500
G1 X129.566 Y105.411 E0.03463
G1 X119.694 Y105.411 E0.48998
G1 X119.694 Y104.589 E0.04078
G1 X129.566 Y104.589 E0.48998
G1 X129.566 Y104.653 E0.00318
M204 S1000
G1 X129.930 Y104.225 F10800.000
M204 S800
G1 F1500
G1 X129.930 Y105.775 E0.07693
G1 X119.330 Y105.775 E0.52613
G1 X119.330 Y104.225 E0.07693
G1 X129.870 Y104.225 E0.52315
M204 S1000
G1 F8640
G1 X129.930 Y105.775 E-0.35817
G1 X128.190 Y105.775 E-0.40183
G1 E-0.04000 F2100.00000
G1 Z1.900 F10800.000
G1 X128.529 Y105.298
G1 Z1.300
G1 E0.80000 F2100.00000
G1 F1200
G1 X128.927 Y104.900 E0.03035
G1 X128.281 Y104.900 E0.03484
G1 X128.081 Y105.100 E0.01525
G1 X127.436 Y105.100 E0.03484
G1 X127.635 Y104.900 E0.01525
G1 X126.990 Y104.900 E0.03484
G1 X126.790 Y105.100 E0.01525
G1 X126.144 Y105.100 E0.03484
G1 X126.344 Y104.900 E0.01525
G1 X125.698 Y104.900 E0.03484
G1 X125.499 Y105.100 E0.01525
G1 X124.853 Y105.100 E0.03484
G1 X125.053 Y104.900 E0.01525
G1 X124.407 Y104.900 E0.03484
G1 X124.207 Y105.100 E0.01525
G1 X123.562 Y105.100 E0.03484
G1 X123.762 Y104.900 E0.01525
G1 X123.116 Y104.900 E0.03484
G1 X122.916 Y105.100 E0.01525
G1 X122.271 Y105.100 E0.03484
G1 X122.470 Y104.900 E0.01525
G1 X121.825 Y104.900 E0.03484
G1 X121.625 Y105.100 E0.01525
G1 X120.979 Y105.100 E0.03484
G1 X121.179 Y104.900 E0.01525
G1 X120.534 Y104.900 E0.03484
G1 X120.136 Y105.298 E0.03035
;BEFORE_LAYER_CHANGE
G92 E0.0
;1.5


G1 F8640
G1 X120.534 Y104.900 E-0.12987
G1 X121.179 Y104.900 E-0.14907
G1 X120.979 Y105.100 E-0.06524
G1 X121.625 Y105.100 E-0.14907
G1 X121.825 Y104.900 E-0.06524
G1 X122.470 Y104.900 E-0.14907
G1 X122.310 Y105.061 E-0.05243
G1 E-0.04000 F2100.00000
G1 Z1.900 F10800.000
;AFTER_LAYER_CHANGE
;1.5
G1 X119.737 Y105.368
G1 Z1.500
G1 E0.80000 F2100.00000
M204 S800
G1 F900
G1 X119.737 Y104.632 E0.02491
G1 X129.523 Y104.632 E0.33126
G1 X129.523 Y105.368 E0.02491
G1 X119.797 Y105.368 E0.32923
M204 S1000
G1 X119.330 Y105.775 F10800.000
M204 S800
G1 F900
G1 X119.330 Y104.225 E0.05247
G1 X129.930 Y104.225 E0.35882
G1 X129.930 Y105.775 E0.05247
G1 X119.390 Y105.775 E0.35678
M204 S1000
G1 X119.513 Y105.419 F10800.000
G1 X119.941 Y105.000
G1 F900
G1 X129.320 Y105.000 E0.25640
;BEFORE_LAYER_CHANGE
G92 E0.0
;1.7


G1 F8640
G1 X126.028 Y105.000 E-0.76000
G1 E-0.04000 F2100.00000
G1 Z2.100 F10800.000
;AFTER_LAYER_CHANGE
;1.7
G1 X129.523 Y104.632
G1 Z1.700
G1 E0.80000 F2100.00000
M204 S800
G1 F900
G1 X129.523 Y105.368 E0.02491
G1 X119.737 Y105.368 E0.33126
G1 X119.737 Y104.632 E0.02491
G1 X129.463 Y104.632 E0.32923
M204 S1000
G1 X129.930 Y104.225 F10800.000
M204 S800
G1 F900
G1 X129.930 Y105.775 E0.05247
G1 X119.330 Y105.775 E0.35882
G1 X119.330 Y104.225 E0.05247
G1 X129.870 Y104.225 E0.35678
M204 S1000
G1 X129.747 Y104.581 F10800.000
G1 X129.320 Y105.000
G1 F900
G1 X119.941 Y105.000 E0.25640
;BEFORE_LAYER_CHANGE
G92 E0.0
;1.9


G1 F8640
G1 X123.232 Y105.000 E-0.76000
G1 E-0.04000 F2100.00000
G1 Z2.300 F10800.000
;AFTER_LAYER_CHANGE
;1.9
G1 X119.737 Y104.632
G1 Z1.900
G1 E0.80000 F2100.00000
M204 S800
G1 F900
G1 X129.523 Y104.632 E0.33126
G1 X129.523 Y105.368 E0.02491
G1 X119.737 Y105.368 E0.33126
G1 X119.737 Y104.692 E0.02288
M204 S1000
G1 X119.330 Y104.225 F10800.000
M204 S800
G1 F900
G1 X129.930 Y104.225 E0.35882
G1 X129.930 Y105.775 E0.05247
G1 X119.330 Y105.775 E0.35882
G1 X119.330 Y104.285 E0.05043
M204 S1000
G1 X119.729 Y104.244 F10800.000
G1 X119.941 Y105.000
G1 F900
G1 X129.320 Y105.000 E0.25640
;BEFORE_LAYER_CHANGE
G92 E0.0
;2.1


G1 F8640
G1 X126.028 Y105.000 E-0.76000
G1 E-0.04000 F2100.00000
G1 Z2.500 F10800.000
;AFTER_LAYER_CHANGE
;2.1
G1 X129.523 Y104.632
G1 Z2.100
G1 E0.80000 F2100.00000
M204 S800
G1 F900
G1 X129.523 Y105.368 E0.02491
G1 X119.737 Y105.368 E0.33126
G1 X119.737 Y104.632 E0.02491
G1 X129.463 Y104.632 E0.32923
M204 S1000
G1 X129.930 Y104.225 F10800.000
M204 S800
G1 F900
G1 X129.930 Y105.775 E0.05247
G1 X119.330 Y105.775 E0.35882
G1 X119.330 Y104.225 E0.05247
G1 X129.870 Y104.225 E0.35678
M204 S1000
G1 X129.747 Y104.581 F10800.000
G1 X129.320 Y105.000
G1 F900
G1 X119.941 Y105.000 E0.25640
;BEFORE_LAYER_CHANGE
G92 E0.0
;2.3


G1 F8640
G1 X123.232 Y105.000 E-0.76000
G1 E-0.04000 F2100.00000
G1 Z2.700 F10800.000
;AFTER_LAYER_CHANGE
;2.3
G1 X119.737 Y104.632
G1 Z2.300
G1 E0.80000 F2100.00000
M204 S800
