; generated by PrusaSlicer 2.1.0+win64 on 2019-11-07 at 22:49:51 UTC

; 

; external perimeters extrusion width = 0.45mm
; perimeters extrusion width = 0.45mm
; infill extrusion width = 0.45mm
; solid infill extrusion width = 0.45mm
; top infill extrusion width = 0.40mm
; first layer extrusion width = 0.42mm

M73 P0 R56
M201 X9000 Y9000 Z500 E10000 ; sets maximum accelerations, mm/sec^2
M203 X500 Y500 Z12 E120 ; sets maximum feedrates, mm/sec
M204 P2000 R1500 T2000 ; sets acceleration (P, T) and retract acceleration (R), mm/sec^2
M205 X10.00 Y10.00 Z0.20 E2.50 ; sets the jerk limits, mm/sec
M205 S0 T0 ; sets the minimum extruding and travel feed rate, mm/sec
M107
M862.3 P "MK2.5SMMU2S" ; printer model check
M862.1 P0.4 ; nozzle diameter check
M115 U3.8.0 ; tell printer latest fw version
G90 ; use absolute coordinates
M83 ; extruder relative mode
M104 S215 ; set extruder temp
M140 S60 ; set bed temp
Tx
M190 S60 ; wait for bed temp
M109 S215 ; wait for extruder temp
G28 W ; home all without mesh bed level
G80 ; mesh bed leveling

G21 ; set units to millimeters

;go outside print area
G1 Y-3.0 F1000.0
G1 Z0.4 F1000.0
; select extruder
Tc
; purge line
G1 X55.0 F2000.0
G1 Z0.3 F1000.0
G92 E0.0
G1 X240.0 E25.0 F2200.0
M73 P0 R56
G1 Y-2.0 F1000.0
G1 X55.0 E25 F1400.0
G1 Z0.20 F1000.0
G1 X5.0 E4.0 F1000.0
G92 E0.0
G21 ; set units to millimeters
G90 ; use absolute coordinates
M83 ; use relative distances for extrusion
M900 K30 ; Filament gcode
;BEFORE_LAYER_CHANGE
G92 E0.0
;0.2


G1 E-0.80000 F2100.00000
G1 Z0.600 F10800.000
;AFTER_LAYER_CHANGE
;0.2
G1 X83.098 Y87.889
G1 Z0.200
G1 E0.80000 F2100.00000
M204 S1000
G1 F1200
G1 X166.504 Y87.852 E2.61512
G1 X167.276 Y87.994 E0.02462
G1 X167.948 Y88.399 E0.02462
G1 X168.436 Y89.019 E0.02473
G1 X168.672 Y89.768 E0.02462
G1 X168.688 Y103.342 E0.42560
G1 X168.535 Y104.127 E0.02507
G1 X168.184 Y104.719 E0.02157
G1 X154.181 Y121.395 E0.68275
G1 X153.616 Y121.859 E0.02293
G1 X152.930 Y122.111 E0.02293
G1 X97.529 Y122.148 E1.73706
G1 X96.983 Y122.079 E0.01726
G1 X96.370 Y121.817 E0.02089
G1 X95.863 Y121.379 E0.02100
G1 X81.810 Y104.712 E0.68356
G1 X81.517 Y104.246 E0.01726
G1 X81.349 Y103.722 E0.01726
G1 X81.325 Y89.800 E0.43652
G1 X81.510 Y89.130 E0.02179
G1 X81.896 Y88.551 E0.02179
G1 X82.444 Y88.124 E0.02179
G1 X83.042 Y87.909 E0.01991
G1 E-0.80000 F2100.00000
G1 Z0.800 F10800.000
G1 X125.000 Y119.750
G1 Z0.200
G1 E0.80000 F2100.00000
G1 F1200
G1 X97.739 Y119.750 E0.85476
G1 X97.739 Y103.110 E0.52171
G1 X83.710 Y103.110 E0.43986
G1 X83.710 Y90.250 E0.40322
G1 X166.290 Y90.250 E2.58924
G1 X166.290 Y103.110 E0.40322
G1 X152.319 Y103.110 E0.43806
G1 X152.319 Y119.750 E0.52171
G1 X125.060 Y119.750 E0.85468
G1 X124.740 Y119.445 F10800.000
G1 X125.000 Y119.373
G1 F1200
G1 X98.116 Y119.373 E0.84293
G1 X98.116 Y102.733 E0.52171
G1 X84.087 Y102.733 E0.43986
G1 X84.087 Y90.627 E0.37957
G1 X165.913 Y90.627 E2.56559
G1 X165.913 Y102.733 E0.37957
G1 X151.942 Y102.733 E0.43806
G1 X151.942 Y119.373 E0.52171
G1 X125.060 Y119.373 E0.84286
G1 E-0.80000 F2100.00000
G1 Z0.800 F10800.000
G1 X159.329 Y98.648
G1 Z0.200
G1 E0.80000 F2100.00000
G1 F1200
G1 X158.941 Y98.530 E0.01270
G1 X158.584 Y98.340 E0.01270
G1 X158.271 Y98.083 E0.01270
G1 X158.014 Y97.770 E0.01270
G1 X157.823 Y97.412 E0.01270
G1 X157.705 Y97.025 E0.01270
G1 X157.666 Y96.622 E0.01270
G1 X157.705 Y96.219 E0.01270
G1 X157.823 Y95.831 E0.01270
G1 X158.014 Y95.474 E0.01270
G1 X158.271 Y95.161 E0.01270
G1 X158.584 Y94.904 E0.01270
G1 X158.944 Y94.712 E0.01279
G1 X159.392 Y94.590 E0.01456
G1 X159.732 Y94.556 E0.01071
G1 X160.135 Y94.596 E0.01270
G1 X160.522 Y94.713 E0.01270
G1 X160.879 Y94.904 E0.01270
G1 X161.192 Y95.161 E0.01270
G1 X161.449 Y95.474 E0.01270
G1 X161.640 Y95.831 E0.01270
G1 X161.758 Y96.219 E0.01270
G1 X161.797 Y96.622 E0.01270
G1 X161.758 Y97.025 E0.01270
G1 X161.640 Y97.412 E0.01270
G1 X161.449 Y97.770 E0.01270
G1 X161.192 Y98.083 E0.01270
G1 X160.879 Y98.340 E0.01270
G1 X160.522 Y98.530 E0.01270
G1 X160.135 Y98.648 E0.01270
G1 X159.732 Y98.688 E0.01270
G1 X159.388 Y98.654 E0.01082
G1 X159.065 Y98.949 F10800.000
G1 X159.255 Y99.020
G1 F1200
G1 X158.796 Y98.881 E0.01503
G1 X158.373 Y98.655 E0.01503
G1 X158.003 Y98.351 E0.01503
G1 X157.699 Y97.980 E0.01503
G1 X157.473 Y97.557 E0.01503
G1 X157.334 Y97.099 E0.01503
G1 X157.287 Y96.622 E0.01503
G1 X157.334 Y96.145 E0.01503
G1 X157.473 Y95.686 E0.01503
G1 X157.699 Y95.264 E0.01503
G1 X158.003 Y94.893 E0.01503
G1 X158.373 Y94.589 E0.01503
G1 X158.803 Y94.360 E0.01529
G1 X159.323 Y94.218 E0.01689
G1 X159.732 Y94.177 E0.01287
G1 X160.208 Y94.224 E0.01503
G1 X160.667 Y94.363 E0.01503
G1 X161.090 Y94.589 E0.01503
G1 X161.460 Y94.893 E0.01503
G1 X161.764 Y95.264 E0.01503
G1 X161.990 Y95.686 E0.01503
G1 X162.129 Y96.145 E0.01503
G1 X162.176 Y96.622 E0.01503
G1 X162.129 Y97.099 E0.01503
G1 X161.990 Y97.557 E0.01503
G1 X161.764 Y97.980 E0.01503
G1 X161.460 Y98.351 E0.01503
G1 X161.090 Y98.655 E0.01503
G1 X160.667 Y98.881 E0.01503
G1 X160.208 Y99.020 E0.01503
G1 X159.732 Y99.067 E0.01503
G1 X159.314 Y99.025 E0.01314
G1 X158.901 Y99.031 F10800.000
G1 F1200
G1 X162.321 Y102.451 E0.15192
G1 X162.856 Y102.451 E0.01678
G1 X159.754 Y99.349 E0.13780
G1 X160.240 Y99.301 E0.01535
G1 X163.390 Y102.451 E0.13993
G1 X163.924 Y102.451 E0.01678
G1 X160.654 Y99.180 E0.14529
G1 X160.776 Y99.143 E0.00401
G1 X161.020 Y99.012 E0.00871
G1 X164.458 Y102.451 E0.15274
G1 X164.993 Y102.451 E0.01678
G1 X161.349 Y98.807 E0.16185
G1 X161.643 Y98.566 E0.01192
G1 X165.527 Y102.451 E0.17254
G1 X165.630 Y102.451 E0.00324
G1 X165.630 Y102.020 E0.01354
G1 X161.887 Y98.276 E0.16629
G1 X162.000 Y98.138 E0.00562
G1 X162.099 Y97.954 E0.00655
G1 X165.630 Y101.485 E0.15687
G1 X165.630 Y100.951 E0.01678
G1 X162.274 Y97.595 E0.14908
G1 X162.398 Y97.185 E0.01346
G1 X165.630 Y100.417 E0.14356
G1 X165.630 Y99.883 E0.01678
G1 X162.452 Y96.705 E0.14118
G1 X162.460 Y96.622 E0.00261
G1 X162.412 Y96.130 E0.01553
G1 X165.800 Y99.518 E0.15050
G1 E-0.80000 F2100.00000
G1 Z0.800 F10800.000
G1 X161.957 Y102.620
G1 Z0.200
G1 E0.80000 F2100.00000
G1 F1200
G1 X150.247 Y90.910 E0.52020
G1 X149.712 Y90.910 E0.01678
G1 X161.253 Y102.451 E0.51266
G1 X160.719 Y102.451 E0.01678
G1 X149.178 Y90.910 E0.51266
G1 X148.644 Y90.910 E0.01678
G1 X160.184 Y102.451 E0.51266
G1 X159.650 Y102.451 E0.01678
G1 X148.110 Y90.910 E0.51266
G1 X147.575 Y90.910 E0.01678
G1 X159.116 Y102.451 E0.51266
G1 X158.582 Y102.451 E0.01678
G1 X147.041 Y90.910 E0.51266
G1 X146.507 Y90.910 E0.01678
G1 X158.047 Y102.451 E0.51266
G1 X157.513 Y102.451 E0.01678
G1 X145.973 Y90.910 E0.51266
G1 X145.438 Y90.910 E0.01678
G1 X156.979 Y102.451 E0.51266
M73 P2 R55
G1 X156.445 Y102.451 E0.01678
G1 X144.904 Y90.910 E0.51266
G1 X144.370 Y90.910 E0.01678
G1 X155.910 Y102.451 E0.51266
G1 X155.376 Y102.451 E0.01678
G1 X143.836 Y90.910 E0.51266
G1 X143.301 Y90.910 E0.01678
G1 X154.842 Y102.451 E0.51266
G1 X154.308 Y102.451 E0.01678
G1 X142.767 Y90.910 E0.51266
G1 X142.233 Y90.910 E0.01678
G1 X153.773 Y102.451 E0.51266
G1 X153.239 Y102.451 E0.01678
G1 X141.699 Y90.910 E0.51266
G1 X141.164 Y90.910 E0.01678
G1 X152.705 Y102.451 E0.51266
G1 X152.171 Y102.451 E0.01678
G1 X140.630 Y90.910 E0.51266
G1 X140.096 Y90.910 E0.01678
G1 X151.659 Y102.473 E0.51366
G1 X151.659 Y103.007 E0.01678
G1 X139.562 Y90.910 E0.53740
G1 X139.027 Y90.910 E0.01678
G1 X151.659 Y103.542 E0.56113
G1 X151.659 Y104.076 E0.01678
G1 X138.493 Y90.910 E0.58486
G1 X137.959 Y90.910 E0.01678
G1 X151.659 Y104.610 E0.60860
G1 X151.659 Y105.144 E0.01678
G1 X137.425 Y90.910 E0.63233
G1 X136.890 Y90.910 E0.01678
G1 X151.659 Y105.679 E0.65606
G1 X151.659 Y106.213 E0.01678
G1 X136.356 Y90.910 E0.67980
G1 X135.822 Y90.910 E0.01678
G1 X151.659 Y106.747 E0.70353
G1 X151.659 Y107.281 E0.01678
G1 X135.288 Y90.910 E0.72726
G1 X134.753 Y90.910 E0.01678
G1 X151.659 Y107.816 E0.75100
G1 X151.659 Y108.350 E0.01678
G1 X134.219 Y90.910 E0.77473
G1 X133.685 Y90.910 E0.01678
G1 X151.659 Y108.884 E0.79846
G1 X151.659 Y109.418 E0.01678
G1 X133.151 Y90.910 E0.82220
G1 X132.616 Y90.910 E0.01678
G1 X151.659 Y109.953 E0.84593
G1 X151.659 Y110.487 E0.01678
G1 X132.082 Y90.910 E0.86966
G1 X131.548 Y90.910 E0.01678
G1 X151.659 Y111.021 E0.89339
G1 X151.659 Y111.555 E0.01678
G1 X131.014 Y90.910 E0.91713
G1 X130.479 Y90.910 E0.01678
G1 X151.659 Y112.090 E0.94086
G1 X151.659 Y112.624 E0.01678
G1 X129.945 Y90.910 E0.96459
G1 X129.411 Y90.910 E0.01678
G1 X151.659 Y113.158 E0.98833
G1 X151.659 Y113.692 E0.01678
G1 X128.877 Y90.910 E1.01206
G1 X128.342 Y90.910 E0.01678
G1 X151.659 Y114.227 E1.03579
G1 X151.659 Y114.761 E0.01678
G1 X127.808 Y90.910 E1.05953
G1 X127.274 Y90.910 E0.01678
G1 X151.659 Y115.295 E1.08326
G1 X151.659 Y115.829 E0.01678
G1 X126.740 Y90.910 E1.10699
G1 X126.205 Y90.910 E0.01678
G1 X151.659 Y116.364 E1.13073
G1 X151.659 Y116.898 E0.01678
G1 X125.671 Y90.910 E1.15446
G1 X125.137 Y90.910 E0.01678
G1 X151.659 Y117.432 E1.17819
G1 X151.659 Y117.966 E0.01678
G1 X124.603 Y90.910 E1.20193
G1 X124.068 Y90.910 E0.01678
G1 X151.659 Y118.501 E1.22566
G1 X151.659 Y119.035 E0.01678
G1 X123.534 Y90.910 E1.24939
G1 X123.000 Y90.910 E0.01678
G1 X151.180 Y119.090 E1.25183
G1 X150.645 Y119.090 E0.01678
G1 X122.466 Y90.910 E1.25183
G1 X121.931 Y90.910 E0.01678
G1 X150.111 Y119.090 E1.25183
G1 X149.577 Y119.090 E0.01678
G1 X121.397 Y90.910 E1.25183
M73 P3 R54
G1 X120.863 Y90.910 E0.01678
G1 X149.042 Y119.090 E1.25183
G1 X148.508 Y119.090 E0.01678
G1 X120.329 Y90.910 E1.25183
G1 X119.794 Y90.910 E0.01678
G1 X147.974 Y119.090 E1.25183
G1 X147.440 Y119.090 E0.01678
G1 X119.260 Y90.910 E1.25183
G1 X118.726 Y90.910 E0.01678
G1 X146.905 Y119.090 E1.25183
G1 X146.371 Y119.090 E0.01678
G1 X118.192 Y90.910 E1.25183
G1 X117.657 Y90.910 E0.01678
G1 X145.837 Y119.090 E1.25183
G1 X145.303 Y119.090 E0.01678
G1 X117.123 Y90.910 E1.25183
G1 X116.589 Y90.910 E0.01678
G1 X144.768 Y119.090 E1.25183
G1 X144.234 Y119.090 E0.01678
G1 X116.055 Y90.910 E1.25183
G1 X115.520 Y90.910 E0.01678
G1 X143.700 Y119.090 E1.25183
G1 X143.166 Y119.090 E0.01678
G1 X114.986 Y90.910 E1.25183
G1 X114.452 Y90.910 E0.01678
G1 X142.631 Y119.090 E1.25183
G1 X142.097 Y119.090 E0.01678
G1 X113.918 Y90.910 E1.25183
G1 X113.383 Y90.910 E0.01678
G1 X141.563 Y119.090 E1.25183
G1 X141.029 Y119.090 E0.01678
G1 X112.849 Y90.910 E1.25183
G1 X112.315 Y90.910 E0.01678
G1 X140.494 Y119.090 E1.25183
G1 X139.960 Y119.090 E0.01678
G1 X111.781 Y90.910 E1.25183
G1 X111.246 Y90.910 E0.01678
G1 X139.426 Y119.090 E1.25183
G1 X138.892 Y119.090 E0.01678
G1 X110.712 Y90.910 E1.25183
G1 X110.178 Y90.910 E0.01678
G1 X138.357 Y119.090 E1.25183
G1 X137.823 Y119.090 E0.01678
G1 X109.644 Y90.910 E1.25183
G1 X109.109 Y90.910 E0.01678
G1 X137.289 Y119.090 E1.25183
G1 X136.755 Y119.090 E0.01678
G1 X108.575 Y90.910 E1.25183
G1 X108.041 Y90.910 E0.01678
G1 X136.220 Y119.090 E1.25183
G1 X135.686 Y119.090 E0.01678
G1 X107.507 Y90.910 E1.25183
G1 X106.972 Y90.910 E0.01678
G1 X135.152 Y119.090 E1.25183
G1 X134.618 Y119.090 E0.01678
G1 X106.438 Y90.910 E1.25183
G1 X105.904 Y90.910 E0.01678
G1 X134.083 Y119.090 E1.25183
G1 X133.549 Y119.090 E0.01678
G1 X105.370 Y90.910 E1.25183
M73 P5 R53
G1 X104.835 Y90.910 E0.01678
G1 X133.015 Y119.090 E1.25183
G1 X132.481 Y119.090 E0.01678
G1 X104.301 Y90.910 E1.25183
G1 X103.767 Y90.910 E0.01678
G1 X131.946 Y119.090 E1.25183
G1 X131.412 Y119.090 E0.01678
G1 X103.233 Y90.910 E1.25183
G1 X102.698 Y90.910 E0.01678
G1 X130.878 Y119.090 E1.25183
G1 X130.344 Y119.090 E0.01678
G1 X102.164 Y90.910 E1.25183
G1 X101.630 Y90.910 E0.01678
G1 X129.809 Y119.090 E1.25183
G1 X129.275 Y119.090 E0.01678
G1 X101.096 Y90.910 E1.25183
G1 X100.561 Y90.910 E0.01678
G1 X128.741 Y119.090 E1.25183
G1 X128.207 Y119.090 E0.01678
G1 X100.027 Y90.910 E1.25183
G1 X99.493 Y90.910 E0.01678
G1 X127.672 Y119.090 E1.25183
G1 X127.138 Y119.090 E0.01678
G1 X98.959 Y90.910 E1.25183
G1 X98.424 Y90.910 E0.01678
G1 X126.604 Y119.090 E1.25183
G1 X126.070 Y119.090 E0.01678
G1 X97.890 Y90.910 E1.25183
G1 X97.356 Y90.910 E0.01678
G1 X125.535 Y119.090 E1.25183
G1 X125.001 Y119.090 E0.01678
G1 X96.822 Y90.910 E1.25183
G1 X96.287 Y90.910 E0.01678
G1 X124.467 Y119.090 E1.25183
G1 X123.933 Y119.090 E0.01678
G1 X95.753 Y90.910 E1.25183
G1 X95.219 Y90.910 E0.01678
G1 X123.398 Y119.090 E1.25183
G1 X122.864 Y119.090 E0.01678
G1 X94.685 Y90.910 E1.25183
G1 X94.150 Y90.910 E0.01678
G1 X122.330 Y119.090 E1.25183
G1 X121.796 Y119.090 E0.01678
G1 X93.616 Y90.910 E1.25183
G1 X93.082 Y90.910 E0.01678
G1 X121.261 Y119.090 E1.25183
G1 X120.727 Y119.090 E0.01678
G1 X92.548 Y90.910 E1.25183
G1 X92.013 Y90.910 E0.01678
G1 X120.193 Y119.090 E1.25183
G1 X119.659 Y119.090 E0.01678
G1 X91.479 Y90.910 E1.25183
G1 X90.945 Y90.910 E0.01678
G1 X119.124 Y119.090 E1.25183
G1 X118.590 Y119.090 E0.01678
G1 X90.411 Y90.910 E1.25183
G1 X89.876 Y90.910 E0.01678
G1 X118.056 Y119.090 E1.25183
G1 X117.522 Y119.090 E0.01678
G1 X89.342 Y90.910 E1.25183
M73 P7 R51
G1 X88.808 Y90.910 E0.01678
G1 X116.987 Y119.090 E1.25183
G1 X116.453 Y119.090 E0.01678
G1 X88.274 Y90.910 E1.25183
G1 X87.739 Y90.910 E0.01678
G1 X115.919 Y119.090 E1.25183
G1 X115.385 Y119.090 E0.01678
G1 X87.205 Y90.910 E1.25183
G1 X86.671 Y90.910 E0.01678
G1 X114.850 Y119.090 E1.25183
G1 X114.316 Y119.090 E0.01678
G1 X98.399 Y103.172 E0.70711
G1 X98.399 Y103.707 E0.01678
G1 X113.782 Y119.090 E0.68337
G1 X113.248 Y119.090 E0.01678
G1 X98.399 Y104.241 E0.65964
G1 X98.399 Y104.775 E0.01678
G1 X112.713 Y119.090 E0.63591
G1 X112.179 Y119.090 E0.01678
G1 X98.399 Y105.309 E0.61218
G1 X98.399 Y105.844 E0.01678
G1 X111.645 Y119.090 E0.58844
G1 X111.111 Y119.090 E0.01678
G1 X98.399 Y106.378 E0.56471
G1 X98.399 Y106.912 E0.01678
G1 X110.576 Y119.090 E0.54098
G1 X110.042 Y119.090 E0.01678
G1 X98.399 Y107.446 E0.51724
G1 X98.399 Y107.981 E0.01678
G1 X109.508 Y119.090 E0.49351
G1 X108.974 Y119.090 E0.01678
G1 X98.399 Y108.515 E0.46978
G1 X98.399 Y109.049 E0.01678
G1 X108.439 Y119.090 E0.44604
G1 X107.905 Y119.090 E0.01678
G1 X98.399 Y109.583 E0.42231
G1 X98.399 Y110.118 E0.01678
G1 X107.371 Y119.090 E0.39858
G1 X106.837 Y119.090 E0.01678
G1 X98.399 Y110.652 E0.37484
G1 X98.399 Y111.186 E0.01678
G1 X106.302 Y119.090 E0.35111
G1 X105.768 Y119.090 E0.01678
G1 X98.399 Y111.720 E0.32738
G1 X98.399 Y112.255 E0.01678
G1 X105.234 Y119.090 E0.30364
G1 X104.700 Y119.090 E0.01678
G1 X98.399 Y112.789 E0.27991
G1 X98.399 Y113.323 E0.01678
G1 X104.165 Y119.090 E0.25618
G1 X103.631 Y119.090 E0.01678
G1 X98.399 Y113.857 E0.23244
G1 X98.399 Y114.392 E0.01678
G1 X103.097 Y119.090 E0.20871
G1 X102.563 Y119.090 E0.01678
G1 X98.399 Y114.926 E0.18498
G1 X98.399 Y115.460 E0.01678
G1 X102.028 Y119.090 E0.16124
G1 X101.494 Y119.090 E0.01678
G1 X98.399 Y115.994 E0.13751
G1 X98.399 Y116.529 E0.01678
G1 X100.960 Y119.090 E0.11378
G1 X100.426 Y119.090 E0.01678
G1 X98.399 Y117.063 E0.09005
G1 X98.399 Y117.597 E0.01678
G1 X99.891 Y119.090 E0.06631
G1 X99.357 Y119.090 E0.01678
G1 X98.399 Y118.131 E0.04258
G1 X98.399 Y118.666 E0.01678
G1 X98.993 Y119.259 E0.02638
G1 E-0.80000 F2100.00000
G1 Z0.800 F10800.000
G1 X97.847 Y102.620
G1 Z0.200
G1 E0.80000 F2100.00000
G1 F1200
G1 X86.137 Y90.910 E0.52020
G1 X85.602 Y90.910 E0.01678
G1 X97.143 Y102.451 E0.51266
G1 X96.608 Y102.451 E0.01678
G1 X85.068 Y90.910 E0.51266
G1 X84.534 Y90.910 E0.01678
G1 X96.074 Y102.451 E0.51266
G1 X95.540 Y102.451 E0.01678
G1 X84.370 Y91.281 E0.49621
G1 X84.370 Y91.815 E0.01678
G1 X95.006 Y102.451 E0.47248
G1 X94.471 Y102.451 E0.01678
G1 X84.370 Y92.349 E0.44874
G1 X84.370 Y92.883 E0.01678
G1 X93.937 Y102.451 E0.42501
G1 X93.403 Y102.451 E0.01678
G1 X84.370 Y93.418 E0.40128
G1 X84.370 Y93.952 E0.01678
G1 X92.869 Y102.451 E0.37754
G1 X92.334 Y102.451 E0.01678
G1 X84.370 Y94.486 E0.35381
G1 X84.370 Y95.020 E0.01678
G1 X91.800 Y102.451 E0.33008
G1 X91.266 Y102.451 E0.01678
G1 X84.370 Y95.555 E0.30634
G1 X84.370 Y96.089 E0.01678
G1 X90.732 Y102.451 E0.28261
G1 X90.197 Y102.451 E0.01678
G1 X84.370 Y96.623 E0.25888
G1 X84.370 Y97.157 E0.01678
G1 X89.663 Y102.451 E0.23514
G1 X89.129 Y102.451 E0.01678
G1 X84.370 Y97.692 E0.21141
G1 X84.370 Y98.226 E0.01678
G1 X88.595 Y102.451 E0.18768
