; generated by PrusaSlicer 2.1.0+win64 on 2019-12-07 at 19:46:31 UTC

; 

; external perimeters extrusion width = 0.45mm
; perimeters extrusion width = 0.45mm
; infill extrusion width = 0.45mm
; solid infill extrusion width = 0.45mm
; top infill extrusion width = 0.40mm
; support material extrusion width = 0.35mm
; first layer extrusion width = 0.42mm

M73 P0 R46
M201 X9000 Y9000 Z500 E10000 ; sets maximum accelerations, mm/sec^2
M203 X500 Y500 Z12 E120 ; sets maximum feedrates, mm/sec
M204 P2000 R1500 T2000 ; sets acceleration (P, T) and retract acceleration (R), mm/sec^2
M205 X10.00 Y10.00 Z0.20 E2.50 ; sets the jerk limits, mm/sec
M205 S0 T0 ; sets the minimum extruding and travel feed rate, mm/sec
M107
M862.3 P "MK2.5SMMU2S" ; printer model check
M862.1 P0.4 ; nozzle diameter check
M115 U3.8.1 ; tell printer latest fw version
G90 ; use absolute coordinates
M83 ; extruder relative mode
M104 S215 ; set extruder temp
M140 S60 ; set bed temp
Tx
M190 S60 ; wait for bed temp
M109 S215 ; wait for extruder temp
G28 W ; home all without mesh bed level
G80 ; mesh bed leveling

G21 ; set units to millimeters

;go outside print area
G1 Y-3.0 F1000.0
G1 Z0.4 F1000.0
; select extruder
Tc
; purge line
G1 X55.0 F2000.0
G1 Z0.3 F1000.0
G92 E0.0
G1 X240.0 E25.0 F2200.0
M73 P0 R46
G1 Y-2.0 F1000.0
G1 X55.0 E25 F1400.0
G1 Z0.20 F1000.0
G1 X5.0 E4.0 F1000.0
G92 E0.0
G21 ; set units to millimeters
G90 ; use absolute coordinates
M83 ; use relative distances for extrusion
M900 K30 ; Filament gcode
;BEFORE_LAYER_CHANGE
G92 E0.0
;0.2


G1 E-0.80000 F2100.00000
G1 Z0.600 F10800.000
;AFTER_LAYER_CHANGE
;0.2
G1 X127.431 Y101.778
G1 Z0.200
G1 E0.80000 F2100.00000
M204 S1000
G1 F1200
G1 X125.617 Y101.637 E0.05702
G1 X123.828 Y101.311 E0.05702
G1 X122.082 Y100.803 E0.05702
G1 X120.397 Y100.118 E0.05702
G1 X118.792 Y99.263 E0.05702
G1 X117.280 Y98.246 E0.05713
G1 X116.881 Y97.935 E0.01588
G1 X115.887 Y97.084 E0.04100
G1 X114.654 Y95.819 E0.05540
G1 X114.334 Y95.450 E0.01531
G1 X113.478 Y94.339 E0.04397
G1 X112.512 Y92.820 E0.05644
G1 X111.699 Y91.193 E0.05702
G1 X111.058 Y89.491 E0.05702
G1 X110.595 Y87.733 E0.05702
G1 X110.315 Y85.936 E0.05702
G1 X110.223 Y84.073 E0.05848
G1 X110.315 Y82.303 E0.05557
G1 X110.595 Y80.506 E0.05702
G1 X111.058 Y78.747 E0.05702
G1 X111.699 Y77.046 E0.05702
G1 X112.512 Y75.419 E0.05702
G1 X113.489 Y73.883 E0.05706
G1 X114.330 Y72.793 E0.04315
G1 X114.614 Y72.461 E0.01372
G1 X115.887 Y71.155 E0.05719
G1 X116.881 Y70.304 E0.04100
G1 X117.280 Y69.993 E0.01588
G1 X118.792 Y68.975 E0.05713
G1 X120.397 Y68.121 E0.05702
G1 X122.082 Y67.436 E0.05702
G1 X123.828 Y66.927 E0.05702
G1 X125.617 Y66.601 E0.05702
G1 X127.431 Y66.461 E0.05702
G1 X129.175 Y66.506 E0.05473
G1 X131.053 Y66.741 E0.05932
G1 X132.822 Y67.159 E0.05701
G1 X134.540 Y67.756 E0.05702
G1 X136.187 Y68.527 E0.05702
G1 X137.748 Y69.464 E0.05707
G1 X138.808 Y70.239 E0.04119
G1 X139.198 Y70.553 E0.01569
G1 X140.565 Y71.822 E0.05848
G1 X141.736 Y73.157 E0.05568
G1 X142.790 Y74.639 E0.05702
G1 X143.687 Y76.224 E0.05709
G1 X144.117 Y77.154 E0.03215
G1 X144.413 Y77.885 E0.02473
G1 X144.967 Y79.621 E0.05711
G1 X145.339 Y81.401 E0.05702
G1 X145.527 Y83.213 E0.05711
G1 X145.550 Y84.119 E0.02844
G1 X145.527 Y85.026 E0.02844
G1 X145.339 Y86.838 E0.05711
G1 X144.967 Y88.618 E0.05702
G1 X144.413 Y90.353 E0.05711
G1 X144.117 Y91.084 E0.02473
G1 X143.687 Y92.015 E0.03215
G1 X142.790 Y93.600 E0.05709
G1 X141.734 Y95.085 E0.05715
G1 X141.463 Y95.419 E0.01348
G1 X140.537 Y96.447 E0.04339
G1 X139.237 Y97.652 E0.05556
G1 X138.866 Y97.956 E0.01504
G1 X137.747 Y98.774 E0.04346
G1 X136.187 Y99.711 E0.05706
G1 X134.540 Y100.482 E0.05702
G1 X132.822 Y101.080 E0.05702
G1 X131.052 Y101.497 E0.05702
G1 X129.249 Y101.731 E0.05702
G1 X127.491 Y101.776 E0.05514
G1 X127.240 Y101.426 F10800.000
G1 F8640
G1 X125.617 Y101.637 E-0.43372
G1 X124.227 Y101.384 E-0.32628
G1 E-0.04000 F2100.00000
G1 Z0.800 F10800.000
G1 X136.742 Y98.938
G1 Z0.200
G1 E0.80000 F2100.00000
G1 F1200
G1 X136.550 Y98.160 E0.02513
G1 X137.941 Y98.160 E0.04362
G1 X139.409 Y96.972 E0.05921
G1 X140.689 Y95.697 E0.05663
G1 X141.402 Y94.895 E0.03366
G1 X141.176 Y95.174 E0.01124
G1 X140.268 Y96.182 E0.04256
G1 X138.989 Y97.367 E0.05468
G1 X138.635 Y97.658 E0.01435
G1 X137.539 Y98.460 E0.04259
G1 X136.794 Y98.907 E0.02724
G1 F8640
G1 X136.550 Y98.160 E-0.18150
G1 X137.941 Y98.160 E-0.32121
G1 X138.808 Y97.459 E-0.25728
G1 E-0.04000 F2100.00000
G1 Z0.800 F10800.000
G1 X141.691 Y94.486
G1 Z0.200
G1 E0.80000 F2100.00000
G1 F1200
G1 X142.520 Y93.275 E0.04601
G1 X143.481 Y91.561 E0.06161
G1 X143.351 Y91.843 E0.00972
G1 X142.472 Y93.397 E0.05600
G1 X141.728 Y94.442 E0.04021
G1 F8640
G1 X142.520 Y93.275 E-0.32564
G1 X143.440 Y91.634 E-0.43436
G1 E-0.04000 F2100.00000
G1 Z0.800 F10800.000
G1 X143.731 Y90.986
G1 Z0.200
G1 E0.80000 F2100.00000
G1 F1200
G1 X144.248 Y89.619 E0.04580
G1 X144.696 Y88.072 E0.05050
G1 X144.602 Y88.522 E0.01440
G1 X144.058 Y90.225 E0.05606
G1 X143.766 Y90.946 E0.02440
G1 F8640
G1 X144.248 Y89.619 E-0.32593
G1 X144.696 Y88.072 E-0.37192
G1 X144.641 Y88.336 E-0.06215
G1 E-0.04000 F2100.00000
G1 Z0.800 F10800.000
G1 X144.852 Y87.324
G1 Z0.200
G1 E0.80000 F2100.00000
G1 F1200
G1 X145.048 Y85.974 E0.04278
G1 X145.172 Y84.160 E0.05701
G1 X145.150 Y85.002 E0.02641
G1 X144.966 Y86.780 E0.05604
G1 X144.865 Y87.265 E0.01556
G1 F8640
G1 X145.048 Y85.974 E-0.30124
G1 X145.172 Y84.160 E-0.41982
G1 X145.167 Y84.328 E-0.03894
G1 E-0.04000 F2100.00000
G1 Z0.800 F10800.000
G1 X145.165 Y83.986
G1 Z0.200
G1 E0.80000 F2100.00000
G1 F1200
G1 X145.055 Y82.331 E0.05199
G1 X144.840 Y80.857 E0.04670
G1 X144.966 Y81.459 E0.01928
G1 X145.150 Y83.237 E0.05604
G1 X145.168 Y83.930 E0.02172
G1 F8640
G1 X145.055 Y82.331 E-0.37000
G1 X144.840 Y80.857 E-0.34393
G1 X144.881 Y81.052 E-0.04607
G1 E-0.04000 F2100.00000
G1 Z0.800 F10800.000
G1 X144.688 Y80.129
G1 Z0.200
G1 E0.80000 F2100.00000
G1 F1200
G1 X144.269 Y78.684 E0.04719
G1 X143.691 Y77.160 E0.05111
G1 X143.771 Y77.304 E0.00518
G1 X144.058 Y78.014 E0.02399
G1 X144.602 Y79.717 E0.05606
G1 X144.676 Y80.071 E0.01133
G1 F8640
G1 X144.269 Y78.684 E-0.33371
G1 X143.691 Y77.160 E-0.37638
G1 X143.771 Y77.304 E-0.03814
G1 X143.790 Y77.352 E-0.01176
G1 E-0.04000 F2100.00000
G1 Z0.800 F10800.000
G1 X143.462 Y76.636
G1 Z0.200
G1 E0.80000 F2100.00000
G1 F1200
G1 X142.556 Y75.022 E0.05803
G1 X141.624 Y73.660 E0.05175
G1 X142.472 Y74.842 E0.04560
G1 X143.351 Y76.396 E0.05600
G1 X143.437 Y76.581 E0.00640
G1 F8640
G1 X142.556 Y75.022 E-0.41356
G1 X141.709 Y73.784 E-0.34644
G1 E-0.04000 F2100.00000
G1 Z0.800 F10800.000
G1 X140.869 Y72.740
G1 Z0.200
G1 E0.80000 F2100.00000
G1 F1200
G1 X139.813 Y71.640 E0.04780
G1 X138.652 Y70.626 E0.04834
G1 X137.802 Y69.986 E0.03337
G1 X136.370 Y69.986 E0.04490
G1 X136.559 Y69.191 E0.02562
G1 X137.539 Y69.779 E0.03583
G1 X138.579 Y70.539 E0.04038
G1 X138.952 Y70.838 E0.01500
G1 X140.294 Y72.085 E0.05745
G1 X140.829 Y72.695 E0.02543
G1 F8640
G1 X139.813 Y71.640 E-0.33816
G1 X138.652 Y70.626 E-0.35600
G1 X138.424 Y70.455 E-0.06584
G1 E-0.04000 F2100.00000
G1 Z0.800 F10800.000
G1 X114.625 Y73.029
G1 Z0.200
G1 E0.80000 F2100.00000
G1 F1200
G1 X114.893 Y72.716 E0.01292
G1 X116.146 Y71.430 E0.05628
G1 X117.119 Y70.596 E0.04020
G1 X117.502 Y70.298 E0.01520
G1 X118.986 Y69.299 E0.05611
G1 X120.557 Y68.463 E0.05580
G1 X122.206 Y67.792 E0.05580
G1 X123.915 Y67.295 E0.05580
G1 X125.666 Y66.976 E0.05580
G1 X127.440 Y66.838 E0.05580
G1 X129.147 Y66.882 E0.05353
G1 X130.986 Y67.113 E0.05810
G1 X132.717 Y67.521 E0.05577
G1 X134.398 Y68.106 E0.05580
G1 X136.010 Y68.861 E0.05580
G1 X136.443 Y69.121 E0.01586
G1 X134.850 Y68.326 E0.05584
G1 X133.210 Y67.699 E0.05505
G1 X131.468 Y67.233 E0.05654
G1 X129.685 Y66.951 E0.05659
G1 X127.815 Y66.861 E0.05872
G1 X126.084 Y66.951 E0.05433
G1 X124.303 Y67.233 E0.05655
G1 X122.561 Y67.699 E0.05655
G1 X120.878 Y68.343 E0.05650
G1 X119.209 Y69.181 E0.05854
G1 X119.401 Y69.986 E0.02592
G1 X117.969 Y69.986 E0.04490
G1 X117.119 Y70.626 E0.03336
G1 X115.963 Y71.636 E0.04814
G1 X114.666 Y72.985 E0.05868
G1 F8640
G1 X114.893 Y72.716 E-0.08135
G1 X116.146 Y71.430 E-0.41447
G1 X117.015 Y70.686 E-0.26417
G1 E-0.04000 F2100.00000
G1 Z0.800 F10800.000
G1 X127.885 Y69.783
G1 Z0.200
G1 E0.80000 F2100.00000
G1 F1200
G1 X119.740 Y69.783 E0.25539
G1 X119.645 Y69.384 E0.01284
G1 X121.030 Y68.689 E0.04859
G1 X122.677 Y68.058 E0.05530
G1 X124.381 Y67.602 E0.05531
G1 X126.124 Y67.327 E0.05531
G1 X127.815 Y67.238 E0.05311
G1 X129.647 Y67.327 E0.05749
G1 X131.390 Y67.602 E0.05533
G1 X133.094 Y68.058 E0.05531
G1 X134.698 Y68.672 E0.05386
G1 X136.126 Y69.384 E0.05002
G1 X136.031 Y69.783 E0.01285
G1 X127.945 Y69.783 E0.25351
G1 X127.691 Y70.132 F10800.000
G1 F8640
G1 X124.654 Y69.783 E-0.76000
G1 E-0.04000 F2100.00000
G1 Z0.800 F10800.000
G1 X127.885 Y73.283
G1 Z0.200
G1 E0.80000 F2100.00000
G1 F1200
G1 X114.904 Y73.283 E0.40704
G1 X116.223 Y71.909 E0.05973
G1 X117.357 Y70.919 E0.04719
G1 X118.095 Y70.363 E0.02898
G1 X137.676 Y70.363 E0.61393
G1 X138.414 Y70.919 E0.02898
G1 X139.552 Y71.914 E0.04740
G1 X140.867 Y73.283 E0.05952
G1 X127.945 Y73.283 E0.40515
G1 X127.699 Y73.637 F10800.000
G1 F8640
G1 X124.654 Y73.283 E-0.76000
G1 E-0.04000 F2100.00000
G1 Z0.800 F10800.000
G1 X127.885 Y76.783
G1 Z0.200
G1 E0.80000 F2100.00000
G1 F1200
G1 X112.659 Y76.783 E0.47743
G1 X113.536 Y75.221 E0.05616
G1 X114.468 Y73.863 E0.05166
G1 X141.306 Y73.863 E0.84147
G1 X142.235 Y75.221 E0.05161
G1 X143.112 Y76.783 E0.05616
G1 X127.945 Y76.783 E0.47554
G1 X127.698 Y77.136 F10800.000
G1 F8640
G1 X124.654 Y76.783 E-0.76000
G1 E-0.04000 F2100.00000
G1 Z0.800 F10800.000
G1 X112.464 Y76.360
G1 Z0.200
G1 E0.80000 F2100.00000
G1 F1200
G1 X112.841 Y75.605 E0.02646
G1 X113.798 Y74.100 E0.05592
G1 X114.150 Y73.660 E0.01767
G1 X113.215 Y75.022 E0.05179
G1 X112.493 Y76.307 E0.04624
G1 F8640
G1 X112.841 Y75.605 E-0.18105
G1 X113.798 Y74.100 E-0.41181
G1 X114.150 Y73.660 E-0.13014
G1 X114.059 Y73.792 E-0.03700
G1 E-0.04000 F2100.00000
G1 Z0.800 F10800.000
G1 X127.885 Y80.283
G1 Z0.200
G1 E0.80000 F2100.00000
G1 F1200
G1 X111.431 Y80.283 E0.51593
G1 X111.859 Y78.803 E0.04829
G1 X112.406 Y77.363 E0.04832
G1 X143.365 Y77.363 E0.97070
G1 X143.912 Y78.803 E0.04831
G1 X144.340 Y80.283 E0.04829
G1 X127.945 Y80.283 E0.51405
G1 X127.696 Y80.635 F10800.000
G1 F8640
G1 X124.654 Y80.283 E-0.76000
G1 E-0.04000 F2100.00000
G1 Z0.800 F10800.000
G1 X111.096 Y80.082
G1 Z0.200
G1 E0.80000 F2100.00000
G1 F1200
G1 X111.417 Y78.862 E0.03954
G1 X112.045 Y77.197 E0.05580
G1 X112.080 Y77.160 E0.00158
G1 X111.501 Y78.684 E0.05111
G1 X111.113 Y80.024 E0.04375
G1 F8640
G1 X111.417 Y78.862 E-0.27730
G1 X112.045 Y77.197 E-0.41096
G1 X112.080 Y77.160 E-0.01167
G1 X111.987 Y77.403 E-0.06006
G1 E-0.04000 F2100.00000
G1 Z0.800 F10800.000
G1 X127.885 Y83.783
G1 Z0.200
G1 E0.80000 F2100.00000
G1 F1200
G1 X110.997 Y83.783 E0.52953
G1 X111.091 Y82.371 E0.04437
G1 X111.311 Y80.863 E0.04779
G1 X144.460 Y80.863 E1.03936
G1 X144.679 Y82.371 E0.04778
G1 X144.774 Y83.783 E0.04437
G1 X127.945 Y83.783 E0.52765
G1 X127.695 Y84.135 F10800.000
G1 F8640
G1 X124.654 Y83.783 E-0.76000
G1 E-0.04000 F2100.00000
G1 Z0.800 F10800.000
G1 X110.605 Y83.986
G1 Z0.200
G1 E0.80000 F2100.00000
G1 F1200
G1 X110.690 Y82.342 E0.05160
G1 X110.960 Y80.660 E0.05342
G1 X110.716 Y82.331 E0.05295
G1 X110.609 Y83.926 E0.05012
G1 F8640
G1 X110.690 Y82.342 E-0.36616
G1 X110.960 Y80.660 E-0.39339
G1 X110.960 Y80.662 E-0.00044
G1 E-0.04000 F2100.00000
G1 Z0.800 F10800.000
G1 X127.885 Y87.283
G1 Z0.200
G1 E0.80000 F2100.00000
G1 F1200
G1 X111.293 Y87.283 E0.52023
G1 X111.098 Y85.934 E0.04272
G1 X110.992 Y84.363 E0.04939
G1 X144.777 Y84.363 E1.05929
G1 X144.672 Y85.934 E0.04938
G1 X144.477 Y87.283 E0.04272
G1 X127.945 Y87.283 E0.51835
G1 X127.695 Y87.634 F10800.000
G1 F8640
G1 X124.654 Y87.283 E-0.76000
G1 E-0.04000 F2100.00000
G1 Z0.800 F10800.000
G1 X110.942 Y87.486
G1 Z0.200
G1 E0.80000 F2100.00000
G1 F1200
G1 X110.690 Y85.897 E0.05042
G1 X110.615 Y84.378 E0.04771
G1 X110.723 Y85.974 E0.05017
G1 X110.933 Y87.426 E0.04600
G1 F8640
G1 X110.690 Y85.897 E-0.35744
G1 X110.615 Y84.378 E-0.35136
G1 X110.630 Y84.599 E-0.05120
G1 E-0.04000 F2100.00000
G1 Z0.800 F10800.000
G1 X127.885 Y90.783
G1 Z0.200
G1 E0.80000 F2100.00000
G1 F1200
G1 X112.366 Y90.783 E0.48660
G1 X111.881 Y89.500 E0.04301
G1 X111.408 Y87.863 E0.05343
G1 X144.364 Y87.863 E1.03333
G1 X143.890 Y89.500 E0.05345
G1 X143.405 Y90.783 E0.04300
G1 X127.945 Y90.783 E0.48472
G1 X127.695 Y91.134 F10800.000
G1 F8640
G1 X124.654 Y90.783 E-0.76000
G1 E-0.04000 F2100.00000
G1 Z0.800 F10800.000
G1 X112.040 Y90.986
G1 Z0.200
G1 E0.80000 F2100.00000
G1 F1200
G1 X112.024 Y90.986 E0.00049
G1 X111.417 Y89.377 E0.05392
G1 X111.055 Y88.000 E0.04463
G1 X111.523 Y89.619 E0.05283
G1 X112.018 Y90.930 E0.04393
G1 F8640
G1 X112.024 Y90.986 E-0.01302
G1 X111.417 Y89.377 E-0.39708
G1 X111.055 Y88.000 E-0.32864
G1 X111.081 Y88.089 E-0.02126
G1 E-0.04000 F2100.00000
G1 Z0.800 F10800.000
G1 X127.885 Y94.283
G1 Z0.200
G1 E0.80000 F2100.00000
G1 F1200
G1 X114.398 Y94.283 E0.42289
G1 X113.571 Y93.075 E0.04588
G1 X112.612 Y91.363 E0.06155
G1 X143.160 Y91.363 E0.95783
M73 P2 R45
G1 X142.199 Y93.076 E0.06159
G1 X141.373 Y94.283 E0.04586
G1 X127.945 Y94.283 E0.42101
G1 X127.695 Y94.635 F10800.000
G1 F8640
G1 X124.654 Y94.283 E-0.76000
G1 E-0.04000 F2100.00000
G1 Z0.800 F10800.000
G1 X114.080 Y94.486
G1 Z0.200
G1 E0.80000 F2100.00000
G1 F1200
G1 X113.787 Y94.123 E0.01463
G1 X112.841 Y92.634 E0.05530
G1 X112.420 Y91.791 E0.02955
G1 X113.251 Y93.274 E0.05331
G1 X114.046 Y94.436 E0.04415
G1 F8640
G1 X113.787 Y94.123 E-0.09391
G1 X112.841 Y92.634 E-0.40725
G1 X112.420 Y91.791 E-0.21761
G1 X112.507 Y91.947 E-0.04124
G1 E-0.04000 F2100.00000
G1 Z0.800 F10800.000
G1 X127.885 Y97.783
G1 Z0.200
G1 E0.80000 F2100.00000
G1 F1200
G1 X117.963 Y97.783 E0.31112
G1 X116.614 Y96.691 E0.05442
G1 X115.356 Y95.437 E0.05568
G1 X114.850 Y94.863 E0.02400
G1 X140.927 Y94.863 E0.81761
G1 X140.415 Y95.438 E0.02415
G1 X139.157 Y96.691 E0.05566
G1 X137.808 Y97.783 E0.05441
G1 X127.945 Y97.783 E0.30924
G1 X127.697 Y98.135 F10800.000
G1 F8640
G1 X124.654 Y97.783 E-0.76000
G1 E-0.04000 F2100.00000
G1 Z0.800 F10800.000
G1 X127.440 Y101.400
G1 Z0.200
G1 E0.80000 F2100.00000
G1 F1200
G1 X125.666 Y101.263 E0.05580
G1 X123.915 Y100.944 E0.05580
G1 X122.206 Y100.446 E0.05580
G1 X120.557 Y99.776 E0.05580
G1 X118.986 Y98.940 E0.05580
G1 X117.502 Y97.941 E0.05611
G1 X117.119 Y97.643 E0.01520
G1 X116.146 Y96.808 E0.04020
G1 X114.931 Y95.564 E0.05453
G1 X114.422 Y94.947 E0.02506
G1 X115.081 Y95.696 E0.03126
G1 X116.361 Y96.972 E0.05668
G1 X117.829 Y98.160 E0.05921
G1 X119.230 Y98.160 E0.04393
G1 X119.035 Y98.951 E0.02555
G1 X120.361 Y99.656 E0.04708
G1 X121.951 Y100.330 E0.05413
G1 X123.603 Y100.842 E0.05425
G1 X125.299 Y101.187 E0.05425
G1 X127.021 Y101.360 E0.05429
G1 X128.818 Y101.353 E0.05634
G1 X130.472 Y101.187 E0.05212
G1 X132.168 Y100.842 E0.05425
G1 X133.820 Y100.330 E0.05425
G1 X135.408 Y99.656 E0.05409
G1 X136.517 Y99.073 E0.03927
G1 X136.010 Y99.378 E0.01855
G1 X134.398 Y100.132 E0.05580
G1 X132.717 Y100.717 E0.05580
G1 X130.985 Y101.126 E0.05580
G1 X129.220 Y101.355 E0.05580
G1 X127.500 Y101.399 E0.05392
G1 X127.658 Y100.981 F10800.000
G1 F1200
G1 X127.040 Y100.983 E0.01940
G1 X125.355 Y100.814 E0.05308
G1 X123.697 Y100.476 E0.05306
G1 X122.080 Y99.975 E0.05306
G1 X120.524 Y99.315 E0.05302
G1 X119.472 Y98.756 E0.03735
G1 X119.569 Y98.363 E0.01270
G1 X136.212 Y98.363 E0.52184
G1 X136.309 Y98.757 E0.01272
G1 X135.247 Y99.315 E0.03763
G1 X133.690 Y99.975 E0.05301
G1 X132.074 Y100.476 E0.05306
G1 X130.415 Y100.814 E0.05306
G1 X128.799 Y100.976 E0.05095
G1 X127.718 Y100.980 E0.03387
G1 X127.466 Y101.332 F10800.000
G1 F8640
G1 X127.040 Y100.983 E-0.15672
G1 X125.355 Y100.814 E-0.39087
G1 X124.454 Y100.630 E-0.21241
G1 E-0.04000 F2100.00000
G1 Z0.800 F10800.000
G1 X119.446 Y98.073
G1 Z0.200
G1 E0.80000 F2100.00000
G1 F1200
G1 X136.335 Y98.073 E0.28496
G1 F8640
G1 X133.043 Y98.073 E-0.76000
G1 E-0.04000 F2100.00000
G1 Z0.800 F10800.000
G1 X141.403 Y94.573
G1 Z0.200
