; generated by PrusaSlicer 2.1.1+win64 on 2020-04-24 at 20:33:17 UTC

; 

; external perimeters extrusion width = 0.45mm
; perimeters extrusion width = 0.45mm
; infill extrusion width = 0.45mm
; solid infill extrusion width = 0.45mm
; top infill extrusion width = 0.40mm
; first layer extrusion width = 0.42mm

M73 P0 R9
M201 X9000 Y9000 Z500 E10000 ; sets maximum accelerations, mm/sec^2
M203 X500 Y500 Z12 E120 ; sets maximum feedrates, mm/sec
M204 P2000 R1500 T2000 ; sets acceleration (P, T) and retract acceleration (R), mm/sec^2
M205 X10.00 Y10.00 Z0.20 E2.50 ; sets the jerk limits, mm/sec
M205 S0 T0 ; sets the minimum extruding and travel feed rate, mm/sec
M107
M862.3 P "MK2.5SMMU2S" ; printer model check
M862.1 P0.4 ; nozzle diameter check
M115 U3.8.0 ; tell printer latest fw version
G90 ; use absolute coordinates
M83 ; extruder relative mode
M104 S215 ; set extruder temp
M140 S60 ; set bed temp
Tx
M190 S60 ; wait for bed temp
M109 S215 ; wait for extruder temp
G28 W ; home all without mesh bed level
G80 ; mesh bed leveling

G21 ; set units to millimeters

;go outside print area
G1 Y-3.0 F1000.0
G1 Z0.4 F1000.0
; select extruder
Tc
; purge line
G1 X55.0 F2000.0
G1 Z0.3 F1000.0
G92 E0.0
G1 X240.0 E25.0 F2200.0
M73 P1 R9
G1 Y-2.0 F1000.0
G1 X55.0 E25 F1400.0
G1 Z0.20 F1000.0
G1 X5.0 E4.0 F1000.0
G92 E0.0
G21 ; set units to millimeters
G90 ; use absolute coordinates
M83 ; use relative distances for extrusion
M900 K30 ; Filament gcode
;BEFORE_LAYER_CHANGE
G92 E0.0
;0.2


G1 E-0.80000 F2100.00000
G1 Z0.600 F10800.000
;AFTER_LAYER_CHANGE
;0.2
G1 X109.637 Y91.518
G1 Z0.200
G1 E0.80000 F2100.00000
M204 S1000
G1 F1200
G1 X111.024 Y90.089 E0.06244
G1 X113.096 Y88.399 E0.08384
G1 X114.495 Y87.466 E0.05270
G1 X116.452 Y86.436 E0.06937
G1 X118.291 Y85.692 E0.06217
G1 X120.315 Y85.104 E0.06611
G1 X122.382 Y84.728 E0.06586
G1 X124.543 Y84.566 E0.06797
G1 X126.580 Y84.621 E0.06388
G1 X128.667 Y84.891 E0.06598
G1 X130.711 Y85.374 E0.06586
G1 X132.699 Y86.065 E0.06598
G1 X134.605 Y86.957 E0.06598
G1 X136.408 Y88.039 E0.06593
G1 X138.090 Y89.301 E0.06593
G1 X139.595 Y90.691 E0.06424
G1 X141.023 Y92.309 E0.06766
G1 X142.218 Y93.985 E0.06455
G1 X143.259 Y95.814 E0.06598
G1 X143.830 Y97.050 E0.04268
G1 X144.751 Y99.740 E0.08914
G1 X145.176 Y101.740 E0.06412
G1 X145.408 Y103.871 E0.06722
G1 X145.440 Y105.001 E0.03544
G1 X145.408 Y106.128 E0.03536
G1 X145.176 Y108.261 E0.06726
G1 X144.751 Y110.261 E0.06412
G1 X143.826 Y112.959 E0.08941
G1 X143.256 Y114.193 E0.04263
G1 X142.166 Y116.094 E0.06870
G1 X141.014 Y117.702 E0.06202
G1 X139.520 Y119.384 E0.07056
G1 X138.087 Y120.701 E0.06101
G1 X136.401 Y121.965 E0.06607
G1 X134.604 Y123.043 E0.06570
G1 X132.695 Y123.937 E0.06611
G1 X130.714 Y124.625 E0.06574
G1 X128.670 Y125.108 E0.06586
G1 X126.583 Y125.379 E0.06598
G1 X124.539 Y125.434 E0.06412
G1 X122.381 Y125.272 E0.06784
G1 X120.314 Y124.896 E0.06586
G1 X118.290 Y124.307 E0.06611
G1 X116.449 Y123.563 E0.06226
G1 X114.492 Y122.533 E0.06932
G1 X112.836 Y121.423 E0.06251
G1 X110.967 Y119.857 E0.07645
G1 X109.639 Y118.485 E0.05986
G1 X108.334 Y116.834 E0.06601
G1 X107.210 Y115.066 E0.06570
G1 X106.265 Y113.172 E0.06635
G1 X105.527 Y111.214 E0.06561
G1 X104.991 Y109.179 E0.06598
G1 X104.668 Y107.103 E0.06586
G1 X104.560 Y105.002 E0.06598
G1 X104.668 Y102.899 E0.06601
G1 X104.992 Y100.820 E0.06596
G1 X105.527 Y98.785 E0.06598
G1 X106.267 Y96.823 E0.06574
G1 X107.212 Y94.932 E0.06630
G1 X108.336 Y93.163 E0.06571
G1 X109.600 Y91.565 E0.06388
G1 X109.895 Y91.799 F10800.000
G1 F1200
G1 X111.293 Y90.352 E0.06308
G1 X112.947 Y88.961 E0.06775
G1 X114.528 Y87.890 E0.05989
G1 X116.596 Y86.785 E0.07351
G1 X118.412 Y86.049 E0.06145
G1 X120.399 Y85.471 E0.06488
G1 X122.428 Y85.102 E0.06465
G1 X124.542 Y84.943 E0.06648
G1 X126.553 Y84.997 E0.06305
G1 X128.601 Y85.263 E0.06477
G1 X130.608 Y85.737 E0.06465
G1 X132.559 Y86.415 E0.06477
G1 X134.430 Y87.291 E0.06477
G1 X136.197 Y88.352 E0.06464
G1 X137.850 Y89.592 E0.06480
G1 X139.330 Y90.959 E0.06314
G1 X140.728 Y92.544 E0.06626
G1 X141.903 Y94.193 E0.06350
G1 X142.925 Y95.988 E0.06477
G1 X143.481 Y97.193 E0.04161
G1 X144.389 Y99.845 E0.08790
G1 X144.807 Y101.816 E0.06316
G1 X145.033 Y103.906 E0.06591
G1 X145.063 Y105.002 E0.03439
G1 X145.032 Y106.097 E0.03434
G1 X144.807 Y108.185 E0.06586
G1 X144.389 Y110.156 E0.06316
G1 X143.478 Y112.813 E0.08807
G1 X142.923 Y114.015 E0.04151
G1 X141.854 Y115.882 E0.06747
G1 X140.722 Y117.464 E0.06097
G1 X139.255 Y119.116 E0.06928
G1 X137.847 Y120.411 E0.05999
G1 X136.195 Y121.650 E0.06474
G1 X134.429 Y122.710 E0.06458
G1 X132.554 Y123.587 E0.06488
G1 X130.607 Y124.264 E0.06465
G1 X128.600 Y124.738 E0.06465
G1 X126.551 Y125.003 E0.06477
G1 X124.538 Y125.057 E0.06316
G1 X122.427 Y124.897 E0.06637
G1 X120.398 Y124.528 E0.06465
G1 X118.411 Y123.950 E0.06488
G1 X116.591 Y123.214 E0.06156
G1 X114.681 Y122.206 E0.06774
G1 X113.047 Y121.111 E0.06167
G1 X111.236 Y119.594 E0.07404
G1 X109.923 Y118.237 E0.05921
G1 X108.642 Y116.616 E0.06478
G1 X107.538 Y114.880 E0.06449
G1 X106.613 Y113.027 E0.06496
G1 X105.887 Y111.101 E0.06454
G1 X105.361 Y109.103 E0.06477
G1 X105.043 Y107.062 E0.06477
G1 X104.937 Y104.999 E0.06477
G1 X105.043 Y102.938 E0.06472
G1 X105.361 Y100.895 E0.06482
G1 X105.887 Y98.898 E0.06477
G1 X106.613 Y96.972 E0.06454
G1 X107.539 Y95.118 E0.06498
G1 X108.645 Y93.379 E0.06462
G1 X109.858 Y91.846 E0.06130
G1 E-0.80000 F2100.00000
G1 Z0.800 F10800.000
G1 X124.773 Y121.861
G1 Z0.200
G1 E0.80000 F2100.00000
G1 F1200
G1 X124.154 Y121.864 E0.01940
G1 X122.470 Y121.694 E0.05308
G1 X120.811 Y121.357 E0.05306
G1 X119.195 Y120.856 E0.05306
G1 X117.638 Y120.195 E0.05302
G1 X116.586 Y119.637 E0.03735
G1 X116.683 Y119.243 E0.01270
G1 X133.327 Y119.243 E0.52184
G1 X133.424 Y119.637 E0.01272
G1 X132.361 Y120.196 E0.03763
G1 X130.805 Y120.856 E0.05301
G1 X129.189 Y121.357 E0.05306
G1 X127.530 Y121.694 E0.05306
G1 X125.913 Y121.857 E0.05095
G1 X124.833 Y121.861 E0.03387
G1 X124.581 Y122.212 F10800.000
G1 X124.555 Y122.281
G1 F1200
G1 X122.780 Y122.144 E0.05580
G1 X121.029 Y121.825 E0.05580
G1 X119.321 Y121.327 E0.05580
G1 X117.672 Y120.657 E0.05580
G1 X116.101 Y119.820 E0.05580
G1 X114.616 Y118.821 E0.05611
G1 X114.234 Y118.523 E0.01520
G1 X113.260 Y117.689 E0.04020
G1 X112.046 Y116.444 E0.05453
G1 X111.537 Y115.828 E0.02506
G1 X112.195 Y116.576 E0.03126
G1 X113.476 Y117.853 E0.05668
G1 X114.944 Y119.040 E0.05921
G1 X116.345 Y119.040 E0.04393
G1 X116.150 Y119.832 E0.02555
G1 X117.476 Y120.536 E0.04708
G1 X119.065 Y121.210 E0.05413
G1 X120.718 Y121.723 E0.05425
G1 X122.413 Y122.068 E0.05425
G1 X124.136 Y122.241 E0.05429
G1 X125.933 Y122.234 E0.05634
G1 X127.587 Y122.068 E0.05212
G1 X129.282 Y121.723 E0.05425
G1 X130.935 Y121.210 E0.05425
G1 X132.523 Y120.537 E0.05409
G1 X133.632 Y119.954 E0.03927
G1 X133.124 Y120.259 E0.01855
G1 X131.512 Y121.013 E0.05580
G1 X129.831 Y121.598 E0.05580
G1 X128.099 Y122.007 E0.05580
G1 X126.334 Y122.235 E0.05580
G1 X124.615 Y122.279 E0.05392
G1 E-0.80000 F2100.00000
G1 Z0.800 F10800.000
G1 X125.000 Y118.663
G1 Z0.200
G1 E0.80000 F2100.00000
G1 F1200
G1 X115.077 Y118.663 E0.31112
G1 X113.728 Y117.572 E0.05442
G1 X112.470 Y116.318 E0.05568
G1 X111.965 Y115.743 E0.02400
G1 X138.041 Y115.743 E0.81761
G1 X137.529 Y116.319 E0.02415
G1 X136.272 Y117.572 E0.05566
G1 X134.923 Y118.663 E0.05441
G1 X125.060 Y118.663 E0.30924
G1 X124.811 Y119.016 F10800.000
G1 E-0.80000 F2100.00000
G1 Z0.800 F10800.000
G1 X111.195 Y115.366
G1 Z0.200
G1 E0.80000 F2100.00000
G1 F1200
G1 X110.902 Y115.003 E0.01463
G1 X109.956 Y113.515 E0.05530
G1 X109.534 Y112.672 E0.02955
G1 X110.365 Y114.155 E0.05331
G1 X111.161 Y115.317 E0.04415
G1 E-0.80000 F2100.00000
G1 Z0.800 F10800.000
G1 X125.000 Y115.163
G1 Z0.200
G1 E0.80000 F2100.00000
G1 F1200
G1 X111.513 Y115.163 E0.42289
G1 X110.686 Y113.956 E0.04588
G1 X109.727 Y112.243 E0.06155
G1 X140.275 Y112.243 E0.95783
G1 X139.314 Y113.956 E0.06159
G1 X138.487 Y115.163 E0.04586
G1 X125.060 Y115.163 E0.42101
G1 X124.810 Y115.515 F10800.000
G1 E-0.80000 F2100.00000
G1 Z0.800 F10800.000
G1 X109.154 Y111.866
G1 Z0.200
G1 E0.80000 F2100.00000
G1 F1200
G1 X109.139 Y111.866 E0.00049
G1 X108.532 Y110.257 E0.05392
G1 X108.170 Y108.881 E0.04463
G1 X108.637 Y110.500 E0.05283
G1 X109.133 Y111.810 E0.04393
G1 E-0.80000 F2100.00000
G1 Z0.800 F10800.000
G1 X125.000 Y111.663
G1 Z0.200
G1 E0.80000 F2100.00000
G1 F1200
G1 X109.481 Y111.663 E0.48660
G1 X108.995 Y110.380 E0.04301
G1 X108.522 Y108.743 E0.05343
G1 X141.479 Y108.743 E1.03333
G1 X141.004 Y110.381 E0.05345
G1 X140.519 Y111.663 E0.04300
G1 X125.060 Y111.663 E0.48472
G1 X124.809 Y112.015 F10800.000
G1 E-0.80000 F2100.00000
G1 Z0.800 F10800.000
G1 X108.056 Y108.366
G1 Z0.200
G1 E0.80000 F2100.00000
G1 F1200
G1 X107.805 Y106.778 E0.05042
G1 X107.730 Y105.258 E0.04771
G1 X107.838 Y106.855 E0.05017
G1 X108.048 Y108.307 E0.04600
G1 E-0.80000 F2100.00000
G1 Z0.800 F10800.000
G1 X125.000 Y108.163
G1 Z0.200
G1 E0.80000 F2100.00000
G1 F1200
G1 X108.408 Y108.163 E0.52023
G1 X108.213 Y106.815 E0.04272
G1 X108.107 Y105.243 E0.04939
G1 X141.891 Y105.243 E1.05929
G1 X141.787 Y106.815 E0.04938
G1 X141.592 Y108.163 E0.04272
G1 X125.060 Y108.163 E0.51835
G1 X124.809 Y108.515 F10800.000
G1 E-0.80000 F2100.00000
G1 Z0.800 F10800.000
G1 X107.720 Y104.866
G1 Z0.200
G1 E0.80000 F2100.00000
G1 F1200
G1 X107.805 Y103.223 E0.05160
G1 X108.074 Y101.540 E0.05342
G1 X107.831 Y103.212 E0.05295
G1 X107.724 Y104.806 E0.05012
G1 E-0.80000 F2100.00000
G1 Z0.800 F10800.000
G1 X125.000 Y104.663
G1 Z0.200
G1 E0.80000 F2100.00000
G1 F1200
G1 X108.111 Y104.663 E0.52953
G1 X108.206 Y103.251 E0.04437
G1 X108.426 Y101.743 E0.04779
G1 X141.575 Y101.743 E1.03936
G1 X141.794 Y103.252 E0.04778
G1 X141.889 Y104.663 E0.04437
G1 X125.060 Y104.663 E0.52765
G1 X124.810 Y105.015 F10800.000
G1 E-0.80000 F2100.00000
G1 Z0.800 F10800.000
G1 X108.211 Y100.962
G1 Z0.200
G1 E0.80000 F2100.00000
G1 F1200
G1 X108.532 Y99.743 E0.03954
G1 X109.160 Y98.077 E0.05580
G1 X109.194 Y98.040 E0.00158
G1 X108.616 Y99.565 E0.05111
G1 X108.228 Y100.905 E0.04375
G1 E-0.80000 F2100.00000
G1 Z0.800 F10800.000
G1 X125.000 Y101.163
G1 Z0.200
G1 E0.80000 F2100.00000
G1 F1200
G1 X108.545 Y101.163 E0.51593
G1 X108.974 Y99.684 E0.04829
G1 X109.521 Y98.243 E0.04832
G1 X140.480 Y98.243 E0.97070
G1 X141.026 Y99.684 E0.04831
G1 X141.455 Y101.163 E0.04829
G1 X125.060 Y101.163 E0.51405
G1 X124.811 Y101.516 F10800.000
G1 E-0.80000 F2100.00000
G1 Z0.800 F10800.000
G1 X109.578 Y97.240
G1 Z0.200
G1 E0.80000 F2100.00000
G1 F1200
G1 X109.956 Y96.485 E0.02646
G1 X110.913 Y94.981 E0.05592
G1 X111.265 Y94.540 E0.01767
G1 X110.330 Y95.902 E0.05179
G1 X109.608 Y97.188 E0.04624
G1 E-0.80000 F2100.00000
G1 Z0.800 F10800.000
G1 X125.000 Y97.663
G1 Z0.200
G1 E0.80000 F2100.00000
G1 F1200
G1 X109.773 Y97.663 E0.47743
G1 X110.650 Y96.102 E0.05616
G1 X111.583 Y94.743 E0.05166
G1 X138.420 Y94.743 E0.84147
M73 P12 R8
G1 X139.350 Y96.102 E0.05161
G1 X140.227 Y97.663 E0.05616
G1 X125.060 Y97.663 E0.47554
G1 X124.813 Y98.017 F10800.000
G1 E-0.80000 F2100.00000
G1 Z0.800 F10800.000
G1 X125.000 Y94.163
G1 Z0.200
G1 E0.80000 F2100.00000
G1 F1200
G1 X112.018 Y94.163 E0.40704
G1 X113.338 Y92.790 E0.05973
G1 X114.472 Y91.800 E0.04719
G1 X115.210 Y91.243 E0.02898
G1 X134.790 Y91.243 E0.61393
G1 X135.528 Y91.800 E0.02898
G1 X136.667 Y92.794 E0.04740
G1 X137.982 Y94.163 E0.05952
G1 X125.060 Y94.163 E0.40515
G1 X124.814 Y94.517 F10800.000
G1 E-0.80000 F2100.00000
G1 Z0.800 F10800.000
G1 X125.000 Y90.663
G1 Z0.200
G1 E0.80000 F2100.00000
G1 F1200
G1 X116.855 Y90.663 E0.25539
G1 X116.760 Y90.265 E0.01284
G1 X118.145 Y89.569 E0.04859
G1 X119.792 Y88.938 E0.05530
G1 X121.496 Y88.483 E0.05531
G1 X123.238 Y88.207 E0.05531
G1 X124.930 Y88.119 E0.05311
G1 X126.761 Y88.207 E0.05749
G1 X128.504 Y88.483 E0.05533
G1 X130.208 Y88.938 E0.05531
G1 X131.813 Y89.552 E0.05386
G1 X133.240 Y90.265 E0.05002
G1 X133.145 Y90.663 E0.01285
G1 X125.060 Y90.663 E0.25351
G1 X124.806 Y91.013 F10800.000
G1 E-0.80000 F2100.00000
G1 Z0.800 F10800.000
G1 X111.739 Y93.909
G1 Z0.200
G1 E0.80000 F2100.00000
G1 F1200
G1 X112.007 Y93.596 E0.01292
G1 X113.260 Y92.311 E0.05628
G1 X114.234 Y91.477 E0.04020
G1 X114.616 Y91.179 E0.01520
G1 X116.101 Y90.180 E0.05611
G1 X117.672 Y89.343 E0.05580
G1 X119.321 Y88.673 E0.05580
G1 X121.029 Y88.175 E0.05580
G1 X122.780 Y87.856 E0.05580
G1 X124.555 Y87.719 E0.05580
G1 X126.262 Y87.763 E0.05353
G1 X128.100 Y87.994 E0.05810
G1 X129.831 Y88.402 E0.05577
G1 X131.512 Y88.987 E0.05580
G1 X133.124 Y89.741 E0.05580
G1 X133.558 Y90.002 E0.01586
G1 X131.965 Y89.207 E0.05584
G1 X130.325 Y88.579 E0.05505
G1 X128.583 Y88.113 E0.05654
G1 X126.800 Y87.832 E0.05659
G1 X124.929 Y87.741 E0.05872
G1 X123.199 Y87.832 E0.05433
G1 X121.417 Y88.113 E0.05655
G1 X119.675 Y88.579 E0.05655
G1 X117.992 Y89.224 E0.05650
G1 X116.324 Y90.062 E0.05854
G1 X116.515 Y90.866 E0.02592
G1 X115.084 Y90.866 E0.04490
G1 X114.234 Y91.507 E0.03336
G1 X113.077 Y92.517 E0.04814
G1 X111.781 Y93.866 E0.05868
G1 E-0.80000 F2100.00000
G1 Z0.800 F10800.000
G1 X137.983 Y93.621
G1 Z0.200
G1 E0.80000 F2100.00000
G1 F1200
G1 X136.927 Y92.521 E0.04780
G1 X135.766 Y91.507 E0.04834
G1 X134.916 Y90.866 E0.03337
G1 X133.485 Y90.866 E0.04490
G1 X133.674 Y90.071 E0.02562
G1 X134.653 Y90.660 E0.03583
G1 X135.693 Y91.419 E0.04038
G1 X136.066 Y91.719 E0.01500
G1 X137.409 Y92.966 E0.05745
G1 X137.944 Y93.576 E0.02543
G1 E-0.80000 F2100.00000
G1 Z0.800 F10800.000
G1 X140.577 Y97.516
G1 Z0.200
G1 E0.80000 F2100.00000
G1 F1200
G1 X139.670 Y95.903 E0.05803
G1 X138.738 Y94.540 E0.05175
G1 X139.586 Y95.722 E0.04560
G1 X140.466 Y97.277 E0.05600
G1 X140.552 Y97.462 E0.00640
G1 E-0.80000 F2100.00000
G1 Z0.800 F10800.000
G1 X141.803 Y101.010
G1 Z0.200
G1 E0.80000 F2100.00000
G1 F1200
G1 X141.384 Y99.565 E0.04719
G1 X140.806 Y98.040 E0.05111
G1 X140.886 Y98.185 E0.00518
G1 X141.173 Y98.894 E0.02399
G1 X141.717 Y100.598 E0.05606
G1 X141.791 Y100.951 E0.01133
G1 E-0.80000 F2100.00000
G1 Z0.800 F10800.000
G1 X142.280 Y104.866
G1 Z0.200
G1 E0.80000 F2100.00000
G1 F1200
G1 X142.169 Y103.212 E0.05199
G1 X141.955 Y101.738 E0.04670
G1 X142.081 Y102.340 E0.01928
G1 X142.265 Y104.118 E0.05604
G1 X142.282 Y104.810 E0.02172
G1 E-0.80000 F2100.00000
G1 Z0.800 F10800.000
G1 X141.967 Y108.205
G1 Z0.200
G1 E0.80000 F2100.00000
G1 F1200
G1 X142.162 Y106.854 E0.04278
G1 X142.286 Y105.040 E0.05701
G1 X142.265 Y105.882 E0.02641
G1 X142.081 Y107.660 E0.05604
G1 X141.979 Y108.146 E0.01556
G1 E-0.80000 F2100.00000
G1 Z0.800 F10800.000
G1 X140.846 Y111.866
G1 Z0.200
G1 E0.80000 F2100.00000
G1 F1200
G1 X141.362 Y110.500 E0.04580
G1 X141.811 Y108.953 E0.05050
G1 X141.717 Y109.402 E0.01440
G1 X141.173 Y111.106 E0.05606
G1 X140.881 Y111.827 E0.02440
G1 E-0.80000 F2100.00000
G1 Z0.800 F10800.000
G1 X138.805 Y115.366
G1 Z0.200
G1 E0.80000 F2100.00000
G1 F1200
G1 X139.634 Y114.155 E0.04601
G1 X140.596 Y112.442 E0.06161
G1 X140.466 Y112.723 E0.00972
G1 X139.586 Y114.278 E0.05600
G1 X138.843 Y115.323 E0.04021
G1 E-0.80000 F2100.00000
G1 Z0.800 F10800.000
G1 X133.857 Y119.819
G1 Z0.200
G1 E0.80000 F2100.00000
G1 F1200
G1 X133.665 Y119.040 E0.02513
G1 X135.056 Y119.040 E0.04362
G1 X136.524 Y117.853 E0.05921
G1 X137.803 Y116.578 E0.05663
G1 X138.517 Y115.776 E0.03366
G1 X138.291 Y116.054 E0.01124
G1 X137.382 Y117.063 E0.04256
G1 X136.103 Y118.248 E0.05468
G1 X135.750 Y118.539 E0.01435
G1 X134.653 Y119.341 E0.04259
G1 X133.908 Y119.788 E0.02724
G1 E-0.80000 F2100.00000
G1 Z0.800 F10800.000
G1 X124.545 Y122.658
G1 Z0.200
G1 E0.80000 F2100.00000
G1 F1200
G1 X122.732 Y122.518 E0.05702
G1 X120.943 Y122.192 E0.05702
G1 X119.197 Y121.684 E0.05702
G1 X117.512 Y120.999 E0.05702
G1 X115.907 Y120.144 E0.05702
G1 X114.395 Y119.127 E0.05713
G1 X113.995 Y118.815 E0.01588
G1 X113.002 Y117.965 E0.04100
G1 X111.768 Y116.700 E0.05540
G1 X111.449 Y116.331 E0.01531
G1 X110.593 Y115.220 E0.04397
G1 X109.627 Y113.701 E0.05644
G1 X108.814 Y112.074 E0.05702
G1 X108.172 Y110.372 E0.05702
G1 X107.709 Y108.613 E0.05702
G1 X107.429 Y106.816 E0.05702
G1 X107.337 Y104.954 E0.05848
G1 X107.429 Y103.184 E0.05557
G1 X107.709 Y101.387 E0.05702
