; generated by PrusaSlicer 2.3.1+win64 on 2021-05-06 at 21:07:47 UTC

; 

; external perimeters extrusion width = 0.45mm
; perimeters extrusion width = 0.45mm
; infill extrusion width = 0.45mm
; solid infill extrusion width = 0.45mm
; top infill extrusion width = 0.40mm
; first layer extrusion width = 0.42mm

M73 P0 R15
M201 X9000 Y9000 Z500 E10000 ; sets maximum accelerations, mm/sec^2
M203 X500 Y500 Z12 E120 ; sets maximum feedrates, mm/sec
M204 P2000 R1500 T2000 ; sets acceleration (P, T) and retract acceleration (R), mm/sec^2
M205 X10.00 Y10.00 Z0.20 E2.50 ; sets the jerk limits, mm/sec
M205 S0 T0 ; sets the minimum extruding and travel feed rate, mm/sec
M107
;TYPE:Custom
M862.3 P "MK2.5SMMU2S" ; printer model check
M862.1 P0.4 ; nozzle diameter check
M115 U3.8.0 ; tell printer latest fw version
G90 ; use absolute coordinates
M83 ; extruder relative mode
M104 S215 ; set extruder temp
M140 S60 ; set bed temp
Tx
M190 S60 ; wait for bed temp
M109 S215 ; wait for extruder temp
G28 W ; home all without mesh bed level
G80 ; mesh bed leveling

G21 ; set units to millimeters

;go outside print area
G1 Y-3.0 F1000.0
G1 Z0.4 F1000.0
; select extruder
Tc
; purge line
G1 X55.0 F2000.0
G1 Z0.3 F1000.0
G92 E0.0
G1 X240.0 E25.0 F2200.0
G1 Y-2.0 F1000.0
G1 X55.0 E25 F1400.0
M73 P1 R15
G1 Z0.20 F1000.0
G1 X5.0 E4.0 F1000.0
G92 E0.0
G21 ; set units to millimeters
G90 ; use absolute coordinates
M83 ; use relative distances for extrusion
M900 K0.05 ; Filament gcode LA 1.5
M900 K30 ; Filament gcode LA 1.0
;LAYER_CHANGE
;Z:0.2
;HEIGHT:0.2
;BEFORE_LAYER_CHANGE
G92 E0.0
;0.2


G1 E-0.80000 F2100.000
G1 Z0.600 F10800.000
;AFTER_LAYER_CHANGE
;0.2
G1 X103.071 Y86.479
M73 P2 R15
G1 Z0.200
G1 E0.80000 F2100.000
M204 S1000
;TYPE:Skirt
;WIDTH:0.42
G1 F1200.000
G1 X104.725 Y84.685 E0.07650
G1 X106.358 Y83.171 E0.06982
G1 X108.857 Y81.264 E0.09857
G1 X111.398 Y79.721 E0.09322
G1 X113.738 Y78.597 E0.08138
G1 X116.692 Y77.524 E0.09854
G1 X119.313 Y76.863 E0.08477
G1 X122.128 Y76.436 E0.08926
G1 X124.997 Y76.300 E0.09008
G1 X127.853 Y76.438 E0.08965
G1 X130.686 Y76.863 E0.08982
G1 X133.310 Y77.524 E0.08483
G1 X136.261 Y78.597 E0.09847
G1 X138.600 Y79.720 E0.08135
G1 X141.144 Y81.264 E0.09331
G1 X143.641 Y83.169 E0.09847
G1 X145.275 Y84.685 E0.06990
G1 X146.930 Y86.479 E0.07652
G1 X148.746 Y88.868 E0.09408
G1 X150.280 Y91.400 E0.09282
G1 X151.405 Y93.743 E0.08149
G1 X152.473 Y96.682 E0.09804
G1 X153.133 Y99.298 E0.08461
G1 X153.568 Y102.167 E0.09098
G1 X153.701 Y105.021 E0.08959
G1 X153.568 Y107.836 E0.08833
G1 X153.134 Y110.701 E0.09088
G1 X152.472 Y113.321 E0.08471
G1 X151.407 Y116.254 E0.09784
G1 X150.281 Y118.598 E0.08154
G1 X148.747 Y121.129 E0.09279
G1 X146.930 Y123.521 E0.09419
G1 X145.275 Y125.315 E0.07650
G1 X143.643 Y126.829 E0.06983
G1 X141.143 Y128.736 E0.09857
G1 X138.602 Y130.279 E0.09322
G1 X136.262 Y131.402 E0.08138
G1 X133.309 Y132.476 E0.09854
G1 X130.693 Y133.136 E0.08456
G1 X127.872 Y133.564 E0.08947
G1 X124.999 Y133.700 E0.09017
G1 X122.169 Y133.566 E0.08884
G1 X119.312 Y133.137 E0.09060
G1 X116.691 Y132.476 E0.08476
G1 X113.739 Y131.403 E0.09847
G1 X111.403 Y130.281 E0.08125
G1 X108.856 Y128.736 E0.09341
G1 X106.363 Y126.833 E0.09834
G1 X104.725 Y125.314 E0.07004
G1 X103.070 Y123.521 E0.07652
G1 X101.255 Y121.132 E0.09407
G1 X99.718 Y118.596 E0.09297
G1 X98.595 Y116.257 E0.08134
G1 X97.527 Y113.319 E0.09802
G1 X96.867 Y110.702 E0.08463
G1 X96.431 Y107.802 E0.09194
G1 X96.300 Y104.993 E0.08819
G1 X96.431 Y102.181 E0.08825
G1 X96.867 Y99.298 E0.09141
G1 X97.528 Y96.679 E0.08471
G1 X98.593 Y93.746 E0.09784
G1 X99.720 Y91.402 E0.08154
G1 X101.253 Y88.871 E0.09279
M73 P3 R15
G1 X103.034 Y86.527 E0.09231
G1 E-0.80000 F2100.000
G1 Z0.800 F10800.000
G1 X124.753 Y129.773
G1 Z0.200
G1 E0.80000 F2100.000
;TYPE:Perimeter
G1 F1200.000
G1 X121.937 Y129.579 E0.08850
G1 X121.513 Y129.495 E0.01357
G1 X120.789 Y129.400 E0.02288
G1 X119.708 Y129.187 E0.03454
G1 X118.072 Y128.771 E0.05295
G1 X117.444 Y128.573 E0.02062
G1 X116.201 Y128.142 E0.04126
G1 X114.964 Y127.636 E0.04192
G1 X113.913 Y127.130 E0.03659
G1 X112.935 Y126.619 E0.03458
G1 X111.867 Y125.987 E0.03890
G1 X111.668 Y125.832 E0.00792
G1 X111.262 Y125.590 E0.01483
G1 X111.061 Y125.429 E0.00806
G1 X110.646 Y125.173 E0.01528
G1 X110.295 Y124.900 E0.01395
G1 X110.047 Y124.737 E0.00932
G1 X109.457 Y124.230 E0.02438
G1 X108.994 Y123.897 E0.01790
G1 X108.201 Y123.159 E0.03393
G1 X107.029 Y121.994 E0.05183
G1 X106.283 Y121.212 E0.03388
G1 X106.051 Y120.941 E0.01118
G1 X105.790 Y120.570 E0.01423
G1 X105.272 Y119.963 E0.02502
G1 X104.828 Y119.349 E0.02377
G1 X104.576 Y118.949 E0.01482
G1 X104.415 Y118.745 E0.00814
G1 X104.172 Y118.340 E0.01480
G1 X104.010 Y118.130 E0.00832
G1 X103.387 Y117.084 E0.03817
G1 X102.958 Y116.262 E0.02909
G1 X102.379 Y115.058 E0.04188
G1 X101.955 Y114.044 E0.03446
G1 X101.646 Y113.209 E0.02791
G1 X101.241 Y111.961 E0.04115
G1 X101.009 Y111.133 E0.02696
G1 X100.811 Y110.277 E0.02754
G1 X100.596 Y109.211 E0.03409
G1 X100.503 Y108.479 E0.02315
G1 X100.396 Y107.849 E0.02002
G1 X100.287 Y106.071 E0.05585
G1 X100.242 Y105.656 E0.01310
G1 X100.228 Y104.805 E0.02669
G1 X100.242 Y104.340 E0.01460
G1 X100.287 Y103.929 E0.01297
G1 X100.396 Y102.151 E0.05585
G1 X100.503 Y101.521 E0.02002
G1 X100.596 Y100.789 E0.02315
G1 X100.811 Y99.723 E0.03409
G1 X101.010 Y98.862 E0.02770
G1 X101.438 Y97.409 E0.04750
G1 X101.855 Y96.209 E0.03981
G1 X102.377 Y94.946 E0.04286
G1 X102.757 Y94.142 E0.02789
G1 X103.386 Y92.917 E0.04318
G1 X104.010 Y91.870 E0.03822
G1 X104.172 Y91.660 E0.00832
G1 X104.415 Y91.255 E0.01480
G1 X104.576 Y91.051 E0.00814
G1 X104.828 Y90.651 E0.01482
G1 X105.271 Y90.037 E0.02377
G1 X105.790 Y89.429 E0.02506
G1 X106.066 Y89.041 E0.01490
G1 X106.303 Y88.767 E0.01138
G1 X107.423 Y87.606 E0.05056
G1 X108.203 Y86.839 E0.03430
G1 X109.010 Y86.089 E0.03456
G1 X109.458 Y85.769 E0.01725
G1 X110.047 Y85.263 E0.02434
G1 X110.295 Y85.100 E0.00932
G1 X110.646 Y84.827 E0.01395
G1 X111.061 Y84.571 E0.01528
G1 X111.262 Y84.410 E0.00806
G1 X111.668 Y84.168 E0.01483
G1 X111.867 Y84.013 E0.00792
G1 X112.935 Y83.381 E0.03890
G1 X113.913 Y82.870 E0.03458
G1 X114.964 Y82.364 E0.03659
G1 X116.201 Y81.858 E0.04192
G1 X117.444 Y81.427 E0.04126
G1 X118.072 Y81.229 E0.02062
G1 X119.708 Y80.813 E0.05295
G1 X120.790 Y80.600 E0.03455
G1 X121.513 Y80.505 E0.02287
G1 X121.933 Y80.421 E0.01345
G1 X123.127 Y80.327 E0.03756
G1 X124.842 Y80.229 E0.05384
G1 X125.626 Y80.247 E0.02461
G1 X127.829 Y80.394 E0.06922
G1 X129.215 Y80.601 E0.04395
G1 X130.292 Y80.813 E0.03440
G1 X131.929 Y81.229 E0.05295
G1 X132.556 Y81.427 E0.02062
G1 X133.799 Y81.858 E0.04126
G1 X135.036 Y82.364 E0.04192
G1 X136.088 Y82.870 E0.03659
G1 X137.065 Y83.381 E0.03458
G1 X138.133 Y84.013 E0.03890
G1 X138.333 Y84.168 E0.00792
G1 X138.739 Y84.410 E0.01483
G1 X138.939 Y84.571 E0.00806
G1 X139.354 Y84.827 E0.01528
G1 X139.705 Y85.100 E0.01395
G1 X139.954 Y85.263 E0.00932
G1 X140.543 Y85.769 E0.02434
G1 X140.990 Y86.089 E0.01725
G1 X141.797 Y86.839 E0.03456
G1 X142.577 Y87.606 E0.03430
G1 X143.697 Y88.767 E0.05057
G1 X143.949 Y89.058 E0.01206
G1 X144.211 Y89.430 E0.01426
G1 X144.729 Y90.037 E0.02502
G1 X145.173 Y90.651 E0.02377
G1 X145.424 Y91.051 E0.01482
G1 X145.585 Y91.255 E0.00814
G1 X145.828 Y91.660 E0.01480
G1 X145.990 Y91.870 E0.00832
G1 X146.613 Y92.916 E0.03817
G1 X147.042 Y93.738 E0.02909
G1 X147.621 Y94.942 E0.04188
G1 X148.045 Y95.956 E0.03446
G1 X148.354 Y96.791 E0.02791
G1 X148.760 Y98.039 E0.04115
G1 X148.992 Y98.867 E0.02699
G1 X149.189 Y99.723 E0.02753
G1 X149.404 Y100.788 E0.03407
G1 X149.497 Y101.521 E0.02318
G1 X149.604 Y102.151 E0.02002
G1 X149.713 Y103.929 E0.05585
G1 X149.758 Y104.344 E0.01310
G1 X149.772 Y105.195 E0.02669
G1 X149.758 Y105.660 E0.01460
G1 X149.713 Y106.071 E0.01297
G1 X149.604 Y107.849 E0.05585
G1 X149.497 Y108.479 E0.02002
G1 X149.404 Y109.211 E0.02315
G1 X149.189 Y110.277 E0.03408
G1 X148.991 Y111.136 E0.02765
G1 X148.562 Y112.591 E0.04756
G1 X148.145 Y113.790 E0.03980
G1 X147.623 Y115.054 E0.04286
G1 X147.244 Y115.858 E0.02789
G1 X146.614 Y117.083 E0.04318
G1 X145.990 Y118.130 E0.03822
G1 X145.829 Y118.340 E0.00830
G1 X145.585 Y118.745 E0.01483
G1 X145.424 Y118.949 E0.00814
G1 X145.173 Y119.349 E0.01482
G1 X144.729 Y119.963 E0.02377
G1 X144.211 Y120.570 E0.02502
G1 X143.949 Y120.941 E0.01423
G1 X143.715 Y121.214 E0.01127
G1 X142.210 Y122.759 E0.06761
G1 X141.009 Y123.895 E0.05187
G1 X140.543 Y124.230 E0.01798
G1 X139.954 Y124.737 E0.02438
G1 X139.705 Y124.900 E0.00932
G1 X139.354 Y125.173 E0.01395
G1 X138.939 Y125.429 E0.01528
G1 X138.739 Y125.590 E0.00806
G1 X138.333 Y125.832 E0.01483
G1 X138.133 Y125.987 E0.00792
G1 X137.065 Y126.619 E0.03890
G1 X136.088 Y127.130 E0.03458
G1 X135.037 Y127.636 E0.03655
G1 X134.212 Y127.976 E0.02799
G1 X133.165 Y128.369 E0.03506
G1 X131.931 Y128.770 E0.04068
G1 X130.292 Y129.187 E0.05304
G1 X129.215 Y129.399 E0.03440
G1 X127.828 Y129.606 E0.04398
G1 X125.204 Y129.771 E0.08243
G1 X124.813 Y129.773 E0.01227
G1 X124.765 Y129.396 F10800.000
;TYPE:External perimeter
G1 F1200.000
G1 X121.987 Y129.205 E0.08730
G1 X121.574 Y129.123 E0.01319
G1 X120.851 Y129.027 E0.02289
G1 X119.791 Y128.819 E0.03385
G1 X118.175 Y128.408 E0.05230
G1 X117.563 Y128.215 E0.02011
G1 X116.335 Y127.789 E0.04077
G1 X115.117 Y127.292 E0.04124
G1 X114.082 Y126.793 E0.03603
G1 X113.119 Y126.289 E0.03408
M73 P4 R15
G1 X112.080 Y125.675 E0.03784
G1 X111.881 Y125.520 E0.00790
G1 X111.477 Y125.279 E0.01474
G1 X111.279 Y125.120 E0.00797
G1 X110.862 Y124.863 E0.01536
G1 X110.514 Y124.593 E0.01379
G1 X110.274 Y124.435 E0.00902
G1 X109.690 Y123.934 E0.02412
G1 X109.233 Y123.605 E0.01767
G1 X108.463 Y122.888 E0.03299
G1 X107.299 Y121.730 E0.05148
G1 X106.563 Y120.959 E0.03342
G1 X106.349 Y120.709 E0.01030
G1 X106.088 Y120.339 E0.01421
G1 X105.568 Y119.730 E0.02509
G1 X105.140 Y119.138 E0.02291
G1 X104.885 Y118.731 E0.01508
G1 X104.726 Y118.530 E0.00802
G1 X104.484 Y118.128 E0.01472
G1 X104.323 Y117.918 E0.00830
G1 X103.717 Y116.901 E0.03714
G1 X103.295 Y116.093 E0.02857
G1 X102.723 Y114.904 E0.04138
G1 X102.306 Y113.906 E0.03390
G1 X102.003 Y113.086 E0.02743
G1 X101.602 Y111.852 E0.04068
G1 X101.374 Y111.040 E0.02644
G1 X101.180 Y110.197 E0.02711
G1 X100.969 Y109.150 E0.03349
G1 X100.876 Y108.424 E0.02297
G1 X100.771 Y107.806 E0.01964
G1 X100.663 Y106.039 E0.05550
G1 X100.619 Y105.633 E0.01283
G1 X100.606 Y104.808 E0.02587
G1 X100.619 Y104.366 E0.01386
G1 X100.663 Y103.961 E0.01278
G1 X100.771 Y102.194 E0.05550
G1 X100.876 Y101.576 E0.01964
G1 X100.969 Y100.850 E0.02297
G1 X101.180 Y99.802 E0.03349
G1 X101.375 Y98.958 E0.02718
G1 X101.797 Y97.524 E0.04687
G1 X102.207 Y96.344 E0.03918
G1 X102.722 Y95.099 E0.04223
G1 X103.095 Y94.309 E0.02740
G1 X103.716 Y93.100 E0.04261
G1 X104.323 Y92.082 E0.03715
G1 X104.484 Y91.872 E0.00830
G1 X104.726 Y91.470 E0.01472
G1 X104.885 Y91.269 E0.00802
G1 X105.140 Y90.862 E0.01508
G1 X105.568 Y90.270 E0.02291
G1 X106.088 Y89.661 E0.02510
G1 X106.363 Y89.274 E0.01486
G1 X106.581 Y89.021 E0.01049
G1 X107.691 Y87.872 E0.05008
G1 X108.463 Y87.112 E0.03398
G1 X109.249 Y86.382 E0.03364
G1 X109.691 Y86.066 E0.01702
G1 X110.274 Y85.565 E0.02411
G1 X110.514 Y85.407 E0.00902
G1 X110.862 Y85.137 E0.01379
G1 X111.279 Y84.880 E0.01536
G1 X111.477 Y84.721 E0.00797
G1 X111.881 Y84.480 E0.01474
G1 X112.080 Y84.325 E0.00790
G1 X113.119 Y83.711 E0.03784
G1 X114.082 Y83.207 E0.03408
G1 X115.117 Y82.708 E0.03603
G1 X116.335 Y82.211 E0.04124
G1 X117.563 Y81.785 E0.04077
G1 X118.175 Y81.592 E0.02011
G1 X119.791 Y81.181 E0.05230
G1 X120.851 Y80.973 E0.03386
G1 X121.574 Y80.877 E0.02288
G1 X121.985 Y80.795 E0.01313
G1 X123.153 Y80.703 E0.03673
G1 X124.848 Y80.607 E0.05324
G1 X125.609 Y80.624 E0.02387
G1 X127.788 Y80.770 E0.06847
G1 X129.151 Y80.973 E0.04320
G1 X130.209 Y81.181 E0.03380
G1 X131.826 Y81.592 E0.05230
G1 X132.437 Y81.785 E0.02011
G1 X133.666 Y82.211 E0.04077
G1 X134.883 Y82.708 E0.04124
G1 X135.918 Y83.207 E0.03603
G1 X136.882 Y83.711 E0.03408
G1 X137.921 Y84.325 E0.03784
G1 X138.120 Y84.480 E0.00790
G1 X138.523 Y84.721 E0.01474
G1 X138.722 Y84.880 E0.00797
G1 X139.138 Y85.137 E0.01536
G1 X139.486 Y85.407 E0.01379
G1 X139.726 Y85.565 E0.00902
G1 X140.310 Y86.066 E0.02411
G1 X140.751 Y86.382 E0.01702
G1 X141.537 Y87.112 E0.03364
G1 X142.310 Y87.872 E0.03398
G1 X143.419 Y89.021 E0.05008
G1 X143.651 Y89.290 E0.01115
G1 X143.912 Y89.661 E0.01422
G1 X144.432 Y90.270 E0.02509
G1 X144.860 Y90.862 E0.02291
G1 X145.116 Y91.269 E0.01508
G1 X145.274 Y91.470 E0.00802
G1 X145.516 Y91.872 E0.01472
G1 X145.677 Y92.082 E0.00830
G1 X146.284 Y93.099 E0.03714
G1 X146.705 Y93.907 E0.02857
G1 X147.277 Y95.096 E0.04138
G1 X147.695 Y96.094 E0.03390
G1 X147.998 Y96.914 E0.02743
G1 X148.399 Y98.148 E0.04067
G1 X148.627 Y98.961 E0.02647
G1 X148.821 Y99.803 E0.02709
G1 X149.032 Y100.849 E0.03347
G1 X149.124 Y101.577 E0.02299
G1 X149.229 Y102.194 E0.01963
G1 X149.337 Y103.961 E0.05549
G1 X149.382 Y104.367 E0.01283
G1 X149.395 Y105.192 E0.02587
G1 X149.381 Y105.634 E0.01386
G1 X149.337 Y106.039 E0.01278
G1 X149.229 Y107.806 E0.05550
G1 X149.124 Y108.424 E0.01964
G1 X149.032 Y109.150 E0.02297
G1 X148.821 Y110.197 E0.03349
G1 X148.626 Y111.041 E0.02713
G1 X148.203 Y112.476 E0.04692
G1 X147.793 Y113.656 E0.03918
G1 X147.278 Y114.901 E0.04223
G1 X146.905 Y115.691 E0.02739
G1 X146.284 Y116.900 E0.04261
G1 X145.677 Y117.918 E0.03715
G1 X145.517 Y118.127 E0.00828
G1 X145.274 Y118.530 E0.01474
G1 X145.116 Y118.731 E0.00802
G1 X144.860 Y119.138 E0.01508
G1 X144.432 Y119.730 E0.02291
G1 X143.912 Y120.339 E0.02509
G1 X143.651 Y120.709 E0.01421
G1 X143.437 Y120.960 E0.01034
G1 X141.946 Y122.490 E0.06699
G1 X140.768 Y123.604 E0.05084
G1 X140.310 Y123.934 E0.01769
G1 X139.726 Y124.435 E0.02412
G1 X139.486 Y124.593 E0.00902
G1 X139.138 Y124.863 E0.01379
G1 X138.722 Y125.120 E0.01536
G1 X138.523 Y125.279 E0.00797
G1 X138.120 Y125.520 E0.01474
G1 X137.921 Y125.675 E0.00790
G1 X136.882 Y126.289 E0.03784
G1 X135.918 Y126.793 E0.03408
G1 X134.883 Y127.291 E0.03602
G1 X134.074 Y127.626 E0.02746
G1 X133.041 Y128.013 E0.03461
G1 X131.826 Y128.408 E0.04003
G1 X130.209 Y128.819 E0.05233
G1 X129.151 Y129.027 E0.03380
G1 X127.788 Y129.230 E0.04320
G1 X125.191 Y129.394 E0.08158
G1 X124.825 Y129.396 E0.01150
G1 X124.555 Y129.737 F10800.000
G1 X125.000 Y130.638
;TYPE:Perimeter
G1 F1200.000
G1 X124.594 Y130.638 E0.01272
G1 X124.261 Y130.588 E0.01058
G1 X123.431 Y130.560 E0.02602
G1 X121.936 Y130.452 E0.04700
G1 X121.586 Y130.378 E0.01122
G1 X120.611 Y130.258 E0.03081
G1 X120.254 Y130.169 E0.01153
G1 X119.617 Y130.064 E0.02025
G1 X119.294 Y129.970 E0.01057
G1 X118.793 Y129.871 E0.01600
G1 X118.510 Y129.777 E0.00933
G1 X118.019 Y129.667 E0.01579
G1 X117.768 Y129.574 E0.00840
G1 X116.816 Y129.289 E0.03115
G1 X115.157 Y128.666 E0.05557
G1 X114.568 Y128.395 E0.02032
G1 X114.272 Y128.286 E0.00989
G1 X112.677 Y127.486 E0.05597
G1 X112.307 Y127.247 E0.01380
G1 X111.718 Y126.923 E0.02108
G1 X111.329 Y126.660 E0.01470
G1 X110.703 Y126.290 E0.02280
G1 X109.554 Y125.444 E0.04476
G1 X109.360 Y125.330 E0.00705
G1 X108.784 Y124.832 E0.02387
G1 X108.387 Y124.546 E0.01533
G1 X107.449 Y123.677 E0.04009
G1 X106.205 Y122.433 E0.05515
G1 X105.453 Y121.612 E0.03492
G1 X105.168 Y121.216 E0.01530
G1 X104.677 Y120.650 E0.02349
G1 X104.555 Y120.444 E0.00750
G1 X103.710 Y119.298 E0.04465
G1 X103.342 Y118.667 E0.02292
G1 X103.086 Y118.296 E0.01413
G1 X102.753 Y117.693 E0.02157
G1 X102.510 Y117.314 E0.01413
G1 X101.753 Y115.812 E0.05274
G1 X100.925 Y113.775 E0.06894
G1 X100.707 Y113.175 E0.02000
G1 X100.429 Y112.241 E0.03056
G1 X100.347 Y112.021 E0.00736
G1 X100.217 Y111.468 E0.01781
G1 X100.127 Y111.180 E0.00948
G1 X100.026 Y110.689 E0.01571
G1 X99.937 Y110.394 E0.00966
G1 X99.831 Y109.748 E0.02051
G1 X99.741 Y109.368 E0.01226
G1 X99.622 Y108.402 E0.03050
G1 X99.549 Y108.061 E0.01096
G1 X99.449 Y106.752 E0.04114
G1 X99.410 Y105.721 E0.03236
G1 X99.364 Y105.494 E0.00724
G1 X99.364 Y104.506 E0.03101
G1 X99.410 Y104.279 E0.00724
G1 X99.449 Y103.249 E0.03232
G1 X99.550 Y101.936 E0.04129
M73 P5 R15
G1 X99.621 Y101.597 E0.01085
G1 X99.741 Y100.632 E0.03050
