; generated by PrusaSlicer 2.0.0+ on 2019-08-07 at 10:30:15

; 

; external perimeters extrusion width = 0.45mm
; perimeters extrusion width = 0.45mm
; infill extrusion width = 0.45mm
; solid infill extrusion width = 0.45mm
; top infill extrusion width = 0.40mm
; support material extrusion width = 0.35mm
; first layer extrusion width = 0.42mm

M73 P0 R37
M201 X9000 Y9000 Z500 E10000 ; sets maximum accelerations, mm/sec^2
M203 X500 Y500 Z12 E120 ; sets maximum feedrates, mm/sec
M204 P2000 R1500 T2000 ; sets acceleration (P, T) and retract acceleration (R), mm/sec^2
M205 X10.00 Y10.00 Z0.20 E2.50 ; sets the jerk limits, mm/sec
M205 S0 T0 ; sets the minimum extruding and travel feed rate, mm/sec
M107
M115 U3.7.2 ; tell printer latest fw version
G90 ; use absolute coordinates
M83 ; extruder relative mode
M104 S215 ; set extruder temp
M140 S60 ; set bed temp
Tx
M190 S60 ; wait for bed temp
M109 S215 ; wait for extruder temp
G28 W ; home all without mesh bed level
G80 ; mesh bed leveling

G21 ; set units to millimeters

;go outside print area
G1 Y-3.0 F1000.0
G1 Z0.4 F1000.0
; select extruder
Tc
; purge line
G1 X55.0 F2000.0
G1 Z0.3 F1000.0
G92 E0.0
G1 X240.0 E25.0 F2200.0
M73 P0 R37
G1 Y-2.0 F1000.0
G1 X55.0 E25 F1400.0
G1 Z0.20 F1000.0
G1 X5.0 E4.0 F1000.0
G92 E0.0
M900 K30 ; Filament gcode
G21 ; set units to millimeters
G90 ; use absolute coordinates
M83 ; use relative distances for extrusion
;BEFORE_LAYER_CHANGE
G92 E0.0
;0.2


G1 E-0.80000 F2100.00000
G1 Z0.600 F10800.000
;AFTER_LAYER_CHANGE
;0.2
G1 X107.560 Y75.983
G1 Z0.200
G1 E0.80000 F2100.00000
M204 S1000
G1 F1200
G1 X107.864 Y75.182 E0.02687
G1 X109.687 Y72.583 E0.09954
G1 X114.434 Y67.831 E0.21060
G1 X115.229 Y67.351 E0.02911
G1 X115.922 Y67.234 E0.02202
G1 X133.101 Y67.234 E0.53865
G1 X133.863 Y67.372 E0.02428
G1 X134.529 Y67.767 E0.02428
G1 X137.226 Y70.151 E0.11285
G1 X142.011 Y74.950 E0.21251
G1 X142.359 Y75.539 E0.02145
G1 X144.197 Y80.191 E0.15682
G1 X144.331 Y80.817 E0.02010
G1 X144.319 Y91.941 E0.34877
G1 X137.519 Y135.866 E1.39364
G1 X137.315 Y136.489 E0.02055
G1 X136.934 Y137.027 E0.02066
G1 X132.326 Y141.552 E0.20250
G1 X131.597 Y142.002 E0.02687
G1 X131.130 Y142.119 E0.01510
G1 X129.349 Y142.308 E0.05616
G1 X127.013 Y142.308 E0.07324
G1 X120.671 Y142.109 E0.19894
G1 X120.137 Y141.948 E0.01749
G1 X119.664 Y141.660 E0.01737
G1 X119.277 Y141.259 E0.01749
G1 X119.004 Y140.776 E0.01737
G1 X114.395 Y126.686 E0.46482
G1 X107.572 Y94.406 E1.03450
G1 X107.560 Y76.043 E0.57574
G1 F8640
G1 X107.864 Y75.182 E-0.21088
G1 X109.229 Y73.235 E-0.54912
G1 E-0.04000 F2100.00000
G1 Z0.800 F10800.000
G1 X109.719 Y93.978
G1 Z0.200
G1 E0.80000 F2100.00000
G1 F1200
G1 X109.719 Y76.344 E0.55293
G1 X110.473 Y76.344 E0.02365
G1 X110.473 Y93.809 E0.54761
G1 X111.227 Y93.809 E0.02365
G1 X111.227 Y76.344 E0.54761
G1 X111.323 Y76.344 E0.00302
G1 X111.323 Y74.036 E0.07234
G1 X111.981 Y74.036 E0.02063
G1 X111.981 Y98.423 E0.76462
G1 X112.735 Y98.423 E0.02365
G1 X112.735 Y74.036 E0.76462
G1 X113.489 Y74.036 E0.02365
G1 X113.489 Y98.423 E0.76462
G1 X113.630 Y98.423 E0.00442
G1 X113.630 Y105.344 E0.21701
G1 X114.244 Y105.344 E0.01923
G1 X114.244 Y71.729 E1.05397
G1 X114.998 Y71.729 E0.02365
G1 X114.998 Y105.344 E1.05397
G1 X115.752 Y105.344 E0.02365
G1 X115.752 Y71.729 E1.05397
G1 X115.937 Y71.729 E0.00582
G1 X115.937 Y69.422 E0.07234
G1 X116.506 Y69.422 E0.01783
G1 X116.506 Y105.344 E1.12631
G1 X117.260 Y105.344 E0.02365
G1 X117.260 Y69.422 E1.12631
G1 X118.014 Y69.422 E0.02365
G1 X118.014 Y105.514 E1.13163
G1 F8640
G1 X118.014 Y102.222 E-0.76000
G1 E-0.04000 F2100.00000
G1 Z0.800 F10800.000
G1 X122.630 Y104.825
G1 Z0.200
G1 E0.80000 F2100.00000
G1 F1200
G1 X122.630 Y100.072 E0.12135
G1 X122.123 Y100.072 E0.01295
G1 X122.123 Y104.686 E0.11782
G1 X121.616 Y104.686 E0.01295
G1 X121.616 Y99.934 E0.12135
G1 F8640
G1 X121.616 Y103.225 E-0.76000
G1 E-0.04000 F2100.00000
G1 Z0.800 F10800.000
G1 X125.165 Y104.825
G1 Z0.200
G1 E0.80000 F2100.00000
G1 F1200
G1 X125.165 Y102.178 E0.06756
G1 X124.937 Y102.369 E0.00758
G1 X124.801 Y102.431 E0.00380
G1 X124.658 Y102.464 E0.00376
G1 X124.658 Y104.686 E0.05674
G1 X124.151 Y104.686 E0.01295
G1 X124.151 Y102.542 E0.05474
G1 X123.738 Y102.496 E0.01062
G1 X123.644 Y102.465 E0.00252
G1 X123.644 Y104.686 E0.05671
G1 X123.137 Y104.686 E0.01295
G1 X123.137 Y102.220 E0.06297
G1 X123.005 Y102.108 E0.00443
G1 X122.881 Y101.912 E0.00592
G1 X122.853 Y101.839 E0.00200
G1 X122.820 Y101.611 E0.00587
G1 X122.833 Y101.512 E0.00254
G1 X122.921 Y101.299 E0.00591
G1 X122.967 Y101.234 E0.00202
G1 X123.137 Y101.077 E0.00591
G1 X123.137 Y100.072 E0.02566
G1 X123.644 Y100.072 E0.01295
G1 X123.644 Y100.910 E0.02138
G1 X123.850 Y100.883 E0.00532
G1 X124.151 Y100.905 E0.00769
G1 X124.151 Y100.072 E0.02127
G1 X124.658 Y100.072 E0.01295
G1 X124.658 Y101.008 E0.02389
G1 X124.910 Y101.108 E0.00693
G1 X125.045 Y101.199 E0.00416
G1 X125.165 Y101.325 E0.00443
G1 X125.165 Y100.072 E0.03199
G1 X125.672 Y100.072 E0.01295
G1 X125.672 Y104.686 E0.11782
G1 X126.179 Y104.686 E0.01295
G1 X126.179 Y100.072 E0.11782
G1 X126.686 Y100.072 E0.01295
G1 X126.686 Y104.686 E0.11782
G1 X127.193 Y104.686 E0.01295
G1 X127.193 Y100.072 E0.11782
G1 X127.701 Y100.072 E0.01295
G1 X127.701 Y104.825 E0.12135
G1 F8640
G1 X127.701 Y101.533 E-0.76000
G1 E-0.04000 F2100.00000
G1 Z0.800 F10800.000
G1 X116.506 Y110.780
G1 Z0.200
G1 E0.80000 F2100.00000
G1 F1200
G1 X116.506 Y126.108 E0.48059
G1 X117.260 Y126.108 E0.02365
G1 X117.260 Y110.950 E0.47527
G1 X118.014 Y110.950 E0.02365
G1 X118.014 Y126.108 E0.47527
G1 X118.244 Y126.108 E0.00721
G1 X118.244 Y130.722 E0.14467
G1 X118.768 Y130.722 E0.01643
G1 X118.768 Y69.422 E1.92201
G1 X119.523 Y69.422 E0.02365
G1 X119.523 Y130.722 E1.92201
G1 X120.277 Y130.722 E0.02365
G1 X120.277 Y69.422 E1.92201
G1 X121.031 Y69.422 E0.02365
G1 X121.031 Y139.950 E2.21136
M73 P3 R36
G1 X121.785 Y139.950 E0.02365
G1 X121.785 Y105.028 E1.09495
G1 X122.539 Y105.028 E0.02365
G1 X122.539 Y139.950 E1.09495
G1 X123.293 Y139.950 E0.02365
G1 X123.293 Y105.028 E1.09495
G1 X124.048 Y105.028 E0.02365
G1 X124.048 Y139.950 E1.09495
G1 X124.802 Y139.950 E0.02365
G1 X124.802 Y105.028 E1.09495
G1 X125.556 Y105.028 E0.02365
G1 X125.556 Y139.950 E1.09495
G1 X126.310 Y139.950 E0.02365
G1 X126.310 Y105.028 E1.09495
G1 X127.064 Y105.028 E0.02365
G1 X127.064 Y140.120 E1.10027
G1 X129.327 Y140.120 F10800.000
G1 F1200
G1 X129.327 Y85.572 E1.71032
G1 X128.573 Y85.572 E0.02365
G1 X128.573 Y139.950 E1.70500
G1 X127.818 Y139.950 E0.02365
G1 X127.818 Y105.028 E1.09495
G1 X128.473 Y105.028 E0.02051
G1 X128.473 Y99.730 E0.16613
G1 X127.818 Y99.730 E0.02051
G1 X127.818 Y85.572 E0.44392
G1 X127.473 Y85.572 E0.01084
G1 X127.473 Y90.186 E0.14467
G1 X127.064 Y90.186 E0.01281
G1 X127.064 Y99.730 E0.29925
G1 X126.310 Y99.730 E0.02365
G1 X126.310 Y90.186 E0.29925
G1 X125.556 Y90.186 E0.02365
G1 X125.556 Y99.730 E0.29925
G1 X124.802 Y99.730 E0.02365
G1 X124.802 Y92.493 E0.22691
G1 X124.048 Y92.493 E0.02365
G1 X124.048 Y99.730 E0.22691
G1 X123.293 Y99.730 E0.02365
G1 X123.293 Y92.493 E0.22691
G1 X122.539 Y92.493 E0.02365
G1 X122.539 Y99.730 E0.22691
G1 X121.785 Y99.730 E0.02365
G1 X121.785 Y69.422 E0.95028
G1 X122.539 Y69.422 E0.02365
G1 X122.539 Y84.580 E0.47527
G1 X123.293 Y84.580 E0.02365
G1 X123.293 Y69.422 E0.47527
G1 X124.048 Y69.422 E0.02365
G1 X124.048 Y84.580 E0.47527
G1 X124.174 Y84.580 E0.00397
G1 X124.174 Y82.273 E0.07234
G1 X124.802 Y82.273 E0.01967
G1 X124.802 Y69.422 E0.40294
G1 X125.556 Y69.422 E0.02365
G1 X125.556 Y82.273 E0.40294
G1 X126.310 Y82.273 E0.02365
G1 X126.310 Y69.422 E0.40294
G1 X127.064 Y69.422 E0.02365
G1 X127.064 Y82.273 E0.40294
G1 X127.473 Y82.273 E0.01281
G1 X127.473 Y84.580 E0.07234
G1 X127.818 Y84.580 E0.01084
G1 X127.818 Y69.422 E0.47527
G1 X128.573 Y69.422 E0.02365
G1 X128.573 Y84.580 E0.47527
G1 X129.327 Y84.580 E0.02365
G1 X129.327 Y69.422 E0.47527
G1 X130.081 Y69.422 E0.02365
G1 X130.081 Y139.950 E2.21136
G1 X130.835 Y139.950 E0.02365
G1 X130.835 Y69.422 E2.21136
G1 X131.589 Y69.422 E0.02365
G1 X131.589 Y116.880 E1.48799
G1 X132.343 Y116.880 E0.02365
G1 X132.343 Y69.422 E1.48799
G1 X133.098 Y69.422 E0.02365
G1 X133.098 Y116.880 E1.48799
G1 X133.403 Y116.880 E0.00957
G1 X133.403 Y103.037 E0.43402
G1 X133.852 Y103.037 E0.01408
G1 X133.852 Y71.729 E0.98163
G1 X134.606 Y71.729 E0.02365
G1 X134.606 Y103.037 E0.98163
G1 X135.360 Y103.037 E0.02365
G1 X135.360 Y71.729 E0.98163
G1 X135.710 Y71.729 E0.01096
G1 X135.710 Y74.036 E0.07234
G1 X136.114 Y74.036 E0.01268
G1 X136.114 Y100.730 E0.83696
G1 X136.868 Y100.730 E0.02365
G1 X136.868 Y74.036 E0.83696
G1 X137.622 Y74.036 E0.02365
G1 X137.622 Y100.730 E0.83696
G1 X138.017 Y100.730 E0.01236
G1 X138.017 Y96.116 E0.14467
M73 P5 R35
G1 X138.377 Y96.116 E0.01128
G1 X138.377 Y76.344 E0.61995
G1 X139.131 Y76.344 E0.02365
G1 X139.131 Y96.116 E0.61995
G1 X139.885 Y96.116 E0.02365
G1 X139.885 Y76.344 E0.61995
G1 X140.324 Y76.344 E0.01376
G1 X140.324 Y80.958 E0.14467
G1 X140.639 Y80.958 E0.00988
G1 X140.639 Y91.502 E0.33060
G1 X141.393 Y91.502 E0.02365
G1 X141.393 Y80.958 E0.33060
G1 X142.147 Y80.958 E0.02365
G1 X142.147 Y91.671 E0.33592
G1 F8640
G1 X142.147 Y88.380 E-0.76000
G1 E-0.04000 F2100.00000
G1 Z0.800 F10800.000
G1 X135.360 Y135.506
G1 Z0.200
G1 E0.80000 F2100.00000
G1 F1200
G1 X135.360 Y124.792 E0.33592
G1 X134.606 Y124.792 E0.02365
G1 X134.606 Y135.336 E0.33060
G1 X133.852 Y135.336 E0.02365
G1 X133.852 Y124.792 E0.33060
G1 X133.403 Y124.792 E0.01408
G1 X133.403 Y120.178 E0.14467
G1 X133.098 Y120.178 E0.00957
G1 X133.098 Y137.643 E0.54761
G1 X132.343 Y137.643 E0.02365
G1 X132.343 Y120.178 E0.54761
G1 X131.589 Y120.178 E0.02365
G1 X131.589 Y137.813 E0.55293
G1 F8640
G1 X131.589 Y134.522 E-0.76000
G1 E-0.04000 F2100.00000
G1 Z0.800 F10800.000
G1 X124.658 Y101.846
G1 Z0.200
G1 E0.80000 F2100.00000
G1 F1200
G1 X124.608 Y101.873 E0.00179
G1 X124.235 Y101.951 E0.01193
G1 X123.859 Y101.917 E0.01186
G1 X123.461 Y101.726 E0.01383
G1 X123.418 Y101.635 E0.00316
G1 X123.480 Y101.561 E0.00302
G1 X123.860 Y101.474 E0.01222
G1 X124.248 Y101.502 E0.01219
G1 X124.620 Y101.622 E0.01226
G1 X124.741 Y101.735 E0.00519
G1 X124.737 Y101.772 E0.00117
G1 X124.702 Y101.805 E0.00150
G1 X124.605 Y101.823 F10800.000
G1 X124.285 Y101.728
G1 F1200
G1 X123.914 Y101.701 E0.00230
G1 X123.877 Y101.692 E0.00021
G1 X123.844 Y101.689 E0.00015
M106 S255
;BEFORE_LAYER_CHANGE
G92 E0.0
;0.3


G1 F8640
G1 X123.877 Y101.692 E-0.00752
G1 E-0.79248 F2100.00000
G1 Z0.800 F10800.000
;AFTER_LAYER_CHANGE
;0.3
G1 X125.165 Y102.595
G1 Z0.300
G1 E0.80000 F2100.00000
G1 F1646
G1 X125.165 Y104.686 E0.02856
G1 X125.672 Y104.686 E0.00693
G1 X125.672 Y102.440 E0.03068
G1 X125.909 Y102.204 E0.00456
G1 X126.179 Y102.436 E0.00487
G1 X126.179 Y104.824 E0.03262
G1 F8640
G1 X126.179 Y102.436 E-0.55140
G1 X125.909 Y102.204 E-0.08227
G1 X125.672 Y102.440 E-0.07712
G1 X125.672 Y102.653 E-0.04921
G1 E-0.04000 F2100.00000
G1 Z0.900 F10800.000
G1 X127.701 Y104.824
G1 Z0.300
G1 E0.80000 F2100.00000
G1 F1646
G1 X127.701 Y100.072 E0.06491
G1 X127.193 Y100.072 E0.00693
G1 X127.193 Y104.686 E0.06303
G1 X126.686 Y104.686 E0.00693
G1 X126.686 Y100.072 E0.06303
G1 X126.179 Y100.072 E0.00693
G1 X126.179 Y101.107 E0.01414
G1 X125.910 Y101.338 E0.00484
G1 X125.829 Y101.231 E0.00183
G1 X125.672 Y101.092 E0.00286
G1 X125.672 Y100.072 E0.01393
G1 X125.165 Y100.072 E0.00693
G1 X125.165 Y100.830 E0.01035
G1 X124.658 Y100.692 E0.00718
G1 X124.658 Y100.072 E0.00847
G1 X124.151 Y100.072 E0.00693
G1 X124.151 Y100.620 E0.00748
G1 X123.895 Y100.599 E0.00351
G1 X123.644 Y100.607 E0.00343
G1 X123.644 Y100.072 E0.00731
G1 X123.137 Y100.072 E0.00693
G1 X123.137 Y100.665 E0.00810
G1 X122.899 Y100.738 E0.00340
G1 X122.630 Y100.875 E0.00412
G1 X122.630 Y100.072 E0.01097
G1 X122.123 Y100.072 E0.00693
G1 X122.123 Y104.686 E0.06303
G1 X122.630 Y104.686 E0.00693
G1 X122.630 Y102.328 E0.03221
G1 X122.812 Y102.515 E0.00356
G1 X123.072 Y102.718 E0.00451
G1 X122.825 Y102.979 E0.00491
G1 X123.137 Y103.257 E0.00571
G1 X123.137 Y104.686 E0.01952
G1 X123.644 Y104.686 E0.00693
G1 X123.644 Y103.522 E0.01591
G1 X123.786 Y103.561 E0.00202
G1 X123.995 Y103.576 E0.00287
G1 X124.151 Y103.558 E0.00214
G1 X124.151 Y104.686 E0.01541
G1 X124.658 Y104.686 E0.00693
G1 X124.658 Y103.255 E0.01955
G1 F8640
G1 X124.658 Y104.686 E-0.33057
G1 X124.151 Y104.686 E-0.11709
G1 X124.151 Y103.558 E-0.26053
G1 X123.995 Y103.576 E-0.03614
G1 X123.928 Y103.571 E-0.01568
G1 E-0.04000 F2100.00000
G1 Z0.900 F10800.000
G1 X121.616 Y104.824
G1 Z0.300
G1 E0.80000 F2100.00000
G1 F1646
G1 X121.616 Y99.934 E0.06680
G1 F8640
G1 X121.616 Y103.225 E-0.76000
G1 E-0.04000 F2100.00000
G1 Z0.900 F10800.000
G1 X116.457 Y102.379
G1 Z0.300
G1 E0.80000 F2100.00000
G1 F1646
G1 X120.902 Y102.379 E0.06072
G1 X120.902 Y100.072 E0.03151
G1 X116.595 Y100.072 E0.05883
G1 X116.595 Y97.765 E0.03151
G1 X135.190 Y97.765 E0.25399
G1 F8640
G1 X131.899 Y97.765 E-0.76000
G1 E-0.04000 F2100.00000
G1 Z0.900 F10800.000
G1 X132.883 Y100.072
G1 Z0.300
G1 E0.80000 F2100.00000
G1 F1646
G1 X128.438 Y100.072 E0.06072
G1 X128.438 Y102.379 E0.03151
G1 X130.438 Y102.379 E0.02732
G1 X130.438 Y104.686 E0.03151
G1 X128.438 Y104.686 E0.02732
G1 X128.438 Y104.993 E0.00419
G1 X121.209 Y104.993 E0.09873
G1 X121.209 Y106.993 E0.02732
G1 X130.438 Y106.993 E0.12605
G1 X130.438 Y109.300 E0.03151
G1 X121.209 Y109.300 E0.12605
G1 X121.209 Y111.608 E0.03151
G1 X130.438 Y111.608 E0.12605
G1 X130.438 Y113.915 E0.03151
G1 X118.902 Y113.915 E0.15756
G1 X118.902 Y116.222 E0.03151
G1 X128.131 Y116.222 E0.12605
G1 X128.131 Y118.529 E0.03151
G1 X118.902 Y118.529 E0.12605
G1 X118.902 Y120.836 E0.03151
G1 X128.131 Y120.836 E0.12605
G1 X128.131 Y123.143 E0.03151
G1 X130.438 Y123.143 E0.03151
G1 X118.902 Y123.143 E0.15756
G1 X121.209 Y123.143 E0.03151
G1 X121.209 Y125.450 E0.03151
G1 X130.438 Y125.450 E0.12605
G1 X130.438 Y127.757 E0.03151
G1 X132.745 Y127.757 E0.03151
G1 X121.209 Y127.757 E0.15756
G1 X123.516 Y127.757 E0.03151
G1 X123.516 Y130.064 E0.03151
G1 X132.745 Y130.064 E0.12605
G1 X132.745 Y132.371 E0.03151
G1 X123.516 Y132.371 E0.12605
G1 X123.516 Y134.678 E0.03151
G1 X130.438 Y134.678 E0.09454
G1 X128.131 Y134.678 E0.03151
G1 X128.131 Y136.985 E0.03151
G1 X123.378 Y136.985 E0.06491
G1 F8640
G1 X126.670 Y136.985 E-0.76000
G1 E-0.04000 F2100.00000
G1 Z0.900 F10800.000
G1 X111.843 Y81.616
G1 Z0.300
G1 E0.80000 F2100.00000
G1 F1646
G1 X121.209 Y81.616 E0.12794
G1 X118.902 Y81.616 E0.03151
G1 X118.902 Y83.923 E0.03151
G1 X111.981 Y83.923 E0.09454
G1 X111.981 Y86.230 E0.03151
G1 X116.595 Y86.230 E0.06303
G1 X116.595 Y88.537 E0.03151
G1 X118.902 Y88.537 E0.03151
G1 X111.981 Y88.537 E0.09454
G1 X111.981 Y90.844 E0.03151
G1 X118.902 Y90.844 E0.09454
G1 X118.902 Y93.151 E0.03151
G1 X114.288 Y93.151 E0.06303
G1 X114.288 Y95.458 E0.03151
G1 X123.516 Y95.458 E0.12605
G1 X123.516 Y97.765 E0.03151
G1 X128.131 Y97.765 E0.06302
G1 X128.131 Y95.458 E0.03151
G1 X135.052 Y95.458 E0.09454
G1 X135.052 Y93.151 E0.03151
G1 X137.359 Y93.151 E0.03151
G1 X128.131 Y93.151 E0.12605
G1 X130.438 Y93.151 E0.03151
G1 X130.438 Y90.844 E0.03151
G1 X137.359 Y90.844 E0.09454
G1 X137.359 Y88.537 E0.03151
G1 X139.666 Y88.537 E0.03151
G1 X130.438 Y88.537 E0.12605
G1 X132.745 Y88.537 E0.03151
G1 X132.745 Y86.230 E0.03151
G1 X139.666 Y86.230 E0.09454
G1 X139.666 Y83.923 E0.03151
G1 X132.745 Y83.923 E0.09454
G1 X132.745 Y81.616 E0.03151
G1 X130.438 Y81.616 E0.03151
G1 X137.359 Y81.616 E0.09454
G1 X137.359 Y79.308 E0.03151
G1 X111.981 Y79.308 E0.34664
G1 X114.288 Y79.308 E0.03151
G1 X114.288 Y77.001 E0.03151
G1 X135.052 Y77.001 E0.28361
G1 X132.745 Y77.001 E0.03151
G1 X132.745 Y74.694 E0.03151
G1 X116.595 Y74.694 E0.22059
G1 X118.902 Y74.694 E0.03151
G1 X118.902 Y72.387 E0.03151
G1 X130.576 Y72.387 E0.15945
;BEFORE_LAYER_CHANGE
G92 E0.0
;0.4


G1 F8640
G1 X127.284 Y72.387 E-0.76000
G1 E-0.04000 F2100.00000
G1 Z0.900 F10800.000
;AFTER_LAYER_CHANGE
;0.4
G1 X133.863 Y67.372
G1 Z0.400
G1 E0.80000 F2100.00000
G1 F900
G1 X134.529 Y67.767 E0.02428
G1 X137.226 Y70.151 E0.11285
G1 X142.011 Y74.950 E0.21251
G1 X142.359 Y75.539 E0.02145
G1 X144.197 Y80.191 E0.15682
