; generated by PrusaSlicer 2.1.0+win64 on 2019-11-07 at 22:54:09 UTC

; 

; external perimeters extrusion width = 0.45mm
; perimeters extrusion width = 0.45mm
; infill extrusion width = 0.45mm
; solid infill extrusion width = 0.45mm
; top infill extrusion width = 0.40mm
; first layer extrusion width = 0.42mm

M73 P0 R69
M201 X9000 Y9000 Z500 E10000 ; sets maximum accelerations, mm/sec^2
M203 X500 Y500 Z12 E120 ; sets maximum feedrates, mm/sec
M204 P2000 R1500 T2000 ; sets acceleration (P, T) and retract acceleration (R), mm/sec^2
M205 X10.00 Y10.00 Z0.20 E2.50 ; sets the jerk limits, mm/sec
M205 S0 T0 ; sets the minimum extruding and travel feed rate, mm/sec
M107
M862.3 P "MK2.5SMMU2S" ; printer model check
M862.1 P0.4 ; nozzle diameter check
M115 U3.8.0 ; tell printer latest fw version
G90 ; use absolute coordinates
M83 ; extruder relative mode
M104 S215 ; set extruder temp
M140 S60 ; set bed temp
Tx
M190 S60 ; wait for bed temp
M109 S215 ; wait for extruder temp
G28 W ; home all without mesh bed level
G80 ; mesh bed leveling

G21 ; set units to millimeters

;go outside print area
G1 Y-3.0 F1000.0
G1 Z0.4 F1000.0
; select extruder
Tc
; purge line
G1 X55.0 F2000.0
G1 Z0.3 F1000.0
G92 E0.0
G1 X240.0 E25.0 F2200.0
M73 P0 R69
G1 Y-2.0 F1000.0
G1 X55.0 E25 F1400.0
G1 Z0.20 F1000.0
G1 X5.0 E4.0 F1000.0
G92 E0.0
G21 ; set units to millimeters
G90 ; use absolute coordinates
M83 ; use relative distances for extrusion
M900 K30 ; Filament gcode
;BEFORE_LAYER_CHANGE
G92 E0.0
;0.2


G1 E-0.80000 F2100.00000
G1 Z0.600 F10800.000
;AFTER_LAYER_CHANGE
;0.2
G1 X91.601 Y75.527
G1 Z0.200
G1 E0.80000 F2100.00000
M204 S1000
G1 F1200
G1 X92.476 Y75.334 E0.02810
G1 X157.526 Y75.334 E2.03959
G1 X158.064 Y75.408 E0.01703
G1 X158.714 Y75.701 E0.02236
G1 X159.233 Y76.185 E0.02225
G1 X159.570 Y76.813 E0.02236
G1 X159.689 Y77.516 E0.02236
G1 X159.667 Y96.581 E0.59775
G1 X152.139 Y132.940 E1.16418
G1 X151.948 Y133.475 E0.01783
G1 X151.626 Y133.943 E0.01783
G1 X150.892 Y134.476 E0.02844
G1 X150.008 Y134.666 E0.02833
G1 X99.978 Y134.666 E1.56867
G1 X99.204 Y134.516 E0.02473
G1 X98.535 Y134.104 E0.02462
G1 X98.108 Y133.579 E0.02123
G1 X97.862 Y132.944 E0.02134
G1 X90.330 Y96.556 E1.16510
G1 X90.312 Y77.464 E0.59864
G1 X90.467 Y76.712 E0.02405
G1 X90.874 Y76.058 E0.02417
G1 X91.552 Y75.562 E0.02634
G1 E-0.80000 F2100.00000
G1 Z0.800 F10800.000
G1 X125.000 Y95.484
G1 Z0.200
G1 E0.80000 F2100.00000
G1 F1200
G1 X113.088 Y95.484 E0.37350
G1 X113.088 Y84.929 E0.33092
G1 X98.913 Y84.929 E0.44445
G1 X98.913 Y95.484 E0.33092
G1 X93.087 Y95.484 E0.18266
G1 X93.087 Y78.109 E0.54476
G1 X156.913 Y78.109 E2.00121
G1 X156.913 Y95.484 E0.54476
G1 X152.091 Y95.484 E0.15117
G1 X152.091 Y84.929 E0.33092
G1 X150.857 Y84.929 E0.03872
G1 X137.921 Y84.929 E0.40558
G1 X137.921 Y95.484 E0.33092
G1 X125.060 Y95.484 E0.40326
G1 X125.000 Y95.861 F10800.000
G1 F1200
G1 X112.711 Y95.861 E0.38533
G1 X112.711 Y85.306 E0.33092
G1 X99.290 Y85.306 E0.42080
G1 X99.290 Y95.861 E0.33092
G1 X92.710 Y95.861 E0.20631
G1 X92.710 Y77.732 E0.56841
G1 X157.290 Y77.732 E2.02486
G1 X157.290 Y95.861 E0.56841
G1 X151.714 Y95.861 E0.17482
G1 X151.714 Y85.307 E0.33092
G1 X150.857 Y85.307 E0.02689
G1 X138.298 Y85.307 E0.39375
G1 X138.298 Y95.861 E0.33092
G1 X125.060 Y95.861 E0.41508
G1 X124.728 Y95.567 F10800.000
G1 X123.404 Y95.371
G1 F1200
G1 X113.370 Y85.337 E0.44657
G1 X113.370 Y85.872 E0.01684
G1 X122.699 Y95.201 E0.41520
G1 X122.164 Y95.201 E0.01684
G1 X113.370 Y86.407 E0.39137
G1 X113.370 Y86.943 E0.01684
G1 X121.629 Y95.201 E0.36755
G1 X121.094 Y95.201 E0.01684
G1 X113.370 Y87.478 E0.34373
G1 X113.370 Y88.013 E0.01684
G1 X120.558 Y95.201 E0.31991
G1 X120.023 Y95.201 E0.01684
G1 X113.370 Y88.548 E0.29608
G1 X113.370 Y89.084 E0.01684
G1 X119.488 Y95.201 E0.27226
G1 X118.953 Y95.201 E0.01684
G1 X113.370 Y89.619 E0.24844
G1 X113.370 Y90.154 E0.01684
G1 X118.417 Y95.201 E0.22462
G1 X117.882 Y95.201 E0.01684
G1 X113.370 Y90.689 E0.20080
G1 X113.370 Y91.225 E0.01684
G1 X117.347 Y95.201 E0.17697
G1 X116.812 Y95.201 E0.01684
G1 X113.370 Y91.760 E0.15315
G1 X113.370 Y92.295 E0.01684
G1 X116.276 Y95.201 E0.12933
G1 X115.741 Y95.201 E0.01684
G1 X113.370 Y92.830 E0.10551
G1 X113.370 Y93.366 E0.01684
G1 X115.206 Y95.201 E0.08168
G1 X114.671 Y95.201 E0.01684
G1 X113.370 Y93.901 E0.05786
G1 X113.370 Y94.436 E0.01684
G1 X114.135 Y95.201 E0.03404
G1 X113.600 Y95.201 E0.01684
G1 X113.201 Y94.802 E0.01777
G1 E-0.80000 F2100.00000
G1 Z0.800 F10800.000
G1 X93.200 Y94.605
G1 Z0.200
G1 E0.80000 F2100.00000
G1 F1200
G1 X93.796 Y95.201 E0.02650
G1 X94.331 Y95.201 E0.01684
G1 X93.370 Y94.240 E0.04277
G1 X93.370 Y93.705 E0.01684
G1 X94.866 Y95.201 E0.06660
G1 X95.401 Y95.201 E0.01684
G1 X93.370 Y93.169 E0.09042
G1 X93.370 Y92.634 E0.01684
G1 X95.937 Y95.201 E0.11424
G1 X96.472 Y95.201 E0.01684
G1 X93.370 Y92.099 E0.13806
G1 X93.370 Y91.564 E0.01684
G1 X97.007 Y95.201 E0.16189
G1 X97.542 Y95.201 E0.01684
G1 X93.370 Y91.028 E0.18571
G1 X93.370 Y90.493 E0.01684
G1 X98.078 Y95.201 E0.20953
G1 X98.613 Y95.201 E0.01684
G1 X93.370 Y89.958 E0.23335
G1 X93.370 Y89.423 E0.01684
G1 X98.630 Y94.683 E0.23411
G1 X98.630 Y94.147 E0.01684
G1 X93.370 Y88.887 E0.23411
G1 X93.370 Y88.352 E0.01684
G1 X98.630 Y93.612 E0.23411
G1 X98.630 Y93.077 E0.01684
G1 X93.370 Y87.817 E0.23411
G1 X93.370 Y87.282 E0.01684
G1 X98.630 Y92.542 E0.23411
G1 X98.630 Y92.006 E0.01684
G1 X93.370 Y86.746 E0.23411
G1 X93.370 Y86.211 E0.01684
G1 X98.630 Y91.471 E0.23411
G1 X98.630 Y90.936 E0.01684
G1 X93.370 Y85.676 E0.23411
G1 X93.370 Y85.141 E0.01684
G1 X98.630 Y90.401 E0.23411
G1 X98.630 Y89.865 E0.01684
G1 X93.370 Y84.605 E0.23411
G1 X93.370 Y84.070 E0.01684
G1 X98.630 Y89.330 E0.23411
M73 P1 R68
G1 X98.630 Y88.795 E0.01684
G1 X93.370 Y83.535 E0.23411
G1 X93.370 Y83.000 E0.01684
G1 X98.630 Y88.260 E0.23411
G1 X98.630 Y87.724 E0.01684
G1 X93.370 Y82.464 E0.23411
G1 X93.370 Y81.929 E0.01684
G1 X98.630 Y87.189 E0.23411
G1 X98.630 Y86.654 E0.01684
G1 X93.370 Y81.394 E0.23411
G1 X93.370 Y80.859 E0.01684
G1 X98.630 Y86.119 E0.23411
G1 X98.630 Y85.583 E0.01684
G1 X93.370 Y80.323 E0.23411
G1 X93.370 Y79.788 E0.01684
G1 X98.630 Y85.048 E0.23411
G1 X98.630 Y84.647 E0.01264
G1 X98.764 Y84.647 E0.00421
G1 X93.370 Y79.253 E0.24006
G1 X93.370 Y78.718 E0.01684
G1 X99.299 Y84.647 E0.26388
G1 X99.834 Y84.647 E0.01684
G1 X93.580 Y78.392 E0.27837
G1 X94.115 Y78.392 E0.01684
G1 X100.369 Y84.647 E0.27837
G1 X100.905 Y84.647 E0.01684
G1 X94.650 Y78.392 E0.27837
G1 X95.185 Y78.392 E0.01684
G1 X101.440 Y84.647 E0.27837
G1 X101.975 Y84.647 E0.01684
G1 X95.721 Y78.392 E0.27837
G1 X96.256 Y78.392 E0.01684
G1 X102.510 Y84.647 E0.27837
G1 X103.046 Y84.647 E0.01684
G1 X96.791 Y78.392 E0.27837
G1 X97.326 Y78.392 E0.01684
G1 X103.581 Y84.647 E0.27837
G1 X104.116 Y84.647 E0.01684
G1 X97.862 Y78.392 E0.27837
G1 X98.397 Y78.392 E0.01684
G1 X104.651 Y84.647 E0.27837
G1 X105.187 Y84.647 E0.01684
G1 X98.932 Y78.392 E0.27837
G1 X99.467 Y78.392 E0.01684
G1 X105.722 Y84.647 E0.27837
G1 X106.257 Y84.647 E0.01684
G1 X100.003 Y78.392 E0.27837
G1 X100.538 Y78.392 E0.01684
G1 X106.793 Y84.647 E0.27837
G1 X107.328 Y84.647 E0.01684
G1 X101.073 Y78.392 E0.27837
G1 X101.608 Y78.392 E0.01684
G1 X107.863 Y84.647 E0.27837
G1 X108.398 Y84.647 E0.01684
G1 X102.144 Y78.392 E0.27837
G1 X102.679 Y78.392 E0.01684
G1 X108.934 Y84.647 E0.27837
G1 X109.469 Y84.647 E0.01684
G1 X103.214 Y78.392 E0.27837
G1 X103.749 Y78.392 E0.01684
G1 X110.004 Y84.647 E0.27837
G1 X110.539 Y84.647 E0.01684
G1 X104.285 Y78.392 E0.27837
G1 X104.820 Y78.392 E0.01684
G1 X111.075 Y84.647 E0.27837
G1 X111.610 Y84.647 E0.01684
G1 X105.355 Y78.392 E0.27837
G1 X105.890 Y78.392 E0.01684
G1 X112.145 Y84.647 E0.27837
G1 X112.680 Y84.647 E0.01684
G1 X106.426 Y78.392 E0.27837
G1 X106.961 Y78.392 E0.01684
G1 X123.770 Y95.201 E0.74810
G1 X124.305 Y95.201 E0.01684
G1 X107.496 Y78.392 E0.74810
G1 X108.031 Y78.392 E0.01684
G1 X124.840 Y95.201 E0.74810
G1 X125.376 Y95.201 E0.01684
G1 X108.567 Y78.392 E0.74810
G1 X109.102 Y78.392 E0.01684
G1 X125.911 Y95.201 E0.74810
G1 X126.446 Y95.201 E0.01684
G1 X109.637 Y78.392 E0.74810
G1 X110.172 Y78.392 E0.01684
G1 X126.981 Y95.201 E0.74810
G1 X127.517 Y95.201 E0.01684
G1 X110.708 Y78.392 E0.74810
G1 X111.243 Y78.392 E0.01684
G1 X128.052 Y95.201 E0.74810
G1 X128.587 Y95.201 E0.01684
G1 X111.778 Y78.392 E0.74810
G1 X112.314 Y78.392 E0.01684
G1 X129.122 Y95.201 E0.74810
G1 X129.658 Y95.201 E0.01684
G1 X112.849 Y78.392 E0.74810
G1 X113.384 Y78.392 E0.01684
G1 X130.193 Y95.201 E0.74810
G1 X130.728 Y95.201 E0.01684
G1 X113.919 Y78.392 E0.74810
G1 X114.455 Y78.392 E0.01684
G1 X131.263 Y95.201 E0.74810
G1 X131.799 Y95.201 E0.01684
G1 X114.990 Y78.392 E0.74810
G1 X115.525 Y78.392 E0.01684
G1 X132.334 Y95.201 E0.74810
G1 X132.869 Y95.201 E0.01684
G1 X116.060 Y78.392 E0.74810
G1 X116.596 Y78.392 E0.01684
G1 X133.404 Y95.201 E0.74810
G1 X133.940 Y95.201 E0.01684
G1 X117.131 Y78.392 E0.74810
G1 X117.666 Y78.392 E0.01684
G1 X134.475 Y95.201 E0.74810
G1 X135.010 Y95.201 E0.01684
G1 X118.201 Y78.392 E0.74810
G1 X118.737 Y78.392 E0.01684
G1 X135.545 Y95.201 E0.74810
G1 X136.081 Y95.201 E0.01684
G1 X119.272 Y78.392 E0.74810
G1 X119.807 Y78.392 E0.01684
G1 X136.616 Y95.201 E0.74810
G1 X137.151 Y95.201 E0.01684
G1 X120.342 Y78.392 E0.74810
G1 X120.878 Y78.392 E0.01684
G1 X137.639 Y95.153 E0.74597
G1 X137.639 Y94.618 E0.01684
G1 X121.413 Y78.392 E0.72215
G1 X121.948 Y78.392 E0.01684
G1 X137.639 Y94.083 E0.69833
G1 X137.639 Y93.547 E0.01684
G1 X122.483 Y78.392 E0.67451
G1 X123.019 Y78.392 E0.01684
G1 X137.639 Y93.012 E0.65068
G1 X137.639 Y92.477 E0.01684
G1 X123.554 Y78.392 E0.62686
G1 X124.089 Y78.392 E0.01684
G1 X137.639 Y91.942 E0.60304
G1 X137.639 Y91.406 E0.01684
G1 X124.624 Y78.392 E0.57922
G1 X125.160 Y78.392 E0.01684
G1 X137.639 Y90.871 E0.55540
G1 X137.639 Y90.336 E0.01684
G1 X125.695 Y78.392 E0.53157
G1 X126.230 Y78.392 E0.01684
G1 X137.639 Y89.801 E0.50775
G1 X137.639 Y89.265 E0.01684
G1 X126.765 Y78.392 E0.48393
G1 X127.301 Y78.392 E0.01684
G1 X137.639 Y88.730 E0.46011
M73 P3 R67
G1 X137.639 Y88.195 E0.01684
G1 X127.836 Y78.392 E0.43628
G1 X128.371 Y78.392 E0.01684
G1 X137.639 Y87.660 E0.41246
G1 X137.639 Y87.124 E0.01684
G1 X128.906 Y78.392 E0.38864
G1 X129.442 Y78.392 E0.01684
G1 X137.639 Y86.589 E0.36482
G1 X137.639 Y86.054 E0.01684
G1 X129.977 Y78.392 E0.34100
G1 X130.512 Y78.392 E0.01684
G1 X137.639 Y85.519 E0.31717
G1 X137.639 Y84.983 E0.01684
G1 X131.047 Y78.392 E0.29335
G1 X131.583 Y78.392 E0.01684
G1 X137.837 Y84.647 E0.27837
G1 X138.372 Y84.647 E0.01684
G1 X132.118 Y78.392 E0.27837
G1 X132.653 Y78.392 E0.01684
G1 X138.908 Y84.647 E0.27837
G1 X139.443 Y84.647 E0.01684
G1 X133.188 Y78.392 E0.27837
G1 X133.724 Y78.392 E0.01684
G1 X139.978 Y84.647 E0.27837
G1 X140.513 Y84.647 E0.01684
G1 X134.259 Y78.392 E0.27837
G1 X134.794 Y78.392 E0.01684
G1 X141.049 Y84.647 E0.27837
G1 X141.584 Y84.647 E0.01684
G1 X135.329 Y78.392 E0.27837
G1 X135.865 Y78.392 E0.01684
G1 X142.119 Y84.647 E0.27837
G1 X142.654 Y84.647 E0.01684
G1 X136.400 Y78.392 E0.27837
G1 X136.935 Y78.392 E0.01684
G1 X143.190 Y84.647 E0.27837
G1 X143.725 Y84.647 E0.01684
G1 X137.470 Y78.392 E0.27837
G1 X138.006 Y78.392 E0.01684
G1 X144.260 Y84.647 E0.27837
G1 X144.795 Y84.647 E0.01684
G1 X138.541 Y78.392 E0.27837
G1 X139.076 Y78.392 E0.01684
G1 X145.331 Y84.647 E0.27837
G1 X145.866 Y84.647 E0.01684
G1 X139.611 Y78.392 E0.27837
G1 X140.147 Y78.392 E0.01684
G1 X146.401 Y84.647 E0.27837
G1 X146.936 Y84.647 E0.01684
G1 X140.682 Y78.392 E0.27837
G1 X141.217 Y78.392 E0.01684
G1 X147.472 Y84.647 E0.27837
G1 X148.007 Y84.647 E0.01684
G1 X141.752 Y78.392 E0.27837
G1 X142.288 Y78.392 E0.01684
G1 X148.542 Y84.647 E0.27837
G1 X149.078 Y84.647 E0.01684
G1 X142.823 Y78.392 E0.27837
G1 X143.358 Y78.392 E0.01684
G1 X149.613 Y84.647 E0.27837
G1 X150.148 Y84.647 E0.01684
G1 X143.893 Y78.392 E0.27837
G1 X144.429 Y78.392 E0.01684
G1 X150.683 Y84.647 E0.27837
G1 X151.219 Y84.647 E0.01684
G1 X144.964 Y78.392 E0.27837
G1 X145.499 Y78.392 E0.01684
G1 X151.923 Y84.816 E0.28592
G1 E-0.80000 F2100.00000
G1 Z0.800 F10800.000
G1 X156.800 Y78.988
G1 Z0.200
G1 E0.80000 F2100.00000
G1 F1200
G1 X156.204 Y78.392 E0.02651
G1 X155.669 Y78.392 E0.01684
G1 X156.630 Y79.353 E0.04278
G1 X156.630 Y79.888 E0.01684
G1 X155.134 Y78.392 E0.06660
G1 X154.599 Y78.392 E0.01684
G1 X156.630 Y80.424 E0.09042
G1 X156.630 Y80.959 E0.01684
G1 X154.063 Y78.392 E0.11424
G1 X153.528 Y78.392 E0.01684
G1 X156.630 Y81.494 E0.13807
G1 X156.630 Y82.029 E0.01684
G1 X152.993 Y78.392 E0.16189
G1 X152.457 Y78.392 E0.01684
G1 X156.630 Y82.565 E0.18571
G1 X156.630 Y83.100 E0.01684
G1 X151.922 Y78.392 E0.20953
G1 X151.387 Y78.392 E0.01684
G1 X156.630 Y83.635 E0.23335
G1 X156.630 Y84.170 E0.01684
G1 X150.852 Y78.392 E0.25718
G1 X150.316 Y78.392 E0.01684
G1 X156.630 Y84.706 E0.28100
G1 X156.630 Y85.241 E0.01684
G1 X149.781 Y78.392 E0.30482
G1 X149.246 Y78.392 E0.01684
G1 X156.630 Y85.776 E0.32864
G1 X156.630 Y86.311 E0.01684
G1 X148.711 Y78.392 E0.35246
G1 X148.175 Y78.392 E0.01684
G1 X156.630 Y86.847 E0.37629
G1 X156.630 Y87.382 E0.01684
G1 X147.640 Y78.392 E0.40011
G1 X147.105 Y78.392 E0.01684
G1 X156.630 Y87.917 E0.42393
G1 X156.630 Y88.453 E0.01684
G1 X146.570 Y78.392 E0.44775
G1 X146.034 Y78.392 E0.01684
G1 X156.630 Y88.988 E0.47158
G1 X156.630 Y89.523 E0.01684
G1 X152.374 Y85.267 E0.18941
G1 X152.374 Y85.802 E0.01684
G1 X156.630 Y90.058 E0.18941
G1 X156.630 Y90.594 E0.01684
G1 X152.374 Y86.338 E0.18941
G1 X152.374 Y86.873 E0.01684
G1 X156.630 Y91.129 E0.18941
G1 X156.630 Y91.664 E0.01684
G1 X152.374 Y87.408 E0.18941
G1 X152.374 Y87.943 E0.01684
G1 X156.630 Y92.199 E0.18941
G1 X156.630 Y92.735 E0.01684
G1 X152.374 Y88.479 E0.18941
G1 X152.374 Y89.014 E0.01684
G1 X156.630 Y93.270 E0.18941
G1 X156.630 Y93.805 E0.01684
G1 X152.374 Y89.549 E0.18941
G1 X152.374 Y90.084 E0.01684
G1 X156.630 Y94.340 E0.18941
G1 X156.630 Y94.876 E0.01684
G1 X152.374 Y90.620 E0.18941
G1 X152.374 Y91.155 E0.01684
G1 X156.420 Y95.201 E0.18008
G1 X155.885 Y95.201 E0.01684
G1 X152.374 Y91.690 E0.15625
G1 X152.374 Y92.225 E0.01684
G1 X155.350 Y95.201 E0.13243
G1 X154.815 Y95.201 E0.01684
G1 X152.374 Y92.761 E0.10861
G1 X152.374 Y93.296 E0.01684
G1 X154.279 Y95.201 E0.08479
G1 X153.744 Y95.201 E0.01684
G1 X152.374 Y93.831 E0.06096
G1 X152.374 Y94.366 E0.01684
G1 X153.209 Y95.201 E0.03714
G1 X152.674 Y95.201 E0.01684
G1 X152.205 Y94.732 E0.02087
G1 E-0.80000 F2100.00000
G1 Z0.800 F10800.000
G1 X125.000 Y131.891
G1 Z0.200
G1 E0.80000 F2100.00000
G1 F1200
G1 X100.587 Y131.891 E0.76545
G1 X100.587 Y118.065 E0.43350
G1 X149.413 Y118.065 E1.53090
G1 X149.413 Y131.891 E0.43350
G1 X125.060 Y131.891 E0.76357
G1 X125.000 Y132.268 F10800.000
G1 F1200
G1 X100.210 Y132.268 E0.77727
G1 X100.210 Y117.688 E0.45715
G1 X149.790 Y117.688 E1.55455
G1 X149.790 Y132.268 E0.45715
G1 X125.060 Y132.268 E0.77539
G1 X124.742 Y131.962 F10800.000
G1 E-0.80000 F2100.00000
G1 Z0.800 F10800.000
G1 X101.468 Y131.778
G1 Z0.200
G1 E0.80000 F2100.00000
G1 F1200
G1 X100.870 Y131.180 E0.02669
G1 X100.870 Y130.643 E0.01695
G1 X101.835 Y131.608 E0.04308
G1 X102.372 Y131.608 E0.01695
G1 X100.870 Y130.106 E0.06705
G1 X100.870 Y129.569 E0.01695
G1 X102.909 Y131.608 E0.09101
G1 X103.446 Y131.608 E0.01695
G1 X100.870 Y129.032 E0.11498
G1 X100.870 Y128.495 E0.01695
G1 X103.982 Y131.608 E0.13894
G1 X104.519 Y131.608 E0.01695
G1 X100.870 Y127.959 E0.16290
G1 X100.870 Y127.422 E0.01695
G1 X105.056 Y131.608 E0.18687
G1 X105.593 Y131.608 E0.01695
G1 X100.870 Y126.885 E0.21083
G1 X100.870 Y126.348 E0.01695
G1 X106.130 Y131.608 E0.23480
G1 X106.667 Y131.608 E0.01695
G1 X100.870 Y125.811 E0.25876
G1 X100.870 Y125.274 E0.01695
G1 X107.203 Y131.608 E0.28273
G1 X107.740 Y131.608 E0.01695
G1 X100.870 Y124.737 E0.30669
G1 X100.870 Y124.201 E0.01695
G1 X108.277 Y131.608 E0.33066
G1 X108.814 Y131.608 E0.01695
G1 X100.870 Y123.664 E0.35462
G1 X100.870 Y123.127 E0.01695
G1 X109.351 Y131.608 E0.37859
G1 X109.888 Y131.608 E0.01695
G1 X100.870 Y122.590 E0.40255
G1 X100.870 Y122.053 E0.01695
G1 X110.425 Y131.608 E0.42651
G1 X110.961 Y131.608 E0.01695
G1 X100.870 Y121.516 E0.45048
