; generated by PrusaSlicer 2.2.0+win64 on 2021-03-30 at 20:23:47 UTC

; 

; external perimeters extrusion width = 0.45mm
; perimeters extrusion width = 0.45mm
; infill extrusion width = 0.45mm
; solid infill extrusion width = 0.45mm
; top infill extrusion width = 0.40mm
; first layer extrusion width = 0.42mm

M73 P0 R37
M201 X9000 Y9000 Z500 E10000 ; sets maximum accelerations, mm/sec^2
M203 X500 Y500 Z12 E120 ; sets maximum feedrates, mm/sec
M204 P2000 R1500 T2000 ; sets acceleration (P, T) and retract acceleration (R), mm/sec^2
M205 X10.00 Y10.00 Z0.20 E2.50 ; sets the jerk limits, mm/sec
M205 S0 T0 ; sets the minimum extruding and travel feed rate, mm/sec
M107
M862.3 P "MK2.5SMMU2S" ; printer model check
M862.1 P0.4 ; nozzle diameter check
M115 U3.8.0 ; tell printer latest fw version
G90 ; use absolute coordinates
M83 ; extruder relative mode
M104 S215 ; set extruder temp
M140 S60 ; set bed temp
Tx
M190 S60 ; wait for bed temp
M109 S215 ; wait for extruder temp
G28 W ; home all without mesh bed level
G80 ; mesh bed leveling

G21 ; set units to millimeters

;go outside print area
G1 Y-3.0 F1000.0
G1 Z0.4 F1000.0
; select extruder
Tc
; purge line
G1 X55.0 F2000.0
G1 Z0.3 F1000.0
G92 E0.0
G1 X240.0 E25.0 F2200.0
M73 P0 R37
G1 Y-2.0 F1000.0
G1 X55.0 E25 F1400.0
G1 Z0.20 F1000.0
G1 X5.0 E4.0 F1000.0
G92 E0.0
G21 ; set units to millimeters
G90 ; use absolute coordinates
M83 ; use relative distances for extrusion
M900 K0.05 ; Filament gcode LA 1.5
M900 K30 ; Filament gcode LA 1.0
;BEFORE_LAYER_CHANGE
G92 E0.0
;0.2


G1 E-0.80000 F2100.00000
G1 Z0.600 F10800.000
;AFTER_LAYER_CHANGE
;0.2
G1 X110.876 Y59.875
G1 Z0.200
G1 E0.80000 F2100.00000
M204 S1000
G1 F1200.000
G1 X111.357 Y59.439 E0.02036
G1 X111.938 Y59.148 E0.02036
G1 X112.575 Y59.026 E0.02036
G1 X137.304 Y59.023 E0.77534
G1 X138.009 Y59.131 E0.02237
G1 X138.647 Y59.441 E0.02225
G1 X139.165 Y59.926 E0.02225
G1 X139.518 Y60.546 E0.02237
G1 X156.703 Y109.338 E1.62194
G1 X156.759 Y109.848 E0.01609
G1 X156.759 Y144.961 E1.10096
G1 X156.705 Y145.453 E0.01550
G1 X156.551 Y145.922 E0.01550
G1 X156.185 Y146.499 E0.02142
G1 X155.670 Y146.948 E0.02142
G1 X153.034 Y148.560 E0.09688
G1 X152.555 Y148.746 E0.01609
G1 X152.048 Y148.825 E0.01609
G1 X98.053 Y148.827 E1.69297
G1 X97.558 Y148.773 E0.01562
G1 X97.089 Y148.619 E0.01550
G1 X94.033 Y146.721 E0.11279
G1 X93.498 Y146.024 E0.02755
G1 X93.252 Y145.181 E0.02755
G1 X93.268 Y109.493 E1.11895
G1 X110.532 Y60.426 E1.63092
G1 X110.844 Y59.926 E0.01848
G1 E-0.80000 F2100.00000
G1 Z0.800 F10800.000
G1 X94.553 Y105.272
G1 Z0.200
G1 E0.80000 F2100.00000
G1 F1200.000
G1 X93.885 Y105.435 E0.02156
G1 X93.050 Y105.854 E0.02931
G1 X91.622 Y107.282 E0.06330
G1 X91.203 Y108.117 E0.02931
G1 X90.905 Y109.340 E0.03948
G1 X90.905 Y145.460 E1.13249
G1 X91.204 Y146.686 E0.03957
G1 X91.727 Y147.662 E0.03474
G1 X92.969 Y148.888 E0.05471
G1 X93.712 Y149.300 E0.02662
G1 X94.366 Y149.534 E0.02180
G1 X94.534 Y149.565 E0.00536
G1 X95.498 Y150.444 E0.04091
G1 X96.530 Y150.944 E0.03592
G1 X97.651 Y151.165 E0.03584
G1 X98.800 Y151.132 E0.03606
G1 X99.609 Y150.939 E0.02608
G1 X99.996 Y150.760 E0.01335
G1 X101.282 Y151.134 E0.04200
G1 X102.811 Y151.123 E0.04793
G1 X103.631 Y150.910 E0.02658
G1 X103.977 Y150.750 E0.01194
G1 X104.363 Y150.926 E0.01332
G1 X105.288 Y151.141 E0.02975
G1 X106.498 Y151.154 E0.03795
G1 X107.460 Y150.951 E0.03082
G1 X107.918 Y150.739 E0.01585
G1 X108.388 Y150.955 E0.01621
G1 X109.299 Y151.150 E0.02922
G1 X110.561 Y151.139 E0.03955
G1 X111.515 Y150.911 E0.03076
G1 X111.866 Y150.745 E0.01217
G1 X112.286 Y150.940 E0.01453
G1 X113.104 Y151.133 E0.02634
G1 X114.309 Y151.161 E0.03780
G1 X115.448 Y150.914 E0.03653
G1 X115.808 Y150.745 E0.01248
G1 X116.227 Y150.939 E0.01448
G1 X117.036 Y151.132 E0.02608
G1 X118.316 Y151.153 E0.04014
G1 X119.358 Y150.926 E0.03345
G1 X120.340 Y150.443 E0.03432
G1 X121.327 Y149.542 E0.04191
G1 X121.847 Y149.410 E0.01680
G1 X122.580 Y149.014 E0.02612
G1 X123.142 Y148.637 F10800.000
G1 F1200.000
G1 X124.217 Y147.512 E0.04881
G1 X124.619 Y146.721 E0.02781
G1 X124.853 Y145.800 E0.02980
G1 X125.146 Y145.800 E0.00918
G1 X125.384 Y146.729 E0.03006
G1 X125.891 Y147.662 E0.03330
G1 X126.870 Y148.637 E0.04333
G1 X127.369 Y149.014 F10800.000
G1 F1200.000
G1 X127.876 Y149.300 E0.01825
G1 X128.530 Y149.534 E0.02178
G1 X128.699 Y149.565 E0.00538
G1 X129.618 Y150.415 E0.03925
G1 X130.649 Y150.929 E0.03612
G1 X131.774 Y151.162 E0.03600
G1 X132.965 Y151.132 E0.03735
G1 X133.773 Y150.939 E0.02606
G1 X134.160 Y150.760 E0.01335
G1 X135.446 Y151.134 E0.04200
G1 X136.975 Y151.123 E0.04793
G1 X137.795 Y150.910 E0.02658
G1 X138.141 Y150.750 E0.01194
G1 X138.527 Y150.926 E0.01332
G1 X139.451 Y151.141 E0.02975
G1 X140.662 Y151.154 E0.03795
G1 X141.623 Y150.951 E0.03082
G1 X142.082 Y150.739 E0.01585
G1 X142.552 Y150.955 E0.01621
G1 X143.463 Y151.150 E0.02922
G1 X144.724 Y151.139 E0.03955
G1 X145.679 Y150.911 E0.03076
G1 X146.029 Y150.745 E0.01217
G1 X146.450 Y150.940 E0.01453
G1 X147.267 Y151.133 E0.02634
G1 X148.473 Y151.161 E0.03780
G1 X149.611 Y150.914 E0.03653
G1 X149.972 Y150.745 E0.01248
G1 X150.391 Y150.939 E0.01448
G1 X151.200 Y151.132 E0.02609
G1 X152.436 Y151.157 E0.03877
G1 X153.565 Y150.911 E0.03622
G1 X154.547 Y150.414 E0.03451
G1 X155.490 Y149.542 E0.04029
G1 X156.011 Y149.409 E0.01684
G1 X157.112 Y148.826 E0.03907
G1 X158.381 Y147.512 E0.05727
G1 X158.797 Y146.683 E0.02909
G1 X159.095 Y145.460 E0.03947
G1 X159.095 Y109.339 E1.13255
G1 X158.734 Y107.956 E0.04481
G1 X157.944 Y106.738 E0.04551
G1 X156.725 Y105.715 E0.04990
G1 X155.817 Y105.324 E0.03101
G1 X155.465 Y105.256 E0.01122
G1 X155.036 Y105.173 F10800.000
G1 F1200.000
G1 X154.868 Y105.140 E0.00536
G1 X129.227 Y105.142 E0.80396
G1 X128.050 Y105.434 E0.03803
G1 X127.166 Y105.888 E0.03116
G1 X125.786 Y107.282 E0.06149
G1 X125.381 Y108.078 E0.02802
G1 X125.144 Y109.012 E0.03020
G1 X124.853 Y109.015 E0.00910
G1 X124.547 Y107.903 E0.03616
G1 X123.780 Y106.739 E0.04369
G1 X122.561 Y105.715 E0.04992
G1 X121.653 Y105.324 E0.03101
G1 X120.705 Y105.140 E0.03028
G1 X95.109 Y105.136 E0.80254
G1 X94.991 Y105.165 E0.00382
G1 E-0.80000 F2100.00000
G1 Z0.800 F10800.000
G1 X129.296 Y105.514
G1 Z0.200
G1 E0.80000 F2100.00000
G1 F1200.000
G1 X154.850 Y105.517 E0.80122
G1 X155.181 Y105.583 E0.01058
G1 X155.610 Y105.668 F10800.000
G1 F1200.000
G1 X155.723 Y105.690 E0.00359
G1 X156.548 Y106.049 E0.02823
G1 X157.679 Y107.008 E0.04647
G1 X158.378 Y108.082 E0.04018
G1 X158.718 Y109.363 E0.04157
G1 X158.718 Y145.436 E1.13104
G1 X158.436 Y146.570 E0.03664
G1 X158.058 Y147.316 E0.02622
G1 X156.909 Y148.507 E0.05188
G1 X155.856 Y149.065 E0.03736
G1 X155.307 Y149.198 E0.01771
G1 X154.311 Y150.118 E0.04253
G1 X153.418 Y150.563 E0.03127
G1 X152.421 Y150.780 E0.03202
G1 X151.267 Y150.761 E0.03617
G1 X150.498 Y150.577 E0.02478
G1 X149.970 Y150.325 E0.01838
G1 X149.506 Y150.551 E0.01616
G1 X148.457 Y150.783 E0.03370
G1 X147.334 Y150.762 E0.03520
G1 X146.557 Y150.578 E0.02504
G1 X146.027 Y150.325 E0.01843
G1 X145.569 Y150.549 E0.01598
G1 X144.658 Y150.768 E0.02937
G1 X143.483 Y150.772 E0.03684
G1 X142.654 Y150.592 E0.02659
G1 X142.082 Y150.320 E0.01987
G1 X141.521 Y150.588 E0.01947
G1 X140.643 Y150.777 E0.02817
G1 X139.516 Y150.769 E0.03533
G1 X138.633 Y150.564 E0.02842
G1 X138.140 Y150.332 E0.01709
G1 X137.680 Y150.551 E0.01598
G1 X136.947 Y150.747 E0.02376
G1 X135.472 Y150.757 E0.04626
G1 X134.340 Y150.420 E0.03703
G1 X134.175 Y150.334 E0.00582
G1 X133.665 Y150.577 E0.01770
G1 X132.896 Y150.761 E0.02479
G1 X131.827 Y150.788 E0.03354
G1 X130.793 Y150.579 E0.03308
G1 X129.854 Y150.119 E0.03279
G1 X128.869 Y149.209 E0.04204
G1 X128.638 Y149.172 E0.00732
G1 X128.197 Y149.014 E0.01470
G1 X127.456 Y148.637 F10800.000
G1 F1200.000
G1 X127.338 Y148.572 E0.00422
G1 X126.209 Y147.457 E0.04975
G1 X125.727 Y146.571 E0.03164
G1 X125.445 Y145.436 E0.03665
G1 X125.445 Y109.364 E1.13103
G1 X125.727 Y108.230 E0.03664
G1 X126.108 Y107.479 E0.02639
G1 X127.411 Y106.177 E0.05777
G1 X128.162 Y105.795 E0.02639
G1 X129.296 Y105.514 E0.03665
G1 E-0.80000 F2100.00000
G1 Z0.800 F10800.000
G1 X154.830 Y105.894
G1 Z0.200
G1 E0.80000 F2100.00000
G1 F1200.000
G1 X155.326 Y105.994 E0.01584
G1 X155.769 Y106.117 F10800.000
G1 F1200.000
G1 X156.370 Y106.383 E0.02060
G1 X157.412 Y107.276 E0.04302
G1 X158.044 Y108.260 E0.03669
G1 X158.341 Y109.388 E0.03655
G1 X158.341 Y145.412 E1.12953
G1 X158.077 Y146.456 E0.03376
G1 X157.736 Y147.118 E0.02334
G1 X156.661 Y148.221 E0.04831
G1 X155.705 Y148.718 E0.03378
G1 X155.124 Y148.852 E0.01870
G1 X154.118 Y149.793 E0.04319
G1 X153.272 Y150.215 E0.02963
G1 X152.364 Y150.407 E0.02910
G1 X151.335 Y150.389 E0.03228
G1 X150.607 Y150.216 E0.02346
G1 X149.967 Y149.903 E0.02234
G1 X149.399 Y150.189 E0.01993
G1 X148.439 Y150.406 E0.03085
G1 X147.401 Y150.390 E0.03257
G1 X146.665 Y150.216 E0.02370
G1 X146.024 Y149.903 E0.02238
G1 X145.459 Y150.188 E0.01984
G1 X144.592 Y150.396 E0.02794
G1 X143.505 Y150.395 E0.03410
G1 X142.759 Y150.229 E0.02395
G1 X142.081 Y149.900 E0.02363
G1 X141.417 Y150.225 E0.02319
G1 X140.622 Y150.400 E0.02550
G1 X139.580 Y150.397 E0.03267
G1 X138.740 Y150.201 E0.02706
G1 X138.139 Y149.912 E0.02090
G1 X137.564 Y150.191 E0.02004
G1 X136.874 Y150.376 E0.02240
G1 X135.500 Y150.380 E0.04308
G1 X134.475 Y150.067 E0.03360
G1 X134.193 Y149.905 E0.01019
G1 X133.557 Y150.216 E0.02221
G1 X132.829 Y150.389 E0.02347
G1 X131.840 Y150.411 E0.03102
G1 X130.937 Y150.230 E0.02887
G1 X130.046 Y149.793 E0.03112
G1 X129.213 Y149.014 E0.03573
G1 X128.262 Y148.637 F10800.000
G1 F1200.000
G1 X128.160 Y148.600 E0.00342
G1 X127.546 Y148.256 E0.02207
G1 X126.495 Y147.210 E0.04649
G1 X126.087 Y146.455 E0.02690
G1 X125.823 Y145.412 E0.03373
G1 X125.823 Y109.388 E1.12953
G1 X126.087 Y108.344 E0.03376
G1 X126.430 Y107.678 E0.02348
G1 X127.610 Y106.498 E0.05234
G1 X128.276 Y106.155 E0.02348
G1 X129.320 Y105.891 E0.03377
G1 X154.830 Y105.894 E0.79987
G1 X155.471 Y106.408 F10800.000
G1 F1200.000
G1 X154.811 Y106.271 E0.02115
G1 X129.344 Y106.268 E0.79848
G1 X128.392 Y106.515 E0.03083
G1 X127.811 Y106.819 E0.02058
G1 X126.750 Y107.879 E0.04702
G1 X126.446 Y108.461 E0.02058
G1 X126.200 Y109.412 E0.03083
G1 X126.200 Y145.388 E1.12799
G1 X126.446 Y146.338 E0.03079
G1 X126.782 Y146.964 E0.02226
G1 X127.755 Y147.941 E0.04323
G1 X128.302 Y148.251 E0.01973
G1 X128.850 Y148.447 E0.01825
G1 X129.205 Y148.489 E0.01121
G1 X129.362 Y148.637 E0.00676
G1 X129.760 Y149.014 F10800.000
G1 F1200.000
G1 X130.240 Y149.468 E0.02071
G1 X131.037 Y149.866 E0.02794
G1 X131.855 Y150.033 E0.02616
G1 X132.762 Y150.017 E0.02844
G1 X133.448 Y149.854 E0.02212
G1 X134.213 Y149.473 E0.02681
G1 X134.612 Y149.715 E0.01464
G1 X135.530 Y150.003 E0.03017
G1 X136.801 Y150.005 E0.03984
G1 X137.448 Y149.832 E0.02101
G1 X138.139 Y149.491 E0.02416
G1 X138.847 Y149.839 E0.02473
G1 X139.644 Y150.024 E0.02567
G1 X140.600 Y150.023 E0.02997
G1 X141.310 Y149.862 E0.02283
G1 X142.080 Y149.478 E0.02699
G1 X142.866 Y149.867 E0.02748
G1 X143.528 Y150.019 E0.02130
G1 X144.527 Y150.023 E0.03131
G1 X145.348 Y149.827 E0.02647
G1 X146.020 Y149.479 E0.02374
G1 X146.774 Y149.854 E0.02640
G1 X147.467 Y150.018 E0.02233
G1 X148.420 Y150.029 E0.02989
G1 X149.289 Y149.827 E0.02798
G1 X149.963 Y149.479 E0.02378
G1 X150.716 Y149.854 E0.02637
G1 X151.402 Y150.017 E0.02212
G1 X152.309 Y150.033 E0.02844
G1 X153.126 Y149.866 E0.02616
G1 X153.924 Y149.468 E0.02794
G1 X154.941 Y148.506 E0.04391
G1 X155.554 Y148.372 E0.01967
G1 X156.460 Y147.901 E0.03201
G1 X157.415 Y146.919 E0.04295
G1 X157.717 Y146.339 E0.02049
G1 X157.964 Y145.388 E0.03082
G1 X157.964 Y109.413 E1.12797
M73 P3 R36
G1 X157.688 Y108.387 E0.03331
G1 X157.144 Y107.542 E0.03149
G1 X156.190 Y106.715 E0.03960
G1 X155.940 Y106.603 E0.00859
G1 X155.638 Y106.881 F10800.000
G1 F1200.000
G1 X155.395 Y106.773 E0.00834
G1 X154.792 Y106.648 E0.01932
G1 X129.369 Y106.645 E0.79710
G1 X128.511 Y106.873 E0.02784
G1 X128.013 Y107.138 E0.01770
G1 X127.070 Y108.081 E0.04182
G1 X126.805 Y108.579 E0.01770
G1 X126.577 Y109.437 E0.02783
G1 X126.577 Y145.363 E1.12642
G1 X126.805 Y146.221 E0.02783
G1 X127.070 Y146.719 E0.01771
G1 X127.965 Y147.627 E0.03996
G1 X128.446 Y147.902 E0.01736
G1 X128.954 Y148.084 E0.01694
G1 X129.371 Y148.125 E0.01315
G1 X129.906 Y148.637 E0.02320
G1 X130.299 Y149.014 F10800.000
G1 F1200.000
G1 X130.436 Y149.145 E0.00594
G1 X131.140 Y149.502 E0.02475
G1 X131.871 Y149.656 E0.02343
G1 X132.697 Y149.645 E0.02590
G1 X133.300 Y149.506 E0.01939
G1 X133.985 Y149.165 E0.02399
G1 X134.166 Y149.014 E0.00739
G1 X134.194 Y149.014 F10800.000
G1 F1200.000
G1 X134.752 Y149.364 E0.02066
G1 X135.563 Y149.626 E0.02671
G1 X136.728 Y149.634 E0.03654
G1 X137.332 Y149.473 E0.01958
G1 X137.880 Y149.198 E0.01923
G1 X138.098 Y149.014 E0.00894
G1 X138.181 Y149.014 F10800.000
G1 F1200.000
G1 X138.397 Y149.197 E0.00889
G1 X138.955 Y149.477 E0.01957
G1 X139.707 Y149.652 E0.02423
G1 X140.577 Y149.646 E0.02726
G1 X141.162 Y149.514 E0.01882
G1 X141.891 Y149.151 E0.02553
G1 X142.061 Y149.014 E0.00685
G1 X142.106 Y149.014 F10800.000
G1 F1200.000
G1 X142.281 Y149.157 E0.00709
G1 X143.012 Y149.518 E0.02557
G1 X143.589 Y149.646 E0.01851
G1 X144.503 Y149.646 E0.02868
G1 X145.234 Y149.467 E0.02360
G1 X145.845 Y149.144 E0.02165
G1 X146.006 Y149.013 E0.00651
G1 X146.054 Y149.013 F10800.000
G1 F1200.000
G1 X146.236 Y149.165 E0.00742
G1 X146.921 Y149.506 E0.02402
G1 X147.530 Y149.646 E0.01958
G1 X148.399 Y149.652 E0.02725
G1 X149.178 Y149.466 E0.02510
G1 X149.788 Y149.144 E0.02162
G1 X149.949 Y149.013 E0.00652
G1 X149.997 Y149.013 F10800.000
G1 F1200.000
G1 X150.179 Y149.165 E0.00743
G1 X150.864 Y149.506 E0.02400
G1 X151.466 Y149.645 E0.01939
G1 X152.292 Y149.656 E0.02590
G1 X153.024 Y149.502 E0.02343
G1 X153.728 Y149.145 E0.02475
G1 X154.759 Y148.158 E0.04477
G1 X155.408 Y148.024 E0.02076
G1 X156.214 Y147.614 E0.02835
G1 X157.095 Y146.717 E0.03944
G1 X157.359 Y146.221 E0.01762
G1 X157.587 Y145.363 E0.02783
G1 X157.587 Y109.437 E1.12642
G1 X157.354 Y108.564 E0.02835
G1 X156.874 Y107.807 E0.02809
G1 X156.135 Y107.158 E0.03085
G1 X155.810 Y107.371 F10800.000
G1 F1200.000
G1 X155.296 Y107.137 E0.01773
G1 X154.771 Y107.026 E0.01681
G1 X129.395 Y107.022 E0.79565
G1 X128.633 Y107.230 E0.02477
G1 X128.217 Y107.456 E0.01484
G1 X127.388 Y108.285 E0.03678
G1 X127.162 Y108.701 E0.01483
G1 X126.954 Y109.463 E0.02477
G1 X126.954 Y145.337 E1.12479
G1 X127.162 Y146.099 E0.02477
G1 X127.388 Y146.515 E0.01484
G1 X128.213 Y147.341 E0.03661
G1 X128.587 Y147.552 E0.01347
G1 X129.056 Y147.720 E0.01563
G1 X129.536 Y147.759 E0.01509
G1 X130.442 Y148.637 E0.03955
G1 X131.003 Y149.014 F10800.000
G1 F1200.000
G1 X131.246 Y149.139 E0.00856
G1 X131.888 Y149.279 E0.02062
G1 X132.671 Y149.269 E0.02454
G1 X133.190 Y149.145 E0.01673
G1 X133.449 Y149.014 E0.00910
G1 X134.008 Y148.637 F10800.000
G1 F1200.000
G1 X134.186 Y148.471 E0.00764
G1 X134.361 Y148.637 E0.00756
G1 X134.894 Y149.014 F10800.000
G1 F1200.000
G1 X135.650 Y149.258 E0.02491
G1 X136.702 Y149.257 E0.03298
G1 X137.179 Y149.127 E0.01551
G1 X137.406 Y149.014 E0.00796
G1 X137.946 Y148.637 F10800.000
G1 F1200.000
G1 X138.140 Y148.460 E0.00821
G1 X138.333 Y148.637 E0.00820
G1 X138.872 Y149.014 F10800.000
G1 F1200.000
G1 X139.104 Y149.130 E0.00813
G1 X139.727 Y149.275 E0.02007
G1 X140.553 Y149.269 E0.02589
G1 X141.054 Y149.153 E0.01613
G1 X141.329 Y149.014 E0.00965
G1 X141.902 Y148.637 F10800.000
G1 F1200.000
G1 X142.084 Y148.469 E0.00774
G1 X142.265 Y148.636 E0.00773
G1 X142.835 Y149.014 F10800.000
G1 F1200.000
G1 X143.120 Y149.156 E0.00998
G1 X143.611 Y149.269 E0.01580
G1 X144.481 Y149.269 E0.02728
G1 X145.079 Y149.122 E0.01930
G1 X145.285 Y149.013 E0.00731
G1 X145.847 Y148.636 F10800.000
G1 F1200.000
G1 X146.031 Y148.467 E0.00785
G1 X146.213 Y148.636 E0.00779
G1 X146.771 Y149.013 F10800.000
G1 F1200.000
G1 X147.031 Y149.145 E0.00915
G1 X147.555 Y149.269 E0.01686
G1 X148.379 Y149.274 E0.02585
G1 X149.023 Y149.122 E0.02075
G1 X149.228 Y149.013 E0.00728
G1 X149.790 Y148.636 F10800.000
G1 F1200.000
G1 X149.974 Y148.467 E0.00784
G1 X150.156 Y148.636 E0.00778
G1 X150.713 Y149.013 F10800.000
G1 F1200.000
