; generated by PrusaSlicer 2.2.0+win64 on 2020-07-28 at 23:05:10 UTC

; 

; external perimeters extrusion width = 0.45mm
; perimeters extrusion width = 0.45mm
; infill extrusion width = 0.45mm
; solid infill extrusion width = 0.45mm
; top infill extrusion width = 0.40mm
; first layer extrusion width = 0.42mm

M73 P0 R141
M201 X9000 Y9000 Z500 E10000 ; sets maximum accelerations, mm/sec^2
M203 X500 Y500 Z12 E120 ; sets maximum feedrates, mm/sec
M204 P2000 R1500 T2000 ; sets acceleration (P, T) and retract acceleration (R), mm/sec^2
M205 X10.00 Y10.00 Z0.20 E2.50 ; sets the jerk limits, mm/sec
M205 S0 T0 ; sets the minimum extruding and travel feed rate, mm/sec
M107
M862.3 P "MK2.5SMMU2S" ; printer model check
M862.1 P0.4 ; nozzle diameter check
M115 U3.8.0 ; tell printer latest fw version
G90 ; use absolute coordinates
M83 ; extruder relative mode
M104 S215 ; set extruder temp
M140 S60 ; set bed temp
Tx
M190 S60 ; wait for bed temp
M109 S215 ; wait for extruder temp
G28 W ; home all without mesh bed level
G80 ; mesh bed leveling

G21 ; set units to millimeters

;go outside print area
G1 Y-3.0 F1000.0
G1 Z0.4 F1000.0
; select extruder
Tc
; purge line
G1 X55.0 F2000.0
G1 Z0.3 F1000.0
G92 E0.0
G1 X240.0 E25.0 F2200.0
M73 P0 R141
G1 Y-2.0 F1000.0
G1 X55.0 E25 F1400.0
G1 Z0.20 F1000.0
G1 X5.0 E4.0 F1000.0
G92 E0.0
G21 ; set units to millimeters
G90 ; use absolute coordinates
M83 ; use relative distances for extrusion
M900 K0.06 ; Filament gcode LA 1.5
M900 K30 ; Filament gcode LA 1.0
;BEFORE_LAYER_CHANGE
G92 E0.0
;0.2


G1 E-0.80000 F2100.00000
G1 Z0.600 F10800.000
;AFTER_LAYER_CHANGE
;0.2
G1 X82.686 Y81.345
G1 Z0.200
G1 E0.80000 F2100.00000
M204 S1000
G1 F1200.000
G1 X83.174 Y80.977 E0.01917
G1 X83.736 Y80.746 E0.01906
G1 X84.342 Y80.665 E0.01917
G1 X165.649 Y80.665 E2.54932
G1 X166.544 Y80.840 E0.02860
G1 X167.311 Y81.342 E0.02872
G1 X167.829 Y82.093 E0.02860
G1 X168.025 Y82.984 E0.02860
G1 X168.025 Y127.019 E1.38071
G1 X167.932 Y127.620 E0.01906
G1 X167.690 Y128.177 E0.01906
G1 X167.311 Y128.657 E0.01917
G1 X166.826 Y129.023 E0.01906
G1 X166.264 Y129.254 E0.01906
G1 X165.658 Y129.335 E0.01917
G1 X84.324 Y129.335 E2.55016
G1 X83.711 Y129.248 E0.01941
G1 X83.145 Y129.007 E0.01929
G1 X82.660 Y128.629 E0.01929
G1 X82.286 Y128.135 E0.01941
G1 X82.056 Y127.577 E0.01894
G1 X81.974 Y126.975 E0.01906
G1 X81.974 Y82.996 E1.37892
G1 X82.065 Y82.391 E0.01917
G1 X82.308 Y81.826 E0.01929
G1 X82.649 Y81.392 E0.01729
G1 E-0.80000 F2100.00000
G1 Z0.800 F10800.000
G1 X146.825 Y126.371
G1 Z0.200
G1 E0.80000 F2100.00000
G1 F1200.000
G1 X128.587 Y126.371 E0.57182
G1 X128.587 Y83.629 E1.34016
G1 X165.062 Y83.629 E1.14365
G1 X165.062 Y126.371 E1.34016
G1 X146.885 Y126.371 E0.56994
G1 X146.825 Y126.748 F10800.000
G1 F1200.000
G1 X128.210 Y126.748 E0.58365
G1 X128.210 Y83.252 E1.36380
G1 X165.439 Y83.252 E1.16729
G1 X165.439 Y126.748 E1.36380
G1 X146.885 Y126.748 E0.58176
G1 X146.508 Y126.504 F10800.000
G1 E-0.80000 F2100.00000
G1 Z0.800 F10800.000
G1 X164.949 Y84.509
G1 Z0.200
G1 E0.80000 F2100.00000
G1 F1200.000
G1 X164.352 Y83.912 E0.02663
G1 X163.815 Y83.912 E0.01691
G1 X164.779 Y84.875 E0.04298
G1 X164.779 Y85.412 E0.01691
G1 X163.279 Y83.912 E0.06690
G1 X162.743 Y83.912 E0.01691
G1 X164.779 Y85.948 E0.09082
G1 X164.779 Y86.484 E0.01691
G1 X162.206 Y83.912 E0.11474
G1 X161.670 Y83.912 E0.01691
G1 X164.779 Y87.021 E0.13865
G1 X164.779 Y87.557 E0.01691
G1 X161.134 Y83.912 E0.16257
G1 X160.597 Y83.912 E0.01691
G1 X164.779 Y88.093 E0.18649
G1 X164.779 Y88.630 E0.01691
G1 X160.061 Y83.912 E0.21041
G1 X159.525 Y83.912 E0.01691
G1 X164.779 Y89.166 E0.23433
G1 X164.779 Y89.702 E0.01691
G1 X158.988 Y83.912 E0.25824
G1 X158.452 Y83.912 E0.01691
G1 X164.779 Y90.239 E0.28216
G1 X164.779 Y90.775 E0.01691
G1 X157.916 Y83.912 E0.30608
G1 X157.379 Y83.912 E0.01691
G1 X164.779 Y91.311 E0.33000
G1 X164.779 Y91.848 E0.01691
G1 X156.843 Y83.912 E0.35392
G1 X156.307 Y83.912 E0.01691
G1 X164.779 Y92.384 E0.37783
G1 X164.779 Y92.920 E0.01691
G1 X155.770 Y83.912 E0.40175
G1 X155.234 Y83.912 E0.01691
G1 X164.779 Y93.457 E0.42567
G1 X164.779 Y93.993 E0.01691
G1 X154.698 Y83.912 E0.44959
G1 X154.161 Y83.912 E0.01691
G1 X164.779 Y94.529 E0.47351
G1 X164.779 Y95.066 E0.01691
G1 X153.625 Y83.912 E0.49742
G1 X153.089 Y83.912 E0.01691
G1 X164.779 Y95.602 E0.52134
G1 X164.779 Y96.138 E0.01691
G1 X152.553 Y83.912 E0.54526
G1 X152.016 Y83.912 E0.01691
G1 X164.779 Y96.675 E0.56918
G1 X164.779 Y97.211 E0.01691
G1 X151.480 Y83.912 E0.59310
G1 X150.944 Y83.912 E0.01691
G1 X164.779 Y97.747 E0.61701
G1 X164.779 Y98.284 E0.01691
G1 X150.407 Y83.912 E0.64093
G1 X149.871 Y83.912 E0.01691
G1 X164.779 Y98.820 E0.66485
G1 X164.779 Y99.356 E0.01691
G1 X149.335 Y83.912 E0.68877
M73 P0 R140
G1 X148.798 Y83.912 E0.01691
G1 X164.779 Y99.893 E0.71269
G1 X164.779 Y100.429 E0.01691
G1 X148.262 Y83.912 E0.73660
G1 X147.726 Y83.912 E0.01691
G1 X164.779 Y100.965 E0.76052
G1 X164.779 Y101.502 E0.01691
G1 X147.189 Y83.912 E0.78444
G1 X146.653 Y83.912 E0.01691
G1 X164.779 Y102.038 E0.80836
G1 X164.779 Y102.574 E0.01691
G1 X146.117 Y83.912 E0.83228
G1 X145.580 Y83.912 E0.01691
G1 X164.779 Y103.111 E0.85619
G1 X164.779 Y103.647 E0.01691
G1 X145.044 Y83.912 E0.88011
G1 X144.508 Y83.912 E0.01691
G1 X164.779 Y104.183 E0.90403
G1 X164.779 Y104.720 E0.01691
G1 X143.971 Y83.912 E0.92795
G1 X143.435 Y83.912 E0.01691
G1 X164.779 Y105.256 E0.95187
G1 X164.779 Y105.792 E0.01691
G1 X142.899 Y83.912 E0.97578
G1 X142.362 Y83.912 E0.01691
G1 X164.779 Y106.329 E0.99970
G1 X164.779 Y106.865 E0.01691
G1 X141.826 Y83.912 E1.02362
G1 X141.290 Y83.912 E0.01691
G1 X164.779 Y107.401 E1.04754
G1 X164.779 Y107.938 E0.01691
G1 X140.753 Y83.912 E1.07146
G1 X140.217 Y83.912 E0.01691
G1 X164.779 Y108.474 E1.09537
G1 X164.779 Y109.010 E0.01691
G1 X139.681 Y83.912 E1.11929
G1 X139.144 Y83.912 E0.01691
G1 X164.779 Y109.546 E1.14321
G1 X164.779 Y110.083 E0.01691
G1 X138.608 Y83.912 E1.16713
G1 X138.072 Y83.912 E0.01691
G1 X164.779 Y110.619 E1.19105
G1 X164.779 Y111.155 E0.01691
G1 X137.535 Y83.912 E1.21496
G1 X136.999 Y83.912 E0.01691
G1 X164.779 Y111.692 E1.23888
G1 X164.779 Y112.228 E0.01691
G1 X136.463 Y83.912 E1.26280
G1 X135.926 Y83.912 E0.01691
G1 X164.779 Y112.764 E1.28672
G1 X164.779 Y113.301 E0.01691
G1 X135.390 Y83.912 E1.31064
G1 X134.854 Y83.912 E0.01691
G1 X164.779 Y113.837 E1.33455
G1 X164.779 Y114.373 E0.01691
G1 X134.317 Y83.912 E1.35847
G1 X133.781 Y83.912 E0.01691
G1 X164.779 Y114.910 E1.38239
G1 X164.779 Y115.446 E0.01691
G1 X133.245 Y83.912 E1.40631
G1 X132.708 Y83.912 E0.01691
G1 X164.779 Y115.982 E1.43023
G1 X164.779 Y116.519 E0.01691
G1 X132.172 Y83.912 E1.45414
G1 X131.636 Y83.912 E0.01691
G1 X164.779 Y117.055 E1.47806
G1 X164.779 Y117.591 E0.01691
G1 X131.099 Y83.912 E1.50198
M73 P1 R139
G1 X130.563 Y83.912 E0.01691
G1 X164.779 Y118.128 E1.52590
G1 X164.779 Y118.664 E0.01691
G1 X130.027 Y83.912 E1.54981
G1 X129.490 Y83.912 E0.01691
G1 X164.779 Y119.200 E1.57373
G1 X164.779 Y119.737 E0.01691
G1 X128.954 Y83.912 E1.59765
G1 X128.870 Y83.912 E0.00266
G1 X128.870 Y84.364 E0.01426
G1 X164.779 Y120.273 E1.60141
G1 X164.779 Y120.809 E0.01691
G1 X128.870 Y84.900 E1.60141
G1 X128.870 Y85.436 E0.01691
G1 X164.779 Y121.346 E1.60141
G1 X164.779 Y121.882 E0.01691
G1 X128.870 Y85.973 E1.60141
G1 X128.870 Y86.509 E0.01691
G1 X164.779 Y122.418 E1.60141
G1 X164.779 Y122.955 E0.01691
G1 X128.870 Y87.045 E1.60141
G1 X128.870 Y87.582 E0.01691
G1 X164.779 Y123.491 E1.60141
G1 X164.779 Y124.027 E0.01691
G1 X128.870 Y88.118 E1.60141
G1 X128.870 Y88.654 E0.01691
G1 X164.779 Y124.564 E1.60141
G1 X164.779 Y125.100 E0.01691
G1 X128.870 Y89.191 E1.60141
G1 X128.870 Y89.727 E0.01691
G1 X164.779 Y125.636 E1.60141
G1 X164.779 Y126.088 E0.01426
G1 X164.695 Y126.088 E0.00266
G1 X128.870 Y90.263 E1.59765
G1 X128.870 Y90.800 E0.01691
G1 X164.159 Y126.088 E1.57373
G1 X163.622 Y126.088 E0.01691
G1 X128.870 Y91.336 E1.54981
G1 X128.870 Y91.872 E0.01691
G1 X163.086 Y126.088 E1.52589
G1 X162.550 Y126.088 E0.01691
G1 X128.870 Y92.409 E1.50198
G1 X128.870 Y92.945 E0.01691
G1 X162.013 Y126.088 E1.47806
G1 X161.477 Y126.088 E0.01691
G1 X128.870 Y93.481 E1.45414
G1 X128.870 Y94.018 E0.01691
G1 X160.941 Y126.088 E1.43022
G1 X160.404 Y126.088 E0.01691
G1 X128.870 Y94.554 E1.40630
M73 P2 R138
G1 X128.870 Y95.090 E0.01691
G1 X159.868 Y126.088 E1.38239
G1 X159.332 Y126.088 E0.01691
G1 X128.870 Y95.627 E1.35847
G1 X128.870 Y96.163 E0.01691
G1 X158.795 Y126.088 E1.33455
G1 X158.259 Y126.088 E0.01691
G1 X128.870 Y96.699 E1.31063
G1 X128.870 Y97.236 E0.01691
G1 X157.723 Y126.088 E1.28671
G1 X157.186 Y126.088 E0.01691
G1 X128.870 Y97.772 E1.26280
G1 X128.870 Y98.308 E0.01691
G1 X156.650 Y126.088 E1.23888
G1 X156.114 Y126.088 E0.01691
G1 X128.870 Y98.845 E1.21496
G1 X128.870 Y99.381 E0.01691
G1 X155.577 Y126.088 E1.19104
G1 X155.041 Y126.088 E0.01691
G1 X128.870 Y99.917 E1.16712
G1 X128.870 Y100.454 E0.01691
G1 X154.505 Y126.088 E1.14321
G1 X153.968 Y126.088 E0.01691
G1 X128.870 Y100.990 E1.11929
G1 X128.870 Y101.526 E0.01691
G1 X153.432 Y126.088 E1.09537
G1 X152.896 Y126.088 E0.01691
G1 X128.870 Y102.063 E1.07145
G1 X128.870 Y102.599 E0.01691
G1 X152.359 Y126.088 E1.04753
G1 X151.823 Y126.088 E0.01691
G1 X128.870 Y103.135 E1.02362
G1 X128.870 Y103.672 E0.01691
G1 X151.287 Y126.088 E0.99970
G1 X150.750 Y126.088 E0.01691
G1 X128.870 Y104.208 E0.97578
G1 X128.870 Y104.744 E0.01691
G1 X150.214 Y126.088 E0.95186
G1 X149.678 Y126.088 E0.01691
G1 X128.870 Y105.281 E0.92795
G1 X128.870 Y105.817 E0.01691
G1 X149.141 Y126.088 E0.90403
G1 X148.605 Y126.088 E0.01691
G1 X128.870 Y106.353 E0.88011
G1 X128.870 Y106.889 E0.01691
G1 X148.069 Y126.088 E0.85619
G1 X147.532 Y126.088 E0.01691
G1 X128.870 Y107.426 E0.83227
G1 X128.870 Y107.962 E0.01691
G1 X146.996 Y126.088 E0.80836
G1 X146.460 Y126.088 E0.01691
G1 X128.870 Y108.498 E0.78444
G1 X128.870 Y109.035 E0.01691
G1 X145.923 Y126.088 E0.76052
G1 X145.387 Y126.088 E0.01691
G1 X128.870 Y109.571 E0.73660
G1 X128.870 Y110.107 E0.01691
G1 X144.851 Y126.088 E0.71268
G1 X144.314 Y126.088 E0.01691
G1 X128.870 Y110.644 E0.68877
G1 X128.870 Y111.180 E0.01691
G1 X143.778 Y126.088 E0.66485
G1 X143.242 Y126.088 E0.01691
G1 X128.870 Y111.716 E0.64093
G1 X128.870 Y112.253 E0.01691
G1 X142.705 Y126.088 E0.61701
G1 X142.169 Y126.088 E0.01691
G1 X128.870 Y112.789 E0.59309
G1 X128.870 Y113.325 E0.01691
G1 X141.633 Y126.088 E0.56918
G1 X141.097 Y126.088 E0.01691
G1 X128.870 Y113.862 E0.54526
G1 X128.870 Y114.398 E0.01691
G1 X140.560 Y126.088 E0.52134
G1 X140.024 Y126.088 E0.01691
G1 X128.870 Y114.934 E0.49742
G1 X128.870 Y115.471 E0.01691
G1 X139.488 Y126.088 E0.47350
G1 X138.951 Y126.088 E0.01691
G1 X128.870 Y116.007 E0.44959
G1 X128.870 Y116.543 E0.01691
G1 X138.415 Y126.088 E0.42567
M73 P2 R137
G1 X137.879 Y126.088 E0.01691
G1 X128.870 Y117.080 E0.40175
G1 X128.870 Y117.616 E0.01691
G1 X137.342 Y126.088 E0.37783
G1 X136.806 Y126.088 E0.01691
G1 X128.870 Y118.152 E0.35391
G1 X128.870 Y118.689 E0.01691
G1 X136.270 Y126.088 E0.33000
G1 X135.733 Y126.088 E0.01691
G1 X128.870 Y119.225 E0.30608
G1 X128.870 Y119.761 E0.01691
G1 X135.197 Y126.088 E0.28216
G1 X134.661 Y126.088 E0.01691
G1 X128.870 Y120.298 E0.25824
G1 X128.870 Y120.834 E0.01691
G1 X134.124 Y126.088 E0.23432
G1 X133.588 Y126.088 E0.01691
G1 X128.870 Y121.370 E0.21041
G1 X128.870 Y121.907 E0.01691
G1 X133.052 Y126.088 E0.18649
G1 X132.515 Y126.088 E0.01691
G1 X128.870 Y122.443 E0.16257
G1 X128.870 Y122.979 E0.01691
G1 X131.979 Y126.088 E0.13865
G1 X131.443 Y126.088 E0.01691
G1 X128.870 Y123.516 E0.11473
G1 X128.870 Y124.052 E0.01691
G1 X130.906 Y126.088 E0.09082
G1 X130.370 Y126.088 E0.01691
G1 X128.870 Y124.588 E0.06690
G1 X128.870 Y125.125 E0.01691
G1 X129.834 Y126.088 E0.04298
G1 X129.297 Y126.088 E0.01691
G1 X128.700 Y125.491 E0.02663
G1 E-0.80000 F2100.00000
G1 Z0.800 F10800.000
G1 X103.175 Y126.371
G1 Z0.200
G1 E0.80000 F2100.00000
G1 F1200.000
G1 X84.938 Y126.371 E0.57182
G1 X84.938 Y83.629 E1.34016
G1 X121.413 Y83.629 E1.14365
G1 X121.413 Y126.371 E1.34016
G1 X103.235 Y126.371 E0.56994
G1 X103.175 Y126.748 F10800.000
G1 F1200.000
G1 X84.561 Y126.748 E0.58365
G1 X84.561 Y83.252 E1.36380
G1 X121.790 Y83.252 E1.16729
G1 X121.790 Y126.748 E1.36380
G1 X103.235 Y126.748 E0.58176
G1 X102.859 Y126.504 F10800.000
G1 E-0.80000 F2100.00000
G1 Z0.800 F10800.000
G1 X121.300 Y84.509
G1 Z0.200
G1 E0.80000 F2100.00000
G1 F1200.000
G1 X120.703 Y83.912 E0.02663
G1 X120.166 Y83.912 E0.01691
G1 X121.130 Y84.875 E0.04298
G1 X121.130 Y85.412 E0.01691
G1 X119.630 Y83.912 E0.06690
G1 X119.094 Y83.912 E0.01691
G1 X121.130 Y85.948 E0.09082
G1 X121.130 Y86.484 E0.01691
G1 X118.557 Y83.912 E0.11474
G1 X118.021 Y83.912 E0.01691
G1 X121.130 Y87.021 E0.13865
G1 X121.130 Y87.557 E0.01691
G1 X117.485 Y83.912 E0.16257
G1 X116.948 Y83.912 E0.01691
G1 X121.130 Y88.093 E0.18649
G1 X121.130 Y88.630 E0.01691
G1 X116.412 Y83.912 E0.21041
G1 X115.876 Y83.912 E0.01691
G1 X121.130 Y89.166 E0.23433
G1 X121.130 Y89.702 E0.01691
G1 X115.339 Y83.912 E0.25824
G1 X114.803 Y83.912 E0.01691
G1 X121.130 Y90.239 E0.28216
G1 X121.130 Y90.775 E0.01691
G1 X114.267 Y83.912 E0.30608
G1 X113.730 Y83.912 E0.01691
G1 X121.130 Y91.311 E0.33000
G1 X121.130 Y91.848 E0.01691
G1 X113.194 Y83.912 E0.35392
G1 X112.658 Y83.912 E0.01691
G1 X121.130 Y92.384 E0.37783
G1 X121.130 Y92.920 E0.01691
G1 X112.121 Y83.912 E0.40175
G1 X111.585 Y83.912 E0.01691
G1 X121.130 Y93.457 E0.42567
G1 X121.130 Y93.993 E0.01691
G1 X111.049 Y83.912 E0.44959
G1 X110.512 Y83.912 E0.01691
G1 X121.130 Y94.529 E0.47351
G1 X121.130 Y95.066 E0.01691
G1 X109.976 Y83.912 E0.49742
G1 X109.440 Y83.912 E0.01691
G1 X121.130 Y95.602 E0.52134
G1 X121.130 Y96.138 E0.01691
G1 X108.903 Y83.912 E0.54526
G1 X108.367 Y83.912 E0.01691
G1 X121.130 Y96.675 E0.56918
G1 X121.130 Y97.211 E0.01691
G1 X107.831 Y83.912 E0.59310
G1 X107.294 Y83.912 E0.01691
G1 X121.130 Y97.747 E0.61701
G1 X121.130 Y98.284 E0.01691
G1 X106.758 Y83.912 E0.64093
G1 X106.222 Y83.912 E0.01691
G1 X121.130 Y98.820 E0.66485
G1 X121.130 Y99.356 E0.01691
G1 X105.685 Y83.912 E0.68877
G1 X105.149 Y83.912 E0.01691
G1 X121.130 Y99.893 E0.71269
G1 X121.130 Y100.429 E0.01691
G1 X104.613 Y83.912 E0.73660
G1 X104.076 Y83.912 E0.01691
G1 X121.130 Y100.965 E0.76052
G1 X121.130 Y101.502 E0.01691
G1 X103.540 Y83.912 E0.78444
G1 X103.004 Y83.912 E0.01691
G1 X121.130 Y102.038 E0.80836
G1 X121.130 Y102.574 E0.01691
G1 X102.467 Y83.912 E0.83228
G1 X101.931 Y83.912 E0.01691
G1 X121.130 Y103.111 E0.85619
G1 X121.130 Y103.647 E0.01691
G1 X101.395 Y83.912 E0.88011
G1 X100.859 Y83.912 E0.01691
G1 X121.130 Y104.183 E0.90403
G1 X121.130 Y104.720 E0.01691
G1 X100.322 Y83.912 E0.92795
G1 X99.786 Y83.912 E0.01691
G1 X121.130 Y105.256 E0.95187
G1 X121.130 Y105.792 E0.01691
G1 X99.250 Y83.912 E0.97578
G1 X98.713 Y83.912 E0.01691
G1 X121.130 Y106.329 E0.99970
G1 X121.130 Y106.865 E0.01691
G1 X98.177 Y83.912 E1.02362
M73 P3 R136
G1 X97.641 Y83.912 E0.01691
G1 X121.130 Y107.401 E1.04754
G1 X121.130 Y107.938 E0.01691
G1 X97.104 Y83.912 E1.07146
G1 X96.568 Y83.912 E0.01691
G1 X121.130 Y108.474 E1.09537
G1 X121.130 Y109.010 E0.01691
G1 X96.032 Y83.912 E1.11929
G1 X95.495 Y83.912 E0.01691
G1 X121.130 Y109.546 E1.14321
G1 X121.130 Y110.083 E0.01691
G1 X94.959 Y83.912 E1.16713
G1 X94.423 Y83.912 E0.01691
G1 X121.130 Y110.619 E1.19105
G1 X121.130 Y111.155 E0.01691
G1 X93.886 Y83.912 E1.21496
G1 X93.350 Y83.912 E0.01691
G1 X121.130 Y111.692 E1.23888
G1 X121.130 Y112.228 E0.01691
G1 X92.814 Y83.912 E1.26280
G1 X92.277 Y83.912 E0.01691
G1 X121.130 Y112.764 E1.28672
G1 X121.130 Y113.301 E0.01691
G1 X91.741 Y83.912 E1.31064
G1 X91.205 Y83.912 E0.01691
G1 X121.130 Y113.837 E1.33455
G1 X121.130 Y114.373 E0.01691
G1 X90.668 Y83.912 E1.35847
G1 X90.132 Y83.912 E0.01691
G1 X121.130 Y114.910 E1.38239
G1 X121.130 Y115.446 E0.01691
G1 X89.596 Y83.912 E1.40631
G1 X89.059 Y83.912 E0.01691
G1 X121.130 Y115.982 E1.43023
G1 X121.130 Y116.519 E0.01691
G1 X88.523 Y83.912 E1.45414
G1 X87.987 Y83.912 E0.01691
G1 X121.130 Y117.055 E1.47806
G1 X121.130 Y117.591 E0.01691
G1 X87.450 Y83.912 E1.50198
G1 X86.914 Y83.912 E0.01691
G1 X121.130 Y118.128 E1.52590
