; generated by PrusaSlicer 2.1.1+win64 on 2019-12-26 at 22:20:55 UTC

; 

; external perimeters extrusion width = 0.60mm
; perimeters extrusion width = 0.43mm
; infill extrusion width = 0.45mm
; solid infill extrusion width = 0.70mm
; top infill extrusion width = 0.43mm
; first layer extrusion width = 0.42mm

M73 P0 R11
M201 X9000 Y9000 Z500 E10000 ; sets maximum accelerations, mm/sec^2
M203 X500 Y500 Z12 E120 ; sets maximum feedrates, mm/sec
M204 P2000 R1500 T2000 ; sets acceleration (P, T) and retract acceleration (R), mm/sec^2
M205 X10.00 Y10.00 Z0.20 E2.50 ; sets the jerk limits, mm/sec
M205 S0 T0 ; sets the minimum extruding and travel feed rate, mm/sec
M107
M862.3 P "MK2.5SMMU2S" ; printer model check
M862.1 P0.4 ; nozzle diameter check
M115 U3.8.1 ; tell printer latest fw version
G90 ; use absolute coordinates
M83 ; extruder relative mode
M104 S215 ; set extruder temp
M140 S60 ; set bed temp
Tx
M190 S60 ; wait for bed temp
M109 S215 ; wait for extruder temp
G28 W ; home all without mesh bed level
G80 ; mesh bed leveling

;go outside print area
G1 Y-3.0 F1000.0
G1 Z0.4 F1000.0
; select extruder
Tc
; purge line
G1 X55.0 F2000.0
G1 Z0.3 F1000.0
G92 E0.0
G1 X240.0 E25.0 F2200.0
M73 P1 R11
G1 Y-2.0 F1000.0
G1 X55.0 E25 F1400.0
G1 Z0.20 F1000.0
G1 X5.0 E4.0 F1000.0
G92 E0.0
G21 ; set units to millimeters
G90 ; use absolute coordinates
M83 ; use relative distances for extrusion
M900 K30 ; Filament gcode
;BEFORE_LAYER_CHANGE
G92 E0.0
;0.2


G1 E-0.80000 F2100.00000
G1 Z0.600 F10800.000
;AFTER_LAYER_CHANGE
;0.2
G1 X97.250 Y97.770
G1 Z0.200
G1 E0.80000 F2100.00000
M204 S1000
G1 F1200
G1 X142.035 Y95.285 E1.40635
G1 X152.177 Y95.283 E0.31800
G1 X152.997 Y95.444 E0.02620
G1 X153.699 Y95.903 E0.02631
G1 X154.176 Y96.589 E0.02620
G1 X154.361 Y97.407 E0.02631
G1 X154.352 Y112.733 E0.48053
G1 X154.193 Y113.372 E0.02066
G1 X153.850 Y113.935 E0.02066
G1 X153.355 Y114.371 E0.02066
G1 X152.750 Y114.640 E0.02078
G1 X152.190 Y114.717 E0.01771
G1 X142.044 Y114.715 E0.31813
G1 X97.675 Y112.303 E1.39321
G1 X97.018 Y112.153 E0.02112
G1 X96.438 Y111.811 E0.02112
G1 X95.990 Y111.309 E0.02112
G1 X95.715 Y110.694 E0.02112
G1 X95.638 Y110.131 E0.01783
G1 X95.653 Y99.622 E0.32948
G1 X95.823 Y99.000 E0.02021
G1 X96.169 Y98.452 E0.02032
G1 X96.660 Y98.029 E0.02032
G1 X97.195 Y97.794 E0.01833
G1 F8640
G1 X100.482 Y97.610 E-0.76000
G1 E-0.04000 F2100.00000
G1 Z0.800 F10800.000
G1 X106.935 Y103.380
G1 Z0.200
G1 E0.80000 F2100.00000
G1 F1200
G1 X107.318 Y102.913 E0.01894
G1 X107.785 Y102.530 E0.01894
G1 X108.318 Y102.245 E0.01894
G1 X108.896 Y102.070 E0.01894
G1 X109.498 Y102.011 E0.01894
G1 X110.099 Y102.070 E0.01894
G1 X110.677 Y102.245 E0.01894
G1 X111.210 Y102.530 E0.01894
G1 X111.677 Y102.913 E0.01894
G1 X112.060 Y103.380 E0.01894
G1 X112.345 Y103.913 E0.01894
G1 X112.520 Y104.491 E0.01894
G1 X112.580 Y105.093 E0.01894
G1 X112.520 Y105.694 E0.01894
G1 X112.345 Y106.272 E0.01894
G1 X112.060 Y106.805 E0.01894
G1 X111.677 Y107.272 E0.01894
G1 X111.210 Y107.655 E0.01894
G1 X110.677 Y107.940 E0.01894
G1 X110.099 Y108.115 E0.01894
G1 X109.498 Y108.175 E0.01894
G1 X108.896 Y108.115 E0.01894
G1 X108.318 Y107.940 E0.01894
G1 X107.785 Y107.655 E0.01894
G1 X107.318 Y107.272 E0.01894
G1 X106.935 Y106.805 E0.01894
G1 X106.650 Y106.272 E0.01894
G1 X106.475 Y105.694 E0.01894
G1 X106.416 Y105.093 E0.01894
G1 X106.475 Y104.491 E0.01894
G1 X106.650 Y103.913 E0.01894
G1 X106.907 Y103.433 E0.01706
G1 X107.239 Y103.611 F10800.000
G1 F1200
G1 X107.586 Y103.181 E0.01732
G1 X107.996 Y102.845 E0.01661
G1 X108.463 Y102.595 E0.01661
G1 X108.970 Y102.442 E0.01661
G1 X109.498 Y102.390 E0.01661
G1 X110.025 Y102.442 E0.01661
G1 X110.532 Y102.595 E0.01661
G1 X110.999 Y102.845 E0.01661
G1 X111.409 Y103.181 E0.01661
G1 X111.745 Y103.591 E0.01661
G1 X111.995 Y104.058 E0.01661
G1 X112.149 Y104.565 E0.01661
G1 X112.201 Y105.093 E0.01661
G1 X112.149 Y105.620 E0.01661
G1 X111.995 Y106.127 E0.01661
G1 X111.745 Y106.594 E0.01661
G1 X111.409 Y107.004 E0.01661
G1 X110.999 Y107.340 E0.01661
G1 X110.532 Y107.590 E0.01661
G1 X110.025 Y107.744 E0.01661
G1 X109.498 Y107.796 E0.01661
G1 X108.970 Y107.744 E0.01661
G1 X108.463 Y107.590 E0.01661
G1 X107.996 Y107.340 E0.01661
G1 X107.586 Y107.004 E0.01661
G1 X107.250 Y106.594 E0.01661
G1 X107.000 Y106.127 E0.01661
G1 X106.846 Y105.620 E0.01661
G1 X106.794 Y105.093 E0.01661
G1 X106.846 Y104.565 E0.01661
G1 X107.000 Y104.058 E0.01661
G1 X107.211 Y103.664 E0.01402
G1 X107.060 Y103.253 F10800.000
G1 F8640
G1 X107.586 Y103.181 E-0.14117
G1 X107.996 Y102.845 E-0.12235
G1 X108.463 Y102.595 E-0.12236
G1 X108.970 Y102.442 E-0.12236
G1 X109.498 Y102.390 E-0.12235
G1 X110.025 Y102.442 E-0.12236
G1 X110.054 Y102.450 E-0.00705
G1 E-0.04000 F2100.00000
G1 Z0.800 F10800.000
G1 X105.701 Y103.749
G1 Z0.200
G1 E0.80000 F2100.00000
G1 F1200
G1 X105.839 Y104.387 E0.02047
G1 X105.897 Y104.968 E0.01831
G1 X105.837 Y105.573 E0.01905
G1 X105.661 Y106.155 E0.01905
G1 X105.374 Y106.690 E0.01905
G1 X104.989 Y107.160 E0.01905
G1 X104.519 Y107.545 E0.01905
G1 X103.992 Y107.827 E0.01875
G1 X103.409 Y108.025 E0.01932
G1 X102.788 Y108.067 E0.01951
G1 X102.193 Y108.008 E0.01875
G1 X101.611 Y107.832 E0.01905
G1 X101.075 Y107.545 E0.01905
G1 X100.606 Y107.160 E0.01905
G1 X100.220 Y106.690 E0.01905
G1 X99.934 Y106.154 E0.01905
G1 X99.764 Y105.595 E0.01833
G1 X99.654 Y104.976 E0.01972
G1 X99.764 Y104.343 E0.02015
G1 X99.934 Y103.782 E0.01837
G1 X100.220 Y103.246 E0.01905
G1 X100.606 Y102.777 E0.01905
G1 X101.075 Y102.391 E0.01905
G1 X101.611 Y102.105 E0.01905
G1 X102.193 Y101.929 E0.01905
G1 X102.779 Y101.871 E0.01848
G1 X103.400 Y101.928 E0.01955
G1 X103.983 Y102.105 E0.01911
G1 X104.519 Y102.391 E0.01905
G1 X104.989 Y102.777 E0.01905
G1 X105.358 Y103.226 E0.01822
G1 X105.668 Y103.699 E0.01774
G1 X105.347 Y103.898 F10800.000
G1 F1200
G1 X105.466 Y104.446 E0.01760
G1 X105.518 Y104.968 E0.01646
G1 X105.466 Y105.499 E0.01672
G1 X105.311 Y106.010 E0.01672
G1 X105.059 Y106.480 E0.01672
G1 X104.721 Y106.892 E0.01672
G1 X104.309 Y107.230 E0.01672
G1 X103.841 Y107.480 E0.01661
G1 X103.334 Y107.653 E0.01680
G1 X102.794 Y107.689 E0.01698
G1 X102.266 Y107.637 E0.01661
G1 X101.756 Y107.482 E0.01672
G1 X101.286 Y107.230 E0.01672
G1 X100.874 Y106.892 E0.01672
G1 X100.535 Y106.480 E0.01672
G1 X100.284 Y106.009 E0.01672
G1 X100.131 Y105.507 E0.01646
G1 X100.037 Y104.975 E0.01694
G1 X100.131 Y104.430 E0.01734
G1 X100.284 Y103.927 E0.01648
G1 X100.535 Y103.457 E0.01672
G1 X100.874 Y103.045 E0.01672
G1 X101.286 Y102.706 E0.01672
G1 X101.756 Y102.455 E0.01672
G1 X102.267 Y102.300 E0.01672
G1 X102.780 Y102.250 E0.01619
G1 X103.327 Y102.300 E0.01722
G1 X103.838 Y102.455 E0.01674
G1 X104.309 Y102.706 E0.01672
G1 X104.721 Y103.045 E0.01672
G1 X105.053 Y103.450 E0.01643
G1 X105.314 Y103.848 E0.01492
G1 X105.741 Y103.965 F10800.000
G1 F8640
G1 X105.466 Y104.446 E-0.14261
G1 X105.518 Y104.968 E-0.12118
G1 X105.466 Y105.499 E-0.12315
G1 X105.311 Y106.010 E-0.12314
G1 X105.059 Y106.480 E-0.12314
G1 X104.721 Y106.892 E-0.12314
G1 X104.709 Y106.902 E-0.00363
G1 E-0.04000 F2100.00000
G1 Z0.800 F10800.000
G1 X142.722 Y109.532
G1 Z0.200
G1 E0.80000 F2100.00000
G1 F1200
G1 X98.414 Y109.532 E1.38927
G1 X98.414 Y100.468 E0.28420
G1 X142.722 Y100.468 E1.38927
G1 X142.722 Y98.059 E0.07555
G1 X151.586 Y98.059 E0.27792
G1 X151.586 Y111.941 E0.43529
G1 X142.722 Y111.941 E0.27792
G1 X142.722 Y109.592 E0.07366
G1 X142.345 Y109.909 F10800.000
G1 F1200
G1 X98.037 Y109.909 E1.38927
G1 X98.037 Y100.091 E0.30784
G1 X142.345 Y100.091 E1.38927
G1 X142.345 Y97.681 E0.07555
G1 X151.963 Y97.681 E0.30157
G1 X151.963 Y112.319 E0.45894
G1 X142.345 Y112.319 E0.30157
G1 X142.345 Y109.969 E0.07366
G1 X142.174 Y109.548 F10800.000
G1 X142.674 Y109.419
G1 F1200
G1 X134.006 Y100.751 E0.38602
G1 X133.470 Y100.751 E0.01687
G1 X141.969 Y109.250 E0.37847
G1 X141.433 Y109.250 E0.01687
G1 X132.935 Y100.751 E0.37847
G1 X132.399 Y100.751 E0.01687
G1 X140.898 Y109.250 E0.37847
G1 X140.362 Y109.250 E0.01687
G1 X131.864 Y100.751 E0.37847
G1 X131.328 Y100.751 E0.01687
G1 X139.827 Y109.250 E0.37847
G1 X139.291 Y109.250 E0.01687
G1 X130.793 Y100.751 E0.37847
G1 X130.257 Y100.751 E0.01687
G1 X138.755 Y109.250 E0.37847
G1 X138.220 Y109.250 E0.01687
G1 X129.721 Y100.751 E0.37847
G1 X129.186 Y100.751 E0.01687
G1 X137.684 Y109.250 E0.37847
G1 X137.149 Y109.250 E0.01687
G1 X128.650 Y100.751 E0.37847
G1 X128.115 Y100.751 E0.01687
G1 X136.613 Y109.250 E0.37847
G1 X136.078 Y109.250 E0.01687
G1 X127.579 Y100.751 E0.37847
G1 X127.044 Y100.751 E0.01687
G1 X135.542 Y109.250 E0.37847
G1 X135.006 Y109.250 E0.01687
G1 X126.508 Y100.751 E0.37847
G1 X125.972 Y100.751 E0.01687
G1 X134.471 Y109.250 E0.37847
G1 X133.935 Y109.250 E0.01687
G1 X125.437 Y100.751 E0.37847
G1 X124.901 Y100.751 E0.01687
G1 X133.400 Y109.250 E0.37847
G1 X132.864 Y109.250 E0.01687
G1 X124.366 Y100.751 E0.37847
G1 X123.830 Y100.751 E0.01687
G1 X132.329 Y109.250 E0.37847
G1 X131.793 Y109.250 E0.01687
G1 X123.295 Y100.751 E0.37847
G1 X122.759 Y100.751 E0.01687
G1 X131.257 Y109.250 E0.37847
G1 X130.722 Y109.250 E0.01687
G1 X122.223 Y100.751 E0.37847
G1 X121.688 Y100.751 E0.01687
G1 X130.186 Y109.250 E0.37847
G1 X129.651 Y109.250 E0.01687
G1 X121.152 Y100.751 E0.37847
G1 X120.617 Y100.751 E0.01687
G1 X129.115 Y109.250 E0.37847
G1 X128.580 Y109.250 E0.01687
G1 X120.081 Y100.751 E0.37847
G1 X119.545 Y100.751 E0.01687
G1 X128.044 Y109.250 E0.37847
G1 X127.508 Y109.250 E0.01687
G1 X119.010 Y100.751 E0.37847
G1 X118.474 Y100.751 E0.01687
G1 X126.973 Y109.250 E0.37847
G1 X126.437 Y109.250 E0.01687
G1 X117.939 Y100.751 E0.37847
G1 X117.403 Y100.751 E0.01687
G1 X125.902 Y109.250 E0.37847
G1 X125.366 Y109.250 E0.01687
G1 X116.868 Y100.751 E0.37847
G1 X116.332 Y100.751 E0.01687
G1 X124.831 Y109.250 E0.37847
M73 P9 R10
G1 X124.295 Y109.250 E0.01687
G1 X115.796 Y100.751 E0.37847
G1 X115.261 Y100.751 E0.01687
G1 X123.759 Y109.250 E0.37847
G1 X123.224 Y109.250 E0.01687
G1 X114.725 Y100.751 E0.37847
G1 X114.190 Y100.751 E0.01687
G1 X122.688 Y109.250 E0.37847
G1 X122.153 Y109.250 E0.01687
G1 X113.654 Y100.751 E0.37847
G1 X113.119 Y100.751 E0.01687
G1 X121.617 Y109.250 E0.37847
G1 X121.081 Y109.250 E0.01687
G1 X112.583 Y100.751 E0.37847
G1 X112.047 Y100.751 E0.01687
G1 X120.546 Y109.250 E0.37847
G1 X120.010 Y109.250 E0.01687
G1 X111.512 Y100.751 E0.37847
G1 X110.976 Y100.751 E0.01687
G1 X119.475 Y109.250 E0.37847
G1 X118.939 Y109.250 E0.01687
G1 X110.441 Y100.751 E0.37847
G1 X109.905 Y100.751 E0.01687
G1 X118.404 Y109.250 E0.37847
G1 X117.868 Y109.250 E0.01687
G1 X112.688 Y104.069 E0.23069
G1 X112.799 Y104.436 E0.01207
G1 X112.830 Y104.747 E0.00983
G1 X117.332 Y109.250 E0.20052
G1 X116.797 Y109.250 E0.01687
G1 X112.844 Y105.296 E0.17605
G1 X112.790 Y105.778 E0.01528
G1 X116.261 Y109.250 E0.15458
G1 X115.726 Y109.250 E0.01687
G1 X112.666 Y106.189 E0.13628
G1 X112.607 Y106.381 E0.00630
G1 X112.508 Y106.567 E0.00666
G1 X115.190 Y109.250 E0.11945
G1 X114.655 Y109.250 E0.01687
G1 X112.321 Y106.916 E0.10391
G1 X112.087 Y107.218 E0.01202
G1 X114.119 Y109.250 E0.09048
G1 X113.583 Y109.250 E0.01687
G1 X111.839 Y107.505 E0.07769
G1 X111.545 Y107.746 E0.01198
G1 X113.048 Y109.250 E0.06694
G1 X112.512 Y109.250 E0.01687
G1 X111.229 Y107.966 E0.05716
G1 X110.880 Y108.152 E0.01246
G1 X111.977 Y109.250 E0.04886
G1 X111.441 Y109.250 E0.01687
G1 X110.485 Y108.294 E0.04256
G1 X110.154 Y108.394 E0.01089
G1 X110.059 Y108.403 E0.00300
G1 X110.906 Y109.250 E0.03768
G1 X110.370 Y109.250 E0.01687
G1 X109.572 Y108.452 E0.03554
G1 X109.498 Y108.459 E0.00235
G1 X108.994 Y108.409 E0.01593
G1 X109.834 Y109.250 E0.03742
G1 X109.299 Y109.250 E0.01687
G1 X108.270 Y108.221 E0.04580
G1 F8640
G1 X109.299 Y109.250 E-0.33583
G1 X109.834 Y109.250 E-0.12367
G1 X108.994 Y108.409 E-0.27439
G1 X109.107 Y108.420 E-0.02611
G1 E-0.04000 F2100.00000
G1 Z0.800 F10800.000
G1 X106.369 Y106.320
G1 Z0.200
G1 E0.80000 F2100.00000
G1 F1200
G1 X106.011 Y105.976 E0.01565
G1 X105.923 Y106.263 E0.00946
G1 X105.872 Y106.359 E0.00341
G1 X108.763 Y109.250 E0.12874
G1 X108.228 Y109.250 E0.01687
G1 X105.686 Y106.708 E0.11320
G1 X105.611 Y106.848 E0.00502
G1 X105.466 Y107.024 E0.00716
G1 X107.692 Y109.250 E0.09911
G1 X107.156 Y109.250 E0.01687
G1 X105.225 Y107.318 E0.08601
G1 X104.939 Y107.567 E0.01195
G1 X106.621 Y109.250 E0.07492
G1 X106.085 Y109.250 E0.01687
G1 X104.638 Y107.802 E0.06444
G1 X104.289 Y107.989 E0.01246
G1 X105.550 Y109.250 E0.05613
G1 X105.014 Y109.250 E0.01687
G1 X103.916 Y108.152 E0.04889
G1 X103.517 Y108.287 E0.01330
G1 X104.479 Y109.250 E0.04284
G1 X103.943 Y109.250 E0.01687
G1 X103.028 Y108.334 E0.04076
G1 X102.783 Y108.351 E0.00772
G1 X102.479 Y108.321 E0.00964
G1 X103.407 Y109.250 E0.04137
G1 X102.872 Y109.250 E0.01687
G1 X101.550 Y107.927 E0.05889
G1 F8640
G1 X102.872 Y109.250 E-0.43179
G1 X103.407 Y109.250 E-0.12367
G1 X102.781 Y108.623 E-0.20454
G1 E-0.04000 F2100.00000
G1 Z0.800 F10800.000
G1 X99.292 Y109.419
G1 Z0.200
G1 E0.80000 F2100.00000
G1 F1200
G1 X98.697 Y108.823 E0.02654
G1 X98.697 Y108.288 E0.01687
G1 X99.658 Y109.250 E0.04284
G1 X100.194 Y109.250 E0.01687
G1 X98.697 Y107.752 E0.06669
G1 X98.697 Y107.216 E0.01687
G1 X100.730 Y109.250 E0.09054
G1 X101.265 Y109.250 E0.01687
G1 X98.697 Y106.681 E0.11439
G1 X98.697 Y106.145 E0.01687
G1 X101.801 Y109.250 E0.13824
G1 X102.336 Y109.250 E0.01687
G1 X98.697 Y105.610 E0.16209
G1 X98.697 Y105.074 E0.01687
G1 X99.578 Y105.956 E0.03925
G1 X99.489 Y105.661 E0.00968
G1 X99.417 Y105.259 E0.01287
G1 X98.697 Y104.539 E0.03208
G1 X98.697 Y104.003 E0.01687
G1 X99.412 Y104.718 E0.03184
G1 X99.492 Y104.263 E0.01454
G1 X98.697 Y103.467 E0.03544
G1 X98.697 Y102.932 E0.01687
G1 X99.617 Y103.852 E0.04099
G1 X99.671 Y103.674 E0.00588
G1 X99.777 Y103.476 E0.00704
G1 X98.697 Y102.396 E0.04810
G1 X98.697 Y101.861 E0.01687
G1 X99.963 Y103.127 E0.05641
G1 X100.198 Y102.827 E0.01201
G1 X98.697 Y101.325 E0.06689
G1 X98.697 Y100.790 E0.01687
G1 X100.448 Y102.541 E0.07798
G1 X100.742 Y102.299 E0.01198
G1 X99.194 Y100.751 E0.06895
G1 X99.729 Y100.751 E0.01687
G1 X101.058 Y102.080 E0.05918
G1 X101.407 Y101.893 E0.01246
G1 X100.265 Y100.751 E0.05087
G1 X100.800 Y100.751 E0.01687
G1 X101.801 Y101.752 E0.04457
G1 X102.137 Y101.650 E0.01106
G1 X102.226 Y101.641 E0.00281
G1 X101.336 Y100.751 E0.03964
G1 X101.871 Y100.751 E0.01687
G1 X102.713 Y101.593 E0.03750
G1 X103.290 Y101.634 E0.01819
G1 X102.407 Y100.751 E0.03931
G1 X102.943 Y100.751 E0.01687
G1 X104.009 Y101.817 E0.04747
G1 F8640
G1 X102.943 Y100.751 E-0.34810
G1 X102.407 Y100.751 E-0.12367
G1 X103.290 Y101.634 E-0.28824
G1 E-0.04000 F2100.00000
G1 Z0.800 F10800.000
G1 X106.004 Y103.812
G1 Z0.200
G1 E0.80000 F2100.00000
G1 F1200
G1 X106.267 Y104.076 E0.01173
G1 X106.305 Y104.076 E0.00121
G1 X106.388 Y103.805 E0.00892
G1 X106.438 Y103.711 E0.00335
G1 X103.478 Y100.751 E0.13180
G1 X104.014 Y100.751 E0.01687
G1 X106.624 Y103.362 E0.11626
G1 X106.699 Y103.223 E0.00497
G1 X106.844 Y103.046 E0.00721
G1 X104.549 Y100.751 E0.10219
G1 X105.085 Y100.751 E0.01687
G1 X107.085 Y102.751 E0.08909
G1 X107.372 Y102.503 E0.01196
G1 X105.620 Y100.751 E0.07802
G1 X106.156 Y100.751 E0.01687
G1 X107.674 Y102.269 E0.06760
G1 X108.023 Y102.082 E0.01246
G1 X106.692 Y100.751 E0.05929
G1 X107.227 Y100.751 E0.01687
G1 X108.401 Y101.925 E0.05227
G1 X108.812 Y101.800 E0.01352
G1 X107.763 Y100.751 E0.04671
G1 X108.298 Y100.751 E0.01687
G1 X109.294 Y101.747 E0.04433
G1 X109.498 Y101.727 E0.00644
G1 X109.844 Y101.761 E0.01095
G1 X108.834 Y100.751 E0.04496
G1 X109.370 Y100.751 E0.01687
G1 X110.803 Y102.184 E0.06383
G1 F8640
G1 X109.370 Y100.751 E-0.46800
G1 X108.834 Y100.751 E-0.12367
G1 X109.349 Y101.267 E-0.16833
G1 E-0.04000 F2100.00000
G1 Z0.800 F10800.000
G1 X106.162 Y104.358
G1 Z0.200
G1 E0.80000 F2100.00000
G1 F1200
G1 X106.162 Y104.660 E0.00618
G1 X106.162 Y104.961 E0.00501
G1 X106.150 Y105.693 E0.00931
G1 F8640
G1 X106.162 Y104.961 E-0.16905
G1 E-0.63095 F2100.00000
G1 Z0.800 F10800.000
G1 X143.477 Y111.828
G1 Z0.200
G1 E0.80000 F2100.00000
G1 F1200
G1 X143.005 Y111.357 E0.02100
G1 X143.005 Y110.821 E0.01687
G1 X143.843 Y111.659 E0.03729
G1 X144.378 Y111.659 E0.01687
