; generated by PrusaSlicer 2.1.1+win64 on 2020-02-17 at 18:04:11 UTC

; 

; external perimeters extrusion width = 0.60mm
; perimeters extrusion width = 0.43mm
; infill extrusion width = 0.45mm
; solid infill extrusion width = 0.70mm
; top infill extrusion width = 0.43mm
; first layer extrusion width = 0.42mm

M73 P0 R38
M201 X9000 Y9000 Z500 E10000 ; sets maximum accelerations, mm/sec^2
M203 X500 Y500 Z12 E120 ; sets maximum feedrates, mm/sec
M204 P2000 R1500 T2000 ; sets acceleration (P, T) and retract acceleration (R), mm/sec^2
M205 X10.00 Y10.00 Z0.20 E4.50 ; sets the jerk limits, mm/sec
M205 S0 T0 ; sets the minimum extruding and travel feed rate, mm/sec
M107
M862.3 P "MK2.5SMMU2S" ; printer model check
M862.1 P0.4 ; nozzle diameter check
M115 U3.8.1 ; tell printer latest fw version
G90 ; use absolute coordinates
M83 ; extruder relative mode
M104 S215 ; set extruder temp
M140 S60 ; set bed temp
Tx
M190 S60 ; wait for bed temp
M109 S215 ; wait for extruder temp
G28 W ; home all without mesh bed level
G80 ; mesh bed leveling

;go outside print area
G1 Y-3.0 F1000.0
G1 Z0.4 F1000.0
; select extruder
Tc
; purge line
G1 X55.0 F2000.0
G1 Z0.3 F1000.0
G92 E0.0
G1 X240.0 E25.0 F2200.0
M73 P0 R38
G1 Y-2.0 F1000.0
G1 X55.0 E25 F1400.0
G1 Z0.20 F1000.0
G1 X5.0 E4.0 F1000.0
G92 E0.0
G21 ; set units to millimeters
G90 ; use absolute coordinates
M83 ; use relative distances for extrusion
M900 K30 ; Filament gcode
;BEFORE_LAYER_CHANGE
G92 E0.0
;0.2


G1 E-0.80000 F2100.00000
G1 Z0.600 F10800.000
;AFTER_LAYER_CHANGE
;0.2
G1 X70.792 Y56.229
G1 Z0.200
G1 E0.80000 F2100.00000
M204 S1000
G1 F1200
G1 X71.302 Y55.505 E0.02777
G1 X71.988 Y55.068 E0.02552
G1 X72.787 Y54.912 E0.02552
G1 X177.204 Y54.911 E3.27392
G1 X178.034 Y55.076 E0.02653
G1 X178.739 Y55.544 E0.02653
G1 X179.214 Y56.244 E0.02653
G1 X179.388 Y57.069 E0.02642
G1 X179.388 Y152.915 E3.00519
G1 X179.205 Y153.777 E0.02766
G1 X178.698 Y154.495 E0.02754
G1 X178.012 Y154.932 E0.02552
G1 X177.213 Y155.088 E0.02552
G1 X72.796 Y155.089 E3.27392
G1 X71.929 Y154.908 E0.02777
G1 X71.205 Y154.398 E0.02777
G1 X70.768 Y153.712 E0.02552
G1 X70.611 Y152.913 E0.02552
G1 X70.611 Y57.096 E3.00427
G1 X70.780 Y56.288 E0.02589
G1 F8640
G1 X71.302 Y55.505 E-0.21728
G1 X71.988 Y55.068 E-0.18794
G1 X72.787 Y54.912 E-0.18794
G1 X73.509 Y54.912 E-0.16685
G1 E-0.04000 F2100.00000
G1 Z0.800 F10800.000
G1 X73.387 Y108.587
G1 Z0.200
G1 E0.80000 F2100.00000
G1 F1200
G1 X176.613 Y108.587 E3.23657
G1 X176.613 Y126.863 E0.57303
G1 X73.387 Y126.863 E3.23657
G1 X73.387 Y108.647 E0.57114
G1 X73.010 Y108.210 F10800.000
G1 F1200
G1 X176.990 Y108.210 E3.26022
G1 X176.990 Y127.240 E0.59667
G1 X73.010 Y127.240 E3.26022
G1 X73.010 Y108.270 E0.59479
G1 X73.409 Y108.234 F10800.000
G1 F8640
G1 X76.301 Y108.268 E-0.76000
G1 E-0.04000 F2100.00000
G1 Z0.800 F10800.000
G1 X73.500 Y125.987
G1 Z0.200
G1 E0.80000 F2100.00000
G1 F1200
G1 X74.093 Y126.580 E0.02631
G1 X74.627 Y126.580 E0.01674
G1 X73.670 Y125.623 E0.04246
G1 X73.670 Y125.090 E0.01674
G1 X75.160 Y126.580 E0.06613
G1 X75.694 Y126.580 E0.01674
G1 X73.670 Y124.556 E0.08981
G1 X73.670 Y124.022 E0.01674
G1 X76.228 Y126.580 E0.11348
G1 X76.761 Y126.580 E0.01674
G1 X73.670 Y123.489 E0.13715
G1 X73.670 Y122.955 E0.01674
G1 X77.295 Y126.580 E0.16083
G1 X77.828 Y126.580 E0.01674
G1 X73.670 Y122.422 E0.18450
G1 X73.670 Y121.888 E0.01674
G1 X78.362 Y126.580 E0.20818
M73 P2 R37
G1 X78.896 Y126.580 E0.01674
G1 X73.670 Y121.354 E0.23185
G1 X73.670 Y120.821 E0.01674
G1 X79.429 Y126.580 E0.25553
G1 X79.963 Y126.580 E0.01674
G1 X73.670 Y120.287 E0.27920
G1 X73.670 Y119.754 E0.01674
G1 X80.496 Y126.580 E0.30287
G1 X81.030 Y126.580 E0.01674
G1 X73.670 Y119.220 E0.32655
G1 X73.670 Y118.687 E0.01674
G1 X81.563 Y126.580 E0.35022
G1 X82.097 Y126.580 E0.01674
G1 X73.670 Y118.153 E0.37390
G1 X73.670 Y117.619 E0.01674
G1 X82.631 Y126.580 E0.39757
G1 X83.164 Y126.580 E0.01674
G1 X73.670 Y117.086 E0.42125
G1 X73.670 Y116.552 E0.01674
G1 X83.698 Y126.580 E0.44492
G1 X84.231 Y126.580 E0.01674
G1 X73.670 Y116.019 E0.46859
G1 X73.670 Y115.485 E0.01674
G1 X84.765 Y126.580 E0.49227
G1 X85.299 Y126.580 E0.01674
G1 X73.670 Y114.951 E0.51594
G1 X73.670 Y114.418 E0.01674
G1 X85.832 Y126.580 E0.53962
G1 X86.366 Y126.580 E0.01674
G1 X73.670 Y113.884 E0.56329
G1 X73.670 Y113.351 E0.01674
G1 X86.899 Y126.580 E0.58697
G1 X87.433 Y126.580 E0.01674
G1 X73.670 Y112.817 E0.61064
G1 X73.670 Y112.283 E0.01674
G1 X87.967 Y126.580 E0.63431
G1 X88.500 Y126.580 E0.01674
G1 X73.670 Y111.750 E0.65799
G1 X73.670 Y111.216 E0.01674
G1 X89.034 Y126.580 E0.68166
G1 X89.567 Y126.580 E0.01674
G1 X73.670 Y110.683 E0.70534
G1 X73.670 Y110.149 E0.01674
G1 X90.101 Y126.580 E0.72901
G1 X90.634 Y126.580 E0.01674
G1 X73.670 Y109.616 E0.75269
G1 X73.670 Y109.082 E0.01674
G1 X91.168 Y126.580 E0.77636
G1 X91.702 Y126.580 E0.01674
G1 X73.991 Y108.870 E0.78577
G1 X74.525 Y108.870 E0.01674
G1 X92.235 Y126.580 E0.78577
G1 X92.769 Y126.580 E0.01674
G1 X75.059 Y108.870 E0.78577
G1 X75.592 Y108.870 E0.01674
G1 X93.302 Y126.580 E0.78577
G1 X93.836 Y126.580 E0.01674
G1 X76.126 Y108.870 E0.78577
G1 X76.659 Y108.870 E0.01674
G1 X94.370 Y126.580 E0.78577
G1 X94.903 Y126.580 E0.01674
G1 X77.193 Y108.870 E0.78577
G1 X77.726 Y108.870 E0.01674
G1 X95.437 Y126.580 E0.78577
G1 X95.970 Y126.580 E0.01674
G1 X78.260 Y108.870 E0.78577
G1 X78.794 Y108.870 E0.01674
G1 X96.504 Y126.580 E0.78577
G1 X97.038 Y126.580 E0.01674
G1 X79.327 Y108.870 E0.78577
G1 X79.861 Y108.870 E0.01674
G1 X97.571 Y126.580 E0.78577
G1 X98.105 Y126.580 E0.01674
G1 X80.394 Y108.870 E0.78577
G1 X80.928 Y108.870 E0.01674
G1 X98.638 Y126.580 E0.78577
G1 X99.172 Y126.580 E0.01674
G1 X81.462 Y108.870 E0.78577
G1 X81.995 Y108.870 E0.01674
G1 X99.705 Y126.580 E0.78577
G1 X100.239 Y126.580 E0.01674
G1 X82.529 Y108.870 E0.78577
G1 X83.062 Y108.870 E0.01674
G1 X100.773 Y126.580 E0.78577
G1 X101.306 Y126.580 E0.01674
G1 X83.596 Y108.870 E0.78577
G1 X84.130 Y108.870 E0.01674
G1 X101.840 Y126.580 E0.78577
G1 X102.373 Y126.580 E0.01674
G1 X84.663 Y108.870 E0.78577
G1 X85.197 Y108.870 E0.01674
G1 X102.907 Y126.580 E0.78577
G1 X103.441 Y126.580 E0.01674
G1 X85.730 Y108.870 E0.78577
G1 X86.264 Y108.870 E0.01674
G1 X103.974 Y126.580 E0.78577
G1 X104.508 Y126.580 E0.01674
G1 X86.797 Y108.870 E0.78577
G1 X87.331 Y108.870 E0.01674
G1 X105.041 Y126.580 E0.78577
G1 X105.575 Y126.580 E0.01674
G1 X87.865 Y108.870 E0.78577
G1 X88.398 Y108.870 E0.01674
G1 X106.109 Y126.580 E0.78577
G1 X106.642 Y126.580 E0.01674
G1 X88.932 Y108.870 E0.78577
G1 X89.465 Y108.870 E0.01674
G1 X107.176 Y126.580 E0.78577
G1 X107.709 Y126.580 E0.01674
G1 X89.999 Y108.870 E0.78577
G1 X90.533 Y108.870 E0.01674
G1 X108.243 Y126.580 E0.78577
M73 P5 R36
G1 X108.776 Y126.580 E0.01674
G1 X91.066 Y108.870 E0.78577
G1 X91.600 Y108.870 E0.01674
G1 X109.310 Y126.580 E0.78577
G1 X109.844 Y126.580 E0.01674
G1 X92.133 Y108.870 E0.78577
G1 X92.667 Y108.870 E0.01674
G1 X110.377 Y126.580 E0.78577
G1 X110.911 Y126.580 E0.01674
G1 X93.201 Y108.870 E0.78577
G1 X93.734 Y108.870 E0.01674
G1 X111.444 Y126.580 E0.78577
G1 X111.978 Y126.580 E0.01674
G1 X94.268 Y108.870 E0.78577
G1 X94.801 Y108.870 E0.01674
G1 X112.512 Y126.580 E0.78577
G1 X113.045 Y126.580 E0.01674
G1 X95.335 Y108.870 E0.78577
G1 X95.868 Y108.870 E0.01674
G1 X113.579 Y126.580 E0.78577
G1 X114.112 Y126.580 E0.01674
G1 X96.402 Y108.870 E0.78577
G1 X96.936 Y108.870 E0.01674
G1 X114.646 Y126.580 E0.78577
G1 X115.180 Y126.580 E0.01674
G1 X97.469 Y108.870 E0.78577
G1 X98.003 Y108.870 E0.01674
G1 X115.713 Y126.580 E0.78577
G1 X116.247 Y126.580 E0.01674
G1 X98.536 Y108.870 E0.78577
G1 X99.070 Y108.870 E0.01674
G1 X116.780 Y126.580 E0.78577
G1 X117.314 Y126.580 E0.01674
G1 X99.604 Y108.870 E0.78577
G1 X100.137 Y108.870 E0.01674
G1 X117.847 Y126.580 E0.78577
G1 X118.381 Y126.580 E0.01674
G1 X100.671 Y108.870 E0.78577
G1 X101.204 Y108.870 E0.01674
G1 X118.915 Y126.580 E0.78577
G1 X119.448 Y126.580 E0.01674
G1 X101.738 Y108.870 E0.78577
G1 X102.272 Y108.870 E0.01674
G1 X119.982 Y126.580 E0.78577
G1 X120.515 Y126.580 E0.01674
G1 X102.805 Y108.870 E0.78577
G1 X103.339 Y108.870 E0.01674
G1 X121.049 Y126.580 E0.78577
G1 X121.583 Y126.580 E0.01674
G1 X103.872 Y108.870 E0.78577
G1 X104.406 Y108.870 E0.01674
G1 X122.116 Y126.580 E0.78577
G1 X122.650 Y126.580 E0.01674
G1 X104.939 Y108.870 E0.78577
G1 X105.473 Y108.870 E0.01674
G1 X123.183 Y126.580 E0.78577
G1 X123.717 Y126.580 E0.01674
G1 X106.007 Y108.870 E0.78577
G1 X106.540 Y108.870 E0.01674
G1 X124.251 Y126.580 E0.78577
G1 X124.784 Y126.580 E0.01674
G1 X107.074 Y108.870 E0.78577
G1 X107.607 Y108.870 E0.01674
G1 X125.318 Y126.580 E0.78577
G1 X125.851 Y126.580 E0.01674
G1 X108.141 Y108.870 E0.78577
G1 X108.675 Y108.870 E0.01674
G1 X126.385 Y126.580 E0.78577
G1 X126.918 Y126.580 E0.01674
G1 X109.208 Y108.870 E0.78577
G1 X109.742 Y108.870 E0.01674
G1 X127.452 Y126.580 E0.78577
G1 X127.986 Y126.580 E0.01674
G1 X110.275 Y108.870 E0.78577
G1 X110.809 Y108.870 E0.01674
G1 X128.519 Y126.580 E0.78577
G1 X129.053 Y126.580 E0.01674
G1 X111.343 Y108.870 E0.78577
G1 X111.876 Y108.870 E0.01674
G1 X129.586 Y126.580 E0.78577
G1 X130.120 Y126.580 E0.01674
G1 X112.410 Y108.870 E0.78577
G1 X112.943 Y108.870 E0.01674
G1 X130.654 Y126.580 E0.78577
G1 X131.187 Y126.580 E0.01674
G1 X113.477 Y108.870 E0.78577
G1 X114.011 Y108.870 E0.01674
G1 X131.721 Y126.580 E0.78577
G1 X132.254 Y126.580 E0.01674
G1 X114.544 Y108.870 E0.78577
G1 X115.078 Y108.870 E0.01674
G1 X132.788 Y126.580 E0.78577
G1 X133.322 Y126.580 E0.01674
G1 X115.611 Y108.870 E0.78577
M73 P8 R35
G1 X116.145 Y108.870 E0.01674
G1 X133.855 Y126.580 E0.78577
G1 X134.389 Y126.580 E0.01674
G1 X116.678 Y108.870 E0.78577
G1 X117.212 Y108.870 E0.01674
G1 X134.922 Y126.580 E0.78577
G1 X135.456 Y126.580 E0.01674
G1 X117.746 Y108.870 E0.78577
G1 X118.279 Y108.870 E0.01674
G1 X135.989 Y126.580 E0.78577
G1 X136.523 Y126.580 E0.01674
G1 X118.813 Y108.870 E0.78577
G1 X119.346 Y108.870 E0.01674
G1 X137.057 Y126.580 E0.78577
G1 X137.590 Y126.580 E0.01674
G1 X119.880 Y108.870 E0.78577
G1 X120.414 Y108.870 E0.01674
G1 X138.124 Y126.580 E0.78577
G1 X138.657 Y126.580 E0.01674
G1 X120.947 Y108.870 E0.78577
G1 X121.481 Y108.870 E0.01674
G1 X139.191 Y126.580 E0.78577
G1 X139.725 Y126.580 E0.01674
G1 X122.014 Y108.870 E0.78577
G1 X122.548 Y108.870 E0.01674
G1 X140.258 Y126.580 E0.78577
G1 X140.792 Y126.580 E0.01674
G1 X123.082 Y108.870 E0.78577
G1 X123.615 Y108.870 E0.01674
G1 X141.325 Y126.580 E0.78577
G1 X141.859 Y126.580 E0.01674
G1 X124.149 Y108.870 E0.78577
G1 X124.682 Y108.870 E0.01674
G1 X142.393 Y126.580 E0.78577
G1 X142.926 Y126.580 E0.01674
G1 X125.216 Y108.870 E0.78577
G1 X125.749 Y108.870 E0.01674
G1 X143.460 Y126.580 E0.78577
G1 X143.993 Y126.580 E0.01674
G1 X126.283 Y108.870 E0.78577
G1 X126.817 Y108.870 E0.01674
G1 X144.527 Y126.580 E0.78577
G1 X145.060 Y126.580 E0.01674
G1 X127.350 Y108.870 E0.78577
G1 X127.884 Y108.870 E0.01674
G1 X145.594 Y126.580 E0.78577
G1 X146.128 Y126.580 E0.01674
G1 X128.417 Y108.870 E0.78577
G1 X128.951 Y108.870 E0.01674
G1 X146.661 Y126.580 E0.78577
G1 X147.195 Y126.580 E0.01674
G1 X129.485 Y108.870 E0.78577
G1 X130.018 Y108.870 E0.01674
G1 X147.728 Y126.580 E0.78577
G1 X148.262 Y126.580 E0.01674
G1 X130.552 Y108.870 E0.78577
G1 X131.085 Y108.870 E0.01674
G1 X148.796 Y126.580 E0.78577
G1 X149.329 Y126.580 E0.01674
G1 X131.619 Y108.870 E0.78577
G1 X132.153 Y108.870 E0.01674
G1 X149.863 Y126.580 E0.78577
G1 X150.396 Y126.580 E0.01674
G1 X132.686 Y108.870 E0.78577
G1 X133.220 Y108.870 E0.01674
G1 X150.930 Y126.580 E0.78577
G1 X151.464 Y126.580 E0.01674
G1 X133.753 Y108.870 E0.78577
G1 X134.287 Y108.870 E0.01674
G1 X151.997 Y126.580 E0.78577
G1 X152.531 Y126.580 E0.01674
G1 X134.820 Y108.870 E0.78577
G1 X135.354 Y108.870 E0.01674
G1 X153.064 Y126.580 E0.78577
G1 X153.598 Y126.580 E0.01674
G1 X135.888 Y108.870 E0.78577
G1 X136.421 Y108.870 E0.01674
G1 X154.131 Y126.580 E0.78577
G1 X154.665 Y126.580 E0.01674
G1 X136.955 Y108.870 E0.78577
G1 X137.488 Y108.870 E0.01674
G1 X155.199 Y126.580 E0.78577
G1 X155.732 Y126.580 E0.01674
G1 X138.022 Y108.870 E0.78577
G1 X138.556 Y108.870 E0.01674
G1 X156.266 Y126.580 E0.78577
G1 X156.799 Y126.580 E0.01674
G1 X139.089 Y108.870 E0.78577
G1 X139.623 Y108.870 E0.01674
G1 X157.333 Y126.580 E0.78577
G1 X157.867 Y126.580 E0.01674
G1 X140.156 Y108.870 E0.78577
G1 X140.690 Y108.870 E0.01674
G1 X158.400 Y126.580 E0.78577
M73 P10 R34
G1 X158.934 Y126.580 E0.01674
G1 X141.224 Y108.870 E0.78577
G1 X141.757 Y108.870 E0.01674
G1 X159.467 Y126.580 E0.78577
G1 X160.001 Y126.580 E0.01674
G1 X142.291 Y108.870 E0.78577
G1 X142.824 Y108.870 E0.01674
G1 X160.535 Y126.580 E0.78577
G1 X161.068 Y126.580 E0.01674
G1 X143.358 Y108.870 E0.78577
G1 X143.891 Y108.870 E0.01674
G1 X161.602 Y126.580 E0.78577
G1 X162.135 Y126.580 E0.01674
G1 X144.425 Y108.870 E0.78577
G1 X144.959 Y108.870 E0.01674
G1 X162.669 Y126.580 E0.78577
G1 X163.202 Y126.580 E0.01674
G1 X145.492 Y108.870 E0.78577
G1 X146.026 Y108.870 E0.01674
G1 X163.736 Y126.580 E0.78577
G1 X164.270 Y126.580 E0.01674
G1 X146.559 Y108.870 E0.78577
G1 X147.093 Y108.870 E0.01674
G1 X164.803 Y126.580 E0.78577
G1 X165.337 Y126.580 E0.01674
G1 X147.627 Y108.870 E0.78577
G1 X148.160 Y108.870 E0.01674
G1 X165.870 Y126.580 E0.78577
G1 X166.404 Y126.580 E0.01674
G1 X148.694 Y108.870 E0.78577
G1 X149.227 Y108.870 E0.01674
G1 X166.938 Y126.580 E0.78577
G1 X167.471 Y126.580 E0.01674
G1 X149.761 Y108.870 E0.78577
G1 X150.295 Y108.870 E0.01674
G1 X168.005 Y126.580 E0.78577
G1 X168.538 Y126.580 E0.01674
G1 X150.828 Y108.870 E0.78577
G1 X151.362 Y108.870 E0.01674
G1 X169.072 Y126.580 E0.78577
G1 X169.606 Y126.580 E0.01674
G1 X151.895 Y108.870 E0.78577
G1 X152.429 Y108.870 E0.01674
G1 X170.139 Y126.580 E0.78577
G1 X170.673 Y126.580 E0.01674
G1 X152.962 Y108.870 E0.78577
G1 X153.496 Y108.870 E0.01674
G1 X171.206 Y126.580 E0.78577
G1 X171.740 Y126.580 E0.01674
G1 X154.030 Y108.870 E0.78577
G1 X154.563 Y108.870 E0.01674
G1 X172.273 Y126.580 E0.78577
G1 X172.807 Y126.580 E0.01674
G1 X155.097 Y108.870 E0.78577
G1 X155.630 Y108.870 E0.01674
G1 X173.341 Y126.580 E0.78577
G1 X173.874 Y126.580 E0.01674
G1 X156.164 Y108.870 E0.78577
G1 X156.698 Y108.870 E0.01674
G1 X174.408 Y126.580 E0.78577
G1 X174.941 Y126.580 E0.01674
G1 X157.231 Y108.870 E0.78577
G1 X157.765 Y108.870 E0.01674
G1 X175.475 Y126.580 E0.78577
G1 X176.009 Y126.580 E0.01674
G1 X158.298 Y108.870 E0.78577
G1 X158.832 Y108.870 E0.01674
G1 X176.330 Y126.368 E0.77636
G1 X176.330 Y125.834 E0.01674
G1 X159.366 Y108.870 E0.75269
G1 X159.899 Y108.870 E0.01674
G1 X176.330 Y125.301 E0.72901
G1 X176.330 Y124.767 E0.01674
G1 X160.433 Y108.870 E0.70534
G1 X160.966 Y108.870 E0.01674
G1 X176.330 Y124.234 E0.68166
G1 X176.330 Y123.700 E0.01674
G1 X161.500 Y108.870 E0.65799
G1 X162.033 Y108.870 E0.01674
G1 X176.330 Y123.167 E0.63432
G1 X176.330 Y122.633 E0.01674
G1 X162.567 Y108.870 E0.61064
G1 X163.101 Y108.870 E0.01674
G1 X176.330 Y122.099 E0.58697
G1 X176.330 Y121.566 E0.01674
G1 X163.634 Y108.870 E0.56329
G1 X164.168 Y108.870 E0.01674
G1 X176.330 Y121.032 E0.53962
G1 X176.330 Y120.499 E0.01674
G1 X164.701 Y108.870 E0.51594
G1 X165.235 Y108.870 E0.01674
G1 X176.330 Y119.965 E0.49227
G1 X176.330 Y119.431 E0.01674
G1 X165.769 Y108.870 E0.46860
G1 X166.302 Y108.870 E0.01674
G1 X176.330 Y118.898 E0.44492
G1 X176.330 Y118.364 E0.01674
G1 X166.836 Y108.870 E0.42125
G1 X167.369 Y108.870 E0.01674
G1 X176.330 Y117.831 E0.39757
G1 X176.330 Y117.297 E0.01674
G1 X167.903 Y108.870 E0.37390
G1 X168.437 Y108.870 E0.01674
G1 X176.330 Y116.763 E0.35022
M73 P13 R33
G1 X176.330 Y116.230 E0.01674
G1 X168.970 Y108.870 E0.32655
G1 X169.504 Y108.870 E0.01674
G1 X176.330 Y115.696 E0.30288
G1 X176.330 Y115.163 E0.01674
G1 X170.037 Y108.870 E0.27920
G1 X170.571 Y108.870 E0.01674
G1 X176.330 Y114.629 E0.25553
G1 X176.330 Y114.096 E0.01674
G1 X171.104 Y108.870 E0.23185
G1 X171.638 Y108.870 E0.01674
G1 X176.330 Y113.562 E0.20818
G1 X176.330 Y113.028 E0.01674
G1 X172.172 Y108.870 E0.18450
G1 X172.705 Y108.870 E0.01674
G1 X176.330 Y112.495 E0.16083
G1 X176.330 Y111.961 E0.01674
G1 X173.239 Y108.870 E0.13716
