; generated by PrusaSlicer 2.1.1+win64 on 2020-01-08 at 19:46:47 UTC

; 

; external perimeters extrusion width = 0.45mm
; perimeters extrusion width = 0.45mm
; infill extrusion width = 0.45mm
; solid infill extrusion width = 0.45mm
; top infill extrusion width = 0.40mm
; first layer extrusion width = 0.42mm

M73 P0 R40
M201 X9000 Y9000 Z500 E10000 ; sets maximum accelerations, mm/sec^2
M203 X500 Y500 Z12 E120 ; sets maximum feedrates, mm/sec
M204 P2000 R1500 T2000 ; sets acceleration (P, T) and retract acceleration (R), mm/sec^2
M205 X10.00 Y10.00 Z0.20 E2.50 ; sets the jerk limits, mm/sec
M205 S0 T0 ; sets the minimum extruding and travel feed rate, mm/sec
M107
M862.3 P "MK2.5SMMU2S" ; printer model check
M862.1 P0.4 ; nozzle diameter check
M115 U3.8.1 ; tell printer latest fw version
G90 ; use absolute coordinates
M83 ; extruder relative mode
M104 S215 ; set extruder temp
M140 S60 ; set bed temp
Tx
M190 S60 ; wait for bed temp
M109 S215 ; wait for extruder temp
G28 W ; home all without mesh bed level
G80 ; mesh bed leveling

;go outside print area
G1 Y-3.0 F1000.0
G1 Z0.4 F1000.0
; select extruder
Tc
; purge line
G1 X55.0 F2000.0
G1 Z0.3 F1000.0
G92 E0.0
G1 X240.0 E25.0 F2200.0
M73 P0 R39
G1 Y-2.0 F1000.0
G1 X55.0 E25 F1400.0
G1 Z0.20 F1000.0
G1 X5.0 E4.0 F1000.0
G92 E0.0
G21 ; set units to millimeters
G90 ; use absolute coordinates
M83 ; use relative distances for extrusion
M900 K30 ; Filament gcode
;BEFORE_LAYER_CHANGE
G92 E0.0
;0.2


G1 E-0.80000 F2100.00000
G1 Z0.600 F10800.000
;AFTER_LAYER_CHANGE
;0.2
G1 X110.666 Y91.706
G1 Z0.200
G1 E0.80000 F2100.00000
M204 S1000
G1 F1200
G1 X111.472 Y91.150 E0.03071
G1 X112.427 Y90.935 E0.03071
G1 X137.504 Y90.934 E0.78627
G1 X138.447 Y91.115 E0.03010
G1 X139.254 Y91.627 E0.02997
G1 X139.818 Y92.400 E0.02997
G1 X140.060 Y93.328 E0.03010
G1 X140.065 Y116.575 E0.72889
G1 X139.861 Y117.505 E0.02985
G1 X139.334 Y118.294 E0.02973
G1 X138.943 Y118.621 E0.01598
G1 X138.496 Y118.865 E0.01598
G1 X138.009 Y119.015 E0.01598
G1 X137.506 Y119.066 E0.01586
G1 X112.429 Y119.065 E0.78627
G1 X111.498 Y118.862 E0.02985
G1 X110.706 Y118.334 E0.02985
G1 X110.379 Y117.943 E0.01598
G1 X110.135 Y117.496 E0.01598
G1 X109.985 Y117.009 E0.01598
G1 X109.934 Y116.506 E0.01586
G1 X109.935 Y93.425 E0.72368
G1 X110.139 Y92.495 E0.02985
G1 X110.632 Y91.756 E0.02785
G1 X110.942 Y91.965 F10800.000
G1 F1200
G1 X111.634 Y91.490 E0.02630
G1 X112.447 Y91.312 E0.02608
G1 X137.504 Y91.311 E0.78565
G1 X138.310 Y91.467 E0.02574
G1 X139.002 Y91.908 E0.02574
G1 X139.483 Y92.574 E0.02574
G1 X139.685 Y93.374 E0.02586
G1 X139.688 Y116.555 E0.72683
G1 X139.512 Y117.361 E0.02586
G1 X139.053 Y118.042 E0.02574
G1 X138.342 Y118.520 E0.02687
G1 X137.500 Y118.689 E0.02694
G1 X112.449 Y118.688 E0.78546
G1 X111.643 Y118.514 E0.02586
G1 X110.958 Y118.053 E0.02586
G1 X110.480 Y117.342 E0.02687
G1 X110.311 Y116.502 E0.02687
G1 X110.312 Y93.442 E0.72305
G1 X110.488 Y92.639 E0.02574
G1 X110.909 Y92.014 E0.02363
G1 F8640
G1 X111.634 Y91.490 E-0.20666
G1 X112.447 Y91.312 E-0.19208
G1 X114.011 Y91.312 E-0.36126
G1 E-0.04000 F2100.00000
G1 Z0.800 F10800.000
G1 X113.087 Y109.587
G1 Z0.200
G1 E0.80000 F2100.00000
G1 F1200
G1 X136.913 Y109.587 E0.74704
G1 X136.913 Y115.913 E0.19834
G1 X129.281 Y115.913 E0.23929
G1 X129.260 Y115.701 E0.00666
G1 X129.077 Y115.016 E0.02224
G1 X128.757 Y114.331 E0.02371
G1 X128.323 Y113.711 E0.02371
G1 X127.789 Y113.177 E0.02371
G1 X127.169 Y112.743 E0.02371
G1 X126.484 Y112.423 E0.02371
G1 X125.753 Y112.227 E0.02371
G1 X125.000 Y112.162 E0.02371
G1 X124.247 Y112.227 E0.02371
G1 X123.516 Y112.423 E0.02371
G1 X122.831 Y112.743 E0.02371
G1 X122.211 Y113.177 E0.02371
G1 X121.677 Y113.711 E0.02371
G1 X121.243 Y114.331 E0.02371
G1 X120.923 Y115.016 E0.02371
G1 X120.727 Y115.747 E0.02371
G1 X120.713 Y115.913 E0.00523
G1 X113.087 Y115.913 E0.23910
G1 X113.087 Y109.647 E0.19646
G1 X112.710 Y109.210 F10800.000
G1 F1200
G1 X137.290 Y109.210 E0.77069
G1 X137.290 Y116.290 E0.22199
G1 X128.939 Y116.290 E0.26183
G1 X128.888 Y115.769 E0.01641
G1 X128.721 Y115.146 E0.02024
G1 X128.429 Y114.520 E0.02164
G1 X128.033 Y113.955 E0.02164
G1 X127.545 Y113.467 E0.02164
G1 X126.980 Y113.071 E0.02164
G1 X126.354 Y112.779 E0.02164
G1 X125.688 Y112.600 E0.02164
G1 X125.000 Y112.540 E0.02164
G1 X124.312 Y112.600 E0.02164
G1 X123.646 Y112.779 E0.02164
G1 X123.020 Y113.071 E0.02164
G1 X122.455 Y113.467 E0.02164
G1 X121.967 Y113.955 E0.02164
G1 X121.571 Y114.520 E0.02164
G1 X121.279 Y115.146 E0.02164
G1 X121.100 Y115.812 E0.02164
G1 X121.058 Y116.290 E0.01503
G1 X112.710 Y116.290 E0.26176
G1 X112.710 Y109.270 E0.22011
G1 X113.099 Y109.303 F10800.000
G1 F8640
G1 X116.001 Y109.262 E-0.76000
G1 E-0.04000 F2100.00000
G1 Z0.800 F10800.000
G1 X113.200 Y115.025
G1 Z0.200
G1 E0.80000 F2100.00000
G1 F1200
G1 X113.805 Y115.630 E0.02722
G1 X114.346 Y115.630 E0.01723
G1 X113.370 Y114.654 E0.04395
G1 X113.370 Y114.112 E0.01723
G1 X114.888 Y115.630 E0.06832
G1 X115.429 Y115.630 E0.01723
G1 X113.370 Y113.571 E0.09269
G1 X113.370 Y113.030 E0.01723
G1 X115.970 Y115.630 E0.11705
G1 X116.512 Y115.630 E0.01723
G1 X113.370 Y112.488 E0.14142
G1 X113.370 Y111.947 E0.01723
G1 X117.053 Y115.630 E0.16579
G1 X117.594 Y115.630 E0.01723
G1 X113.370 Y111.406 E0.19016
G1 X113.370 Y110.864 E0.01723
G1 X118.136 Y115.630 E0.21453
G1 X118.677 Y115.630 E0.01723
G1 X113.370 Y110.323 E0.23890
G1 X113.370 Y109.870 E0.01442
G1 X113.458 Y109.870 E0.00281
G1 X119.218 Y115.630 E0.25929
G1 X119.760 Y115.630 E0.01723
G1 X113.999 Y109.870 E0.25929
G1 X114.541 Y109.870 E0.01723
G1 X120.301 Y115.630 E0.25929
G1 X120.466 Y115.630 E0.00525
G1 X120.546 Y115.333 E0.00979
G1 X115.082 Y109.870 E0.24593
G1 X115.624 Y109.870 E0.01723
G1 X120.662 Y114.908 E0.22679
G1 X120.834 Y114.539 E0.01297
G1 X116.165 Y109.870 E0.21017
G1 X116.706 Y109.870 E0.01723
G1 X121.009 Y114.172 E0.19367
G1 X121.232 Y113.854 E0.01237
G1 X117.248 Y109.870 E0.17933
G1 X117.789 Y109.870 E0.01723
G1 X121.455 Y113.535 E0.16500
G1 X121.724 Y113.264 E0.01218
G1 X118.330 Y109.870 E0.15277
G1 X118.872 Y109.870 E0.01723
G1 X121.995 Y112.993 E0.14059
G1 X122.307 Y112.764 E0.01233
G1 X119.413 Y109.870 E0.13028
G1 X119.954 Y109.870 E0.01723
G1 X122.626 Y112.541 E0.12025
G1 X122.985 Y112.359 E0.01282
G1 X120.496 Y109.870 E0.11204
G1 X121.037 Y109.870 E0.01723
G1 X123.354 Y112.187 E0.10429
G1 X123.771 Y112.062 E0.01385
G1 X121.578 Y109.870 E0.09869
G1 X122.120 Y109.870 E0.01723
G1 X124.198 Y111.948 E0.09354
G1 X124.696 Y111.904 E0.01591
G1 X122.661 Y109.870 E0.09158
G1 X123.203 Y109.870 E0.01723
G1 X125.231 Y111.898 E0.09129
G1 X125.829 Y111.955 E0.01914
G1 X123.744 Y109.870 E0.09386
G1 X124.285 Y109.870 E0.01723
G1 X126.915 Y112.499 E0.11837
G1 F8640
G1 X124.587 Y110.172 E-0.76000
G1 E-0.04000 F2100.00000
G1 Z0.800 F10800.000
G1 X129.001 Y114.585
G1 Z0.200
G1 E0.80000 F2100.00000
G1 F1200
G1 X130.046 Y115.630 E0.04704
G1 X130.587 Y115.630 E0.01723
G1 X124.827 Y109.870 E0.25929
G1 X125.368 Y109.870 E0.01723
G1 X131.128 Y115.630 E0.25929
G1 X131.670 Y115.630 E0.01723
G1 X125.909 Y109.870 E0.25929
G1 X126.451 Y109.870 E0.01723
G1 X132.211 Y115.630 E0.25929
G1 X132.752 Y115.630 E0.01723
G1 X126.992 Y109.870 E0.25929
G1 X127.533 Y109.870 E0.01723
G1 X133.294 Y115.630 E0.25929
G1 X133.835 Y115.630 E0.01723
G1 X128.075 Y109.870 E0.25929
G1 X128.616 Y109.870 E0.01723
G1 X134.376 Y115.630 E0.25929
G1 X134.918 Y115.630 E0.01723
G1 X129.157 Y109.870 E0.25929
G1 X129.699 Y109.870 E0.01723
G1 X135.459 Y115.630 E0.25929
G1 X136.000 Y115.630 E0.01723
G1 X130.240 Y109.870 E0.25929
G1 X130.782 Y109.870 E0.01723
G1 X136.542 Y115.630 E0.25929
G1 X136.630 Y115.630 E0.00281
G1 X136.630 Y115.177 E0.01442
G1 X131.323 Y109.870 E0.23890
G1 X131.864 Y109.870 E0.01723
G1 X136.630 Y114.636 E0.21453
G1 X136.630 Y114.094 E0.01723
G1 X132.406 Y109.870 E0.19016
G1 X132.947 Y109.870 E0.01723
G1 X136.630 Y113.553 E0.16579
G1 X136.630 Y113.012 E0.01723
G1 X133.488 Y109.870 E0.14143
G1 X134.030 Y109.870 E0.01723
G1 X136.630 Y112.470 E0.11706
G1 X136.630 Y111.929 E0.01723
G1 X134.571 Y109.870 E0.09269
G1 X135.112 Y109.870 E0.01723
G1 X136.630 Y111.388 E0.06832
G1 X136.630 Y110.846 E0.01723
G1 X135.654 Y109.870 E0.04395
G1 X136.195 Y109.870 E0.01723
G1 X136.800 Y110.475 E0.02722
G1 F8640
G1 X136.195 Y109.870 E-0.19747
G1 X135.654 Y109.870 E-0.12500
G1 X136.630 Y110.846 E-0.31883
G1 X136.630 Y111.360 E-0.11870
G1 E-0.04000 F2100.00000
G1 Z0.800 F10800.000
G1 X136.800 Y100.413
G1 Z0.200
G1 E0.80000 F2100.00000
G1 F1200
G1 X129.281 Y100.413 E0.23574
G1 X129.260 Y100.201 E0.00666
G1 X129.077 Y99.516 E0.02224
G1 X128.757 Y98.831 E0.02371
G1 X128.323 Y98.211 E0.02371
G1 X127.789 Y97.677 E0.02371
G1 X127.169 Y97.243 E0.02371
G1 X126.484 Y96.923 E0.02371
G1 X125.753 Y96.727 E0.02371
G1 X125.000 Y96.662 E0.02371
G1 X124.247 Y96.727 E0.02371
G1 X123.516 Y96.923 E0.02371
G1 X122.828 Y97.244 E0.02381
G1 X122.178 Y97.710 E0.02506
G1 X121.677 Y98.211 E0.02224
G1 X121.243 Y98.831 E0.02371
G1 X120.923 Y99.516 E0.02371
G1 X120.727 Y100.247 E0.02371
G1 X120.713 Y100.413 E0.00523
G1 X113.087 Y100.413 E0.23910
G1 X113.087 Y94.087 E0.19834
G1 X136.913 Y94.087 E0.74704
G1 X136.913 Y100.413 E0.19834
G1 X136.860 Y100.413 E0.00166
G1 X137.290 Y100.790 F10800.000
G1 F1200
G1 X128.939 Y100.790 E0.26183
G1 X128.888 Y100.269 E0.01641
G1 X128.721 Y99.646 E0.02024
G1 X128.429 Y99.020 E0.02164
G1 X128.033 Y98.455 E0.02164
G1 X127.545 Y97.967 E0.02164
G1 X126.980 Y97.571 E0.02164
G1 X126.354 Y97.279 E0.02164
G1 X125.688 Y97.100 E0.02164
G1 X125.000 Y97.040 E0.02164
G1 X124.312 Y97.100 E0.02164
G1 X123.646 Y97.279 E0.02164
G1 X123.019 Y97.571 E0.02168
G1 X122.423 Y97.998 E0.02299
G1 X121.967 Y98.455 E0.02024
G1 X121.571 Y99.020 E0.02164
G1 X121.279 Y99.646 E0.02164
G1 X121.100 Y100.312 E0.02164
G1 X121.058 Y100.790 E0.01503
G1 X112.710 Y100.790 E0.26176
G1 X112.710 Y93.710 E0.22199
G1 X137.290 Y93.710 E0.77069
G1 X137.290 Y100.730 E0.22011
G1 X136.892 Y100.753 F10800.000
G1 F8640
G1 X133.999 Y100.754 E-0.76000
G1 E-0.04000 F2100.00000
G1 Z0.800 F10800.000
G1 X136.800 Y94.975
G1 Z0.200
G1 E0.80000 F2100.00000
G1 F1200
G1 X136.195 Y94.370 E0.02722
G1 X135.654 Y94.370 E0.01723
G1 X136.630 Y95.346 E0.04395
G1 X136.630 Y95.888 E0.01723
G1 X135.112 Y94.370 E0.06832
G1 X134.571 Y94.370 E0.01723
G1 X136.630 Y96.429 E0.09269
G1 X136.630 Y96.970 E0.01723
G1 X134.030 Y94.370 E0.11706
G1 X133.488 Y94.370 E0.01723
G1 X136.630 Y97.512 E0.14143
G1 X136.630 Y98.053 E0.01723
G1 X132.947 Y94.370 E0.16579
G1 X132.406 Y94.370 E0.01723
G1 X136.630 Y98.594 E0.19016
G1 X136.630 Y99.136 E0.01723
G1 X131.864 Y94.370 E0.21453
G1 X131.323 Y94.370 E0.01723
G1 X136.630 Y99.677 E0.23890
G1 X136.630 Y100.130 E0.01442
G1 X136.542 Y100.130 E0.00281
G1 X130.782 Y94.370 E0.25929
G1 X130.240 Y94.370 E0.01723
G1 X136.000 Y100.130 E0.25929
G1 X135.459 Y100.130 E0.01723
G1 X129.699 Y94.370 E0.25929
G1 X129.157 Y94.370 E0.01723
G1 X134.918 Y100.130 E0.25929
G1 X134.376 Y100.130 E0.01723
G1 X128.616 Y94.370 E0.25929
G1 X128.075 Y94.370 E0.01723
G1 X133.835 Y100.130 E0.25929
M73 P2 R38
G1 X133.294 Y100.130 E0.01723
G1 X127.533 Y94.370 E0.25929
G1 X126.992 Y94.370 E0.01723
G1 X132.752 Y100.130 E0.25929
G1 X132.211 Y100.130 E0.01723
G1 X126.451 Y94.370 E0.25929
G1 X125.909 Y94.370 E0.01723
G1 X131.670 Y100.130 E0.25929
G1 X131.128 Y100.130 E0.01723
G1 X125.368 Y94.370 E0.25929
G1 X124.827 Y94.370 E0.01723
G1 X130.587 Y100.130 E0.25929
G1 X130.046 Y100.130 E0.01723
G1 X129.001 Y99.085 E0.04704
G1 F8640
G1 X130.046 Y100.130 E-0.34121
G1 X130.587 Y100.130 E-0.12500
G1 X129.687 Y99.230 E-0.29379
G1 E-0.04000 F2100.00000
G1 Z0.800 F10800.000
G1 X126.915 Y96.999
G1 Z0.200
G1 E0.80000 F2100.00000
G1 F1200
G1 X124.285 Y94.370 E0.11837
G1 X123.744 Y94.370 E0.01723
G1 X125.829 Y96.455 E0.09386
G1 X125.231 Y96.398 E0.01914
G1 X123.203 Y94.370 E0.09129
G1 X122.661 Y94.370 E0.01723
G1 X124.696 Y96.404 E0.09158
G1 X124.198 Y96.448 E0.01591
G1 X122.120 Y94.370 E0.09354
G1 X121.578 Y94.370 E0.01723
G1 X123.771 Y96.562 E0.09869
G1 X123.354 Y96.687 E0.01385
G1 X121.037 Y94.370 E0.10429
G1 X120.496 Y94.370 E0.01723
G1 X122.985 Y96.859 E0.11204
G1 X122.626 Y97.041 E0.01282
G1 X119.954 Y94.370 E0.12025
G1 X119.413 Y94.370 E0.01723
G1 X122.310 Y97.267 E0.13042
G1 X121.995 Y97.493 E0.01235
G1 X118.872 Y94.370 E0.14059
G1 X118.330 Y94.370 E0.01723
G1 X121.724 Y97.764 E0.15277
G1 X121.455 Y98.035 E0.01218
G1 X117.789 Y94.370 E0.16500
G1 X117.248 Y94.370 E0.01723
G1 X121.232 Y98.354 E0.17933
G1 X121.009 Y98.672 E0.01237
G1 X116.706 Y94.370 E0.19367
G1 X116.165 Y94.370 E0.01723
G1 X120.834 Y99.039 E0.21017
G1 X120.662 Y99.408 E0.01297
G1 X115.624 Y94.370 E0.22679
G1 X115.082 Y94.370 E0.01723
G1 X120.546 Y99.833 E0.24593
G1 X120.466 Y100.130 E0.00979
G1 X120.301 Y100.130 E0.00525
G1 X114.541 Y94.370 E0.25929
G1 X113.999 Y94.370 E0.01723
G1 X119.760 Y100.130 E0.25929
G1 X119.218 Y100.130 E0.01723
G1 X113.458 Y94.370 E0.25929
G1 X113.370 Y94.370 E0.00281
G1 X113.370 Y94.823 E0.01442
G1 X118.677 Y100.130 E0.23890
G1 X118.136 Y100.130 E0.01723
G1 X113.370 Y95.364 E0.21453
G1 X113.370 Y95.906 E0.01723
G1 X117.594 Y100.130 E0.19016
G1 X117.053 Y100.130 E0.01723
G1 X113.370 Y96.447 E0.16579
G1 X113.370 Y96.988 E0.01723
G1 X116.512 Y100.130 E0.14142
G1 X115.970 Y100.130 E0.01723
G1 X113.370 Y97.530 E0.11705
G1 X113.370 Y98.071 E0.01723
G1 X115.429 Y100.130 E0.09269
G1 X114.888 Y100.130 E0.01723
G1 X113.370 Y98.612 E0.06832
G1 X113.370 Y99.154 E0.01723
G1 X114.346 Y100.130 E0.04395
G1 X113.805 Y100.130 E0.01723
G1 X113.200 Y99.525 E0.02722
M106 S255
;BEFORE_LAYER_CHANGE
G92 E0.0
;0.4


G1 F8640
G1 X113.805 Y100.130 E-0.19744
G1 X114.346 Y100.130 E-0.12500
G1 X113.370 Y99.154 E-0.31881
G1 X113.370 Y98.640 E-0.11874
G1 E-0.04000 F2100.00000
G1 Z0.800 F10800.000
;AFTER_LAYER_CHANGE
;0.4
M104 S210 ; set temperature
G1 X110.139 Y92.495
G1 Z0.400
G1 E0.80000 F2100.00000
G1 F3000
G1 X110.666 Y91.706 E0.02973
G1 X111.472 Y91.150 E0.03071
G1 X112.427 Y90.935 E0.03071
G1 X137.504 Y90.934 E0.78627
G1 X138.447 Y91.115 E0.03010
G1 X139.254 Y91.627 E0.02997
G1 X139.818 Y92.400 E0.02997
G1 X140.060 Y93.328 E0.03010
G1 X140.065 Y116.575 E0.72889
G1 X139.861 Y117.505 E0.02985
G1 X139.334 Y118.294 E0.02973
G1 X138.943 Y118.621 E0.01598
G1 X138.496 Y118.865 E0.01598
G1 X138.009 Y119.015 E0.01598
G1 X137.506 Y119.066 E0.01586
G1 X112.429 Y119.065 E0.78627
G1 X111.498 Y118.862 E0.02985
G1 X110.706 Y118.334 E0.02985
G1 X110.379 Y117.943 E0.01598
G1 X110.135 Y117.496 E0.01598
G1 X109.985 Y117.009 E0.01598
G1 X109.934 Y116.506 E0.01586
G1 X109.935 Y93.425 E0.72368
G1 X110.127 Y92.553 E0.02797
G1 F8640
G1 X110.666 Y91.706 E-0.23190
G1 X111.472 Y91.150 E-0.22612
G1 X112.427 Y90.935 E-0.22612
G1 X112.756 Y90.935 E-0.07586
G1 E-0.04000 F2100.00000
G1 Z1.000 F10800.000
G1 X113.132 Y109.632
G1 Z0.400
G1 E0.80000 F2100.00000
M204 S800
G1 F3000
G1 X136.868 Y109.632 E0.80343
G1 X136.868 Y115.868 E0.21108
G1 X129.328 Y115.868 E0.25521
G1 X129.317 Y115.739 E0.00439
G1 X129.119 Y115.001 E0.02586
G1 X128.796 Y114.308 E0.02586
G1 X128.358 Y113.682 E0.02586
G1 X127.818 Y113.142 E0.02586
G1 X127.192 Y112.704 E0.02586
G1 X126.499 Y112.381 E0.02586
G1 X125.761 Y112.183 E0.02586
G1 X125.000 Y112.116 E0.02586
G1 X124.239 Y112.183 E0.02586
G1 X123.501 Y112.381 E0.02586
G1 X122.808 Y112.704 E0.02586
G1 X122.182 Y113.142 E0.02586
G1 X121.642 Y113.682 E0.02586
G1 X121.204 Y114.308 E0.02586
G1 X120.881 Y115.001 E0.02586
G1 X120.683 Y115.739 E0.02586
G1 X120.672 Y115.868 E0.00439
G1 X113.132 Y115.868 E0.25521
G1 X113.132 Y109.692 E0.20904
M204 S1000
G1 X112.725 Y109.225 F10800.000
M204 S800
G1 F2400
G1 X137.275 Y109.225 E0.83099
G1 X137.275 Y116.275 E0.23863
G1 X128.955 Y116.275 E0.28161
G1 X128.915 Y115.810 E0.01581
G1 X128.735 Y115.140 E0.02345
G1 X128.442 Y114.513 E0.02345
G1 X128.045 Y113.945 E0.02345
G1 X127.555 Y113.455 E0.02345
G1 X126.987 Y113.058 E0.02345
G1 X126.360 Y112.765 E0.02345
G1 X125.690 Y112.585 E0.02345
G1 X125.000 Y112.525 E0.02345
G1 X124.310 Y112.585 E0.02345
G1 X123.640 Y112.765 E0.02345
G1 X123.013 Y113.058 E0.02345
G1 X122.445 Y113.455 E0.02345
G1 X121.955 Y113.945 E0.02345
