; generated by PrusaSlicer 2.2.0+win64 on 2020-10-22 at 18:48:56 UTC

; 

; external perimeters extrusion width = 0.45mm
; perimeters extrusion width = 0.45mm
; infill extrusion width = 0.45mm
; solid infill extrusion width = 0.45mm
; top infill extrusion width = 0.40mm
; support material extrusion width = 0.35mm
; first layer extrusion width = 0.42mm

M73 P0 R125
M201 X9000 Y9000 Z500 E10000 ; sets maximum accelerations, mm/sec^2
M203 X500 Y500 Z12 E120 ; sets maximum feedrates, mm/sec
M204 P2000 R1500 T2000 ; sets acceleration (P, T) and retract acceleration (R), mm/sec^2
M205 X10.00 Y10.00 Z0.20 E4.50 ; sets the jerk limits, mm/sec
M205 S0 T0 ; sets the minimum extruding and travel feed rate, mm/sec
M107
M862.3 P "MK2.5SMMU2S" ; printer model check
M862.1 P0.4 ; nozzle diameter check
M115 U3.9.1 ; tell printer latest fw version
G90 ; use absolute coordinates
M83 ; extruder relative mode
M104 S215 ; set extruder temp
M140 S60 ; set bed temp
Tx
M190 S60 ; wait for bed temp
M109 S215 ; wait for extruder temp
G28 W ; home all without mesh bed level
G80 ; mesh bed leveling

;go outside print area
G1 Y-3.0 F1000.0
G1 Z0.4 F1000.0
; select extruder
Tc
; purge line
G1 X55.0 F2000.0
G1 Z0.3 F1000.0
G92 E0.0
G1 X240.0 E25.0 F2200.0
M73 P0 R125
G1 Y-2.0 F1000.0
G1 X55.0 E25 F1400.0
G1 Z0.20 F1000.0
G1 X5.0 E4.0 F1000.0
G92 E0.0
G21 ; set units to millimeters
G90 ; use absolute coordinates
M83 ; use relative distances for extrusion
M900 K0.06 ; Filament gcode LA 1.5
M900 K30 ; Filament gcode LA 1.0
;BEFORE_LAYER_CHANGE
G92 E0.0
;0.2


G1 E-0.80000 F2100.00000
G1 Z0.600 F10800.000
;AFTER_LAYER_CHANGE
;0.2
G1 X94.403 Y140.169
G1 Z0.200
G1 E0.80000 F2100.00000
M204 S1000
G1 F1200.000
G1 X94.151 Y139.245 E0.03001
G1 X92.531 Y102.146 E1.16433
G1 X92.532 Y74.987 E0.85156
G1 X92.595 Y74.358 E0.01982
G1 X92.771 Y73.716 E0.02086
G1 X93.053 Y73.115 E0.02082
G1 X93.439 Y72.565 E0.02107
G1 X93.992 Y72.028 E0.02416
G1 X94.754 Y71.553 E0.02817
G1 X95.613 Y71.266 E0.02838
G1 X96.352 Y71.183 E0.02332
G1 X153.597 Y71.183 E1.79488
G1 X154.339 Y71.256 E0.02339
G1 X155.134 Y71.503 E0.02609
G1 X155.784 Y71.861 E0.02329
G1 X156.323 Y72.307 E0.02190
G1 X156.781 Y72.854 E0.02238
G1 X157.140 Y73.497 E0.02309
G1 X157.392 Y74.291 E0.02613
G1 X157.469 Y75.000 E0.02237
G1 X157.468 Y102.172 E0.85194
G1 X155.850 Y139.230 E1.16304
G1 X155.686 Y139.970 E0.02378
G1 X155.296 Y140.625 E0.02390
G1 X154.922 Y140.982 E0.01621
G1 X154.483 Y141.249 E0.01609
G1 X153.998 Y141.415 E0.01609
G1 X153.488 Y141.473 E0.01609
G1 X96.501 Y141.472 E1.78678
G1 X95.699 Y141.325 E0.02555
G1 X94.995 Y140.916 E0.02555
G1 X94.440 Y140.216 E0.02801
G1 F8640.000
G1 X94.151 Y139.245 E-0.23379
G1 X94.052 Y136.968 E-0.52621
G1 E-0.04000 F2100.00000
G1 Z0.800 F10800.000
G1 X96.338 Y102.162
G1 Z0.200
G1 E0.80000 F2100.00000
G1 F1200.000
G1 X96.338 Y74.988 E0.85203
G1 X153.662 Y74.988 E1.79736
G1 X153.662 Y102.162 E0.85203
G1 X96.398 Y102.162 E1.79548
G1 X96.715 Y101.785 F10800.000
G1 F1200.000
G1 X96.715 Y75.365 E0.82838
G1 X153.285 Y75.365 E1.77371
G1 X153.285 Y101.785 E0.82838
G1 X96.775 Y101.785 E1.77183
G1 X96.319 Y101.843 F10800.000
G1 F8640.000
G1 X96.768 Y98.494 E-0.76000
G1 E-0.04000 F2100.00000
G1 Z0.800 F10800.000
G1 X96.263 Y102.975
G1 Z0.200
G1 E0.80000 F2100.00000
G1 F1200.000
G1 X96.122 Y102.937 E0.00457
G1 X95.900 Y102.822 E0.00783
G1 X95.726 Y102.662 E0.00742
G1 X95.599 Y102.463 E0.00742
G1 X95.524 Y102.224 E0.00783
G1 X95.509 Y102.054 E0.00538
G1 X95.509 Y75.097 E0.84521
G1 X95.525 Y74.913 E0.00578
G1 X95.562 Y74.772 E0.00457
G1 X95.678 Y74.551 E0.00783
G1 X95.838 Y74.376 E0.00742
G1 X96.037 Y74.249 E0.00742
G1 X96.276 Y74.174 E0.00783
G1 X96.446 Y74.159 E0.00538
G1 X153.554 Y74.159 E1.79055
G1 X153.737 Y74.175 E0.00577
G1 X153.891 Y74.216 E0.00499
G1 X154.034 Y74.283 E0.00497
G1 X154.164 Y74.374 E0.00497
G1 X154.276 Y74.486 E0.00497
G1 X154.367 Y74.616 E0.00497
G1 X154.434 Y74.760 E0.00497
G1 X154.475 Y74.913 E0.00497
G1 X154.491 Y75.097 E0.00578
G1 X154.491 Y102.054 E0.84521
G1 X154.475 Y102.237 E0.00578
G1 X154.438 Y102.378 E0.00457
G1 X154.322 Y102.600 E0.00783
G1 X154.162 Y102.774 E0.00742
G1 X153.963 Y102.901 E0.00742
G1 X153.724 Y102.976 E0.00783
G1 X153.554 Y102.991 E0.00538
G1 X96.322 Y102.980 E1.79444
G1 X95.682 Y103.134 F10800.000
G1 F1200.000
G1 X95.434 Y102.907 E0.01054
G1 X95.254 Y102.623 E0.01054
G1 X95.151 Y102.298 E0.01068
G1 X95.132 Y102.070 E0.00719
G1 X95.132 Y75.080 E0.84624
G1 X95.152 Y74.847 E0.00733
G1 X95.209 Y74.635 E0.00690
G1 X95.366 Y74.333 E0.01068
G1 X95.593 Y74.085 E0.01054
G1 X95.877 Y73.905 E0.01054
G1 X96.202 Y73.802 E0.01069
G1 X96.430 Y73.782 E0.00719
G1 X153.570 Y73.782 E1.79159
G1 X153.803 Y73.803 E0.00732
G1 X154.020 Y73.861 E0.00706
G1 X154.224 Y73.956 E0.00704
G1 X154.408 Y74.084 E0.00704
G1 X154.566 Y74.243 E0.00704
G1 X154.695 Y74.427 E0.00704
G1 X154.790 Y74.631 E0.00704
G1 X154.848 Y74.847 E0.00704
G1 X154.868 Y75.080 E0.00733
G1 X154.868 Y102.070 E0.84624
G1 X154.848 Y102.303 E0.00733
G1 X154.791 Y102.516 E0.00690
G1 X154.634 Y102.818 E0.01068
G1 X154.407 Y103.065 E0.01053
G1 X154.123 Y103.246 E0.01054
G1 X153.798 Y103.348 E0.01069
G1 X153.570 Y103.368 E0.00719
G1 X96.430 Y103.368 E1.79159
M73 P0 R124
G1 X96.197 Y103.348 E0.00733
G1 X95.984 Y103.291 E0.00690
G1 X95.735 Y103.161 E0.00880
G1 X95.717 Y102.800 F10800.000
G1 F8640.000
G1 X95.434 Y102.907 E-0.09104
G1 X95.254 Y102.623 E-0.07759
G1 X95.151 Y102.298 E-0.07868
G1 X95.132 Y102.070 E-0.05293
G1 X95.132 Y100.079 E-0.45977
G1 E-0.04000 F2100.00000
G1 Z0.800 F10800.000
G1 X96.876 Y102.878
G1 Z0.200
G1 E0.80000 F2100.00000
G1 F1200.000
G1 X96.443 Y102.445 E0.01922
G1 X96.977 Y102.445 E0.01675
G1 X97.240 Y102.708 E0.01169
G1 X97.774 Y102.708 E0.01675
G1 X97.510 Y102.445 E0.01169
G1 X98.044 Y102.445 E0.01675
G1 X98.308 Y102.708 E0.01169
G1 X98.841 Y102.708 E0.01675
G1 X98.578 Y102.445 E0.01169
G1 X99.112 Y102.445 E0.01675
G1 X99.375 Y102.708 E0.01169
G1 X99.909 Y102.708 E0.01675
G1 X99.645 Y102.445 E0.01169
G1 X100.179 Y102.445 E0.01675
G1 X100.442 Y102.708 E0.01169
G1 X100.976 Y102.708 E0.01675
G1 X100.713 Y102.445 E0.01169
G1 X101.246 Y102.445 E0.01675
G1 X101.510 Y102.708 E0.01169
G1 X102.043 Y102.708 E0.01675
G1 X101.780 Y102.445 E0.01169
G1 X102.314 Y102.445 E0.01675
G1 X102.577 Y102.708 E0.01169
G1 X103.111 Y102.708 E0.01675
G1 X102.847 Y102.445 E0.01169
G1 X103.381 Y102.445 E0.01675
G1 X103.644 Y102.708 E0.01169
G1 X104.178 Y102.708 E0.01675
G1 X103.915 Y102.445 E0.01169
G1 X104.449 Y102.445 E0.01675
G1 X104.712 Y102.708 E0.01169
G1 X105.246 Y102.708 E0.01675
G1 X104.982 Y102.445 E0.01169
G1 X105.516 Y102.445 E0.01675
G1 X105.779 Y102.708 E0.01169
G1 X106.313 Y102.708 E0.01675
G1 X106.050 Y102.445 E0.01169
G1 X106.583 Y102.445 E0.01675
G1 X106.847 Y102.708 E0.01169
G1 X107.380 Y102.708 E0.01675
G1 X107.117 Y102.445 E0.01169
G1 X107.651 Y102.445 E0.01675
G1 X107.914 Y102.708 E0.01169
G1 X108.448 Y102.708 E0.01675
G1 X108.184 Y102.445 E0.01169
G1 X108.718 Y102.445 E0.01675
G1 X108.981 Y102.708 E0.01169
G1 X109.515 Y102.708 E0.01675
G1 X109.252 Y102.445 E0.01169
G1 X109.786 Y102.445 E0.01675
G1 X110.049 Y102.708 E0.01169
G1 X110.583 Y102.708 E0.01675
G1 X110.319 Y102.445 E0.01169
G1 X110.853 Y102.445 E0.01675
G1 X111.116 Y102.708 E0.01169
G1 X111.650 Y102.708 E0.01675
G1 X111.387 Y102.445 E0.01169
G1 X111.920 Y102.445 E0.01675
G1 X112.184 Y102.708 E0.01169
G1 X112.717 Y102.708 E0.01675
G1 X112.454 Y102.445 E0.01169
G1 X112.988 Y102.445 E0.01675
G1 X113.251 Y102.708 E0.01169
G1 X113.785 Y102.708 E0.01675
G1 X113.521 Y102.445 E0.01169
G1 X114.055 Y102.445 E0.01675
G1 X114.318 Y102.708 E0.01169
G1 X114.852 Y102.708 E0.01675
G1 X114.589 Y102.445 E0.01169
G1 X115.123 Y102.445 E0.01675
G1 X115.386 Y102.708 E0.01169
G1 X115.920 Y102.708 E0.01675
G1 X115.656 Y102.445 E0.01169
G1 X116.190 Y102.445 E0.01675
G1 X116.453 Y102.708 E0.01169
G1 X116.987 Y102.708 E0.01675
G1 X116.724 Y102.445 E0.01169
G1 X117.257 Y102.445 E0.01675
G1 X117.521 Y102.708 E0.01169
G1 X118.054 Y102.708 E0.01675
G1 X117.791 Y102.445 E0.01169
G1 X118.325 Y102.445 E0.01675
G1 X118.588 Y102.708 E0.01169
G1 X119.122 Y102.708 E0.01675
G1 X118.858 Y102.445 E0.01169
G1 X119.392 Y102.445 E0.01675
G1 X119.655 Y102.708 E0.01169
G1 X120.189 Y102.708 E0.01675
G1 X119.926 Y102.445 E0.01169
G1 X120.460 Y102.445 E0.01675
G1 X120.723 Y102.708 E0.01169
G1 X121.257 Y102.708 E0.01675
G1 X120.993 Y102.445 E0.01169
G1 X121.527 Y102.445 E0.01675
G1 X121.790 Y102.708 E0.01169
G1 X122.324 Y102.708 E0.01675
G1 X122.061 Y102.445 E0.01169
G1 X122.594 Y102.445 E0.01675
G1 X122.858 Y102.708 E0.01169
G1 X123.391 Y102.708 E0.01675
G1 X123.128 Y102.445 E0.01169
G1 X123.662 Y102.445 E0.01675
G1 X123.925 Y102.708 E0.01169
G1 X124.459 Y102.708 E0.01675
G1 X124.195 Y102.445 E0.01169
G1 X124.729 Y102.445 E0.01675
G1 X124.992 Y102.708 E0.01169
G1 X125.526 Y102.708 E0.01675
G1 X125.263 Y102.445 E0.01169
G1 X125.797 Y102.445 E0.01675
G1 X126.060 Y102.708 E0.01169
G1 X126.594 Y102.708 E0.01675
G1 X126.330 Y102.445 E0.01169
G1 X126.864 Y102.445 E0.01675
G1 X127.127 Y102.708 E0.01169
G1 X127.661 Y102.708 E0.01675
G1 X127.398 Y102.445 E0.01169
G1 X127.931 Y102.445 E0.01675
G1 X128.195 Y102.708 E0.01169
G1 X128.728 Y102.708 E0.01675
G1 X128.465 Y102.445 E0.01169
G1 X128.999 Y102.445 E0.01675
G1 X129.262 Y102.708 E0.01169
G1 X129.796 Y102.708 E0.01675
G1 X129.532 Y102.445 E0.01169
G1 X130.066 Y102.445 E0.01675
G1 X130.329 Y102.708 E0.01169
G1 X130.863 Y102.708 E0.01675
G1 X130.600 Y102.445 E0.01169
G1 X131.133 Y102.445 E0.01675
G1 X131.397 Y102.708 E0.01169
G1 X131.931 Y102.708 E0.01675
G1 X131.667 Y102.445 E0.01169
G1 X132.201 Y102.445 E0.01675
G1 X132.464 Y102.708 E0.01169
G1 X132.998 Y102.708 E0.01675
G1 X132.735 Y102.445 E0.01169
G1 X133.268 Y102.445 E0.01675
G1 X133.532 Y102.708 E0.01169
G1 X134.065 Y102.708 E0.01675
G1 X133.802 Y102.445 E0.01169
G1 X134.336 Y102.445 E0.01675
G1 X134.599 Y102.708 E0.01169
G1 X135.133 Y102.708 E0.01675
G1 X134.869 Y102.445 E0.01169
G1 X135.403 Y102.445 E0.01675
G1 X135.666 Y102.708 E0.01169
G1 X136.200 Y102.708 E0.01675
G1 X135.937 Y102.445 E0.01169
G1 X136.470 Y102.445 E0.01675
G1 X136.734 Y102.708 E0.01169
G1 X137.268 Y102.708 E0.01675
G1 X137.004 Y102.445 E0.01169
G1 X137.538 Y102.445 E0.01675
G1 X137.801 Y102.708 E0.01169
G1 X138.335 Y102.708 E0.01675
G1 X138.072 Y102.445 E0.01169
G1 X138.605 Y102.445 E0.01675
G1 X138.869 Y102.708 E0.01169
G1 X139.402 Y102.708 E0.01675
G1 X139.139 Y102.445 E0.01169
G1 X139.673 Y102.445 E0.01675
G1 X139.936 Y102.708 E0.01169
G1 X140.470 Y102.708 E0.01675
G1 X140.206 Y102.445 E0.01169
G1 X140.740 Y102.445 E0.01675
G1 X141.003 Y102.708 E0.01169
G1 X141.537 Y102.708 E0.01675
G1 X141.274 Y102.445 E0.01169
G1 X141.807 Y102.445 E0.01675
G1 X142.071 Y102.708 E0.01169
G1 X142.604 Y102.708 E0.01675
G1 X142.341 Y102.445 E0.01169
G1 X142.875 Y102.445 E0.01675
G1 X143.138 Y102.708 E0.01169
G1 X143.672 Y102.708 E0.01675
G1 X143.409 Y102.445 E0.01169
G1 X143.942 Y102.445 E0.01675
G1 X144.206 Y102.708 E0.01169
G1 X144.739 Y102.708 E0.01675
G1 X144.476 Y102.445 E0.01169
G1 X145.010 Y102.445 E0.01675
G1 X145.273 Y102.708 E0.01169
G1 X145.807 Y102.708 E0.01675
G1 X145.543 Y102.445 E0.01169
G1 X146.077 Y102.445 E0.01675
G1 X146.340 Y102.708 E0.01169
G1 X146.874 Y102.708 E0.01675
G1 X146.611 Y102.445 E0.01169
G1 X147.144 Y102.445 E0.01675
G1 X147.408 Y102.708 E0.01169
G1 X147.941 Y102.708 E0.01675
G1 X147.678 Y102.445 E0.01169
G1 X148.212 Y102.445 E0.01675
G1 X148.475 Y102.708 E0.01169
G1 X149.009 Y102.708 E0.01675
G1 X148.746 Y102.445 E0.01169
G1 X149.279 Y102.445 E0.01675
G1 X149.543 Y102.708 E0.01169
G1 X150.076 Y102.708 E0.01675
G1 X149.813 Y102.445 E0.01169
G1 X150.347 Y102.445 E0.01675
G1 X150.610 Y102.708 E0.01169
G1 X151.144 Y102.708 E0.01675
G1 X150.880 Y102.445 E0.01169
G1 X151.414 Y102.445 E0.01675
G1 X151.677 Y102.708 E0.01169
G1 X152.211 Y102.708 E0.01675
G1 X151.948 Y102.445 E0.01169
G1 X152.481 Y102.445 E0.01675
G1 X152.745 Y102.708 E0.01169
G1 X153.278 Y102.708 E0.01675
G1 X153.015 Y102.445 E0.01169
G1 X153.549 Y102.445 E0.01675
G1 X153.769 Y102.666 E0.00979
G1 X153.842 Y102.643 E0.00240
G1 X153.979 Y102.556 E0.00509
G1 X154.081 Y102.444 E0.00475
G1 X153.945 Y102.307 E0.00606
G1 X153.945 Y101.774 E0.01675
G1 X154.209 Y102.037 E0.01170
G1 X154.209 Y101.504 E0.01675
G1 X153.945 Y101.240 E0.01170
G1 X153.945 Y100.706 E0.01675
G1 X154.209 Y100.970 E0.01170
G1 X154.209 Y100.436 E0.01675
G1 X153.945 Y100.173 E0.01170
G1 X153.945 Y99.639 E0.01675
G1 X154.209 Y99.903 E0.01170
G1 X154.209 Y99.369 E0.01675
G1 X153.945 Y99.105 E0.01170
G1 X153.945 Y98.572 E0.01675
G1 X154.209 Y98.835 E0.01170
G1 X154.209 Y98.302 E0.01675
G1 X153.945 Y98.038 E0.01170
G1 X153.945 Y97.504 E0.01675
G1 X154.209 Y97.768 E0.01170
G1 X154.209 Y97.234 E0.01675
G1 X153.945 Y96.970 E0.01170
G1 X153.945 Y96.437 E0.01675
G1 X154.209 Y96.701 E0.01170
G1 X154.209 Y96.167 E0.01675
G1 X153.945 Y95.903 E0.01170
G1 X153.945 Y95.369 E0.01675
G1 X154.209 Y95.633 E0.01170
G1 X154.209 Y95.099 E0.01675
G1 X153.945 Y94.836 E0.01170
G1 X153.945 Y94.302 E0.01675
G1 X154.209 Y94.566 E0.01170
G1 X154.209 Y94.032 E0.01675
G1 X153.945 Y93.768 E0.01170
G1 X153.945 Y93.235 E0.01675
G1 X154.209 Y93.498 E0.01170
G1 X154.209 Y92.965 E0.01675
G1 X153.945 Y92.701 E0.01170
G1 X153.945 Y92.167 E0.01675
G1 X154.209 Y92.431 E0.01170
G1 X154.209 Y91.897 E0.01675
G1 X153.945 Y91.633 E0.01170
G1 X153.945 Y91.100 E0.01675
G1 X154.209 Y91.364 E0.01170
G1 X154.209 Y90.830 E0.01675
G1 X153.945 Y90.566 E0.01170
G1 X153.945 Y90.032 E0.01675
G1 X154.209 Y90.296 E0.01170
G1 X154.209 Y89.762 E0.01675
G1 X153.945 Y89.499 E0.01170
G1 X153.945 Y88.965 E0.01675
G1 X154.209 Y89.229 E0.01170
G1 X154.209 Y88.695 E0.01675
G1 X153.945 Y88.431 E0.01170
G1 X153.945 Y87.898 E0.01675
G1 X154.209 Y88.161 E0.01170
G1 X154.209 Y87.628 E0.01675
G1 X153.945 Y87.364 E0.01170
G1 X153.945 Y86.830 E0.01675
G1 X154.209 Y87.094 E0.01170
G1 X154.209 Y86.560 E0.01675
G1 X153.945 Y86.297 E0.01170
G1 X153.945 Y85.763 E0.01675
G1 X154.209 Y86.027 E0.01170
G1 X154.209 Y85.493 E0.01675
G1 X153.945 Y85.229 E0.01170
G1 X153.945 Y84.695 E0.01675
G1 X154.209 Y84.959 E0.01170
G1 X154.209 Y84.425 E0.01675
G1 X153.945 Y84.162 E0.01170
G1 X153.945 Y83.628 E0.01675
G1 X154.209 Y83.892 E0.01170
G1 X154.209 Y83.358 E0.01675
G1 X153.945 Y83.094 E0.01170
G1 X153.945 Y82.561 E0.01675
G1 X154.209 Y82.824 E0.01170
G1 X154.209 Y82.291 E0.01675
G1 X153.945 Y82.027 E0.01170
G1 X153.945 Y81.493 E0.01675
G1 X154.209 Y81.757 E0.01170
G1 X154.209 Y81.223 E0.01675
G1 X153.945 Y80.960 E0.01170
G1 X153.945 Y80.426 E0.01675
G1 X154.209 Y80.690 E0.01170
G1 X154.209 Y80.156 E0.01675
G1 X153.945 Y79.892 E0.01170
G1 X153.945 Y79.358 E0.01675
G1 X154.209 Y79.622 E0.01170
G1 X154.209 Y79.088 E0.01675
G1 X153.945 Y78.825 E0.01170
G1 X153.945 Y78.291 E0.01675
G1 X154.209 Y78.555 E0.01170
G1 X154.209 Y78.021 E0.01675
G1 X153.945 Y77.757 E0.01170
G1 X153.945 Y77.224 E0.01675
G1 X154.209 Y77.487 E0.01170
G1 X154.209 Y76.954 E0.01675
G1 X153.945 Y76.690 E0.01170
G1 X153.945 Y76.156 E0.01675
G1 X154.209 Y76.420 E0.01170
G1 X154.209 Y75.886 E0.01675
G1 X153.945 Y75.623 E0.01170
G1 X153.945 Y75.089 E0.01675
G1 X154.378 Y75.522 E0.01923
G1 X154.367 Y74.978 F10800.000
G1 F1200.000
G1 X153.981 Y74.591 E0.01715
G1 X153.892 Y74.529 E0.00339
G1 X153.688 Y74.455 E0.00684
G1 X153.541 Y74.442 E0.00461
G1 X153.298 Y74.442 E0.00763
G1 X153.561 Y74.705 E0.01169
G1 X153.028 Y74.705 E0.01675
G1 X152.764 Y74.442 E0.01169
G1 X152.231 Y74.442 E0.01675
G1 X152.494 Y74.705 E0.01169
G1 X151.960 Y74.705 E0.01675
G1 X151.697 Y74.442 E0.01169
G1 X151.163 Y74.442 E0.01675
G1 X151.427 Y74.705 E0.01169
G1 X150.893 Y74.705 E0.01675
G1 X150.630 Y74.442 E0.01169
G1 X150.096 Y74.442 E0.01675
G1 X150.359 Y74.705 E0.01169
G1 X149.826 Y74.705 E0.01675
G1 X149.562 Y74.442 E0.01169
G1 X149.029 Y74.442 E0.01675
G1 X149.292 Y74.705 E0.01169
G1 X148.758 Y74.705 E0.01675
G1 X148.495 Y74.442 E0.01169
G1 X147.961 Y74.442 E0.01675
G1 X148.224 Y74.705 E0.01169
G1 X147.691 Y74.705 E0.01675
G1 X147.427 Y74.442 E0.01169
G1 X146.894 Y74.442 E0.01675
