; generated by PrusaSlicer 2.1.1+win64 on 2020-06-02 at 19:51:25 UTC

; 

; external perimeters extrusion width = 0.45mm
; perimeters extrusion width = 0.45mm
; infill extrusion width = 0.45mm
; solid infill extrusion width = 0.45mm
; top infill extrusion width = 0.40mm
; support material extrusion width = 0.35mm
; first layer extrusion width = 0.42mm

M73 P0 R92
M201 X9000 Y9000 Z500 E10000 ; sets maximum accelerations, mm/sec^2
M203 X500 Y500 Z12 E120 ; sets maximum feedrates, mm/sec
M204 P2000 R1500 T2000 ; sets acceleration (P, T) and retract acceleration (R), mm/sec^2
M205 X10.00 Y10.00 Z0.20 E2.50 ; sets the jerk limits, mm/sec
M205 S0 T0 ; sets the minimum extruding and travel feed rate, mm/sec
M107
M862.3 P "MK2.5SMMU2S" ; printer model check
M862.1 P0.4 ; nozzle diameter check
M115 U3.8.0 ; tell printer latest fw version
G90 ; use absolute coordinates
M83 ; extruder relative mode
M104 S215 ; set extruder temp
M140 S60 ; set bed temp
Tx
M190 S60 ; wait for bed temp
M109 S215 ; wait for extruder temp
G28 W ; home all without mesh bed level
G80 ; mesh bed leveling

G21 ; set units to millimeters

;go outside print area
G1 Y-3.0 F1000.0
G1 Z0.4 F1000.0
; select extruder
Tc
; purge line
G1 X55.0 F2000.0
G1 Z0.3 F1000.0
G92 E0.0
G1 X240.0 E25.0 F2200.0
M73 P0 R92
G1 Y-2.0 F1000.0
G1 X55.0 E25 F1400.0
G1 Z0.20 F1000.0
G1 X5.0 E4.0 F1000.0
G92 E0.0
G21 ; set units to millimeters
G90 ; use absolute coordinates
M83 ; use relative distances for extrusion
M900 K30 ; Filament gcode
;BEFORE_LAYER_CHANGE
G92 E0.0
;0.2


G1 E-0.80000 F2100.00000
G1 Z0.600 F10800.000
;AFTER_LAYER_CHANGE
;0.2
G1 X96.338 Y91.413
G1 Z0.200
G1 E0.80000 F2100.00000
M204 S1000
G1 F1200
G1 X153.662 Y91.413 E1.79736
G1 X153.662 Y118.587 E0.85203
G1 X96.338 Y118.587 E1.79736
G1 X96.338 Y91.473 E0.85015
G1 X96.715 Y91.790 F10800.000
G1 F1200
G1 X153.285 Y91.790 E1.77371
G1 X153.285 Y118.210 E0.82838
G1 X96.715 Y118.210 E1.77371
G1 X96.715 Y91.850 E0.82650
G1 X96.567 Y91.418 F10800.000
G1 E-0.80000 F2100.00000
G1 Z0.800 F10800.000
G1 X149.531 Y90.584
G1 Z0.200
G1 E0.80000 F2100.00000
G1 F1200
G1 X153.554 Y90.584 E0.12613
G1 X153.737 Y90.600 E0.00577
G1 X153.891 Y90.641 E0.00499
G1 X154.034 Y90.708 E0.00497
G1 X154.164 Y90.799 E0.00497
G1 X154.276 Y90.911 E0.00497
G1 X154.367 Y91.041 E0.00497
G1 X154.434 Y91.185 E0.00497
G1 X154.475 Y91.338 E0.00497
G1 X154.491 Y91.522 E0.00578
G1 X154.491 Y118.478 E0.84521
G1 X154.475 Y118.662 E0.00578
G1 X154.438 Y118.803 E0.00457
G1 X154.322 Y119.024 E0.00783
G1 X154.162 Y119.199 E0.00742
G1 X153.963 Y119.326 E0.00742
G1 X153.724 Y119.401 E0.00783
G1 X153.554 Y119.416 E0.00538
G1 X96.446 Y119.416 E1.79055
G1 X96.263 Y119.400 E0.00578
G1 X96.122 Y119.362 E0.00457
G1 X95.900 Y119.247 E0.00783
G1 X95.726 Y119.087 E0.00742
G1 X95.599 Y118.887 E0.00742
G1 X95.524 Y118.649 E0.00783
G1 X95.509 Y118.478 E0.00538
G1 X95.509 Y91.522 E0.84521
G1 X95.525 Y91.338 E0.00578
G1 X95.562 Y91.197 E0.00457
G1 X95.678 Y90.976 E0.00783
G1 X95.838 Y90.801 E0.00742
G1 X96.037 Y90.674 E0.00742
G1 X96.276 Y90.599 E0.00783
G1 X96.446 Y90.584 E0.00538
G1 X149.471 Y90.584 E1.66255
G1 X149.471 Y90.207 F10800.000
G1 F1200
G1 X153.570 Y90.207 E0.12852
G1 X153.803 Y90.227 E0.00732
G1 X154.020 Y90.285 E0.00706
G1 X154.224 Y90.380 E0.00704
G1 X154.408 Y90.509 E0.00704
G1 X154.566 Y90.668 E0.00704
G1 X154.695 Y90.852 E0.00704
G1 X154.790 Y91.055 E0.00704
G1 X154.848 Y91.272 E0.00704
G1 X154.868 Y91.505 E0.00733
G1 X154.868 Y118.495 E0.84624
G1 X154.848 Y118.728 E0.00733
G1 X154.791 Y118.940 E0.00690
G1 X154.634 Y119.242 E0.01068
G1 X154.407 Y119.490 E0.01054
G1 X154.123 Y119.671 E0.01054
G1 X153.798 Y119.773 E0.01069
G1 X153.570 Y119.793 E0.00719
G1 X96.430 Y119.793 E1.79159
G1 X96.197 Y119.773 E0.00733
G1 X95.984 Y119.716 E0.00690
G1 X95.682 Y119.559 E0.01068
G1 X95.434 Y119.332 E0.01054
G1 X95.254 Y119.048 E0.01054
G1 X95.151 Y118.723 E0.01068
G1 X95.132 Y118.495 E0.00719
G1 X95.132 Y91.505 E0.84624
G1 X95.152 Y91.272 E0.00733
G1 X95.209 Y91.060 E0.00690
G1 X95.366 Y90.758 E0.01068
G1 X95.593 Y90.510 E0.01054
G1 X95.877 Y90.329 E0.01054
G1 X96.202 Y90.227 E0.01069
G1 X96.430 Y90.207 E0.00719
G1 X149.411 Y90.207 E1.66118
G1 X149.671 Y90.553 F10800.000
G1 E-0.80000 F2100.00000
G1 Z0.800 F10800.000
G1 X154.367 Y91.402
G1 Z0.200
G1 E0.80000 F2100.00000
G1 F1200
G1 X153.981 Y91.016 E0.01715
G1 X153.892 Y90.954 E0.00339
G1 X153.688 Y90.880 E0.00684
G1 X153.541 Y90.867 E0.00461
G1 X153.298 Y90.867 E0.00763
G1 X153.561 Y91.130 E0.01169
G1 X153.028 Y91.130 E0.01675
G1 X152.764 Y90.867 E0.01169
G1 X152.231 Y90.867 E0.01675
G1 X152.494 Y91.130 E0.01169
G1 X151.960 Y91.130 E0.01675
G1 X151.697 Y90.867 E0.01169
G1 X151.163 Y90.867 E0.01675
G1 X151.427 Y91.130 E0.01169
G1 X150.893 Y91.130 E0.01675
G1 X150.630 Y90.867 E0.01169
G1 X150.096 Y90.867 E0.01675
G1 X150.359 Y91.130 E0.01169
G1 X149.826 Y91.130 E0.01675
G1 X149.562 Y90.867 E0.01169
G1 X149.029 Y90.867 E0.01675
G1 X149.292 Y91.130 E0.01169
G1 X148.758 Y91.130 E0.01675
G1 X148.495 Y90.867 E0.01169
G1 X147.961 Y90.867 E0.01675
G1 X148.224 Y91.130 E0.01169
G1 X147.691 Y91.130 E0.01675
G1 X147.427 Y90.867 E0.01169
G1 X146.894 Y90.867 E0.01675
G1 X147.157 Y91.130 E0.01169
G1 X146.623 Y91.130 E0.01675
G1 X146.360 Y90.867 E0.01169
G1 X145.826 Y90.867 E0.01675
G1 X146.090 Y91.130 E0.01169
G1 X145.556 Y91.130 E0.01675
G1 X145.293 Y90.867 E0.01169
G1 X144.759 Y90.867 E0.01675
G1 X145.022 Y91.130 E0.01169
G1 X144.489 Y91.130 E0.01675
G1 X144.225 Y90.867 E0.01169
G1 X143.692 Y90.867 E0.01675
G1 X143.955 Y91.130 E0.01169
G1 X143.421 Y91.130 E0.01675
G1 X143.158 Y90.867 E0.01169
G1 X142.624 Y90.867 E0.01675
G1 X142.887 Y91.130 E0.01169
G1 X142.354 Y91.130 E0.01675
G1 X142.090 Y90.867 E0.01169
G1 X141.557 Y90.867 E0.01675
G1 X141.820 Y91.130 E0.01169
G1 X141.286 Y91.130 E0.01675
G1 X141.023 Y90.867 E0.01169
G1 X140.489 Y90.867 E0.01675
G1 X140.753 Y91.130 E0.01169
G1 X140.219 Y91.130 E0.01675
G1 X139.956 Y90.867 E0.01169
G1 X139.422 Y90.867 E0.01675
G1 X139.685 Y91.130 E0.01169
G1 X139.152 Y91.130 E0.01675
G1 X138.888 Y90.867 E0.01169
G1 X138.355 Y90.867 E0.01675
G1 X138.618 Y91.130 E0.01169
G1 X138.084 Y91.130 E0.01675
G1 X137.821 Y90.867 E0.01169
G1 X137.287 Y90.867 E0.01675
G1 X137.550 Y91.130 E0.01169
G1 X137.017 Y91.130 E0.01675
G1 X136.753 Y90.867 E0.01169
G1 X136.220 Y90.867 E0.01675
G1 X136.483 Y91.130 E0.01169
G1 X135.949 Y91.130 E0.01675
G1 X135.686 Y90.867 E0.01169
G1 X135.152 Y90.867 E0.01675
G1 X135.416 Y91.130 E0.01169
G1 X134.882 Y91.130 E0.01675
G1 X134.619 Y90.867 E0.01169
G1 X134.085 Y90.867 E0.01675
G1 X134.348 Y91.130 E0.01169
G1 X133.815 Y91.130 E0.01675
G1 X133.551 Y90.867 E0.01169
G1 X133.018 Y90.867 E0.01675
G1 X133.281 Y91.130 E0.01169
G1 X132.747 Y91.130 E0.01675
G1 X132.484 Y90.867 E0.01169
G1 X131.950 Y90.867 E0.01675
G1 X132.214 Y91.130 E0.01169
G1 X131.680 Y91.130 E0.01675
G1 X131.416 Y90.867 E0.01169
G1 X130.883 Y90.867 E0.01675
G1 X131.146 Y91.130 E0.01169
G1 X130.612 Y91.130 E0.01675
G1 X130.349 Y90.867 E0.01169
G1 X129.815 Y90.867 E0.01675
G1 X130.079 Y91.130 E0.01169
G1 X129.545 Y91.130 E0.01675
G1 X129.282 Y90.867 E0.01169
G1 X128.748 Y90.867 E0.01675
G1 X129.011 Y91.130 E0.01169
G1 X128.478 Y91.130 E0.01675
G1 X128.214 Y90.867 E0.01169
G1 X127.681 Y90.867 E0.01675
G1 X127.944 Y91.130 E0.01169
G1 X127.410 Y91.130 E0.01675
G1 X127.147 Y90.867 E0.01169
G1 X126.613 Y90.867 E0.01675
G1 X126.877 Y91.130 E0.01169
G1 X126.343 Y91.130 E0.01675
G1 X126.079 Y90.867 E0.01169
G1 X125.546 Y90.867 E0.01675
G1 X125.809 Y91.130 E0.01169
G1 X125.275 Y91.130 E0.01675
G1 X125.012 Y90.867 E0.01169
G1 X124.478 Y90.867 E0.01675
G1 X124.742 Y91.130 E0.01169
G1 X124.208 Y91.130 E0.01675
G1 X123.945 Y90.867 E0.01169
G1 X123.411 Y90.867 E0.01675
G1 X123.674 Y91.130 E0.01169
G1 X123.141 Y91.130 E0.01675
G1 X122.877 Y90.867 E0.01169
G1 X122.344 Y90.867 E0.01675
G1 X122.607 Y91.130 E0.01169
G1 X122.073 Y91.130 E0.01675
G1 X121.810 Y90.867 E0.01169
G1 X121.276 Y90.867 E0.01675
G1 X121.540 Y91.130 E0.01169
G1 X121.006 Y91.130 E0.01675
G1 X120.742 Y90.867 E0.01169
G1 X120.209 Y90.867 E0.01675
G1 X120.472 Y91.130 E0.01169
G1 X119.938 Y91.130 E0.01675
G1 X119.675 Y90.867 E0.01169
G1 X119.141 Y90.867 E0.01675
G1 X119.405 Y91.130 E0.01169
G1 X118.871 Y91.130 E0.01675
G1 X118.608 Y90.867 E0.01169
G1 X118.074 Y90.867 E0.01675
G1 X118.337 Y91.130 E0.01169
G1 X117.804 Y91.130 E0.01675
G1 X117.540 Y90.867 E0.01169
G1 X117.007 Y90.867 E0.01675
G1 X117.270 Y91.130 E0.01169
G1 X116.736 Y91.130 E0.01675
G1 X116.473 Y90.867 E0.01169
G1 X115.939 Y90.867 E0.01675
G1 X116.203 Y91.130 E0.01169
G1 X115.669 Y91.130 E0.01675
G1 X115.405 Y90.867 E0.01169
G1 X114.872 Y90.867 E0.01675
G1 X115.135 Y91.130 E0.01169
G1 X114.601 Y91.130 E0.01675
G1 X114.338 Y90.867 E0.01169
G1 X113.804 Y90.867 E0.01675
G1 X114.068 Y91.130 E0.01169
G1 X113.534 Y91.130 E0.01675
G1 X113.271 Y90.867 E0.01169
G1 X112.737 Y90.867 E0.01675
G1 X113.000 Y91.130 E0.01169
G1 X112.467 Y91.130 E0.01675
G1 X112.203 Y90.867 E0.01169
G1 X111.670 Y90.867 E0.01675
G1 X111.933 Y91.130 E0.01169
G1 X111.399 Y91.130 E0.01675
G1 X111.136 Y90.867 E0.01169
G1 X110.602 Y90.867 E0.01675
G1 X110.866 Y91.130 E0.01169
G1 X110.332 Y91.130 E0.01675
G1 X110.069 Y90.867 E0.01169
G1 X109.535 Y90.867 E0.01675
G1 X109.798 Y91.130 E0.01169
G1 X109.264 Y91.130 E0.01675
G1 X109.001 Y90.867 E0.01169
G1 X108.467 Y90.867 E0.01675
G1 X108.731 Y91.130 E0.01169
G1 X108.197 Y91.130 E0.01675
G1 X107.934 Y90.867 E0.01169
G1 X107.400 Y90.867 E0.01675
G1 X107.663 Y91.130 E0.01169
G1 X107.130 Y91.130 E0.01675
G1 X106.866 Y90.867 E0.01169
G1 X106.333 Y90.867 E0.01675
G1 X106.596 Y91.130 E0.01169
G1 X106.062 Y91.130 E0.01675
G1 X105.799 Y90.867 E0.01169
G1 X105.265 Y90.867 E0.01675
G1 X105.529 Y91.130 E0.01169
G1 X104.995 Y91.130 E0.01675
G1 X104.732 Y90.867 E0.01169
G1 X104.198 Y90.867 E0.01675
G1 X104.461 Y91.130 E0.01169
G1 X103.927 Y91.130 E0.01675
G1 X103.664 Y90.867 E0.01169
G1 X103.130 Y90.867 E0.01675
G1 X103.394 Y91.130 E0.01169
G1 X102.860 Y91.130 E0.01675
G1 X102.597 Y90.867 E0.01169
G1 X102.063 Y90.867 E0.01675
G1 X102.326 Y91.130 E0.01169
G1 X101.793 Y91.130 E0.01675
G1 X101.529 Y90.867 E0.01169
G1 X100.996 Y90.867 E0.01675
G1 X101.259 Y91.130 E0.01169
G1 X100.725 Y91.130 E0.01675
G1 X100.462 Y90.867 E0.01169
G1 X99.928 Y90.867 E0.01675
G1 X100.192 Y91.130 E0.01169
G1 X99.658 Y91.130 E0.01675
G1 X99.395 Y90.867 E0.01169
G1 X98.861 Y90.867 E0.01675
G1 X99.124 Y91.130 E0.01169
G1 X98.590 Y91.130 E0.01675
G1 X98.327 Y90.867 E0.01169
G1 X97.793 Y90.867 E0.01675
G1 X98.057 Y91.130 E0.01169
G1 X97.523 Y91.130 E0.01675
G1 X97.260 Y90.867 E0.01169
G1 X96.726 Y90.867 E0.01675
G1 X96.989 Y91.130 E0.01169
G1 X96.456 Y91.130 E0.01675
G1 X96.234 Y90.909 E0.00984
G1 X96.158 Y90.933 E0.00251
G1 X96.021 Y91.020 E0.00509
G1 X95.921 Y91.129 E0.00465
G1 X96.055 Y91.263 E0.00596
G1 X96.055 Y91.797 E0.01675
G1 X95.791 Y91.534 E0.01169
G1 X95.791 Y92.067 E0.01672
G1 X96.055 Y92.331 E0.01170
G1 X96.055 Y92.864 E0.01675
G1 X95.791 Y92.601 E0.01170
G1 X95.791 Y93.134 E0.01675
G1 X96.055 Y93.398 E0.01170
G1 X96.055 Y93.932 E0.01675
G1 X95.791 Y93.668 E0.01170
G1 X95.791 Y94.202 E0.01675
G1 X96.055 Y94.465 E0.01170
G1 X96.055 Y94.999 E0.01675
G1 X95.791 Y94.735 E0.01170
G1 X95.791 Y95.269 E0.01675
G1 X96.055 Y95.533 E0.01170
G1 X96.055 Y96.067 E0.01675
G1 X95.791 Y95.803 E0.01170
G1 X95.791 Y96.337 E0.01675
G1 X96.055 Y96.600 E0.01170
G1 X96.055 Y97.134 E0.01675
G1 X95.791 Y96.870 E0.01170
G1 X95.791 Y97.404 E0.01675
G1 X96.055 Y97.668 E0.01170
G1 X96.055 Y98.201 E0.01675
G1 X95.791 Y97.938 E0.01170
G1 X95.791 Y98.471 E0.01675
G1 X96.055 Y98.735 E0.01170
G1 X96.055 Y99.269 E0.01675
G1 X95.791 Y99.005 E0.01170
G1 X95.791 Y99.539 E0.01675
G1 X96.055 Y99.802 E0.01170
G1 X96.055 Y100.336 E0.01675
G1 X95.791 Y100.072 E0.01170
G1 X95.791 Y100.606 E0.01675
G1 X96.055 Y100.870 E0.01170
G1 X96.055 Y101.404 E0.01675
G1 X95.791 Y101.140 E0.01170
G1 X95.791 Y101.674 E0.01675
G1 X96.055 Y101.937 E0.01170
G1 X96.055 Y102.471 E0.01675
G1 X95.791 Y102.207 E0.01170
G1 X95.791 Y102.741 E0.01675
G1 X96.055 Y103.005 E0.01170
G1 X96.055 Y103.538 E0.01675
G1 X95.791 Y103.275 E0.01170
G1 X95.791 Y103.808 E0.01675
G1 X96.055 Y104.072 E0.01170
G1 X96.055 Y104.606 E0.01675
G1 X95.791 Y104.342 E0.01170
G1 X95.791 Y104.876 E0.01675
G1 X96.055 Y105.139 E0.01170
G1 X96.055 Y105.673 E0.01675
G1 X95.791 Y105.409 E0.01170
G1 X95.791 Y105.943 E0.01675
G1 X96.055 Y106.207 E0.01170
G1 X96.055 Y106.741 E0.01675
G1 X95.791 Y106.477 E0.01170
G1 X95.791 Y107.010 E0.01675
G1 X96.055 Y107.274 E0.01170
G1 X96.055 Y107.808 E0.01675
G1 X95.791 Y107.544 E0.01170
G1 X95.791 Y108.078 E0.01675
G1 X96.055 Y108.342 E0.01170
G1 X96.055 Y108.875 E0.01675
G1 X95.791 Y108.612 E0.01170
G1 X95.791 Y109.145 E0.01675
G1 X96.055 Y109.409 E0.01170
G1 X96.055 Y109.943 E0.01675
G1 X95.791 Y109.679 E0.01170
G1 X95.791 Y110.213 E0.01675
G1 X96.055 Y110.476 E0.01170
G1 X96.055 Y111.010 E0.01675
G1 X95.791 Y110.746 E0.01170
G1 X95.791 Y111.280 E0.01675
G1 X96.055 Y111.544 E0.01170
G1 X96.055 Y112.078 E0.01675
G1 X95.791 Y111.814 E0.01170
G1 X95.791 Y112.347 E0.01675
G1 X96.055 Y112.611 E0.01170
G1 X96.055 Y113.145 E0.01675
G1 X95.791 Y112.881 E0.01170
G1 X95.791 Y113.415 E0.01675
G1 X96.055 Y113.679 E0.01170
G1 X96.055 Y114.212 E0.01675
G1 X95.791 Y113.949 E0.01170
G1 X95.791 Y114.482 E0.01675
G1 X96.055 Y114.746 E0.01170
G1 X96.055 Y115.280 E0.01675
G1 X95.791 Y115.016 E0.01170
G1 X95.791 Y115.550 E0.01675
G1 X96.055 Y115.813 E0.01170
G1 X96.055 Y116.347 E0.01675
G1 X95.791 Y116.083 E0.01170
G1 X95.791 Y116.617 E0.01675
G1 X96.055 Y116.881 E0.01170
G1 X96.055 Y117.415 E0.01675
G1 X95.791 Y117.151 E0.01170
G1 X95.791 Y117.684 E0.01675
G1 X96.055 Y117.948 E0.01170
G1 X96.055 Y118.482 E0.01675
G1 X95.622 Y118.048 E0.01923
G1 X96.876 Y119.303 F10800.000
G1 F1200
G1 X96.443 Y118.870 E0.01922
G1 X96.977 Y118.870 E0.01675
G1 X97.240 Y119.133 E0.01169
G1 X97.774 Y119.133 E0.01675
G1 X97.510 Y118.870 E0.01169
G1 X98.044 Y118.870 E0.01675
G1 X98.308 Y119.133 E0.01169
G1 X98.841 Y119.133 E0.01675
G1 X98.578 Y118.870 E0.01169
G1 X99.112 Y118.870 E0.01675
G1 X99.375 Y119.133 E0.01169
G1 X99.909 Y119.133 E0.01675
G1 X99.645 Y118.870 E0.01169
G1 X100.179 Y118.870 E0.01675
G1 X100.442 Y119.133 E0.01169
G1 X100.976 Y119.133 E0.01675
G1 X100.713 Y118.870 E0.01169
G1 X101.246 Y118.870 E0.01675
G1 X101.510 Y119.133 E0.01169
G1 X102.043 Y119.133 E0.01675
G1 X101.780 Y118.870 E0.01169
G1 X102.314 Y118.870 E0.01675
G1 X102.577 Y119.133 E0.01169
G1 X103.111 Y119.133 E0.01675
G1 X102.847 Y118.870 E0.01169
G1 X103.381 Y118.870 E0.01675
G1 X103.645 Y119.133 E0.01169
G1 X104.178 Y119.133 E0.01675
G1 X103.915 Y118.870 E0.01169
G1 X104.449 Y118.870 E0.01675
G1 X104.712 Y119.133 E0.01169
G1 X105.246 Y119.133 E0.01675
G1 X104.982 Y118.870 E0.01169
G1 X105.516 Y118.870 E0.01675
G1 X105.779 Y119.133 E0.01169
G1 X106.313 Y119.133 E0.01675
G1 X106.050 Y118.870 E0.01169
G1 X106.583 Y118.870 E0.01675
G1 X106.847 Y119.133 E0.01169
G1 X107.380 Y119.133 E0.01675
G1 X107.117 Y118.870 E0.01169
G1 X107.651 Y118.870 E0.01675
G1 X107.914 Y119.133 E0.01169
G1 X108.448 Y119.133 E0.01675
G1 X108.184 Y118.870 E0.01169
G1 X108.718 Y118.870 E0.01675
G1 X108.982 Y119.133 E0.01169
G1 X109.515 Y119.133 E0.01675
G1 X109.252 Y118.870 E0.01169
G1 X109.786 Y118.870 E0.01675
G1 X110.049 Y119.133 E0.01169
G1 X110.583 Y119.133 E0.01675
G1 X110.319 Y118.870 E0.01169
G1 X110.853 Y118.870 E0.01675
G1 X111.116 Y119.133 E0.01169
G1 X111.650 Y119.133 E0.01675
G1 X111.387 Y118.870 E0.01169
G1 X111.920 Y118.870 E0.01675
G1 X112.184 Y119.133 E0.01169
G1 X112.717 Y119.133 E0.01675
G1 X112.454 Y118.870 E0.01169
G1 X112.988 Y118.870 E0.01675
G1 X113.251 Y119.133 E0.01169
G1 X113.785 Y119.133 E0.01675
G1 X113.521 Y118.870 E0.01169
G1 X114.055 Y118.870 E0.01675
G1 X114.318 Y119.133 E0.01169
G1 X114.852 Y119.133 E0.01675
G1 X114.589 Y118.870 E0.01169
G1 X115.123 Y118.870 E0.01675
G1 X115.386 Y119.133 E0.01169
G1 X115.920 Y119.133 E0.01675
G1 X115.656 Y118.870 E0.01169
G1 X116.190 Y118.870 E0.01675
G1 X116.453 Y119.133 E0.01169
