; generated by PrusaSlicer 2.1.1+win64 on 2020-06-02 at 19:52:35 UTC

; 

; external perimeters extrusion width = 0.45mm
; perimeters extrusion width = 0.45mm
; infill extrusion width = 0.45mm
; solid infill extrusion width = 0.45mm
; top infill extrusion width = 0.40mm
; support material extrusion width = 0.35mm
; first layer extrusion width = 0.42mm

M73 P0 R44
M201 X9000 Y9000 Z500 E10000 ; sets maximum accelerations, mm/sec^2
M203 X500 Y500 Z12 E120 ; sets maximum feedrates, mm/sec
M204 P2000 R1500 T2000 ; sets acceleration (P, T) and retract acceleration (R), mm/sec^2
M205 X10.00 Y10.00 Z0.20 E2.50 ; sets the jerk limits, mm/sec
M205 S0 T0 ; sets the minimum extruding and travel feed rate, mm/sec
M107
M862.3 P "MK2.5SMMU2S" ; printer model check
M862.1 P0.4 ; nozzle diameter check
M115 U3.8.0 ; tell printer latest fw version
G90 ; use absolute coordinates
M83 ; extruder relative mode
M104 S215 ; set extruder temp
M140 S60 ; set bed temp
Tx
M190 S60 ; wait for bed temp
M109 S215 ; wait for extruder temp
G28 W ; home all without mesh bed level
G80 ; mesh bed leveling

G21 ; set units to millimeters

;go outside print area
G1 Y-3.0 F1000.0
G1 Z0.4 F1000.0
; select extruder
Tc
; purge line
G1 X55.0 F2000.0
G1 Z0.3 F1000.0
G92 E0.0
G1 X240.0 E25.0 F2200.0
M73 P0 R44
G1 Y-2.0 F1000.0
G1 X55.0 E25 F1400.0
G1 Z0.20 F1000.0
G1 X5.0 E4.0 F1000.0
G92 E0.0
G21 ; set units to millimeters
G90 ; use absolute coordinates
M83 ; use relative distances for extrusion
M900 K30 ; Filament gcode
;BEFORE_LAYER_CHANGE
G92 E0.0
;0.2


G1 E-0.80000 F2100.00000
G1 Z0.600 F10800.000
;AFTER_LAYER_CHANGE
;0.2
G1 X99.647 Y102.284
G1 Z0.200
G1 E0.80000 F2100.00000
M204 S1000
G1 F1200
G1 X104.089 Y97.842 E0.19696
G1 X105.130 Y97.474 E0.03462
G1 X105.605 Y97.392 E0.01510
G1 X99.483 Y103.514 E0.27145
G1 X99.376 Y104.012 E0.01597
G1 X99.346 Y104.718 E0.02216
G1 X106.813 Y97.251 E0.33111
G1 X107.750 Y97.251 E0.02936
G1 X107.861 Y97.270 E0.00353
G1 X99.375 Y105.756 E0.37629
G1 X99.504 Y106.693 E0.02965
G1 X108.771 Y97.426 E0.41091
G1 X109.050 Y97.474 E0.00886
G1 X109.597 Y97.667 E0.01819
G1 X99.754 Y107.509 E0.43643
G1 X99.874 Y107.900 E0.01280
G1 X100.060 Y108.270 E0.01300
G1 X110.373 Y97.958 E0.45726
G1 X111.057 Y98.340 E0.02458
G1 X100.418 Y108.979 E0.47175
G1 X100.468 Y109.078 E0.00346
G1 X100.858 Y109.605 E0.02058
G1 X111.700 Y98.763 E0.48077
G1 X112.291 Y99.239 E0.02378
G1 X101.323 Y110.207 E0.48630
G1 X101.868 Y110.728 E0.02365
G1 X107.590 Y105.007 E0.25371
G1 X107.910 Y105.327 E0.01421
G1 X108.611 Y104.626 E0.03108
G1 X108.291 Y104.306 E0.01421
G1 X112.818 Y99.779 E0.20073
G1 X113.317 Y100.346 E0.02369
G1 X102.448 Y111.215 E0.48196
G1 X103.084 Y111.645 E0.02408
G1 X113.728 Y101.001 E0.47198
G1 X114.034 Y101.499 E0.01831
G1 X114.110 Y101.686 E0.00634
G1 X103.786 Y112.010 E0.45778
G1 X104.523 Y112.339 E0.02532
G1 X114.415 Y102.447 E0.43863
G1 X114.526 Y102.723 E0.00931
G1 X114.647 Y103.282 E0.01795
G1 X105.370 Y112.559 E0.41136
G1 X105.776 Y112.665 E0.01315
G1 X106.287 Y112.709 E0.01609
G1 X114.811 Y104.184 E0.37799
G1 X114.855 Y105.207 E0.03211
G1 X107.303 Y112.759 E0.33485
G1 X108.404 Y112.665 E0.03465
G1 X108.484 Y112.644 E0.00259
G1 X114.722 Y106.407 E0.27659
G1 X114.693 Y106.638 E0.00733
G1 X114.311 Y107.884 E0.04085
G1 X109.689 Y112.506 E0.20493
G1 E-0.80000 F2100.00000
G1 Z0.800 F10800.000
G1 X117.409 Y102.653
G1 Z0.200
G1 E0.80000 F2100.00000
G1 F1200
G1 X122.341 Y97.721 E0.21872
G1 X123.040 Y97.474 E0.02324
G1 X123.782 Y97.347 E0.02359
G1 X117.332 Y103.796 E0.28599
G1 X117.286 Y104.012 E0.00692
G1 X117.246 Y104.949 E0.02941
G1 X124.944 Y97.251 E0.34135
G1 X125.660 Y97.251 E0.02242
G1 X125.959 Y97.302 E0.00954
G1 X117.310 Y105.952 E0.38355
G1 X117.397 Y106.638 E0.02169
G1 X117.466 Y106.862 E0.00734
G1 X126.870 Y97.458 E0.41698
G1 X126.960 Y97.474 E0.00286
G1 X127.670 Y97.725 E0.02362
G1 X117.716 Y107.679 E0.44137
G1 X117.784 Y107.900 E0.00724
G1 X118.045 Y108.417 E0.01816
G1 X128.425 Y98.037 E0.46027
G1 X129.109 Y98.419 E0.02458
G1 X118.409 Y109.119 E0.47447
G1 X118.862 Y109.733 E0.02391
G1 X123.746 Y104.849 E0.21655
G1 X124.224 Y105.327 E0.02120
G1 X124.925 Y104.626 E0.03108
G1 X124.447 Y104.148 E0.02120
G1 X129.733 Y98.862 E0.23440
G1 X130.323 Y99.338 E0.02378
G1 X119.346 Y110.315 E0.48672
G1 X119.891 Y110.837 E0.02365
G1 X130.831 Y99.896 E0.48511
G1 X131.253 Y100.376 E0.02001
G1 X131.316 Y100.478 E0.00378
G1 X120.490 Y111.305 E0.48006
G1 X121.126 Y111.735 E0.02408
G1 X131.722 Y101.138 E0.46986
G1 X131.944 Y101.499 E0.01327
G1 X132.083 Y101.844 E0.01167
G1 X121.848 Y112.079 E0.45384
G1 X122.409 Y112.333 E0.01931
G1 X122.609 Y112.385 E0.00647
G1 X132.389 Y102.605 E0.43366
G1 X132.436 Y102.723 E0.00398
G1 X132.596 Y103.464 E0.02379
G1 X123.455 Y112.605 E0.40532
G1 X123.686 Y112.665 E0.00747
G1 X124.401 Y112.726 E0.02250
G1 X132.730 Y104.396 E0.36935
G1 X132.770 Y105.330 E0.02930
G1 X132.756 Y105.437 E0.00338
G1 X125.455 Y112.738 E0.32375
G1 X126.314 Y112.665 E0.02704
G1 X126.694 Y112.566 E0.01229
G1 X132.594 Y106.666 E0.26164
G1 X132.216 Y107.900 E0.04046
G1 X132.002 Y108.324 E0.01491
G1 X127.986 Y112.340 E0.17807
G1 E-0.80000 F2100.00000
G1 Z0.800 F10800.000
G1 X139.030 Y98.097
G1 Z0.200
G1 E0.80000 F2100.00000
G1 F1200
G1 X136.506 Y100.620 E0.11189
G1 X135.966 Y101.499 E0.03234
G1 X135.476 Y102.718 E0.04118
G1 X140.593 Y97.600 E0.22692
G1 X140.950 Y97.474 E0.01187
G1 X141.959 Y97.301 E0.03209
G1 X135.194 Y104.066 E0.29999
G1 X135.146 Y105.180 E0.03496
G1 X143.076 Y97.251 E0.35160
G1 X143.570 Y97.251 E0.01549
G1 X144.058 Y97.335 E0.01555
G1 X135.245 Y106.148 E0.39081
G1 X135.307 Y106.638 E0.01549
G1 X135.428 Y107.032 E0.01289
G1 X144.955 Y97.504 E0.42247
G1 X145.744 Y97.783 E0.02621
G1 X135.678 Y107.848 E0.44632
G1 X136.029 Y108.564 E0.02499
G1 X146.477 Y98.116 E0.46327
G1 X147.161 Y98.498 E0.02458
G1 X136.413 Y109.247 E0.47659
G1 X136.866 Y109.860 E0.02391
G1 X147.765 Y98.961 E0.48329
G1 X148.345 Y99.447 E0.02374
G1 X137.369 Y110.423 E0.48670
G1 X137.914 Y110.945 E0.02365
G1 X148.845 Y100.014 E0.48469
G1 X149.163 Y100.376 E0.01509
G1 X149.310 Y100.615 E0.00882
G1 X138.532 Y111.394 E0.47794
G1 X139.176 Y111.816 E0.02415
G1 X149.717 Y101.275 E0.46740
G1 X149.854 Y101.499 E0.00823
G1 X150.057 Y102.002 E0.01700
G1 X139.910 Y112.148 E0.44990
G1 X140.319 Y112.333 E0.01406
G1 X140.694 Y112.431 E0.01216
G1 X150.356 Y102.769 E0.42841
G1 X150.545 Y103.646 E0.02814
G1 X141.541 Y112.651 E0.39928
G1 X142.515 Y112.743 E0.03068
G1 X150.649 Y104.609 E0.36071
G1 X150.680 Y105.330 E0.02264
G1 X150.634 Y105.691 E0.01140
G1 X143.607 Y112.718 E0.31159
G1 X144.224 Y112.665 E0.01943
G1 X144.903 Y112.489 E0.02198
G1 X150.406 Y106.985 E0.24405
G1 X150.126 Y107.900 E0.03000
G1 X149.687 Y108.771 E0.03058
G1 X146.300 Y112.158 E0.15020
G1 E-0.80000 F2100.00000
G1 Z0.800 F10800.000
G1 X115.785 Y106.874
G1 Z0.200
G1 E0.80000 F2100.00000
G1 F1200
G1 X115.343 Y108.316 E0.04730
G1 X114.664 Y109.663 E0.04730
G1 X113.767 Y110.876 E0.04730
G1 X112.678 Y111.920 E0.04730
G1 X111.449 Y112.751 E0.04650
G1 X110.054 Y113.386 E0.04806
G1 X108.593 Y113.766 E0.04733
G1 X107.090 Y113.894 E0.04730
G1 X105.587 Y113.766 E0.04730
G1 X104.127 Y113.386 E0.04730
G1 X102.752 Y112.765 E0.04730
G1 X101.502 Y111.920 E0.04730
G1 X100.413 Y110.876 E0.04730
G1 X99.516 Y109.663 E0.04730
G1 X98.849 Y108.339 E0.04651
G1 X98.396 Y106.875 E0.04806
G1 X98.204 Y105.377 E0.04733
G1 X98.268 Y103.870 E0.04730
G1 X98.586 Y102.396 E0.04730
G1 X99.148 Y100.996 E0.04730
G1 X99.939 Y99.711 E0.04730
G1 X100.919 Y98.598 E0.04651
G1 X102.109 Y97.631 E0.04806
G1 X103.426 Y96.895 E0.04733
G1 X104.849 Y96.393 E0.04730
G1 X106.336 Y96.138 E0.04730
G1 X107.844 Y96.138 E0.04730
G1 X109.306 Y96.389 E0.04651
G1 X110.753 Y96.895 E0.04806
G1 X112.071 Y97.631 E0.04733
G1 X113.244 Y98.579 E0.04730
G1 X114.241 Y99.711 E0.04730
G1 X115.032 Y100.996 E0.04730
G1 X115.585 Y102.372 E0.04650
G1 X115.912 Y103.869 E0.04806
G1 X115.976 Y105.377 E0.04733
G1 X115.792 Y106.814 E0.04542
G1 X115.418 Y106.766 F10800.000
G1 F1200
G1 X114.992 Y108.175 E0.04615
G1 X114.341 Y109.465 E0.04529
G1 X113.483 Y110.626 E0.04529
G1 X112.440 Y111.626 E0.04529
G1 X111.264 Y112.420 E0.04451
G1 X109.927 Y113.029 E0.04604
G1 X108.529 Y113.393 E0.04530
G1 X107.090 Y113.516 E0.04529
G1 X105.651 Y113.393 E0.04529
G1 X104.253 Y113.029 E0.04529
G1 X102.937 Y112.434 E0.04529
G1 X101.740 Y111.626 E0.04529
G1 X100.697 Y110.626 E0.04529
G1 X99.839 Y109.465 E0.04529
G1 X99.199 Y108.197 E0.04451
G1 X98.765 Y106.794 E0.04604
G1 X98.582 Y105.361 E0.04530
G1 X98.643 Y103.918 E0.04529
G1 X98.948 Y102.506 E0.04529
G1 X99.486 Y101.166 E0.04529
G1 X100.243 Y99.936 E0.04529
G1 X101.181 Y98.871 E0.04451
G1 X102.321 Y97.945 E0.04604
G1 X103.582 Y97.240 E0.04530
G1 X104.944 Y96.759 E0.04529
G1 X106.368 Y96.515 E0.04529
G1 X107.812 Y96.515 E0.04529
G1 X109.211 Y96.755 E0.04451
G1 X110.597 Y97.240 E0.04604
G1 X111.859 Y97.945 E0.04530
G1 X112.982 Y98.852 E0.04529
G1 X113.937 Y99.936 E0.04529
G1 X114.694 Y101.166 E0.04529
G1 X115.223 Y102.483 E0.04451
G1 X115.537 Y103.918 E0.04604
M73 P2 R43
G1 X115.598 Y105.361 E0.04530
G1 X115.426 Y106.707 E0.04253
G1 X115.715 Y107.034 F10800.000
G1 X116.270 Y106.599
G1 F1200
G1 X116.114 Y105.377 E0.03861
G1 X116.178 Y103.870 E0.04730
G1 X116.496 Y102.396 E0.04730
G1 X117.058 Y100.996 E0.04730
G1 X117.849 Y99.711 E0.04730
G1 X118.846 Y98.579 E0.04730
G1 X120.019 Y97.631 E0.04730
G1 X121.336 Y96.895 E0.04730
G1 X122.759 Y96.393 E0.04730
G1 X124.246 Y96.138 E0.04730
G1 X125.754 Y96.138 E0.04730
G1 X127.216 Y96.389 E0.04650
G1 X128.663 Y96.895 E0.04806
G1 X129.981 Y97.631 E0.04733
G1 X131.154 Y98.579 E0.04730
G1 X132.151 Y99.711 E0.04730
G1 X132.942 Y100.996 E0.04730
G1 X133.495 Y102.372 E0.04651
G1 X133.822 Y103.869 E0.04806
G1 X133.886 Y105.377 E0.04733
G1 X133.695 Y106.874 E0.04730
G1 X133.253 Y108.316 E0.04730
G1 X132.574 Y109.663 E0.04730
G1 X131.677 Y110.876 E0.04730
G1 X130.588 Y111.920 E0.04730
G1 X129.359 Y112.751 E0.04650
G1 X127.964 Y113.386 E0.04806
G1 X126.503 Y113.766 E0.04733
G1 X125.000 Y113.894 E0.04730
G1 X123.497 Y113.766 E0.04730
G1 X122.037 Y113.386 E0.04730
G1 X120.662 Y112.765 E0.04730
G1 X119.412 Y111.920 E0.04730
G1 X118.323 Y110.876 E0.04730
G1 X117.426 Y109.663 E0.04730
G1 X116.759 Y108.339 E0.04651
G1 X116.306 Y106.875 E0.04806
G1 X116.278 Y106.658 E0.00684
G1 X116.652 Y106.610 F10800.000
G1 F1200
G1 X116.492 Y105.361 E0.03948
G1 X116.553 Y103.918 E0.04529
G1 X116.858 Y102.506 E0.04529
G1 X117.396 Y101.166 E0.04529
G1 X118.153 Y99.936 E0.04529
G1 X119.108 Y98.852 E0.04529
G1 X120.231 Y97.945 E0.04529
G1 X121.492 Y97.240 E0.04529
G1 X122.854 Y96.759 E0.04529
G1 X124.278 Y96.515 E0.04529
G1 X125.722 Y96.515 E0.04529
G1 X127.121 Y96.755 E0.04451
G1 X128.507 Y97.240 E0.04604
G1 X129.769 Y97.945 E0.04530
G1 X130.892 Y98.852 E0.04529
G1 X131.847 Y99.936 E0.04529
G1 X132.604 Y101.166 E0.04529
G1 X133.133 Y102.483 E0.04451
G1 X133.447 Y103.918 E0.04604
G1 X133.508 Y105.361 E0.04530
G1 X133.325 Y106.794 E0.04529
G1 X132.902 Y108.175 E0.04529
G1 X132.251 Y109.465 E0.04529
G1 X131.393 Y110.626 E0.04529
G1 X130.350 Y111.626 E0.04529
G1 X129.174 Y112.420 E0.04451
G1 X127.837 Y113.029 E0.04604
G1 X126.439 Y113.393 E0.04530
G1 X125.000 Y113.516 E0.04529
G1 X123.561 Y113.393 E0.04529
G1 X122.163 Y113.029 E0.04529
G1 X120.847 Y112.434 E0.04529
G1 X119.650 Y111.626 E0.04529
G1 X118.607 Y110.626 E0.04529
G1 X117.749 Y109.465 E0.04529
G1 X117.109 Y108.197 E0.04451
G1 X116.675 Y106.794 E0.04604
G1 X116.659 Y106.670 E0.00394
G1 X116.275 Y106.475 F10800.000
G1 E-0.80000 F2100.00000
G1 Z0.800 F10800.000
G1 X134.024 Y105.377
G1 Z0.200
G1 E0.80000 F2100.00000
G1 F1200
G1 X134.088 Y103.870 E0.04730
G1 X134.406 Y102.396 E0.04730
G1 X134.968 Y100.996 E0.04730
G1 X135.759 Y99.711 E0.04730
G1 X136.756 Y98.579 E0.04730
G1 X137.929 Y97.631 E0.04730
G1 X139.246 Y96.895 E0.04730
G1 X140.669 Y96.393 E0.04730
G1 X142.156 Y96.138 E0.04730
G1 X143.664 Y96.138 E0.04730
G1 X145.126 Y96.389 E0.04650
G1 X146.573 Y96.895 E0.04806
G1 X147.891 Y97.631 E0.04733
G1 X149.064 Y98.579 E0.04730
G1 X150.061 Y99.711 E0.04730
G1 X150.852 Y100.996 E0.04730
G1 X151.405 Y102.372 E0.04651
G1 X151.732 Y103.869 E0.04806
G1 X151.796 Y105.377 E0.04733
G1 X151.605 Y106.874 E0.04730
G1 X151.163 Y108.316 E0.04730
G1 X150.484 Y109.663 E0.04730
G1 X149.587 Y110.876 E0.04730
G1 X148.498 Y111.920 E0.04730
G1 X147.269 Y112.751 E0.04650
G1 X145.874 Y113.386 E0.04806
G1 X144.413 Y113.766 E0.04733
G1 X142.910 Y113.894 E0.04730
G1 X141.407 Y113.766 E0.04730
G1 X139.947 Y113.386 E0.04730
G1 X138.572 Y112.765 E0.04730
G1 X137.322 Y111.920 E0.04730
G1 X136.252 Y110.894 E0.04651
G1 X135.337 Y109.664 E0.04806
G1 X134.657 Y108.316 E0.04733
G1 X134.215 Y106.874 E0.04730
G1 X134.031 Y105.437 E0.04542
G1 X134.405 Y105.389 F10800.000
G1 F1200
G1 X134.463 Y103.918 E0.04615
G1 X134.768 Y102.506 E0.04529
G1 X135.306 Y101.166 E0.04529
G1 X136.063 Y99.936 E0.04529
G1 X137.018 Y98.852 E0.04529
G1 X138.141 Y97.945 E0.04529
G1 X139.402 Y97.240 E0.04529
G1 X140.764 Y96.759 E0.04529
G1 X142.188 Y96.515 E0.04529
G1 X143.632 Y96.515 E0.04529
G1 X145.031 Y96.755 E0.04451
G1 X146.417 Y97.240 E0.04604
G1 X147.679 Y97.945 E0.04530
G1 X148.802 Y98.852 E0.04529
G1 X149.757 Y99.936 E0.04529
G1 X150.514 Y101.166 E0.04529
G1 X151.043 Y102.483 E0.04451
G1 X151.357 Y103.918 E0.04604
G1 X151.418 Y105.361 E0.04530
G1 X151.235 Y106.794 E0.04529
G1 X150.812 Y108.175 E0.04529
G1 X150.161 Y109.465 E0.04529
G1 X149.303 Y110.626 E0.04529
G1 X148.260 Y111.626 E0.04529
G1 X147.084 Y112.420 E0.04451
G1 X145.747 Y113.029 E0.04604
G1 X144.349 Y113.393 E0.04530
G1 X142.910 Y113.516 E0.04529
G1 X141.471 Y113.393 E0.04529
G1 X140.073 Y113.029 E0.04529
G1 X138.757 Y112.434 E0.04529
G1 X137.560 Y111.626 E0.04529
G1 X136.535 Y110.643 E0.04451
G1 X135.659 Y109.465 E0.04604
G1 X135.008 Y108.175 E0.04530
G1 X134.585 Y106.794 E0.04529
G1 X134.413 Y105.449 E0.04253
G1 X134.050 Y105.205 F10800.000
G1 E-0.80000 F2100.00000
G1 Z0.800 F10800.000
G1 X149.640 Y92.204
G1 Z0.200
G1 E0.80000 F2100.00000
G1 F1200
G1 X152.875 Y92.204 E0.10143
G1 X152.875 Y117.796 E0.80243
G1 X97.125 Y117.796 E1.74802
G1 X97.125 Y92.204 E0.80243
G1 X149.580 Y92.204 E1.64470
G1 X149.580 Y91.827 F10800.000
G1 F1200
G1 X153.252 Y91.827 E0.11513
G1 X153.252 Y118.173 E0.82607
G1 X96.748 Y118.173 E1.77166
G1 X96.748 Y91.827 E0.82607
G1 X149.520 Y91.827 E1.65465
G1 X149.831 Y92.138 F10800.000
G1 E-0.80000 F2100.00000
G1 Z0.800 F10800.000
G1 X152.762 Y93.084
G1 Z0.200
G1 E0.80000 F2100.00000
G1 F1200
G1 X152.165 Y92.487 E0.02662
G1 X151.629 Y92.487 E0.01690
G1 X152.592 Y93.450 E0.04296
G1 X152.592 Y93.986 E0.01690
G1 X151.093 Y92.487 E0.06686
G1 X150.557 Y92.487 E0.01690
G1 X152.592 Y94.523 E0.09077
G1 X152.592 Y95.059 E0.01690
G1 X150.020 Y92.487 E0.11468
G1 X149.484 Y92.487 E0.01690
G1 X152.592 Y95.595 E0.13858
G1 X152.592 Y96.131 E0.01690
G1 X148.948 Y92.487 E0.16249
G1 X148.412 Y92.487 E0.01690
G1 X152.592 Y96.667 E0.18639
G1 X152.592 Y97.204 E0.01690
G1 X147.876 Y92.487 E0.21030
G1 X147.339 Y92.487 E0.01690
G1 X152.592 Y97.740 E0.23421
G1 X152.592 Y98.276 E0.01690
G1 X146.803 Y92.487 E0.25811
G1 X146.267 Y92.487 E0.01690
G1 X152.592 Y98.812 E0.28202
G1 X152.592 Y99.348 E0.01690
G1 X145.731 Y92.487 E0.30593
G1 X145.195 Y92.487 E0.01690
G1 X152.592 Y99.885 E0.32983
G1 X152.592 Y100.421 E0.01690
G1 X144.658 Y92.487 E0.35374
G1 X144.122 Y92.487 E0.01690
G1 X152.592 Y100.957 E0.37764
G1 X152.592 Y101.493 E0.01690
G1 X143.586 Y92.487 E0.40155
G1 X143.050 Y92.487 E0.01690
G1 X148.713 Y98.149 E0.25247
G1 X149.751 Y99.188 F10800.000
G1 F1200
G1 X152.762 Y102.199 E0.13425
G1 X152.762 Y102.735 F10800.000
G1 F1200
G1 X151.247 Y101.220 E0.06757
G1 X151.607 Y102.116 E0.03046
G1 X152.592 Y103.102 E0.04394
G1 X152.592 Y103.638 E0.01690
G1 X151.797 Y102.843 E0.03546
G1 X151.947 Y103.529 E0.02214
G1 X152.592 Y104.174 E0.02877
G1 X152.592 Y104.710 E0.01690
G1 X152.027 Y104.145 E0.02522
G1 X152.051 Y104.705 E0.01767
G1 X152.592 Y105.246 E0.02416
G1 X152.592 Y105.783 E0.01690
G1 X152.074 Y105.265 E0.02309
G1 X152.080 Y105.390 E0.00394
G1 X152.032 Y105.759 E0.01174
