; generated by PrusaSlicer 2.1.1+win64 on 2020-04-24 at 23:23:17 UTC

; 

; external perimeters extrusion width = 0.45mm
; perimeters extrusion width = 0.45mm
; infill extrusion width = 0.45mm
; solid infill extrusion width = 0.45mm
; top infill extrusion width = 0.40mm
; support material extrusion width = 0.35mm
; first layer extrusion width = 0.42mm

M73 P0 R247
M201 X9000 Y9000 Z500 E10000 ; sets maximum accelerations, mm/sec^2
M203 X500 Y500 Z12 E120 ; sets maximum feedrates, mm/sec
M204 P2000 R1500 T2000 ; sets acceleration (P, T) and retract acceleration (R), mm/sec^2
M205 X10.00 Y10.00 Z0.20 E2.50 ; sets the jerk limits, mm/sec
M205 S0 T0 ; sets the minimum extruding and travel feed rate, mm/sec
M107
M862.3 P "MK2.5SMMU2S" ; printer model check
M862.1 P0.4 ; nozzle diameter check
M115 U3.8.0 ; tell printer latest fw version
G90 ; use absolute coordinates
M83 ; extruder relative mode
M104 S215 ; set extruder temp
M140 S60 ; set bed temp
Tx
M190 S60 ; wait for bed temp
M109 S215 ; wait for extruder temp
G28 W ; home all without mesh bed level
G80 ; mesh bed leveling

G21 ; set units to millimeters

;go outside print area
G1 Y-3.0 F1000.0
G1 Z0.4 F1000.0
; select extruder
Tc
; purge line
G1 X55.0 F2000.0
G1 Z0.3 F1000.0
G92 E0.0
G1 X240.0 E25.0 F2200.0
M73 P0 R247
G1 Y-2.0 F1000.0
G1 X55.0 E25 F1400.0
G1 Z0.20 F1000.0
G1 X5.0 E4.0 F1000.0
G92 E0.0
G21 ; set units to millimeters
G90 ; use absolute coordinates
M83 ; use relative distances for extrusion
M900 K30 ; Filament gcode
;BEFORE_LAYER_CHANGE
G92 E0.0
;0.2


G1 E-0.80000 F2100.00000
G1 Z0.600 F10800.000
;AFTER_LAYER_CHANGE
;0.2
G1 X78.993 Y26.870
G1 Z0.200
G1 E0.80000 F2100.00000
M204 S1000
G1 F1200
G1 X79.200 Y26.375 E0.01680
G1 X79.524 Y25.944 E0.01692
G1 X88.922 Y16.561 E0.41639
G1 X89.326 Y16.299 E0.01510
G1 X89.774 Y16.133 E0.01498
G1 X92.772 Y15.591 E0.09555
G1 X160.627 Y15.570 E2.12753
G1 X161.457 Y15.734 E0.02653
G1 X162.166 Y16.202 E0.02664
G1 X170.981 Y25.019 E0.39091
G1 X171.384 Y25.642 E0.02326
G1 X171.556 Y26.364 E0.02326
G1 X171.903 Y33.364 E0.21977
G1 X171.903 Y178.152 E4.53970
G1 X171.319 Y181.500 E0.10656
G1 X171.110 Y181.997 E0.01692
G1 X170.786 Y182.429 E0.01692
G1 X159.913 Y193.302 E0.48214
G1 X159.409 Y193.674 E0.01964
G1 X158.821 Y193.889 E0.01964
G1 X152.488 Y194.318 E0.19902
G1 X111.014 Y194.318 E1.30038
G1 X110.426 Y194.236 E0.01862
G1 X109.928 Y194.027 E0.01692
G1 X109.497 Y193.703 E0.01692
G1 X100.258 Y184.420 E0.41064
G1 X78.859 Y149.931 E1.27262
G1 X78.572 Y149.189 E0.02496
G1 X76.903 Y130.876 E0.57655
G1 X76.903 Y48.046 E2.59710
G1 X78.987 Y26.929 E0.66531
G1 E-0.80000 F2100.00000
G1 Z0.800 F10800.000
G1 X122.552 Y27.462
G1 Z0.200
G1 E0.80000 F2100.00000
G1 F1200
G1 X131.759 Y18.255 E0.40826
G1 X132.293 Y18.788 E0.02365
G1 X123.206 Y27.876 E0.40294
G1 X123.739 Y28.409 E0.02365
G1 X132.826 Y19.322 E0.40294
G1 X132.894 Y19.390 E0.00302
G1 X134.525 Y17.758 E0.07234
G1 X134.991 Y18.224 E0.02063
G1 X122.641 Y30.573 E0.54761
G1 X123.174 Y31.107 E0.02365
G1 X135.524 Y18.757 E0.54761
G1 X136.057 Y19.290 E0.02365
G1 X123.707 Y31.640 E0.54761
G1 X123.807 Y31.740 E0.00442
G1 X122.176 Y33.371 E0.07234
G1 X122.609 Y33.805 E0.01923
G1 X138.222 Y18.192 E0.69228
G1 X138.755 Y18.725 E0.02365
G1 X123.143 Y34.338 E0.69228
G1 X123.676 Y34.871 E0.02365
G1 X139.288 Y19.259 E0.69228
G1 X139.419 Y19.390 E0.00582
G1 X141.051 Y17.758 E0.07234
G1 X141.453 Y18.161 E0.01783
G1 X122.578 Y37.036 E0.83696
G1 X123.111 Y37.569 E0.02365
G1 X141.986 Y18.694 E0.83696
G1 X142.519 Y19.227 E0.02365
G1 X123.644 Y38.102 E0.83696
G1 X123.807 Y38.265 E0.00721
G1 X122.176 Y39.896 E0.07234
G1 X122.546 Y40.267 E0.01643
G1 X144.684 Y18.129 E0.98163
G1 X145.217 Y18.662 E0.02365
G1 X123.079 Y40.800 E0.98163
G1 X123.613 Y41.334 E0.02365
G1 X145.751 Y19.196 E0.98163
G1 X145.945 Y19.390 E0.00861
G1 X147.576 Y17.758 E0.07234
G1 X147.915 Y18.098 E0.01503
G1 X122.515 Y43.498 E1.12631
G1 X123.048 Y44.031 E0.02365
G1 X148.449 Y18.631 E1.12631
G1 X148.982 Y19.164 E0.02365
G1 X123.581 Y44.565 E1.12631
M73 P0 R246
G1 X123.807 Y44.790 E0.01001
G1 X120.544 Y48.053 E0.14467
G1 X120.852 Y48.361 E0.01363
G1 X151.146 Y18.066 E1.34332
G1 X151.680 Y18.599 E0.02365
G1 X121.265 Y49.014 E1.34864
G1 E-0.80000 F2100.00000
G1 Z0.800 F10800.000
G1 X123.367 Y54.378
G1 Z0.200
G1 E0.80000 F2100.00000
G1 F1200
G1 X135.836 Y41.908 E0.55293
G1 X135.456 Y41.528 E0.01688
G1 X137.087 Y39.896 E0.07234
G1 X136.934 Y39.744 E0.00677
G1 X122.953 Y53.725 E0.61995
G1 X122.420 Y53.192 E0.02365
G1 X136.401 Y39.210 E0.61995
G1 X135.868 Y38.677 E0.02365
G1 X123.518 Y51.027 E0.54761
G1 X122.985 Y50.494 E0.02365
G1 X136.966 Y36.513 E0.61995
G1 X136.433 Y35.979 E0.02365
G1 X122.452 Y49.960 E0.61995
G1 X121.918 Y49.427 E0.02365
G1 X135.899 Y35.446 E0.61995
G1 X135.456 Y35.002 E0.01967
G1 X137.788 Y32.670 E0.10342
G1 X138.232 Y33.114 E0.01967
G1 X152.213 Y19.133 E0.61995
G1 X152.470 Y19.390 E0.01141
G1 X154.102 Y17.758 E0.07234
G1 X154.378 Y18.034 E0.01224
G1 X138.765 Y33.647 E0.69228
G1 X139.298 Y34.180 E0.02365
G1 X154.911 Y18.568 E0.69228
G1 X155.444 Y19.101 E0.02365
G1 X139.832 Y34.713 E0.69228
G1 X140.120 Y35.002 E0.01281
G1 X138.489 Y36.634 E0.07234
G1 X138.734 Y36.878 E0.01084
G1 X157.609 Y18.003 E0.83696
G1 X158.142 Y18.536 E0.02365
G1 X139.267 Y37.411 E0.83696
G1 X139.800 Y37.945 E0.02365
G1 X158.675 Y19.069 E0.83696
G1 X158.996 Y19.390 E0.01421
G1 X160.627 Y17.758 E0.07234
G1 X160.840 Y17.971 E0.00944
G1 X122.388 Y56.423 E1.70500
G1 X122.922 Y56.956 E0.02365
G1 X161.373 Y18.505 E1.70500
G1 X161.906 Y19.038 E0.02365
G1 X123.455 Y57.489 E1.70500
G1 X123.807 Y57.841 E0.01561
G1 X122.176 Y59.473 E0.07234
G1 X122.357 Y59.654 E0.00804
G1 X162.440 Y19.571 E1.77734
G1 X162.973 Y20.104 E0.02365
G1 X122.890 Y60.187 E1.77734
G1 X123.423 Y60.720 E0.02365
G1 X163.506 Y20.638 E1.77734
G1 X164.040 Y21.171 E0.02365
G1 X122.325 Y62.885 E1.84967
G1 X122.859 Y63.418 E0.02365
G1 X137.547 Y48.730 E0.65131
G1 X137.218 Y49.838 E0.03625
G1 X137.184 Y50.160 E0.01014
G1 X123.392 Y63.952 E0.61155
G1 X123.807 Y64.367 E0.01840
G1 X122.176 Y65.998 E0.07234
G1 X122.294 Y66.116 E0.00524
G1 X137.076 Y51.334 E0.65545
G1 X137.060 Y51.564 E0.00721
G1 X137.141 Y52.335 E0.02433
G1 X122.827 Y66.650 E0.63471
G1 X123.360 Y67.183 E0.02365
G1 X137.257 Y53.286 E0.61621
G1 X137.510 Y54.099 E0.02671
G1 X123.894 Y67.716 E0.60379
G1 X124.427 Y68.249 E0.02365
G1 X137.778 Y54.898 E0.59202
G1 X138.154 Y55.589 E0.02465
G1 X124.960 Y68.783 E0.58505
G1 X125.493 Y69.316 E0.02365
G1 X138.531 Y56.278 E0.57811
G1 X139.013 Y56.863 E0.02375
G1 X126.027 Y69.849 E0.57584
G1 X126.560 Y70.382 E0.02365
G1 X139.498 Y57.445 E0.57369
G1 X139.634 Y57.599 E0.00646
G1 X140.063 Y57.946 E0.01730
G1 X127.093 Y70.916 E0.57509
G1 X127.627 Y71.449 E0.02365
G1 X140.653 Y58.423 E0.57760
G1 X140.944 Y58.651 E0.01160
G1 X141.302 Y58.840 E0.01270
G1 X128.160 Y71.982 E0.58276
G1 X128.693 Y72.516 E0.02365
G1 X142.002 Y59.207 E0.59012
G1 X142.386 Y59.409 E0.01360
G1 X142.753 Y59.522 E0.01205
G1 X129.226 Y73.049 E0.59978
G1 X129.631 Y73.454 E0.01796
G1 X131.263 Y71.822 E0.07234
G1 X131.391 Y71.951 E0.00569
G1 X143.576 Y59.766 E0.54031
G1 X143.995 Y59.889 E0.01370
G1 X144.470 Y59.938 E0.01498
G1 X131.924 Y72.484 E0.55631
G1 X132.458 Y73.017 E0.02365
G1 X145.447 Y60.027 E0.57599
M73 P0 R245
G1 X145.719 Y60.047 E0.00854
G1 X146.586 Y59.955 E0.02732
G1 X134.622 Y71.919 E0.53049
G1 X135.155 Y72.452 E0.02365
G1 X147.900 Y59.707 E0.56513
G1 X148.945 Y59.384 E0.03427
G1 X149.689 Y58.985 E0.02648
G1 X135.569 Y73.106 E0.62611
G1 X139.302 Y76.839 F10800.000
G1 F1200
G1 X169.714 Y46.422 E1.34864
G1 X169.183 Y45.891 E0.02355
G1 X138.888 Y76.185 E1.34332
G1 X138.355 Y75.652 E0.02365
G1 X168.650 Y45.357 E1.34332
G1 X168.116 Y44.824 E0.02365
G1 X137.822 Y75.119 E1.34332
G1 X137.289 Y74.586 E0.02365
G1 X169.215 Y42.660 E1.41565
G1 X168.681 Y42.126 E0.02365
G1 X136.755 Y74.052 E1.41565
G1 X136.222 Y73.519 E0.02365
G1 X168.148 Y41.593 E1.41565
G1 X168.083 Y41.528 E0.00289
G1 X169.714 Y39.896 E0.07234
G1 X169.246 Y39.428 E0.02075
G1 X153.137 Y55.537 E0.71430
G1 X153.582 Y54.679 E0.03032
G1 X153.856 Y53.752 E0.03031
G1 X168.713 Y38.895 E0.65877
G1 X168.180 Y38.362 E0.02365
G1 X154.111 Y52.430 E0.62381
G1 X154.201 Y51.446 E0.03098
G1 X154.189 Y51.286 E0.00504
G1 X169.278 Y36.197 E0.66905
G1 X168.744 Y35.664 E0.02365
G1 X154.087 Y50.321 E0.64993
G1 X154.029 Y49.776 E0.01719
G1 X153.923 Y49.418 E0.01169
G1 X168.211 Y35.131 E0.63354
G1 X168.083 Y35.002 E0.00569
G1 X169.714 Y33.371 E0.07234
G1 X169.309 Y32.966 E0.01796
G1 X153.670 Y48.605 E0.69346
G1 X153.535 Y48.171 E0.01424
G1 X153.364 Y47.845 E0.01156
G1 X168.776 Y32.433 E0.68340
G1 X168.243 Y31.899 E0.02365
G1 X152.988 Y47.154 E0.67641
G1 X152.738 Y46.694 E0.01642
G1 X152.580 Y46.496 E0.00795
G1 X169.341 Y29.735 E0.74321
G1 X168.807 Y29.202 E0.02365
G1 X152.095 Y45.914 E0.74104
G1 X151.602 Y45.340 E0.02371
G1 X155.223 Y41.719 E0.16057
G1 X154.690 Y41.186 E0.02365
G1 X151.013 Y44.863 E0.16306
G1 X150.423 Y44.386 E0.02378
G1 X154.157 Y40.653 E0.16555
G1 X153.624 Y40.119 E0.02365
G1 X149.739 Y44.004 E0.17226
G1 X149.040 Y43.637 E0.02476
G1 X153.090 Y39.586 E0.17961
G1 X152.557 Y39.053 E0.02365
G1 X148.249 Y43.361 E0.19103
G1 X147.426 Y43.117 E0.02691
G1 X152.024 Y38.520 E0.20387
G1 X151.769 Y38.265 E0.01128
G1 X153.401 Y36.634 E0.07234
G1 X153.122 Y36.355 E0.01236
G1 X146.483 Y42.994 E0.29439
G1 X145.602 Y42.913 E0.02772
G1 X145.490 Y42.920 E0.00351
G1 X152.589 Y35.822 E0.31474
G1 X152.055 Y35.288 E0.02365
G1 X144.299 Y43.044 E0.34392
G1 X143.881 Y43.093 E0.01321
G1 X142.870 Y43.407 E0.03316
G1 X164.573 Y21.704 E0.96232
G1 X165.106 Y22.238 E0.02365
G1 X154.388 Y32.956 E0.47527
G1 X154.921 Y33.489 E0.02365
G1 X165.639 Y22.771 E0.47527
G1 X166.173 Y23.304 E0.02365
G1 X155.454 Y34.023 E0.47527
G1 X155.987 Y34.556 E0.02365
G1 X166.706 Y23.837 E0.47527
G1 X167.239 Y24.371 E0.02365
G1 X154.889 Y36.720 E0.54761
G1 X155.423 Y37.254 E0.02365
G1 X167.772 Y24.904 E0.54761
G1 X168.306 Y25.437 E0.02365
G1 X155.956 Y37.787 E0.54761
G1 X156.434 Y38.265 E0.02120
G1 X154.803 Y39.896 E0.07234
G1 X154.858 Y39.952 E0.00245
G1 X168.839 Y25.970 E0.61995
G1 X169.372 Y26.504 E0.02365
G1 X155.391 Y40.485 E0.61995
G1 X155.924 Y41.018 E0.02365
G1 X168.394 Y28.548 E0.55293
G1 X156.148 Y61.058 F10800.000
G1 F1200
G1 X168.618 Y48.589 E0.55293
G1 X169.151 Y49.122 E0.02365
G1 X155.170 Y63.103 E0.61995
G1 X155.704 Y63.636 E0.02365
G1 X169.685 Y49.655 E0.61995
G1 X169.714 Y49.685 E0.00130
G1 X168.083 Y51.316 E0.07234
G1 X168.587 Y51.820 E0.02234
G1 X156.237 Y64.170 E0.54761
G1 X156.434 Y64.367 E0.00874
G1 X154.803 Y65.998 E0.07234
G1 X155.139 Y66.334 E0.01491
G1 X169.120 Y52.353 E0.61995
G1 X169.653 Y52.886 E0.02365
G1 X155.672 Y66.867 E0.61995
G1 X156.205 Y67.401 E0.02365
G1 X168.555 Y55.051 E0.54761
G1 X169.088 Y55.584 E0.02365
G1 X155.107 Y69.565 E0.61995
G1 X155.641 Y70.099 E0.02365
G1 X169.622 Y56.117 E0.61995
G1 X169.714 Y56.210 E0.00410
G1 X168.083 Y57.841 E0.07234
G1 X168.524 Y58.282 E0.01955
G1 X156.174 Y70.632 E0.54761
G1 X156.434 Y70.892 E0.01154
G1 X154.803 Y72.523 E0.07234
G1 X155.076 Y72.796 E0.01211
G1 X169.057 Y58.815 E0.61995
G1 X169.590 Y59.349 E0.02365
G1 X155.609 Y73.330 E0.61995
G1 X156.142 Y73.863 E0.02365
G1 X168.492 Y61.513 E0.54761
G1 X169.025 Y62.047 E0.02365
G1 X155.044 Y76.028 E0.61995
M73 P1 R244
G1 X155.577 Y76.561 E0.02365
G1 X169.559 Y62.580 E0.61995
G1 X169.714 Y62.735 E0.00690
G1 X168.083 Y64.367 E0.07234
G1 X168.460 Y64.744 E0.01675
G1 X156.111 Y77.094 E0.54761
G1 X156.434 Y77.417 E0.01433
G1 X154.803 Y79.049 E0.07234
G1 X155.013 Y79.259 E0.00931
G1 X168.994 Y65.278 E0.61995
G1 X169.527 Y65.811 E0.02365
G1 X155.546 Y79.792 E0.61995
G1 X156.079 Y80.325 E0.02365
G1 X168.429 Y67.976 E0.54761
G1 X168.962 Y68.509 E0.02365
G1 X143.562 Y93.909 E1.12631
G1 X144.095 Y94.443 E0.02365
G1 X169.495 Y69.042 E1.12631
G1 X169.714 Y69.261 E0.00969
G1 X168.083 Y70.892 E0.07234
G1 X168.397 Y71.207 E0.01395
G1 X156.048 Y83.557 E0.54761
G1 X155.733 Y83.242 E0.01395
G1 X155.032 Y83.943 E0.03108
G1 X155.347 Y84.258 E0.01395
G1 X144.628 Y94.976 E0.47527
G1 X145.015 Y95.362 E0.01713
G1 X143.383 Y96.994 E0.07234
G1 X143.530 Y97.141 E0.00651
G1 X168.931 Y71.740 E1.12631
G1 X169.464 Y72.273 E0.02365
G1 X144.063 Y97.674 E1.12631
G1 X144.597 Y98.207 E0.02365
G1 X168.366 Y74.438 E1.05397
G1 X168.899 Y74.971 E0.02365
G1 X143.499 Y100.372 E1.12631
G1 X144.032 Y100.905 E0.02365
G1 X169.432 Y75.504 E1.12631
G1 X169.714 Y75.786 E0.01249
G1 X168.083 Y77.417 E0.07234
G1 X168.334 Y77.669 E0.01116
G1 X144.565 Y101.438 E1.05397
G1 X145.098 Y101.972 E0.02365
G1 X168.868 Y78.202 E1.05397
G1 X169.401 Y78.736 E0.02365
G1 X145.632 Y102.505 E1.05397
G1 X146.165 Y103.038 E0.02365
G1 X168.303 Y80.900 E0.98163
G1 X168.836 Y81.433 E0.02365
G1 X146.698 Y103.571 E0.98163
G1 X147.231 Y104.105 E0.02365
G1 X169.369 Y81.967 E0.98163
G1 X169.714 Y82.312 E0.01529
G1 X168.083 Y83.943 E0.07234
G1 X168.271 Y84.131 E0.00836
G1 X147.765 Y104.638 E0.90929
G1 X148.298 Y105.171 E0.02365
G1 X168.805 Y84.665 E0.90929
G1 X169.338 Y85.198 E0.02365
G1 X148.831 Y105.704 E0.90929
G1 X149.365 Y106.238 E0.02365
G1 X168.240 Y87.363 E0.83696
G1 X168.773 Y87.896 E0.02365
G1 X149.898 Y106.771 E0.83696
G1 X150.431 Y107.304 E0.02365
G1 X169.306 Y88.429 E0.83696
G1 X169.714 Y88.837 E0.01808
G1 X168.083 Y90.468 E0.07234
G1 X168.208 Y90.594 E0.00556
G1 X150.964 Y107.838 E0.76462
G1 X151.498 Y108.371 E0.02365
G1 X168.741 Y91.127 E0.76462
G1 X169.275 Y91.660 E0.02365
G1 X152.031 Y108.904 E0.76462
G1 X152.470 Y109.343 E0.01948
G1 X154.102 Y107.712 E0.07234
G1 X154.195 Y107.806 E0.00416
G1 X168.177 Y93.825 E0.61995
G1 X168.710 Y94.358 E0.02365
G1 X154.729 Y108.339 E0.61995
G1 X155.262 Y108.873 E0.02365
G1 X169.243 Y94.891 E0.61995
G1 X169.714 Y95.362 E0.02088
G1 X168.083 Y96.994 E0.07234
G1 X168.145 Y97.056 E0.00276
G1 X157.427 Y107.774 E0.47527
G1 X157.960 Y108.308 E0.02365
G1 X168.678 Y97.589 E0.47527
G1 X169.212 Y98.123 E0.02365
G1 X158.373 Y108.961 E0.48059
G1 E-0.80000 F2100.00000
G1 Z0.800 F10800.000
G1 X144.540 Y91.865
G1 Z0.200
G1 E0.80000 F2100.00000
G1 F1200
G1 X155.378 Y81.026 E0.48059
G1 X154.845 Y80.493 E0.02365
G1 X144.126 Y91.212 E0.47527
G1 X143.593 Y90.678 E0.02365
G1 X154.312 Y79.960 E0.47527
G1 X153.778 Y79.427 E0.02365
G1 X144.691 Y88.514 E0.40294
G1 X144.158 Y87.980 E0.02365
G1 X153.245 Y78.893 E0.40294
G1 X152.712 Y78.360 E0.02365
G1 X143.625 Y87.447 E0.40294
G1 X143.091 Y86.914 E0.02365
G1 X152.179 Y77.827 E0.40294
G1 X151.769 Y77.417 E0.01815
G1 X153.401 Y75.786 E0.07234
G1 X153.277 Y75.662 E0.00550
G1 X142.558 Y86.381 E0.47527
G1 X142.025 Y85.847 E0.02365
G1 X152.743 Y75.129 E0.47527
G1 X152.210 Y74.596 E0.02365
G1 X143.123 Y83.683 E0.40294
G1 X142.590 Y83.149 E0.02365
G1 X151.677 Y74.062 E0.40294
G1 X151.144 Y73.529 E0.02365
G1 X142.056 Y82.616 E0.40294
G1 X141.523 Y82.083 E0.02365
G1 X150.610 Y72.996 E0.40294
G1 X150.138 Y72.523 E0.02094
G1 X153.401 Y69.261 E0.14467
G1 X153.340 Y69.200 E0.00270
G1 X140.990 Y81.550 E0.54761
G1 X140.457 Y81.016 E0.02365
G1 X152.806 Y68.667 E0.54761
M73 P1 R243
G1 X152.273 Y68.133 E0.02365
G1 X139.923 Y80.483 E0.54761
G1 X139.390 Y79.950 E0.02365
G1 X153.371 Y65.969 E0.61995
G1 X152.838 Y65.435 E0.02365
G1 X138.857 Y79.417 E0.61995
G1 X138.489 Y79.049 E0.01630
G1 X140.120 Y77.417 E0.07234
G1 X139.955 Y77.252 E0.00734
G1 X152.425 Y64.782 E0.55293
G1 E-0.80000 F2100.00000
G1 Z0.800 F10800.000
G1 X145.686 Y58.931
G1 Z0.200
G1 E0.80000 F2100.00000
G1 F1200
G1 X144.230 Y58.798 E0.04581
G1 X142.829 Y58.384 E0.04582
G1 X141.535 Y57.705 E0.04582
G1 X140.398 Y56.786 E0.04582
G1 X139.462 Y55.664 E0.04583
G1 X138.764 Y54.380 E0.04583
G1 X138.329 Y52.984 E0.04583
G1 X138.176 Y51.530 E0.04583
G1 X138.309 Y50.075 E0.04583
G1 X138.725 Y48.673 E0.04583
G1 X139.406 Y47.380 E0.04583
G1 X140.326 Y46.245 E0.04582
G1 X141.450 Y45.311 E0.04582
G1 X142.735 Y44.614 E0.04581
G1 X144.130 Y44.181 E0.04581
G1 X145.583 Y44.029 E0.04580
G1 X147.038 Y44.163 E0.04580
G1 X148.438 Y44.578 E0.04579
G1 X149.731 Y45.258 E0.04579
G1 X150.866 Y46.177 E0.04579
G1 X151.800 Y47.299 E0.04578
G1 X152.497 Y48.582 E0.04578
