; generated by PrusaSlicer 2.1.1+win64 on 2020-01-15 at 17:28:30 UTC

; 

; external perimeters extrusion width = 0.45mm
; perimeters extrusion width = 0.45mm
; infill extrusion width = 0.45mm
; solid infill extrusion width = 0.45mm
; top infill extrusion width = 0.40mm
; first layer extrusion width = 0.42mm

M73 P0 R3
M201 X9000 Y9000 Z500 E10000 ; sets maximum accelerations, mm/sec^2
M203 X500 Y500 Z12 E120 ; sets maximum feedrates, mm/sec
M204 P2000 R1500 T2000 ; sets acceleration (P, T) and retract acceleration (R), mm/sec^2
M205 X10.00 Y10.00 Z0.20 E2.50 ; sets the jerk limits, mm/sec
M205 S0 T0 ; sets the minimum extruding and travel feed rate, mm/sec
M107
M862.3 P "MK2.5SMMU2S" ; printer model check
M862.1 P0.4 ; nozzle diameter check
M115 U3.8.1 ; tell printer latest fw version
G90 ; use absolute coordinates
M83 ; extruder relative mode
M104 S215 ; set extruder temp
M140 S60 ; set bed temp
Tx
M190 S60 ; wait for bed temp
M109 S215 ; wait for extruder temp
G28 W ; home all without mesh bed level
G80 ; mesh bed leveling

;go outside print area
G1 Y-3.0 F1000.0
G1 Z0.4 F1000.0
; select extruder
Tc
; purge line
G1 X55.0 F2000.0
G1 Z0.3 F1000.0
G92 E0.0
G1 X240.0 E25.0 F2200.0
M73 P4 R3
G1 Y-2.0 F1000.0
G1 X55.0 E25 F1400.0
G1 Z0.20 F1000.0
G1 X5.0 E4.0 F1000.0
G92 E0.0
G21 ; set units to millimeters
G90 ; use absolute coordinates
M83 ; use relative distances for extrusion
M900 K30 ; Filament gcode
;BEFORE_LAYER_CHANGE
G92 E0.0
;0.2


G1 E-0.80000 F2100.00000
G1 Z0.600 F10800.000
;AFTER_LAYER_CHANGE
;0.2
G1 X111.224 Y96.550
G1 Z0.200
G1 E0.80000 F2100.00000
M204 S1000
G1 F1200
G1 X111.925 Y95.952 E0.02889
G1 X113.001 Y95.395 E0.03799
G1 X113.720 Y95.192 E0.02345
G1 X114.519 Y95.108 E0.02518
G1 X135.391 Y95.106 E0.65442
G1 X136.290 Y95.194 E0.02832
G1 X137.136 Y95.444 E0.02766
G1 X137.943 Y95.862 E0.02852
G1 X138.555 Y96.339 E0.02431
G1 X139.415 Y97.393 E0.04265
G1 X139.765 Y98.097 E0.02467
G1 X140.021 Y99.031 E0.03036
G1 X140.088 Y99.806 E0.02439
G1 X140.088 Y110.209 E0.32618
G1 X140.025 Y110.940 E0.02300
G1 X139.756 Y111.928 E0.03209
G1 X139.336 Y112.743 E0.02876
G1 X138.743 Y113.484 E0.02975
G1 X138.075 Y114.048 E0.02741
G1 X136.995 Y114.606 E0.03812
G1 X136.280 Y114.808 E0.02332
G1 X135.481 Y114.892 E0.02518
G1 X114.502 Y114.892 E0.65777
G1 X113.483 Y114.752 E0.03225
G1 X112.820 Y114.539 E0.02184
G1 X112.214 Y114.229 E0.02134
G1 X111.359 Y113.585 E0.03356
G1 X110.758 Y112.882 E0.02901
G1 X110.206 Y111.821 E0.03751
G1 X110.002 Y111.105 E0.02332
G1 X109.917 Y110.354 E0.02369
G1 X109.919 Y99.628 E0.33630
G1 X110.060 Y98.658 E0.03076
G1 X110.271 Y98.006 E0.02146
G1 X110.586 Y97.390 E0.02171
G1 X111.188 Y96.598 E0.03119
G1 X111.487 Y96.827 F10800.000
G1 F1200
G1 X112.166 Y96.242 E0.02810
G1 X113.131 Y95.749 E0.03396
G1 X113.792 Y95.562 E0.02154
G1 X114.541 Y95.484 E0.02360
G1 X135.391 Y95.483 E0.65375
G1 X136.221 Y95.564 E0.02614
G1 X137.002 Y95.796 E0.02555
G1 X137.747 Y96.184 E0.02634
G1 X138.313 Y96.629 E0.02257
G1 X139.088 Y97.580 E0.03848
G1 X139.412 Y98.231 E0.02279
G1 X139.650 Y99.101 E0.02827
G1 X139.711 Y99.806 E0.02221
G1 X139.711 Y110.205 E0.32603
G1 X139.653 Y110.879 E0.02123
G1 X139.403 Y111.794 E0.02975
G1 X139.011 Y112.550 E0.02669
G1 X138.464 Y113.230 E0.02737
G1 X137.834 Y113.758 E0.02577
G1 X136.869 Y114.251 E0.03396
G1 X136.208 Y114.438 E0.02154
G1 X135.459 Y114.516 E0.02360
G1 X114.521 Y114.515 E0.65650
G1 X113.584 Y114.389 E0.02966
G1 X112.961 Y114.189 E0.02051
G1 X112.385 Y113.894 E0.02028
G1 X111.605 Y113.298 E0.03077
G1 X111.049 Y112.640 E0.02703
G1 X110.560 Y111.690 E0.03351
G1 X110.371 Y111.029 E0.02154
G1 X110.293 Y110.321 E0.02235
G1 X110.295 Y99.657 E0.33436
G1 X110.422 Y98.764 E0.02829
G1 X110.620 Y98.148 E0.02028
G1 X110.918 Y97.569 E0.02040
G1 X111.450 Y96.874 E0.02745
G1 F8640
G1 X112.166 Y96.242 E-0.22054
G1 X113.131 Y95.749 E-0.25008
G1 X113.792 Y95.562 E-0.15864
G1 X114.355 Y95.503 E-0.13074
G1 E-0.04000 F2100.00000
G1 Z0.800 F10800.000
G1 X123.485 Y99.505
G1 Z0.200
G1 E0.80000 F2100.00000
G1 F1200
G1 X123.573 Y99.215 E0.00950
G1 X123.715 Y98.948 E0.00950
G1 X123.908 Y98.714 E0.00950
G1 X124.142 Y98.522 E0.00950
G1 X124.409 Y98.379 E0.00950
G1 X124.699 Y98.291 E0.00950
G1 X125.000 Y98.262 E0.00950
G1 X125.277 Y98.289 E0.00873
G1 X125.594 Y98.381 E0.01035
G1 X125.858 Y98.522 E0.00938
G1 X126.092 Y98.714 E0.00950
G1 X126.285 Y98.948 E0.00950
G1 X126.427 Y99.215 E0.00950
G1 X126.515 Y99.505 E0.00950
G1 X126.545 Y99.806 E0.00950
G1 X126.515 Y100.108 E0.00950
G1 X126.427 Y100.398 E0.00950
G1 X126.285 Y100.665 E0.00950
G1 X126.092 Y100.899 E0.00950
G1 X125.858 Y101.091 E0.00950
G1 X125.591 Y101.234 E0.00950
G1 X125.301 Y101.322 E0.00950
G1 X125.000 Y101.351 E0.00950
G1 X124.699 Y101.322 E0.00950
G1 X124.409 Y101.234 E0.00950
G1 X124.142 Y101.091 E0.00950
G1 X123.908 Y100.899 E0.00950
G1 X123.715 Y100.665 E0.00950
G1 X123.573 Y100.398 E0.00950
G1 X123.485 Y100.108 E0.00950
G1 X123.455 Y99.806 E0.00950
G1 X123.479 Y99.565 E0.00761
G1 X123.113 Y99.431 F10800.000
G1 F1200
G1 X123.223 Y99.070 E0.01182
G1 X123.400 Y98.738 E0.01182
G1 X123.640 Y98.446 E0.01182
G1 X123.931 Y98.207 E0.01182
G1 X124.264 Y98.029 E0.01182
G1 X124.625 Y97.920 E0.01182
G1 X125.000 Y97.883 E0.01182
G1 X125.349 Y97.917 E0.01099
G1 X125.737 Y98.030 E0.01268
G1 X126.069 Y98.207 E0.01178
G1 X126.360 Y98.446 E0.01182
G1 X126.600 Y98.738 E0.01182
G1 X126.777 Y99.070 E0.01182
G1 X126.887 Y99.431 E0.01182
G1 X126.924 Y99.806 E0.01182
G1 X126.887 Y100.182 E0.01182
G1 X126.777 Y100.543 E0.01182
G1 X126.600 Y100.875 E0.01182
G1 X126.360 Y101.167 E0.01182
G1 X126.069 Y101.406 E0.01182
G1 X125.736 Y101.584 E0.01182
G1 X125.375 Y101.693 E0.01182
G1 X125.000 Y101.730 E0.01182
G1 X124.625 Y101.693 E0.01182
G1 X124.264 Y101.584 E0.01182
G1 X123.931 Y101.406 E0.01182
G1 X123.640 Y101.167 E0.01182
G1 X123.400 Y100.875 E0.01182
G1 X123.223 Y100.543 E0.01182
G1 X123.113 Y100.182 E0.01182
G1 X123.076 Y99.806 E0.01182
G1 X123.107 Y99.491 E0.00994
G1 X123.470 Y99.310 F10800.000
G1 X123.629 Y100.193
G1 F1200
G1 X124.300 Y100.855 E0.03245
G1 X124.518 Y100.971 E0.00851
G1 X124.754 Y101.043 E0.00851
G1 X125.081 Y101.059 E0.01127
G1 X123.747 Y99.726 E0.06498
G1 X123.763 Y99.560 E0.00572
G1 X123.869 Y99.261 E0.01093
G1 X125.545 Y100.938 E0.08168
G1 X125.700 Y100.855 E0.00606
G1 X125.891 Y100.698 E0.00851
G1 X124.108 Y98.915 E0.08687
G1 X124.300 Y98.758 E0.00852
G1 X124.455 Y98.675 E0.00606
G1 X126.131 Y100.352 E0.08168
G1 X126.237 Y100.052 E0.01093
G1 X126.253 Y99.887 E0.00571
G1 X124.919 Y98.554 E0.06498
G1 X125.224 Y98.568 E0.01050
G1 X125.487 Y98.644 E0.00946
G1 X125.700 Y98.758 E0.00833
G1 X126.371 Y99.420 E0.03246
G1 F8640
G1 X125.700 Y98.758 E-0.21754
G1 X125.487 Y98.644 E-0.05583
G1 X125.224 Y98.568 E-0.06339
G1 X124.919 Y98.554 E-0.07037
G1 X126.000 Y99.634 E-0.35287
G1 E-0.04000 F2100.00000
G1 Z0.800 F10800.000
G1 X133.842 Y99.806
G1 Z0.200
G1 E0.80000 F2100.00000
G1 F1200
G1 X133.872 Y99.505 E0.00950
G1 X133.960 Y99.215 E0.00950
G1 X134.103 Y98.948 E0.00950
G1 X134.295 Y98.714 E0.00950
G1 X134.529 Y98.522 E0.00950
G1 X134.796 Y98.379 E0.00950
G1 X135.086 Y98.291 E0.00950
G1 X135.387 Y98.262 E0.00950
G1 X135.664 Y98.289 E0.00873
G1 X135.982 Y98.381 E0.01035
G1 X136.245 Y98.522 E0.00938
G1 X136.480 Y98.714 E0.00950
G1 X136.672 Y98.948 E0.00950
G1 X136.814 Y99.215 E0.00950
G1 X136.902 Y99.505 E0.00950
G1 X136.932 Y99.806 E0.00950
G1 X136.902 Y100.108 E0.00950
G1 X136.814 Y100.398 E0.00950
G1 X136.672 Y100.665 E0.00950
G1 X136.480 Y100.899 E0.00950
G1 X136.245 Y101.091 E0.00950
G1 X135.978 Y101.234 E0.00950
G1 X135.689 Y101.322 E0.00950
G1 X135.387 Y101.351 E0.00950
G1 X135.086 Y101.322 E0.00950
G1 X134.796 Y101.234 E0.00950
G1 X134.529 Y101.091 E0.00950
G1 X134.295 Y100.899 E0.00950
G1 X134.103 Y100.665 E0.00950
G1 X133.960 Y100.398 E0.00950
G1 X133.872 Y100.108 E0.00950
G1 X133.848 Y99.866 E0.00761
G1 X133.463 Y99.806 F10800.000
G1 F1200
G1 X133.500 Y99.431 E0.01182
G1 X133.610 Y99.070 E0.01182
G1 X133.788 Y98.738 E0.01182
G1 X134.027 Y98.446 E0.01182
G1 X134.318 Y98.207 E0.01182
G1 X134.651 Y98.029 E0.01182
G1 X135.012 Y97.920 E0.01182
G1 X135.387 Y97.883 E0.01182
G1 X135.736 Y97.917 E0.01099
G1 X136.125 Y98.030 E0.01268
G1 X136.456 Y98.207 E0.01178
G1 X136.748 Y98.446 E0.01182
G1 X136.987 Y98.738 E0.01182
G1 X137.165 Y99.070 E0.01182
G1 X137.274 Y99.431 E0.01182
G1 X137.311 Y99.806 E0.01182
G1 X137.274 Y100.182 E0.01182
G1 X137.165 Y100.543 E0.01182
G1 X136.987 Y100.875 E0.01182
G1 X136.748 Y101.167 E0.01182
G1 X136.456 Y101.406 E0.01182
G1 X136.123 Y101.584 E0.01182
G1 X135.762 Y101.693 E0.01182
G1 X135.387 Y101.730 E0.01182
G1 X135.012 Y101.693 E0.01182
G1 X134.651 Y101.584 E0.01182
G1 X134.318 Y101.406 E0.01182
G1 X134.027 Y101.167 E0.01182
G1 X133.788 Y100.875 E0.01182
G1 X133.610 Y100.543 E0.01182
G1 X133.500 Y100.182 E0.01182
G1 X133.469 Y99.866 E0.00994
G1 X133.790 Y99.618 F10800.000
G1 X134.016 Y100.193
G1 F1200
G1 X134.687 Y100.855 E0.03245
G1 X134.905 Y100.971 E0.00851
G1 X135.141 Y101.043 E0.00851
G1 X135.468 Y101.059 E0.01127
G1 X134.134 Y99.726 E0.06498
G1 X134.151 Y99.560 E0.00572
G1 X134.256 Y99.261 E0.01093
G1 X135.932 Y100.938 E0.08168
G1 X136.088 Y100.855 E0.00606
G1 X136.279 Y100.698 E0.00851
G1 X134.496 Y98.915 E0.08687
G1 X134.687 Y98.758 E0.00852
G1 X134.842 Y98.675 E0.00606
G1 X136.518 Y100.352 E0.08168
G1 X136.624 Y100.052 E0.01093
G1 X136.640 Y99.887 E0.00571
G1 X135.306 Y98.554 E0.06498
G1 X135.611 Y98.568 E0.01050
G1 X135.874 Y98.644 E0.00946
G1 X136.088 Y98.758 E0.00833
G1 X136.758 Y99.420 E0.03246
G1 F8640
G1 X136.088 Y98.758 E-0.21754
G1 X135.874 Y98.644 E-0.05583
G1 X135.611 Y98.568 E-0.06339
G1 X135.306 Y98.554 E-0.07037
G1 X136.387 Y99.634 E-0.35287
G1 E-0.04000 F2100.00000
G1 Z0.800 F10800.000
G1 X135.664 Y108.676
G1 Z0.200
G1 E0.80000 F2100.00000
G1 F1200
G1 X135.982 Y108.768 E0.01035
G1 X136.245 Y108.909 E0.00938
G1 X136.480 Y109.101 E0.00950
G1 X136.672 Y109.335 E0.00950
G1 X136.814 Y109.602 E0.00950
G1 X136.902 Y109.892 E0.00950
G1 X136.932 Y110.194 E0.00950
G1 X136.902 Y110.495 E0.00950
G1 X136.814 Y110.785 E0.00950
G1 X136.672 Y111.052 E0.00950
G1 X136.480 Y111.286 E0.00950
G1 X136.245 Y111.478 E0.00950
G1 X135.978 Y111.621 E0.00950
G1 X135.689 Y111.709 E0.00950
G1 X135.387 Y111.738 E0.00950
G1 X135.086 Y111.709 E0.00950
G1 X134.796 Y111.621 E0.00950
G1 X134.529 Y111.478 E0.00950
G1 X134.295 Y111.286 E0.00950
G1 X134.103 Y111.052 E0.00950
G1 X133.960 Y110.785 E0.00950
G1 X133.872 Y110.495 E0.00950
G1 X133.842 Y110.194 E0.00950
G1 X133.872 Y109.892 E0.00950
G1 X133.960 Y109.602 E0.00950
G1 X134.103 Y109.335 E0.00950
G1 X134.295 Y109.101 E0.00950
G1 X134.529 Y108.909 E0.00950
G1 X134.796 Y108.766 E0.00950
G1 X135.086 Y108.678 E0.00950
G1 X135.387 Y108.649 E0.00950
G1 X135.605 Y108.670 E0.00685
G1 X135.387 Y108.270 F10800.000
G1 F1200
G1 X135.736 Y108.304 E0.01099
G1 X136.125 Y108.417 E0.01268
G1 X136.456 Y108.594 E0.01178
G1 X136.748 Y108.833 E0.01182
G1 X136.987 Y109.125 E0.01182
G1 X137.165 Y109.457 E0.01182
G1 X137.274 Y109.818 E0.01182
G1 X137.311 Y110.194 E0.01182
G1 X137.274 Y110.569 E0.01182
G1 X137.165 Y110.930 E0.01182
G1 X136.987 Y111.262 E0.01182
G1 X136.748 Y111.554 E0.01182
G1 X136.456 Y111.793 E0.01182
G1 X136.123 Y111.971 E0.01182
G1 X135.762 Y112.080 E0.01182
G1 X135.387 Y112.117 E0.01182
G1 X135.012 Y112.080 E0.01182
G1 X134.651 Y111.971 E0.01182
G1 X134.318 Y111.793 E0.01182
G1 X134.027 Y111.554 E0.01182
G1 X133.788 Y111.262 E0.01182
G1 X133.610 Y110.930 E0.01182
G1 X133.500 Y110.569 E0.01182
G1 X133.463 Y110.194 E0.01182
G1 X133.500 Y109.818 E0.01182
G1 X133.610 Y109.457 E0.01182
G1 X133.788 Y109.125 E0.01182
G1 X134.027 Y108.833 E0.01182
G1 X134.318 Y108.594 E0.01182
G1 X134.651 Y108.416 E0.01182
G1 X135.012 Y108.307 E0.01182
G1 X135.327 Y108.276 E0.00994
G1 X135.562 Y108.573 F10800.000
G1 F8640
G1 X135.736 Y108.304 E-0.09456
G1 X136.125 Y108.417 E-0.09341
G1 X136.456 Y108.594 E-0.08678
G1 X136.748 Y108.833 E-0.08708
G1 X136.987 Y109.125 E-0.08708
G1 X137.165 Y109.457 E-0.08708
G1 X137.274 Y109.818 E-0.08708
G1 X137.311 Y110.194 E-0.08708
G1 X137.290 Y110.408 E-0.04984
G1 E-0.04000 F2100.00000
G1 Z0.800 F10800.000
G1 X136.758 Y109.807
G1 Z0.200
G1 E0.80000 F2100.00000
G1 F1200
G1 X136.088 Y109.145 E0.03246
G1 X135.874 Y109.031 E0.00833
G1 X135.611 Y108.955 E0.00946
G1 X135.306 Y108.941 E0.01050
G1 X136.640 Y110.275 E0.06498
G1 X136.624 Y110.440 E0.00571
G1 X136.518 Y110.739 E0.01093
G1 X134.842 Y109.062 E0.08168
G1 X134.687 Y109.145 E0.00606
G1 X134.496 Y109.302 E0.00852
G1 X136.279 Y111.085 E0.08687
G1 X136.088 Y111.242 E0.00851
G1 X135.932 Y111.325 E0.00606
G1 X134.256 Y109.648 E0.08168
G1 X134.151 Y109.948 E0.01093
G1 X134.134 Y110.113 E0.00572
G1 X135.468 Y111.446 E0.06498
G1 X135.141 Y111.430 E0.01127
G1 X134.905 Y111.358 E0.00851
G1 X134.687 Y111.242 E0.00851
G1 X134.016 Y110.580 E0.03245
G1 F8640
G1 X134.687 Y111.242 E-0.21750
G1 X134.905 Y111.358 E-0.05707
G1 X135.141 Y111.430 E-0.05707
G1 X135.468 Y111.446 E-0.07554
G1 X134.387 Y110.366 E-0.35283
G1 E-0.04000 F2100.00000
G1 Z0.800 F10800.000
G1 X126.545 Y110.194
G1 Z0.200
G1 E0.80000 F2100.00000
G1 F1200
G1 X126.515 Y110.495 E0.00950
G1 X126.427 Y110.785 E0.00950
G1 X126.285 Y111.052 E0.00950
G1 X126.092 Y111.286 E0.00950
G1 X125.858 Y111.478 E0.00950
G1 X125.591 Y111.621 E0.00950
G1 X125.301 Y111.709 E0.00950
G1 X125.000 Y111.738 E0.00950
G1 X124.699 Y111.709 E0.00950
G1 X124.409 Y111.621 E0.00950
G1 X124.142 Y111.478 E0.00950
G1 X123.908 Y111.286 E0.00950
G1 X123.715 Y111.052 E0.00950
G1 X123.573 Y110.785 E0.00950
G1 X123.485 Y110.495 E0.00950
G1 X123.455 Y110.194 E0.00950
G1 X123.485 Y109.892 E0.00950
G1 X123.573 Y109.602 E0.00950
G1 X123.715 Y109.335 E0.00950
G1 X123.908 Y109.101 E0.00950
G1 X124.142 Y108.909 E0.00950
G1 X124.409 Y108.766 E0.00950
G1 X124.699 Y108.678 E0.00950
G1 X125.000 Y108.649 E0.00950
G1 X125.277 Y108.676 E0.00873
G1 X125.594 Y108.768 E0.01035
G1 X125.858 Y108.909 E0.00938
G1 X126.092 Y109.101 E0.00950
G1 X126.285 Y109.335 E0.00950
G1 X126.427 Y109.602 E0.00950
G1 X126.515 Y109.892 E0.00950
G1 X126.539 Y110.134 E0.00761
G1 X126.924 Y110.194 F10800.000
G1 F1200
G1 X126.887 Y110.569 E0.01182
G1 X126.777 Y110.930 E0.01182
G1 X126.600 Y111.262 E0.01182
G1 X126.360 Y111.554 E0.01182
G1 X126.069 Y111.793 E0.01182
G1 X125.736 Y111.971 E0.01182
G1 X125.375 Y112.080 E0.01182
G1 X125.000 Y112.117 E0.01182
G1 X124.625 Y112.080 E0.01182
G1 X124.264 Y111.971 E0.01182
G1 X123.931 Y111.793 E0.01182
G1 X123.640 Y111.554 E0.01182
G1 X123.400 Y111.262 E0.01182
G1 X123.223 Y110.930 E0.01182
G1 X123.113 Y110.569 E0.01182
G1 X123.076 Y110.194 E0.01182
G1 X123.113 Y109.818 E0.01182
G1 X123.223 Y109.457 E0.01182
G1 X123.400 Y109.125 E0.01182
G1 X123.640 Y108.833 E0.01182
G1 X123.931 Y108.594 E0.01182
G1 X124.264 Y108.416 E0.01182
G1 X124.625 Y108.307 E0.01182
G1 X125.000 Y108.270 E0.01182
G1 X125.349 Y108.304 E0.01099
G1 X125.737 Y108.417 E0.01268
G1 X126.069 Y108.594 E0.01178
G1 X126.360 Y108.833 E0.01182
G1 X126.600 Y109.125 E0.01182
G1 X126.777 Y109.457 E0.01182
G1 X126.887 Y109.818 E0.01182
G1 X126.918 Y110.134 E0.00994
G1 X126.597 Y110.382 F10800.000
G1 X126.371 Y109.807
G1 F1200
G1 X125.700 Y109.145 E0.03246
G1 X125.487 Y109.031 E0.00833
G1 X125.224 Y108.955 E0.00946
G1 X124.919 Y108.941 E0.01050
G1 X126.253 Y110.275 E0.06498
G1 X126.237 Y110.440 E0.00571
G1 X126.131 Y110.739 E0.01093
G1 X124.455 Y109.062 E0.08168
G1 X124.300 Y109.145 E0.00606
G1 X124.108 Y109.302 E0.00852
G1 X125.891 Y111.085 E0.08687
G1 X125.700 Y111.242 E0.00851
G1 X125.545 Y111.325 E0.00606
G1 X123.869 Y109.648 E0.08168
G1 X123.763 Y109.948 E0.01093
G1 X123.747 Y110.113 E0.00572
G1 X125.081 Y111.446 E0.06498
G1 X124.754 Y111.430 E0.01127
G1 X124.518 Y111.358 E0.00851
G1 X124.300 Y111.242 E0.00851
G1 X123.629 Y110.580 E0.03245
G1 F8640
G1 X124.300 Y111.242 E-0.21750
G1 X124.518 Y111.358 E-0.05707
G1 X124.754 Y111.430 E-0.05707
G1 X125.081 Y111.446 E-0.07554
G1 X124.000 Y110.366 E-0.35283
G1 E-0.04000 F2100.00000
G1 Z0.800 F10800.000
G1 X116.158 Y110.194
G1 Z0.200
G1 E0.80000 F2100.00000
G1 F1200
