; generated by PrusaSlicer 2.2.0+win64 on 2020-07-17 at 17:48:50 UTC

; 

; external perimeters extrusion width = 0.45mm
; perimeters extrusion width = 0.45mm
; infill extrusion width = 0.45mm
; solid infill extrusion width = 0.45mm
; top infill extrusion width = 0.40mm
; first layer extrusion width = 0.42mm

M73 P0 R28
M201 X9000 Y9000 Z500 E10000 ; sets maximum accelerations, mm/sec^2
M203 X500 Y500 Z12 E120 ; sets maximum feedrates, mm/sec
M204 P2000 R1500 T2000 ; sets acceleration (P, T) and retract acceleration (R), mm/sec^2
M205 X10.00 Y10.00 Z0.20 E4.50 ; sets the jerk limits, mm/sec
M205 S0 T0 ; sets the minimum extruding and travel feed rate, mm/sec
M107
M862.3 P "MK2.5SMMU2S" ; printer model check
M862.1 P0.4 ; nozzle diameter check
M115 U3.9.0 ; tell printer latest fw version
G90 ; use absolute coordinates
M83 ; extruder relative mode
M104 S215 ; set extruder temp
M140 S60 ; set bed temp
Tx
M190 S60 ; wait for bed temp
M109 S215 ; wait for extruder temp
G28 W ; home all without mesh bed level
G80 ; mesh bed leveling

;go outside print area
G1 Y-3.0 F1000.0
G1 Z0.4 F1000.0
; select extruder
Tc
; purge line
G1 X55.0 F2000.0
G1 Z0.3 F1000.0
G92 E0.0
G1 X240.0 E25.0 F2200.0
M73 P0 R28
G1 Y-2.0 F1000.0
G1 X55.0 E25 F1400.0
G1 Z0.20 F1000.0
G1 X5.0 E4.0 F1000.0
G92 E0.0
G21 ; set units to millimeters
G90 ; use absolute coordinates
M83 ; use relative distances for extrusion
M900 K0.06 ; Filament gcode LA 1.5
M900 K30 ; Filament gcode LA 1.0
;BEFORE_LAYER_CHANGE
G92 E0.0
;0.2


G1 E-0.80000 F2100.00000
G1 Z0.600 F10800.000
;AFTER_LAYER_CHANGE
;0.2
G1 X91.170 Y54.152
G1 Z0.200
G1 E0.80000 F2100.00000
M204 S1000
G1 F1200.000
G1 X92.332 Y53.804 E0.03803
G1 X93.036 Y53.746 E0.02217
G1 X176.137 Y53.746 E2.60558
G1 X177.013 Y53.832 E0.02758
G1 X177.856 Y54.087 E0.02761
G1 X178.636 Y54.504 E0.02773
G1 X179.310 Y55.053 E0.02726
G1 X179.878 Y55.741 E0.02797
G1 X180.293 Y56.509 E0.02738
G1 X180.553 Y57.350 E0.02761
G1 X180.644 Y58.181 E0.02618
G1 X180.645 Y151.773 E2.93452
G1 X180.557 Y152.629 E0.02699
G1 X180.304 Y153.464 E0.02738
G1 X179.894 Y154.235 E0.02738
G1 X179.362 Y154.894 E0.02655
G1 X178.654 Y155.485 E0.02892
G1 X177.872 Y155.906 E0.02785
G1 X177.018 Y156.167 E0.02797
G1 X176.133 Y156.254 E0.02788
G1 X82.618 Y156.254 E2.93210
G1 X81.762 Y156.166 E0.02699
G1 X80.927 Y155.913 E0.02737
G1 X80.156 Y155.503 E0.02738
G1 X79.497 Y154.971 E0.02654
G1 X78.786 Y154.064 E0.03614
G1 X78.462 Y153.424 E0.02249
G1 X78.225 Y152.631 E0.02595
G1 X69.436 Y105.852 E1.49240
G1 X69.355 Y105.001 E0.02679
G1 X69.461 Y104.031 E0.03058
G1 X78.252 Y67.641 E1.17383
G1 X78.474 Y66.933 E0.02325
G1 X78.786 Y66.322 E0.02153
G1 X79.421 Y65.493 E0.03270
G1 X89.931 Y54.986 E0.46599
G1 X90.522 Y54.511 E0.02377
G1 X91.117 Y54.182 E0.02133
G1 F8640.000
G1 X92.332 Y53.804 E-0.29360
G1 X93.036 Y53.746 E-0.16323
G1 X94.349 Y53.746 E-0.30316
G1 E-0.04000 F2100.00000
G1 Z0.800 F10800.000
G1 X176.133 Y150.197
G1 Z0.200
G1 E0.80000 F2100.00000
G1 F1200.000
G1 X176.411 Y150.225 E0.00873
G1 X176.728 Y150.317 E0.01035
G1 X176.992 Y150.458 E0.00938
G1 X177.226 Y150.650 E0.00950
G1 X177.418 Y150.884 E0.00950
G1 X177.561 Y151.151 E0.00950
G1 X177.649 Y151.441 E0.00950
G1 X177.678 Y151.742 E0.00950
G1 X177.649 Y152.044 E0.00950
G1 X177.561 Y152.334 E0.00950
G1 X177.418 Y152.601 E0.00950
G1 X177.226 Y152.835 E0.00950
G1 X176.992 Y153.027 E0.00950
G1 X176.725 Y153.170 E0.00950
G1 X176.435 Y153.258 E0.00950
G1 X176.133 Y153.287 E0.00950
G1 X175.832 Y153.258 E0.00950
G1 X175.542 Y153.170 E0.00950
G1 X175.275 Y153.027 E0.00950
G1 X175.041 Y152.835 E0.00950
G1 X174.849 Y152.601 E0.00950
G1 X174.706 Y152.334 E0.00950
G1 X174.618 Y152.044 E0.00950
G1 X174.589 Y151.742 E0.00950
G1 X174.618 Y151.441 E0.00950
G1 X174.706 Y151.151 E0.00950
G1 X174.849 Y150.884 E0.00950
G1 X175.041 Y150.650 E0.00950
G1 X175.275 Y150.458 E0.00950
G1 X175.542 Y150.315 E0.00950
G1 X175.832 Y150.227 E0.00950
G1 X176.074 Y150.203 E0.00761
G1 F8640.000
G1 X176.411 Y150.225 E-0.07796
G1 X176.728 Y150.317 E-0.07625
G1 X176.992 Y150.458 E-0.06909
G1 X177.226 Y150.650 E-0.06993
G1 X177.418 Y150.884 E-0.06993
G1 X177.561 Y151.151 E-0.06993
G1 X177.649 Y151.441 E-0.06993
G1 X177.678 Y151.742 E-0.06993
G1 X177.649 Y152.044 E-0.06993
G1 X177.561 Y152.334 E-0.06993
G1 X177.464 Y152.514 E-0.04719
G1 E-0.04000 F2100.00000
G1 Z0.800 F10800.000
G1 X176.133 Y153.666
G1 Z0.200
G1 E0.80000 F2100.00000
G1 F1200.000
G1 X175.758 Y153.629 E0.01182
G1 X175.397 Y153.520 E0.01182
G1 X175.065 Y153.342 E0.01182
G1 X174.773 Y153.103 E0.01182
G1 X174.534 Y152.811 E0.01182
G1 X174.356 Y152.479 E0.01182
G1 X174.247 Y152.118 E0.01182
G1 X174.210 Y151.742 E0.01182
G1 X174.247 Y151.367 E0.01182
G1 X174.356 Y151.006 E0.01182
G1 X174.534 Y150.674 E0.01182
G1 X174.773 Y150.382 E0.01182
G1 X175.065 Y150.143 E0.01182
G1 X175.397 Y149.965 E0.01182
G1 X175.758 Y149.855 E0.01182
G1 X176.133 Y149.819 E0.01182
G1 X176.482 Y149.853 E0.01099
G1 X176.871 Y149.966 E0.01268
G1 X177.202 Y150.143 E0.01178
G1 X177.494 Y150.382 E0.01182
G1 X177.733 Y150.674 E0.01182
G1 X177.911 Y151.006 E0.01182
G1 X178.020 Y151.367 E0.01182
G1 X178.057 Y151.742 E0.01182
G1 X178.020 Y152.118 E0.01182
G1 X177.911 Y152.479 E0.01182
G1 X177.733 Y152.811 E0.01182
G1 X177.494 Y153.103 E0.01182
G1 X177.202 Y153.342 E0.01182
G1 X176.870 Y153.520 E0.01182
G1 X176.509 Y153.629 E0.01182
G1 X176.193 Y153.660 E0.00994
G1 X175.945 Y153.340 F10800.000
G1 F8640.000
G1 X175.758 Y153.629 E-0.10070
G1 X175.397 Y153.520 E-0.08708
G1 X175.065 Y153.342 E-0.08708
G1 X174.773 Y153.103 E-0.08708
G1 X174.534 Y152.811 E-0.08708
G1 X174.356 Y152.479 E-0.08708
G1 X174.247 Y152.118 E-0.08708
G1 X174.210 Y151.742 E-0.08708
G1 X174.231 Y151.528 E-0.04973
G1 E-0.04000 F2100.00000
G1 Z0.800 F10800.000
G1 X177.505 Y151.356
G1 Z0.200
G1 E0.80000 F2100.00000
G1 F1200.000
G1 X176.834 Y150.694 E0.03246
G1 X176.621 Y150.580 E0.00833
G1 X176.357 Y150.504 E0.00946
G1 X176.053 Y150.490 E0.01050
G1 X177.386 Y151.823 E0.06498
G1 X177.370 Y151.988 E0.00571
G1 X177.265 Y152.288 E0.01093
G1 X175.588 Y150.611 E0.08168
G1 X175.433 Y150.694 E0.00606
G1 X175.242 Y150.851 E0.00852
G1 X177.025 Y152.634 E0.08687
G1 X176.834 Y152.791 E0.00851
G1 X176.679 Y152.874 E0.00606
G1 X175.002 Y151.197 E0.08168
G1 X174.897 Y151.496 E0.01093
G1 X174.881 Y151.662 E0.00572
G1 X176.214 Y152.995 E0.06497
G1 X175.887 Y152.979 E0.01127
G1 X175.651 Y152.907 E0.00851
G1 X175.433 Y152.791 E0.00851
G1 X174.762 Y152.129 E0.03245
G1 F8640.000
G1 X175.433 Y152.791 E-0.21749
G1 X175.651 Y152.907 E-0.05707
G1 X175.887 Y152.979 E-0.05707
G1 X176.214 Y152.995 E-0.07554
G1 X175.134 Y151.915 E-0.35284
G1 E-0.04000 F2100.00000
G1 Z0.800 F10800.000
G1 X165.746 Y153.287
G1 Z0.200
G1 E0.80000 F2100.00000
G1 F1200.000
G1 X165.445 Y153.258 E0.00950
G1 X165.155 Y153.170 E0.00950
G1 X164.888 Y153.027 E0.00950
G1 X164.654 Y152.835 E0.00950
G1 X164.462 Y152.601 E0.00950
G1 X164.319 Y152.334 E0.00950
G1 X164.231 Y152.044 E0.00950
G1 X164.201 Y151.742 E0.00950
G1 X164.231 Y151.441 E0.00950
G1 X164.319 Y151.151 E0.00950
G1 X164.462 Y150.884 E0.00950
G1 X164.654 Y150.650 E0.00950
G1 X164.888 Y150.458 E0.00950
G1 X165.155 Y150.315 E0.00950
G1 X165.445 Y150.227 E0.00950
G1 X165.746 Y150.197 E0.00950
G1 X166.023 Y150.225 E0.00873
G1 X166.341 Y150.317 E0.01035
G1 X166.605 Y150.458 E0.00938
G1 X166.839 Y150.650 E0.00950
G1 X167.031 Y150.884 E0.00950
G1 X167.174 Y151.151 E0.00950
G1 X167.261 Y151.441 E0.00950
G1 X167.291 Y151.742 E0.00950
G1 X167.261 Y152.044 E0.00950
G1 X167.174 Y152.334 E0.00950
G1 X167.031 Y152.601 E0.00950
G1 X166.839 Y152.835 E0.00950
G1 X166.605 Y153.027 E0.00950
G1 X166.337 Y153.170 E0.00950
G1 X166.048 Y153.258 E0.00950
G1 X165.806 Y153.281 E0.00761
G1 X165.746 Y153.666 F10800.000
G1 F1200.000
G1 X165.371 Y153.629 E0.01182
G1 X165.010 Y153.520 E0.01182
G1 X164.677 Y153.342 E0.01182
G1 X164.386 Y153.103 E0.01182
G1 X164.147 Y152.811 E0.01182
G1 X163.969 Y152.479 E0.01182
G1 X163.859 Y152.118 E0.01182
G1 X163.822 Y151.742 E0.01182
G1 X163.859 Y151.367 E0.01182
G1 X163.969 Y151.006 E0.01182
G1 X164.147 Y150.674 E0.01182
G1 X164.386 Y150.382 E0.01182
G1 X164.677 Y150.143 E0.01182
G1 X165.010 Y149.965 E0.01182
G1 X165.371 Y149.855 E0.01182
G1 X165.746 Y149.819 E0.01182
G1 X166.095 Y149.853 E0.01099
G1 X166.484 Y149.966 E0.01268
G1 X166.815 Y150.143 E0.01178
G1 X167.107 Y150.382 E0.01182
G1 X167.346 Y150.674 E0.01182
G1 X167.524 Y151.006 E0.01182
G1 X167.633 Y151.367 E0.01182
G1 X167.670 Y151.742 E0.01182
G1 X167.633 Y152.118 E0.01182
G1 X167.524 Y152.479 E0.01182
G1 X167.346 Y152.811 E0.01182
G1 X167.107 Y153.103 E0.01182
G1 X166.815 Y153.342 E0.01182
G1 X166.482 Y153.520 E0.01182
G1 X166.122 Y153.629 E0.01182
G1 X165.806 Y153.660 E0.00994
G1 X165.558 Y153.340 F10800.000
G1 F8640.000
G1 X165.371 Y153.629 E-0.10070
G1 X165.010 Y153.520 E-0.08708
G1 X164.677 Y153.342 E-0.08708
G1 X164.386 Y153.103 E-0.08708
G1 X164.147 Y152.811 E-0.08708
G1 X163.969 Y152.479 E-0.08708
G1 X163.859 Y152.118 E-0.08708
G1 X163.822 Y151.742 E-0.08708
G1 X163.844 Y151.528 E-0.04973
G1 E-0.04000 F2100.00000
G1 Z0.800 F10800.000
G1 X167.117 Y151.356
G1 Z0.200
G1 E0.80000 F2100.00000
G1 F1200.000
G1 X166.447 Y150.694 E0.03246
G1 X166.233 Y150.580 E0.00833
G1 X165.970 Y150.504 E0.00946
G1 X165.665 Y150.490 E0.01050
G1 X166.999 Y151.823 E0.06498
G1 X166.983 Y151.988 E0.00571
G1 X166.877 Y152.288 E0.01093
G1 X165.201 Y150.611 E0.08168
G1 X165.046 Y150.694 E0.00606
G1 X164.855 Y150.851 E0.00852
G1 X166.638 Y152.634 E0.08687
G1 X166.447 Y152.791 E0.00851
G1 X166.291 Y152.874 E0.00606
G1 X164.615 Y151.197 E0.08168
G1 X164.510 Y151.496 E0.01093
G1 X164.493 Y151.662 E0.00572
G1 X165.827 Y152.995 E0.06497
G1 X165.500 Y152.979 E0.01127
G1 X165.264 Y152.907 E0.00851
G1 X165.046 Y152.791 E0.00851
G1 X164.375 Y152.129 E0.03245
G1 F8640.000
G1 X165.046 Y152.791 E-0.21749
G1 X165.264 Y152.907 E-0.05707
G1 X165.500 Y152.979 E-0.05707
G1 X165.827 Y152.995 E-0.07554
G1 X164.747 Y151.915 E-0.35284
G1 E-0.04000 F2100.00000
G1 Z0.800 F10800.000
G1 X155.359 Y153.287
G1 Z0.200
G1 E0.80000 F2100.00000
G1 F1200.000
G1 X155.058 Y153.258 E0.00950
G1 X154.768 Y153.170 E0.00950
G1 X154.501 Y153.027 E0.00950
G1 X154.267 Y152.835 E0.00950
G1 X154.075 Y152.601 E0.00950
G1 X153.932 Y152.334 E0.00950
G1 X153.844 Y152.044 E0.00950
G1 X153.814 Y151.742 E0.00950
G1 X153.844 Y151.441 E0.00950
G1 X153.932 Y151.151 E0.00950
G1 X154.075 Y150.884 E0.00950
G1 X154.267 Y150.650 E0.00950
G1 X154.501 Y150.458 E0.00950
G1 X154.768 Y150.315 E0.00950
G1 X155.058 Y150.227 E0.00950
G1 X155.359 Y150.197 E0.00950
G1 X155.636 Y150.225 E0.00873
G1 X155.953 Y150.317 E0.01035
G1 X156.217 Y150.458 E0.00938
G1 X156.451 Y150.650 E0.00950
G1 X156.644 Y150.884 E0.00950
G1 X156.786 Y151.151 E0.00950
G1 X156.874 Y151.441 E0.00950
G1 X156.904 Y151.742 E0.00950
G1 X156.874 Y152.044 E0.00950
G1 X156.786 Y152.334 E0.00950
G1 X156.644 Y152.601 E0.00950
G1 X156.451 Y152.835 E0.00950
G1 X156.217 Y153.027 E0.00950
G1 X155.950 Y153.170 E0.00950
G1 X155.660 Y153.258 E0.00950
G1 X155.419 Y153.281 E0.00761
G1 X155.359 Y153.666 F10800.000
G1 F1200.000
G1 X154.984 Y153.629 E0.01182
G1 X154.623 Y153.520 E0.01182
G1 X154.290 Y153.342 E0.01182
G1 X153.999 Y153.103 E0.01182
G1 X153.759 Y152.811 E0.01182
G1 X153.582 Y152.479 E0.01182
G1 X153.472 Y152.118 E0.01182
G1 X153.435 Y151.742 E0.01182
G1 X153.472 Y151.367 E0.01182
G1 X153.582 Y151.006 E0.01182
G1 X153.759 Y150.674 E0.01182
G1 X153.999 Y150.382 E0.01182
G1 X154.290 Y150.143 E0.01182
G1 X154.623 Y149.965 E0.01182
G1 X154.984 Y149.855 E0.01182
G1 X155.359 Y149.819 E0.01182
G1 X155.708 Y149.853 E0.01099
G1 X156.096 Y149.966 E0.01268
G1 X156.428 Y150.143 E0.01178
G1 X156.719 Y150.382 E0.01182
G1 X156.959 Y150.674 E0.01182
G1 X157.136 Y151.006 E0.01182
G1 X157.246 Y151.367 E0.01182
G1 X157.283 Y151.742 E0.01182
G1 X157.246 Y152.118 E0.01182
G1 X157.136 Y152.479 E0.01182
G1 X156.959 Y152.811 E0.01182
G1 X156.719 Y153.103 E0.01182
G1 X156.428 Y153.342 E0.01182
G1 X156.095 Y153.520 E0.01182
G1 X155.734 Y153.629 E0.01182
G1 X155.419 Y153.660 E0.00994
G1 X155.171 Y153.340 F10800.000
G1 F8640.000
G1 X154.984 Y153.629 E-0.10070
G1 X154.623 Y153.520 E-0.08708
G1 X154.290 Y153.342 E-0.08708
G1 X153.999 Y153.103 E-0.08708
G1 X153.759 Y152.811 E-0.08708
G1 X153.582 Y152.479 E-0.08708
G1 X153.472 Y152.118 E-0.08708
G1 X153.435 Y151.742 E-0.08708
G1 X153.456 Y151.528 E-0.04973
G1 E-0.04000 F2100.00000
G1 Z0.800 F10800.000
G1 X156.730 Y151.356
G1 Z0.200
G1 E0.80000 F2100.00000
G1 F1200.000
G1 X156.060 Y150.694 E0.03246
G1 X155.846 Y150.580 E0.00833
G1 X155.583 Y150.504 E0.00946
G1 X155.278 Y150.490 E0.01050
G1 X156.612 Y151.823 E0.06498
G1 X156.596 Y151.988 E0.00571
G1 X156.490 Y152.288 E0.01093
G1 X154.814 Y150.611 E0.08168
G1 X154.659 Y150.694 E0.00606
G1 X154.468 Y150.851 E0.00852
G1 X156.251 Y152.634 E0.08687
G1 X156.059 Y152.791 E0.00851
G1 X155.904 Y152.874 E0.00606
G1 X154.228 Y151.197 E0.08168
G1 X154.123 Y151.496 E0.01093
G1 X154.106 Y151.662 E0.00572
G1 X155.440 Y152.995 E0.06497
G1 X155.113 Y152.979 E0.01127
G1 X154.877 Y152.907 E0.00851
G1 X154.659 Y152.791 E0.00851
G1 X153.988 Y152.129 E0.03245
G1 F8640.000
G1 X154.659 Y152.791 E-0.21749
G1 X154.877 Y152.907 E-0.05707
G1 X155.113 Y152.979 E-0.05707
G1 X155.440 Y152.995 E-0.07554
G1 X154.359 Y151.915 E-0.35284
G1 E-0.04000 F2100.00000
G1 Z0.800 F10800.000
G1 X144.972 Y153.287
G1 Z0.200
G1 E0.80000 F2100.00000
G1 F1200.000
G1 X144.671 Y153.258 E0.00950
G1 X144.381 Y153.170 E0.00950
G1 X144.114 Y153.027 E0.00950
G1 X143.879 Y152.835 E0.00950
G1 X143.687 Y152.601 E0.00950
G1 X143.545 Y152.334 E0.00950
G1 X143.457 Y152.044 E0.00950
G1 X143.427 Y151.742 E0.00950
G1 X143.457 Y151.441 E0.00950
G1 X143.545 Y151.151 E0.00950
G1 X143.687 Y150.884 E0.00950
G1 X143.879 Y150.650 E0.00950
G1 X144.114 Y150.458 E0.00950
G1 X144.381 Y150.315 E0.00950
G1 X144.671 Y150.227 E0.00950
G1 X144.972 Y150.197 E0.00950
G1 X145.249 Y150.225 E0.00873
G1 X145.566 Y150.317 E0.01035
G1 X145.830 Y150.458 E0.00938
G1 X146.064 Y150.650 E0.00950
G1 X146.256 Y150.884 E0.00950
G1 X146.399 Y151.151 E0.00950
G1 X146.487 Y151.441 E0.00950
G1 X146.517 Y151.742 E0.00950
G1 X146.487 Y152.044 E0.00950
G1 X146.399 Y152.334 E0.00950
G1 X146.256 Y152.601 E0.00950
G1 X146.064 Y152.835 E0.00950
G1 X145.830 Y153.027 E0.00950
G1 X145.563 Y153.170 E0.00950
G1 X145.273 Y153.258 E0.00950
G1 X145.032 Y153.281 E0.00761
G1 X144.972 Y153.666 F10800.000
G1 F1200.000
G1 X144.597 Y153.629 E0.01182
G1 X144.236 Y153.520 E0.01182
G1 X143.903 Y153.342 E0.01182
G1 X143.612 Y153.103 E0.01182
G1 X143.372 Y152.811 E0.01182
G1 X143.195 Y152.479 E0.01182
G1 X143.085 Y152.118 E0.01182
G1 X143.048 Y151.742 E0.01182
G1 X143.085 Y151.367 E0.01182
G1 X143.195 Y151.006 E0.01182
G1 X143.372 Y150.674 E0.01182
G1 X143.612 Y150.382 E0.01182
G1 X143.903 Y150.143 E0.01182
G1 X144.236 Y149.965 E0.01182
G1 X144.597 Y149.855 E0.01182
G1 X144.972 Y149.819 E0.01182
G1 X145.321 Y149.853 E0.01099
G1 X145.709 Y149.966 E0.01268
G1 X146.041 Y150.143 E0.01178
G1 X146.332 Y150.382 E0.01182
G1 X146.571 Y150.674 E0.01182
G1 X146.749 Y151.006 E0.01182
G1 X146.859 Y151.367 E0.01182
G1 X146.896 Y151.742 E0.01182
G1 X146.859 Y152.118 E0.01182
G1 X146.749 Y152.479 E0.01182
G1 X146.571 Y152.811 E0.01182
G1 X146.332 Y153.103 E0.01182
G1 X146.041 Y153.342 E0.01182
G1 X145.708 Y153.520 E0.01182
G1 X145.347 Y153.629 E0.01182
G1 X145.032 Y153.660 E0.00994
G1 X144.783 Y153.340 F10800.000
G1 F8640.000
G1 X144.597 Y153.629 E-0.10070
G1 X144.236 Y153.520 E-0.08708
G1 X143.903 Y153.342 E-0.08708
G1 X143.612 Y153.103 E-0.08708
G1 X143.372 Y152.811 E-0.08708
G1 X143.195 Y152.479 E-0.08708
G1 X143.085 Y152.118 E-0.08708
G1 X143.048 Y151.742 E-0.08708
G1 X143.069 Y151.528 E-0.04973
G1 E-0.04000 F2100.00000
G1 Z0.800 F10800.000
G1 X146.343 Y151.356
G1 Z0.200
G1 E0.80000 F2100.00000
G1 F1200.000
G1 X145.672 Y150.694 E0.03246
G1 X145.459 Y150.580 E0.00833
G1 X145.195 Y150.504 E0.00946
G1 X144.891 Y150.490 E0.01050
G1 X146.225 Y151.823 E0.06498
G1 X146.208 Y151.988 E0.00571
G1 X146.103 Y152.288 E0.01093
G1 X144.427 Y150.611 E0.08168
