; generated by PrusaSlicer 2.2.0+win64 on 2020-07-17 at 21:36:20 UTC

; 

; external perimeters extrusion width = 0.45mm
; perimeters extrusion width = 0.45mm
; infill extrusion width = 0.45mm
; solid infill extrusion width = 0.45mm
; top infill extrusion width = 0.40mm
; support material extrusion width = 0.35mm
; first layer extrusion width = 0.42mm

M73 P0 R181
M201 X9000 Y9000 Z500 E10000 ; sets maximum accelerations, mm/sec^2
M203 X500 Y500 Z12 E120 ; sets maximum feedrates, mm/sec
M204 P2000 R1500 T2000 ; sets acceleration (P, T) and retract acceleration (R), mm/sec^2
M205 X10.00 Y10.00 Z0.20 E4.50 ; sets the jerk limits, mm/sec
M205 S0 T0 ; sets the minimum extruding and travel feed rate, mm/sec
M107
M862.3 P "MK2.5SMMU2S" ; printer model check
M862.1 P0.4 ; nozzle diameter check
M115 U3.9.0 ; tell printer latest fw version
G90 ; use absolute coordinates
M83 ; extruder relative mode
M104 S215 ; set extruder temp
M140 S60 ; set bed temp
Tx
M190 S60 ; wait for bed temp
M109 S215 ; wait for extruder temp
G28 W ; home all without mesh bed level
G80 ; mesh bed leveling

;go outside print area
G1 Y-3.0 F1000.0
G1 Z0.4 F1000.0
; select extruder
Tc
; purge line
G1 X55.0 F2000.0
G1 Z0.3 F1000.0
G92 E0.0
G1 X240.0 E25.0 F2200.0
M73 P0 R181
G1 Y-2.0 F1000.0
G1 X55.0 E25 F1400.0
G1 Z0.20 F1000.0
G1 X5.0 E4.0 F1000.0
G92 E0.0
G21 ; set units to millimeters
G90 ; use absolute coordinates
M83 ; use relative distances for extrusion
M900 K0.06 ; Filament gcode LA 1.5
M900 K30 ; Filament gcode LA 1.0
;BEFORE_LAYER_CHANGE
G92 E0.0
;0.2


G1 E-0.80000 F2100.00000
G1 Z0.600 F10800.000
;AFTER_LAYER_CHANGE
;0.2
G1 X82.679 Y58.257
G1 Z0.200
G1 E0.80000 F2100.00000
M204 S1000
G1 F1200.000
G1 X82.976 Y57.637 E0.02154
G1 X83.348 Y57.206 E0.01787
G1 X83.815 Y56.873 E0.01799
G1 X84.349 Y56.662 E0.01799
G1 X84.917 Y56.585 E0.01799
G1 X165.112 Y56.585 E2.51444
G1 X166.007 Y56.762 E0.02860
G1 X166.770 Y57.262 E0.02860
G1 X167.288 Y58.013 E0.02860
G1 X167.485 Y58.908 E0.02872
G1 X167.485 Y93.062 E1.07088
G1 X166.703 Y124.954 E1.00024
G1 X161.589 Y149.723 E0.79299
G1 X161.236 Y150.556 E0.02837
G1 X153.309 Y158.543 E0.35283
G1 X152.696 Y158.957 E0.02319
G1 X151.986 Y159.162 E0.02319
G1 X145.570 Y159.340 E0.20122
G1 X101.156 Y159.340 E1.39257
G1 X97.438 Y159.138 E0.11674
G1 X96.899 Y159.006 E0.01740
G1 X96.402 Y158.751 E0.01752
G1 X89.091 Y151.502 E0.32282
G1 X88.581 Y150.710 E0.02954
G1 X83.316 Y125.170 E0.81764
G1 X82.572 Y93.048 E1.00743
G1 X82.572 Y58.936 E1.06955
G1 X82.670 Y58.316 E0.01966
G1 F8640.000
G1 X82.976 Y57.637 E-0.17196
G1 X83.348 Y57.206 E-0.13161
G1 X83.815 Y56.873 E-0.13248
G1 X84.349 Y56.662 E-0.13248
G1 X84.917 Y56.585 E-0.13248
G1 X85.173 Y56.585 E-0.05899
G1 E-0.04000 F2100.00000
G1 Z0.800 F10800.000
G1 X98.311 Y93.269
G1 Z0.200
G1 E0.80000 F2100.00000
G1 F1200.000
G1 X90.736 Y100.845 E0.33592
G1 X91.269 Y101.378 E0.02365
G1 X98.725 Y93.923 E0.33060
G1 X99.258 Y94.456 E0.02365
G1 X91.802 Y101.912 E0.33060
G1 X92.088 Y102.198 E0.01268
G1 X90.457 Y103.829 E0.07234
G1 X90.704 Y104.076 E0.01097
G1 X99.791 Y94.989 E0.40294
G1 X100.324 Y95.522 E0.02365
G1 X91.237 Y104.610 E0.40294
G1 X91.771 Y105.143 E0.02365
G1 X100.858 Y96.056 E0.40294
G1 X101.175 Y96.373 E0.01408
G1 X102.807 Y94.742 E0.07234
G1 X103.022 Y94.958 E0.00957
G1 X90.673 Y107.307 E0.54761
G1 X91.206 Y107.841 E0.02365
G1 X103.556 Y95.491 E0.54761
G1 X104.089 Y96.024 E0.02365
G1 X91.739 Y108.374 E0.54761
G1 X92.088 Y108.723 E0.01548
G1 X90.457 Y110.354 E0.07234
G1 X90.641 Y110.539 E0.00817
G1 X107.885 Y93.295 E0.76462
G1 X108.418 Y93.828 E0.02365
G1 X91.174 Y111.072 E0.76462
G1 X91.708 Y111.605 E0.02365
G1 X108.951 Y94.361 E0.76462
G1 X109.485 Y94.895 E0.02365
G1 X90.609 Y113.770 E0.83696
G1 X91.143 Y114.303 E0.02365
G1 X110.018 Y95.428 E0.83696
G1 X110.551 Y95.961 E0.02365
G1 X91.676 Y114.836 E0.83696
G1 X92.088 Y115.248 E0.01827
G1 X90.457 Y116.880 E0.07234
G1 X90.578 Y117.001 E0.00537
G1 X111.084 Y96.494 E0.90929
G1 X111.618 Y97.028 E0.02365
G1 X91.111 Y117.534 E0.90929
G1 X91.511 Y117.933 E0.01771
G1 X91.778 Y117.933 E0.00840
G1 X112.151 Y97.561 E0.90335
G1 X112.684 Y98.094 E0.02365
G1 X92.845 Y117.933 E0.87971
G1 X93.912 Y117.933 E0.03344
G1 X113.218 Y98.627 E0.85606
G1 X113.751 Y99.161 E0.02365
G1 X94.978 Y117.933 E0.83242
G1 X96.045 Y117.933 E0.03344
G1 X114.284 Y99.694 E0.80877
G1 X114.817 Y100.227 E0.02365
G1 X96.869 Y118.175 E0.79584
G1 X96.936 Y118.242 E0.00294
G1 X96.936 Y119.175 E0.02928
G1 X113.719 Y102.392 E0.74421
G1 X114.253 Y102.925 E0.02365
G1 X96.936 Y120.242 E0.76785
G1 X96.936 Y121.308 E0.03344
G1 X114.786 Y103.458 E0.79150
M73 P0 R180
G1 X115.156 Y103.829 E0.01643
G1 X113.525 Y105.460 E0.07234
G1 X113.688 Y105.623 E0.00722
G1 X96.936 Y122.375 E0.74281
G1 X96.936 Y123.442 E0.03344
G1 X114.221 Y106.156 E0.76645
G1 X114.754 Y106.690 E0.02365
G1 X96.766 Y124.678 E0.79764
G1 F8640.000
G1 X99.093 Y122.351 E-0.76000
G1 E-0.04000 F2100.00000
G1 Z0.800 F10800.000
G1 X91.964 Y125.214
G1 Z0.200
G1 E0.80000 F2100.00000
G1 F1200.000
G1 X90.483 Y126.694 E0.06565
G1 X91.017 Y127.228 E0.02365
G1 X92.861 Y125.383 E0.08178
G1 X93.927 Y125.383 E0.03344
G1 X91.550 Y127.761 E0.10542
G1 X92.083 Y128.294 E0.02365
G1 X94.994 Y125.383 E0.12907
G1 X96.060 Y125.383 E0.03344
G1 X90.985 Y130.459 E0.22505
G1 X91.518 Y130.992 E0.02365
G1 X113.656 Y108.854 E0.98163
G1 X114.190 Y109.387 E0.02365
G1 X92.052 Y131.525 E0.98163
G1 X92.088 Y131.562 E0.00162
G1 X90.457 Y133.193 E0.07234
G1 X90.954 Y133.690 E0.02203
G1 X114.723 Y109.921 E1.05397
G1 X115.156 Y110.354 E0.01923
G1 X113.525 Y111.986 E0.07234
G1 X113.625 Y112.085 E0.00442
G1 X91.487 Y134.223 E0.98163
G1 X92.020 Y134.757 E0.02365
G1 X114.158 Y112.619 E0.98163
G1 X114.691 Y113.152 E0.02365
G1 X109.910 Y117.933 E0.21202
G1 X108.986 Y117.933 E0.02898
G1 X108.677 Y118.242 E0.01366
G1 X108.677 Y119.166 E0.02898
G1 X90.922 Y136.921 E0.78730
G1 X91.455 Y137.454 E0.02365
G1 X108.677 Y120.232 E0.76366
G1 X108.677 Y121.299 E0.03344
G1 X91.989 Y137.988 E0.74001
G1 X92.088 Y138.087 E0.00442
G1 X90.457 Y139.719 E0.07234
G1 X90.890 Y140.152 E0.01923
G1 X108.677 Y122.365 E0.78870
G1 X108.677 Y123.432 E0.03344
G1 X91.424 Y140.686 E0.76506
G1 X91.957 Y141.219 E0.02365
G1 X108.677 Y124.498 E0.74141
G1 X108.679 Y125.077 E0.01813
G1 X108.923 Y125.319 E0.01078
G1 X90.859 Y143.383 E0.80099
G1 X91.392 Y143.917 E0.02365
G1 X109.925 Y125.383 E0.82180
G1 X110.992 Y125.383 E0.03344
G1 X91.925 Y144.450 E0.84544
G1 X92.088 Y144.613 E0.00721
G1 X90.457 Y146.244 E0.07234
G1 X90.827 Y146.615 E0.01643
G1 X112.059 Y125.383 E0.94143
G1 X113.125 Y125.383 E0.03344
G1 X91.361 Y147.148 E0.96507
G1 X91.894 Y147.681 E0.02365
G1 X114.032 Y125.543 E0.98163
G1 X114.565 Y126.077 E0.02365
G1 X90.796 Y149.846 E1.05397
G1 X91.329 Y150.379 E0.02365
G1 X115.098 Y126.610 E1.05397
G1 X115.156 Y126.668 E0.00257
G1 X113.525 Y128.299 E0.07234
G1 X114.000 Y128.774 E0.02107
G1 X91.862 Y150.912 E0.98163
G1 X92.396 Y151.446 E0.02365
G1 X114.534 Y129.308 E0.98163
G1 X115.067 Y129.841 E0.02365
G1 X92.929 Y151.979 E0.98163
G1 X93.462 Y152.512 E0.02365
G1 X113.969 Y132.006 E0.90929
G1 X114.502 Y132.539 E0.02365
G1 X93.995 Y153.045 E0.90929
G1 X94.529 Y153.579 E0.02365
G1 X115.035 Y133.072 E0.90929
G1 X115.156 Y133.193 E0.00537
G1 X113.525 Y134.825 E0.07234
G1 X113.937 Y135.237 E0.01828
G1 X95.062 Y154.112 E0.83696
G1 X95.595 Y154.645 E0.02365
G1 X114.470 Y135.770 E0.83696
G1 X115.004 Y136.303 E0.02365
G1 X96.129 Y155.179 E0.83696
G1 X96.662 Y155.712 E0.02365
G1 X113.906 Y138.468 E0.76462
G1 X114.439 Y139.001 E0.02365
G1 X97.195 Y156.245 E0.76462
G1 X97.728 Y156.778 E0.02365
G1 X114.972 Y139.534 E0.76462
G1 X115.156 Y139.719 E0.00817
G1 X113.525 Y141.350 E0.07234
G1 X113.874 Y141.699 E0.01548
G1 X99.893 Y155.680 E0.61995
G1 X100.426 Y156.214 E0.02365
G1 X114.407 Y142.232 E0.61995
G1 X114.941 Y142.766 E0.02365
G1 X100.960 Y156.747 E0.61995
G1 X101.175 Y156.963 E0.00957
G1 X102.807 Y155.331 E0.07234
G1 X103.124 Y155.649 E0.01408
G1 X113.843 Y144.930 E0.47527
G1 X114.376 Y145.464 E0.02365
G1 X103.657 Y156.182 E0.47527
G1 X104.191 Y156.715 E0.02365
G1 X114.909 Y145.997 E0.47527
G1 X115.156 Y146.244 E0.01096
G1 X113.525 Y147.875 E0.07234
G1 X113.811 Y148.161 E0.01268
G1 X106.355 Y155.617 E0.33060
G1 X106.889 Y156.150 E0.02365
G1 X114.344 Y148.695 E0.33060
G1 X114.878 Y149.228 E0.02365
G1 X107.302 Y156.804 E0.33592
G1 F8640.000
G1 X109.629 Y154.476 E-0.76000
G1 E-0.04000 F2100.00000
G1 Z0.800 F10800.000
G1 X112.940 Y118.103
G1 Z0.200
G1 E0.80000 F2100.00000
M73 P1 R179
G1 F1200.000
G1 X114.660 Y116.383 E0.07627
G1 X114.126 Y115.850 E0.02365
G1 X112.043 Y117.933 E0.09239
G1 X110.976 Y117.933 E0.03344
G1 X115.344 Y113.565 E0.19370
G1 F8640.000
G1 X113.017 Y115.893 E-0.76000
G1 E-0.04000 F2100.00000
G1 Z0.800 F10800.000
G1 X109.791 Y124.270
G1 Z0.200
G1 E0.80000 F2100.00000
G1 F1200.000
G1 X109.791 Y119.047 E0.16379
G1 X118.954 Y119.047 E0.28731
G1 X118.954 Y124.270 E0.16379
G1 X109.851 Y124.270 E0.28540
G1 X109.414 Y124.647 F10800.000
G1 F1200.000
G1 X109.413 Y118.669 E0.18743
G1 X119.331 Y118.669 E0.31095
G1 X119.331 Y124.647 E0.18743
G1 X109.474 Y124.647 E0.30904
G1 X109.549 Y124.271 F10800.000
G1 F8640.000
G1 X109.441 Y121.356 E-0.76000
G1 E-0.04000 F2100.00000
G1 Z0.800 F10800.000
G1 X118.841 Y119.930
G1 Z0.200
G1 E0.80000 F2100.00000
G1 F1200.000
G1 X118.240 Y119.329 E0.02692
G1 X117.701 Y119.329 E0.01707
G1 X118.671 Y120.299 E0.04346
G1 X118.671 Y120.838 E0.01707
G1 X117.162 Y119.329 E0.06760
G1 X116.623 Y119.329 E0.01707
G1 X118.671 Y121.377 E0.09174
G1 X118.671 Y121.916 E0.01707
G1 X116.085 Y119.329 E0.11588
G1 X115.546 Y119.329 E0.01707
G1 X118.671 Y122.455 E0.14002
G1 X118.671 Y122.993 E0.01707
G1 X115.007 Y119.329 E0.16416
G1 X114.468 Y119.329 E0.01707
G1 X118.671 Y123.532 E0.18830
G1 X118.671 Y123.988 E0.01442
G1 X118.587 Y123.988 E0.00265
G1 X113.929 Y119.329 E0.20870
G1 X113.390 Y119.329 E0.01707
G1 X118.049 Y123.988 E0.20870
G1 X117.510 Y123.988 E0.01707
G1 X112.852 Y119.329 E0.20870
G1 X112.313 Y119.329 E0.01707
G1 X116.971 Y123.988 E0.20870
G1 X116.432 Y123.988 E0.01707
G1 X111.774 Y119.329 E0.20870
G1 X111.235 Y119.329 E0.01707
G1 X115.893 Y123.988 E0.20870
G1 X115.355 Y123.988 E0.01707
G1 X110.696 Y119.329 E0.20870
G1 X110.158 Y119.329 E0.01707
G1 X114.816 Y123.988 E0.20870
G1 X114.277 Y123.988 E0.01707
G1 X110.073 Y119.784 E0.18833
G1 X110.074 Y120.323 E0.01707
G1 X113.738 Y123.988 E0.16418
G1 X113.199 Y123.988 E0.01707
G1 X110.074 Y120.862 E0.14004
G1 X110.074 Y121.401 E0.01707
G1 X112.661 Y123.988 E0.11589
G1 X112.122 Y123.988 E0.01707
G1 X110.074 Y121.940 E0.09175
G1 X110.074 Y122.479 E0.01707
G1 X111.583 Y123.988 E0.06761
G1 X111.044 Y123.988 E0.01707
G1 X110.074 Y123.017 E0.04346
G1 X110.074 Y123.556 E0.01707
G1 X110.675 Y124.157 E0.02692
G1 F8640.000
G1 X110.074 Y123.556 E-0.19621
G1 X110.074 Y123.017 E-0.12443
G1 X111.044 Y123.988 E-0.31678
G1 X111.575 Y123.988 E-0.12258
G1 E-0.04000 F2100.00000
G1 Z0.800 F10800.000
G1 X95.823 Y124.270
G1 Z0.200
G1 E0.80000 F2100.00000
G1 F1200.000
G1 X86.659 Y124.270 E0.28731
G1 X86.659 Y119.047 E0.16379
G1 X95.823 Y119.047 E0.28731
G1 X95.823 Y124.210 E0.16191
G1 X96.200 Y124.647 F10800.000
G1 F1200.000
G1 X86.282 Y124.647 E0.31095
G1 X86.282 Y118.669 E0.18743
G1 X96.200 Y118.669 E0.31096
G1 X96.200 Y124.587 E0.18555
G1 X95.806 Y124.575 F10800.000
G1 F8640.000
G1 X92.908 Y124.607 E-0.76000
G1 E-0.04000 F2100.00000
G1 Z0.800 F10800.000
G1 X87.543 Y124.157
G1 Z0.200
G1 E0.80000 F2100.00000
G1 F1200.000
G1 X86.942 Y123.556 E0.02692
G1 X86.942 Y123.018 E0.01707
G1 X87.912 Y123.988 E0.04346
G1 X88.451 Y123.988 E0.01707
G1 X86.942 Y122.479 E0.06760
G1 X86.942 Y121.940 E0.01707
G1 X88.990 Y123.988 E0.09175
G1 X89.529 Y123.988 E0.01707
G1 X86.942 Y121.401 E0.11589
G1 X86.942 Y120.862 E0.01707
G1 X90.068 Y123.988 E0.14003
G1 X90.606 Y123.988 E0.01707
G1 X86.942 Y120.323 E0.16418
G1 X86.942 Y119.784 E0.01707
G1 X91.145 Y123.988 E0.18832
G1 X91.684 Y123.988 E0.01707
G1 X87.026 Y119.329 E0.20871
G1 X87.565 Y119.329 E0.01707
G1 X92.223 Y123.988 E0.20871
G1 X92.762 Y123.988 E0.01707
G1 X88.104 Y119.329 E0.20871
G1 X88.642 Y119.329 E0.01707
G1 X93.301 Y123.988 E0.20871
G1 X93.840 Y123.988 E0.01707
G1 X89.181 Y119.329 E0.20871
G1 X89.720 Y119.329 E0.01707
G1 X94.378 Y123.988 E0.20871
G1 X94.917 Y123.988 E0.01707
G1 X90.259 Y119.329 E0.20871
G1 X90.798 Y119.329 E0.01707
G1 X95.456 Y123.988 E0.20871
G1 X95.540 Y123.988 E0.00266
G1 X95.540 Y123.533 E0.01441
G1 X91.337 Y119.329 E0.18833
G1 X91.876 Y119.329 E0.01707
G1 X95.540 Y122.994 E0.16418
G1 X95.540 Y122.455 E0.01707
G1 X92.414 Y119.329 E0.14004
G1 X92.953 Y119.329 E0.01707
G1 X95.540 Y121.916 E0.11590
G1 X95.540 Y121.377 E0.01707
G1 X93.492 Y119.329 E0.09175
G1 X94.031 Y119.329 E0.01707
G1 X95.540 Y120.838 E0.06761
G1 X95.540 Y120.299 E0.01707
G1 X94.570 Y119.329 E0.04347
G1 X95.109 Y119.329 E0.01707
G1 X95.710 Y119.930 E0.02693
G1 F8640.000
G1 X95.109 Y119.329 E-0.19624
G1 X94.570 Y119.329 E-0.12442
G1 X95.540 Y120.299 E-0.31679
G1 X95.540 Y120.830 E-0.12255
G1 E-0.04000 F2100.00000
G1 Z0.800 F10800.000
G1 X136.351 Y125.214
G1 Z0.200
G1 E0.80000 F2100.00000
G1 F1200.000
G1 X134.870 Y126.694 E0.06565
G1 X135.403 Y127.228 E0.02365
G1 X137.248 Y125.383 E0.08178
G1 X138.314 Y125.383 E0.03344
G1 X135.937 Y127.761 E0.10542
G1 X136.470 Y128.294 E0.02365
G1 X139.381 Y125.383 E0.12907
G1 X140.447 Y125.383 E0.03344
G1 X135.372 Y130.459 E0.22505
G1 X135.905 Y130.992 E0.02365
G1 X158.043 Y108.854 E0.98163
G1 X158.576 Y109.387 E0.02365
G1 X136.438 Y131.525 E0.98163
G1 X136.475 Y131.562 E0.00162
G1 X134.844 Y133.193 E0.07234
G1 X135.340 Y133.690 E0.02203
G1 X159.110 Y109.921 E1.05397
G1 X159.543 Y110.354 E0.01923
G1 X157.912 Y111.986 E0.07234
G1 X158.011 Y112.085 E0.00442
G1 X135.874 Y134.223 E0.98163
G1 X136.407 Y134.757 E0.02365
G1 X158.545 Y112.619 E0.98163
G1 X159.078 Y113.152 E0.02365
G1 X154.296 Y117.933 E0.21202
G1 X153.372 Y117.933 E0.02898
G1 X153.064 Y118.242 E0.01366
G1 X153.064 Y119.166 E0.02898
G1 X135.309 Y136.921 E0.78730
G1 X135.842 Y137.454 E0.02365
G1 X153.064 Y120.232 E0.76366
G1 X153.064 Y121.299 E0.03344
G1 X136.375 Y137.988 E0.74001
G1 X136.475 Y138.087 E0.00442
G1 X134.844 Y139.719 E0.07234
G1 X135.277 Y140.152 E0.01923
G1 X153.064 Y122.365 E0.78870
G1 X153.064 Y123.432 E0.03344
G1 X135.811 Y140.686 E0.76506
G1 X136.344 Y141.219 E0.02365
G1 X153.064 Y124.498 E0.74141
G1 X153.066 Y125.077 E0.01813
G1 X153.310 Y125.319 E0.01078
G1 X135.246 Y143.383 E0.80099
G1 X135.779 Y143.917 E0.02365
G1 X154.312 Y125.383 E0.82180
G1 X155.379 Y125.383 E0.03344
G1 X136.312 Y144.450 E0.84544
G1 X136.475 Y144.613 E0.00721
G1 X134.844 Y146.244 E0.07234
G1 X135.214 Y146.615 E0.01643
G1 X156.445 Y125.383 E0.94143
G1 X157.512 Y125.383 E0.03344
G1 X135.747 Y147.148 E0.96507
G1 X136.281 Y147.681 E0.02365
G1 X158.419 Y125.543 E0.98163
G1 X158.952 Y126.077 E0.02365
G1 X135.183 Y149.846 E1.05397
G1 X135.716 Y150.379 E0.02365
G1 X159.485 Y126.610 E1.05397
G1 X159.543 Y126.668 E0.00257
G1 X157.912 Y128.299 E0.07234
G1 X158.387 Y128.774 E0.02107
G1 X136.249 Y150.912 E0.98163
G1 X136.782 Y151.446 E0.02365
G1 X158.920 Y129.308 E0.98163
G1 X159.454 Y129.841 E0.02365
G1 X137.316 Y151.979 E0.98163
G1 X137.849 Y152.512 E0.02365
G1 X158.356 Y132.006 E0.90929
G1 X158.889 Y132.539 E0.02365
G1 X138.382 Y153.045 E0.90929
G1 X138.916 Y153.579 E0.02365
G1 X159.422 Y133.072 E0.90929
M73 P1 R178
G1 X159.543 Y133.193 E0.00537
G1 X157.912 Y134.825 E0.07234
G1 X158.324 Y135.237 E0.01828
G1 X139.449 Y154.112 E0.83696
G1 X139.982 Y154.645 E0.02365
G1 X158.857 Y135.770 E0.83696
G1 X159.391 Y136.303 E0.02365
G1 X140.515 Y155.179 E0.83696
G1 X141.049 Y155.712 E0.02365
G1 X158.292 Y138.468 E0.76462
G1 X158.826 Y139.001 E0.02365
G1 X141.582 Y156.245 E0.76462
G1 X142.115 Y156.778 E0.02365
G1 X159.359 Y139.534 E0.76462
G1 X159.543 Y139.719 E0.00817
G1 X157.912 Y141.350 E0.07234
G1 X158.261 Y141.699 E0.01548
G1 X144.280 Y155.680 E0.61995
G1 X144.813 Y156.214 E0.02365
G1 X158.794 Y142.232 E0.61995
G1 X159.327 Y142.766 E0.02365
G1 X145.346 Y156.747 E0.61995
G1 X145.562 Y156.963 E0.00957
G1 X147.193 Y155.331 E0.07234
