; generated by PrusaSlicer 2.3.1+win64 on 2021-08-16 at 16:54:29 UTC

; 

; external perimeters extrusion width = 0.45mm
; perimeters extrusion width = 0.45mm
; infill extrusion width = 0.45mm
; solid infill extrusion width = 0.45mm
; top infill extrusion width = 0.40mm
; support material extrusion width = 0.35mm
; first layer extrusion width = 0.42mm

M73 P0 R155
M201 X9000 Y9000 Z500 E10000 ; sets maximum accelerations, mm/sec^2
M203 X500 Y500 Z12 E120 ; sets maximum feedrates, mm/sec
M204 P2000 R1500 T2000 ; sets acceleration (P, T) and retract acceleration (R), mm/sec^2
M205 X10.00 Y10.00 Z0.20 E2.50 ; sets the jerk limits, mm/sec
M205 S0 T0 ; sets the minimum extruding and travel feed rate, mm/sec
M107
;TYPE:Custom
M862.3 P "MK2.5SMMU2S" ; printer model check
M862.1 P0.4 ; nozzle diameter check
M115 U3.8.0 ; tell printer latest fw version
G90 ; use absolute coordinates
M83 ; extruder relative mode
M104 S215 ; set extruder temp
M140 S60 ; set bed temp
Tx
M190 S60 ; wait for bed temp
M109 S215 ; wait for extruder temp
G28 W ; home all without mesh bed level
G80 ; mesh bed leveling

G21 ; set units to millimeters

;go outside print area
G1 Y-3.0 F1000.0
G1 Z0.4 F1000.0
; select extruder
Tc
; purge line
G1 X55.0 F2000.0
G1 Z0.3 F1000.0
G92 E0.0
G1 X240.0 E25.0 F2200.0
M73 P0 R154
G1 Y-2.0 F1000.0
G1 X55.0 E25 F1400.0
G1 Z0.20 F1000.0
G1 X5.0 E4.0 F1000.0
G92 E0.0
G21 ; set units to millimeters
G90 ; use absolute coordinates
M83 ; use relative distances for extrusion
M900 K0.05 ; Filament gcode LA 1.5
M900 K30 ; Filament gcode LA 1.0
;LAYER_CHANGE
;Z:0.2
;HEIGHT:0.2
;BEFORE_LAYER_CHANGE
G92 E0.0
;0.2


G1 E-0.80000 F2100.000
G1 Z0.600 F10800.000
;AFTER_LAYER_CHANGE
;0.2
G1 X120.409 Y115.156
G1 Z0.200
G1 E0.80000 F2100.000
M204 S1000
;TYPE:Support material
;WIDTH:0.42
G1 F1200.000
G1 X120.409 Y125.869 E0.33592
G1 X121.163 Y125.869 E0.02365
G1 X121.163 Y115.325 E0.33060
G1 X121.917 Y115.325 E0.02365
G1 X121.917 Y125.869 E0.33060
G1 X122.671 Y125.869 E0.02365
G1 X122.671 Y110.711 E0.47527
G1 X123.425 Y110.711 E0.02365
G1 X123.425 Y125.869 E0.47527
G1 X124.179 Y125.869 E0.02365
G1 X124.179 Y110.711 E0.47527
G1 X124.539 Y110.711 E0.01128
G1 X124.539 Y106.097 E0.14467
G1 X124.934 Y106.097 E0.01236
G1 X124.934 Y128.176 E0.69228
G1 X125.688 Y128.176 E0.02365
G1 X125.688 Y106.097 E0.69228
G1 X126.442 Y106.097 E0.02365
G1 X126.442 Y128.176 E0.69228
G1 X127.196 Y128.176 E0.02365
G1 X127.196 Y103.790 E0.76462
G1 X127.950 Y103.790 E0.02365
G1 X127.950 Y128.176 E0.76462
G1 X128.704 Y128.176 E0.02365
G1 X128.704 Y103.790 E0.76462
G1 X129.459 Y103.790 E0.02365
G1 X129.459 Y130.483 E0.83696
G1 X130.213 Y130.483 E0.02365
G1 X130.213 Y103.790 E0.83696
G1 X130.967 Y103.790 E0.02365
G1 X130.967 Y130.483 E0.83696
G1 X131.721 Y130.483 E0.02365
G1 X131.721 Y103.790 E0.83696
G1 X132.475 Y103.790 E0.02365
G1 X132.475 Y130.483 E0.83696
G1 X133.229 Y130.483 E0.02365
G1 X133.229 Y103.790 E0.83696
G1 X133.984 Y103.790 E0.02365
G1 X133.984 Y130.483 E0.83696
G1 X134.738 Y130.483 E0.02365
G1 X134.738 Y103.790 E0.83696
G1 X135.083 Y103.790 E0.01084
G1 X135.083 Y106.097 E0.07234
G1 X135.492 Y106.097 E0.01281
G1 X135.492 Y130.483 E0.76462
G1 X136.075 Y130.483 E0.01827
G1 X136.075 Y132.790 E0.07234
G1 X136.246 Y132.790 E0.00537
G1 X136.246 Y106.097 E0.83696
G1 X137.000 Y106.097 E0.02365
G1 X137.000 Y132.790 E0.83696
G1 X137.754 Y132.790 E0.02365
G1 X137.754 Y106.097 E0.83696
G1 X138.508 Y106.097 E0.02365
G1 X138.508 Y132.790 E0.83696
G1 X139.263 Y132.790 E0.02365
G1 X139.263 Y106.097 E0.83696
G1 X139.697 Y106.097 E0.01363
G1 X139.697 Y108.404 E0.07234
G1 X140.017 Y108.404 E0.01001
G1 X140.017 Y132.790 E0.76462
G1 X140.689 Y132.790 E0.02107
G1 X140.689 Y135.098 E0.07234
G1 X140.771 Y135.098 E0.00257
G1 X140.771 Y108.404 E0.83696
G1 X141.525 Y108.404 E0.02365
G1 X141.525 Y135.098 E0.83696
G1 X142.279 Y135.098 E0.02365
G1 X142.279 Y108.404 E0.83696
G1 X143.033 Y108.404 E0.02365
G1 X143.033 Y135.098 E0.83696
G1 X143.788 Y135.098 E0.02365
G1 X143.788 Y108.404 E0.83696
G1 X144.312 Y108.404 E0.01643
G1 X144.312 Y110.711 E0.07234
G1 X144.542 Y110.711 E0.00722
G1 X144.542 Y135.098 E0.76462
G1 X145.296 Y135.098 E0.02365
G1 X145.296 Y110.711 E0.76462
G1 X146.050 Y110.711 E0.02365
G1 X146.050 Y134.530 E0.74682
G1 X146.804 Y132.987 E0.05385
G1 X146.804 Y110.711 E0.69844
G1 X147.558 Y110.711 E0.02365
G1 X147.558 Y131.444 E0.65006
G1 X147.570 Y131.421 E0.00079
G1 X147.982 Y131.279 E0.01366
G1 X148.313 Y131.441 E0.01155
G1 X148.313 Y110.711 E0.64998
G1 X148.926 Y110.711 E0.01923
G1 X148.926 Y113.018 E0.07234
G1 X149.067 Y113.018 E0.00442
G1 X149.067 Y131.810 E0.58920
M73 P0 R153
G1 X149.821 Y132.178 E0.02632
G1 X149.821 Y113.018 E0.60075
G1 X150.575 Y113.018 E0.02365
G1 X150.575 Y132.547 E0.61231
G1 X151.329 Y132.916 E0.02632
G1 X151.329 Y113.018 E0.62387
G1 X152.083 Y113.018 E0.02365
G1 X152.083 Y133.473 E0.64135
G1 E-0.80000 F2100.000
G1 Z0.800 F10800.000
G1 X152.083 Y138.718
G1 Z0.200
G1 E0.80000 F2100.000
G1 F1200.000
G1 X152.083 Y139.712 E0.03116
G1 X152.838 Y139.712 E0.02365
G1 X152.838 Y137.561 E0.06743
G1 X153.592 Y136.018 E0.05385
G1 X153.592 Y139.712 E0.11581
G1 X154.346 Y139.712 E0.02365
G1 X154.346 Y129.168 E0.33060
G1 X154.531 Y129.168 E0.00582
G1 X154.531 Y125.869 E0.10342
G1 X154.346 Y125.869 E0.00582
G1 X154.346 Y121.365 E0.14123
G1 X155.100 Y121.734 E0.02632
G1 X155.100 Y142.019 E0.63603
G1 X155.854 Y142.019 E0.02365
G1 X155.854 Y122.102 E0.62447
G1 X156.608 Y122.471 E0.02632
G1 X156.608 Y142.019 E0.61291
G1 X157.362 Y142.019 E0.02365
G1 X157.362 Y122.839 E0.60135
G1 X158.117 Y123.208 E0.02632
G1 X158.117 Y142.019 E0.58980
G1 X158.871 Y142.019 E0.02365
G1 X158.871 Y123.577 E0.57824
G1 X159.241 Y123.758 E0.01292
G1 X159.625 Y123.626 E0.01273
G1 X159.625 Y144.326 E0.64904
G1 X160.379 Y144.326 E0.02365
G1 X160.379 Y122.131 E0.69591
G1 X161.133 Y120.588 E0.05385
G1 X161.133 Y144.326 E0.74429
G1 X161.887 Y144.326 E0.02365
G1 X161.887 Y119.939 E0.76462
G1 X162.642 Y119.939 E0.02365
G1 X162.642 Y144.326 E0.76462
G1 X163.396 Y144.326 E0.02365
G1 X163.396 Y119.939 E0.76462
G1 X164.150 Y119.939 E0.02365
G1 X164.150 Y146.633 E0.83696
G1 X164.904 Y146.633 E0.02365
G1 X164.904 Y119.939 E0.83696
G1 X165.658 Y119.939 E0.02365
G1 X165.658 Y146.633 E0.83696
G1 X166.412 Y146.633 E0.02365
G1 X166.412 Y119.939 E0.83696
G1 X167.167 Y119.939 E0.02365
G1 X167.167 Y146.633 E0.83696
M73 P1 R153
G1 X167.921 Y146.633 E0.02365
G1 X167.921 Y122.246 E0.76462
G1 X168.675 Y122.246 E0.02365
G1 X168.675 Y146.633 E0.76462
G1 X169.429 Y146.633 E0.02365
G1 X169.429 Y122.246 E0.76462
G1 X170.183 Y122.246 E0.02365
G1 X170.183 Y146.633 E0.76462
G1 X170.937 Y146.633 E0.02365
G1 X170.937 Y122.246 E0.76462
G1 X171.691 Y122.246 E0.02365
G1 X171.691 Y146.633 E0.76462
G1 X172.446 Y146.633 E0.02365
G1 X172.446 Y124.554 E0.69228
G1 X173.200 Y124.554 E0.02365
G1 X173.200 Y146.633 E0.69228
G1 X173.954 Y146.633 E0.02365
G1 X173.954 Y124.554 E0.69228
G1 X174.708 Y124.554 E0.02365
G1 X174.708 Y142.019 E0.54761
G1 X175.462 Y142.019 E0.02365
G1 X175.462 Y124.554 E0.54761
G1 X176.216 Y124.554 E0.02365
G1 X176.216 Y142.019 E0.54761
G1 X176.611 Y142.019 E0.01236
G1 X176.611 Y137.405 E0.14467
G1 X176.971 Y137.405 E0.01128
G1 X176.971 Y126.861 E0.33060
G1 X177.725 Y126.861 E0.02365
G1 X177.725 Y137.405 E0.33060
G1 X178.479 Y137.405 E0.02365
G1 X178.479 Y126.861 E0.33060
G1 X179.233 Y126.861 E0.02365
G1 X179.233 Y137.405 E0.33060
G1 X179.987 Y137.405 E0.02365
G1 X179.987 Y126.861 E0.33060
G1 X180.741 Y126.861 E0.02365
G1 X180.741 Y137.574 E0.33592
G1 X153.592 Y120.808 F10800.000
G1 F1200.000
G1 X153.592 Y134.021 E0.41431
G1 X152.838 Y133.653 E0.02632
G1 X152.838 Y113.018 E0.64698
G1 X153.540 Y113.018 E0.02202
G1 X153.540 Y115.325 E0.07234
G1 X153.592 Y115.325 E0.00162
G1 X153.592 Y119.099 E0.11834
G1 X154.346 Y117.556 E0.05385
G1 X154.346 Y115.325 E0.06996
G1 X155.100 Y115.325 E0.02365
G1 X155.100 Y116.400 E0.03369
G1 E-0.80000 F2100.000
G1 Z0.800 F10800.000
G1 X159.007 Y122.404
G1 Z0.200
G1 E0.80000 F2100.000
;TYPE:Perimeter
G1 F1200.000
G1 X154.332 Y120.119 E0.16313
G1 X158.341 Y111.918 E0.28623
G1 X163.015 Y114.202 E0.16313
G1 X159.033 Y122.350 E0.28435
G1 X159.180 Y122.908 F10800.000
;TYPE:External perimeter
G1 F1200.000
G1 X153.828 Y120.293 E0.18678
G1 X158.168 Y111.413 E0.30988
G1 X163.520 Y114.029 E0.18678
G1 X159.206 Y122.855 E0.30800
G1 X158.900 Y122.622 F10800.000
G1 E-0.80000 F2100.000
G1 Z0.800 F10800.000
G1 X162.605 Y114.784
G1 Z0.200
G1 E0.80000 F2100.000
;TYPE:Solid infill
;WIDTH:0.430784
G1 F1200.000
G1 X161.690 Y113.869 E0.04172
G1 X160.617 Y113.345 E0.03851
G1 X162.298 Y115.026 E0.07666
G1 X162.118 Y115.394 E0.01323
G1 X159.544 Y112.821 E0.11738
G1 X158.471 Y112.296 E0.03851
G1 X161.938 Y115.763 E0.15810
G1 X161.758 Y116.131 E0.01323
G1 X158.291 Y112.664 E0.15813
G1 X158.111 Y113.032 E0.01323
G1 X161.578 Y116.500 E0.15813
G1 X161.398 Y116.868 E0.01323
G1 X157.931 Y113.401 E0.15813
G1 X157.750 Y113.769 E0.01323
G1 X161.218 Y117.236 E0.15813
G1 X161.037 Y117.605 E0.01323
G1 X157.570 Y114.138 E0.15813
G1 X157.390 Y114.506 E0.01323
G1 X160.857 Y117.973 E0.15813
G1 X160.677 Y118.342 E0.01323
G1 X157.210 Y114.875 E0.15813
G1 X157.030 Y115.243 E0.01323
G1 X160.497 Y118.710 E0.15813
G1 X160.317 Y119.079 E0.01323
G1 X156.850 Y115.612 E0.15813
G1 X156.670 Y115.980 E0.01323
G1 X160.137 Y119.447 E0.15813
G1 X159.957 Y119.816 E0.01323
G1 X156.490 Y116.348 E0.15813
G1 X156.310 Y116.717 E0.01323
G1 X159.777 Y120.184 E0.15813
G1 X159.597 Y120.552 E0.01323
G1 X156.130 Y117.085 E0.15813
G1 X155.950 Y117.454 E0.01323
G1 X159.417 Y120.921 E0.15813
G1 X159.237 Y121.289 E0.01323
G1 X155.770 Y117.822 E0.15813
G1 X155.590 Y118.191 E0.01323
G1 X159.057 Y121.658 E0.15813
G1 X158.876 Y122.025 E0.01321
G1 X155.409 Y118.559 E0.15809
G1 X155.229 Y118.928 E0.01323
G1 X157.803 Y121.501 E0.11737
G1 X156.730 Y120.977 E0.03851
G1 X155.049 Y119.296 E0.07665
G1 X154.869 Y119.664 E0.01323
G1 X156.026 Y120.822 E0.05278
G1 E-0.80000 F2100.000
G1 Z0.800 F10800.000
G1 X148.882 Y143.119
G1 Z0.200
G1 E0.80000 F2100.000
;TYPE:Perimeter
;WIDTH:0.42
G1 F1200.000
G1 X144.207 Y140.835 E0.16313
G1 X148.216 Y132.633 E0.28623
G1 X152.891 Y134.918 E0.16313
G1 X148.908 Y143.066 E0.28435
G1 X149.055 Y143.624 F10800.000
;TYPE:External perimeter
G1 F1200.000
G1 X143.703 Y141.008 E0.18678
G1 X148.043 Y132.129 E0.30988
G1 X153.395 Y134.744 E0.18678
G1 X149.082 Y143.570 E0.30800
M73 P1 R152
G1 X148.776 Y143.338 F10800.000
G1 E-0.80000 F2100.000
G1 Z0.800 F10800.000
G1 X152.480 Y135.500
G1 Z0.200
G1 E0.80000 F2100.000
;TYPE:Solid infill
;WIDTH:0.430784
G1 F1200.000
G1 X151.566 Y134.585 E0.04172
G1 X150.493 Y134.060 E0.03851
G1 X152.173 Y135.741 E0.07666
G1 X151.993 Y136.110 E0.01323
G1 X149.420 Y133.536 E0.11738
G1 X148.347 Y133.012 E0.03851
G1 X151.813 Y136.478 E0.15810
G1 X151.633 Y136.846 E0.01323
G1 X148.166 Y133.379 E0.15813
G1 X147.986 Y133.748 E0.01323
G1 X151.453 Y137.215 E0.15813
G1 X151.273 Y137.583 E0.01323
G1 X147.806 Y134.116 E0.15813
G1 X147.626 Y134.485 E0.01323
G1 X151.093 Y137.952 E0.15813
G1 X150.913 Y138.320 E0.01323
G1 X147.446 Y134.853 E0.15813
G1 X147.266 Y135.222 E0.01323
G1 X150.733 Y138.689 E0.15813
G1 X150.553 Y139.057 E0.01323
G1 X147.086 Y135.590 E0.15813
G1 X146.906 Y135.958 E0.01323
G1 X150.373 Y139.426 E0.15813
G1 X150.193 Y139.794 E0.01323
G1 X146.725 Y136.327 E0.15813
G1 X146.545 Y136.695 E0.01323
G1 X150.012 Y140.162 E0.15813
G1 X149.832 Y140.531 E0.01323
G1 X146.365 Y137.064 E0.15813
G1 X146.185 Y137.432 E0.01323
G1 X149.652 Y140.899 E0.15813
G1 X149.472 Y141.268 E0.01323
G1 X146.005 Y137.801 E0.15813
G1 X145.825 Y138.169 E0.01323
G1 X149.292 Y141.636 E0.15813
G1 X149.112 Y142.005 E0.01323
G1 X145.645 Y138.538 E0.15813
G1 X145.465 Y138.906 E0.01323
G1 X148.932 Y142.373 E0.15813
G1 X148.751 Y142.741 E0.01321
G1 X145.285 Y139.274 E0.15809
G1 X145.105 Y139.643 E0.01323
G1 X147.678 Y142.216 E0.11737
G1 X146.605 Y141.692 E0.03851
G1 X144.925 Y140.011 E0.07665
G1 X144.745 Y140.380 E0.01323
G1 X145.902 Y141.537 E0.05278
G1 E-0.80000 F2100.000
G1 Z0.800 F10800.000
G1 X153.225 Y99.367
G1 Z0.200
G1 E0.80000 F2100.000
;TYPE:Perimeter
;WIDTH:0.42
G1 F1200.000
G1 X152.702 Y99.315 E0.01649
G1 X152.199 Y99.163 E0.01649
G1 X151.735 Y98.915 E0.01649
G1 X151.328 Y98.581 E0.01649
G1 X150.995 Y98.175 E0.01649
G1 X150.747 Y97.711 E0.01649
G1 X150.594 Y97.208 E0.01649
G1 X150.543 Y96.684 E0.01649
G1 X150.594 Y96.161 E0.01649
G1 X150.747 Y95.657 E0.01649
G1 X150.995 Y95.194 E0.01649
G1 X151.328 Y94.787 E0.01649
G1 X151.735 Y94.454 E0.01649
G1 X152.199 Y94.206 E0.01649
G1 X152.702 Y94.053 E0.01648
G1 X153.217 Y94.002 E0.01624
G1 X153.748 Y94.053 E0.01673
G1 X154.252 Y94.206 E0.01651
G1 X154.716 Y94.454 E0.01649
G1 X155.122 Y94.787 E0.01649
G1 X155.456 Y95.194 E0.01649
G1 X155.704 Y95.657 E0.01649
G1 X155.857 Y96.161 E0.01649
G1 X155.908 Y96.684 E0.01649
G1 X155.857 Y97.208 E0.01649
G1 X155.704 Y97.711 E0.01649
G1 X155.456 Y98.175 E0.01649
G1 X155.122 Y98.581 E0.01649
G1 X154.716 Y98.915 E0.01649
G1 X154.252 Y99.163 E0.01649
G1 X153.749 Y99.315 E0.01649
G1 X153.285 Y99.361 E0.01461
G1 X153.225 Y98.988 F10800.000
;TYPE:External perimeter
G1 F1200.000
G1 X152.776 Y98.944 E0.01416
G1 X152.344 Y98.813 E0.01416
G1 X151.945 Y98.600 E0.01416
G1 X151.596 Y98.313 E0.01416
G1 X151.310 Y97.964 E0.01416
G1 X151.097 Y97.566 E0.01416
G1 X150.966 Y97.134 E0.01416
G1 X150.922 Y96.684 E0.01416
G1 X150.966 Y96.235 E0.01416
G1 X151.097 Y95.802 E0.01416
G1 X151.310 Y95.404 E0.01416
G1 X151.596 Y95.055 E0.01416
G1 X151.945 Y94.769 E0.01416
G1 X152.344 Y94.556 E0.01416
G1 X152.776 Y94.425 E0.01416
G1 X153.218 Y94.381 E0.01393
G1 X153.675 Y94.424 E0.01439
G1 X154.107 Y94.556 E0.01417
G1 X154.505 Y94.769 E0.01416
G1 X154.854 Y95.055 E0.01416
G1 X155.141 Y95.404 E0.01416
G1 X155.354 Y95.802 E0.01416
G1 X155.485 Y96.235 E0.01416
G1 X155.529 Y96.684 E0.01416
G1 X155.485 Y97.134 E0.01416
G1 X155.354 Y97.566 E0.01416
G1 X155.141 Y97.964 E0.01416
G1 X154.854 Y98.313 E0.01416
G1 X154.505 Y98.600 E0.01416
G1 X154.107 Y98.813 E0.01416
G1 X153.675 Y98.944 E0.01416
G1 X153.285 Y98.982 E0.01228
G1 X153.025 Y99.334 F10800.000
G1 E-0.80000 F2100.000
G1 Z0.800 F10800.000
G1 X134.634 Y99.315
G1 Z0.200
G1 E0.80000 F2100.000
;TYPE:Perimeter
G1 F1200.000
G1 X134.111 Y99.367 E0.01649
G1 X133.587 Y99.315 E0.01649
G1 X133.084 Y99.163 E0.01649
G1 X132.620 Y98.915 E0.01649
G1 X132.214 Y98.581 E0.01649
G1 X131.880 Y98.175 E0.01649
G1 X131.632 Y97.711 E0.01649
G1 X131.479 Y97.208 E0.01649
G1 X131.428 Y96.684 E0.01649
G1 X131.479 Y96.161 E0.01649
G1 X131.632 Y95.658 E0.01649
G1 X131.880 Y95.194 E0.01649
G1 X132.214 Y94.787 E0.01649
G1 X132.620 Y94.454 E0.01649
G1 X133.084 Y94.206 E0.01649
G1 X133.587 Y94.053 E0.01648
G1 X134.102 Y94.002 E0.01624
G1 X134.633 Y94.053 E0.01673
G1 X135.137 Y94.206 E0.01651
G1 X135.601 Y94.454 E0.01649
G1 X136.008 Y94.787 E0.01649
G1 X136.341 Y95.194 E0.01649
G1 X136.589 Y95.658 E0.01649
G1 X136.742 Y96.161 E0.01649
G1 X136.793 Y96.684 E0.01649
G1 X136.742 Y97.208 E0.01649
G1 X136.589 Y97.711 E0.01649
G1 X136.341 Y98.175 E0.01649
G1 X136.008 Y98.581 E0.01649
G1 X135.601 Y98.915 E0.01649
G1 X135.137 Y99.163 E0.01649
G1 X134.691 Y99.298 E0.01461
G1 X134.560 Y98.944 F10800.000
;TYPE:External perimeter
G1 F1200.000
G1 X134.111 Y98.988 E0.01416
G1 X133.661 Y98.944 E0.01416
G1 X133.229 Y98.813 E0.01416
G1 X132.831 Y98.600 E0.01416
G1 X132.481 Y98.313 E0.01416
G1 X132.195 Y97.964 E0.01416
G1 X131.982 Y97.566 E0.01416
G1 X131.851 Y97.134 E0.01416
G1 X131.807 Y96.684 E0.01416
G1 X131.851 Y96.235 E0.01416
G1 X131.982 Y95.803 E0.01416
G1 X132.195 Y95.404 E0.01416
G1 X132.481 Y95.055 E0.01416
G1 X132.831 Y94.769 E0.01416
G1 X133.229 Y94.556 E0.01416
G1 X133.661 Y94.425 E0.01416
G1 X134.103 Y94.381 E0.01393
G1 X134.560 Y94.425 E0.01439
G1 X134.992 Y94.556 E0.01417
G1 X135.391 Y94.769 E0.01416
G1 X135.740 Y95.055 E0.01416
G1 X136.026 Y95.404 E0.01416
G1 X136.239 Y95.803 E0.01416
G1 X136.370 Y96.235 E0.01416
G1 X136.414 Y96.684 E0.01416
G1 X136.370 Y97.134 E0.01416
G1 X136.239 Y97.566 E0.01416
G1 X136.026 Y97.964 E0.01416
G1 X135.740 Y98.313 E0.01416
