; generated by PrusaSlicer 2.2.0+win64 on 2021-01-11 at 21:07:32 UTC

; 

; external perimeters extrusion width = 0.45mm
; perimeters extrusion width = 0.45mm
; infill extrusion width = 0.45mm
; solid infill extrusion width = 0.45mm
; top infill extrusion width = 0.40mm
; first layer extrusion width = 0.42mm

M73 P0 R44
M201 X9000 Y9000 Z500 E10000 ; sets maximum accelerations, mm/sec^2
M203 X500 Y500 Z12 E120 ; sets maximum feedrates, mm/sec
M204 P2000 R1500 T2000 ; sets acceleration (P, T) and retract acceleration (R), mm/sec^2
M205 X10.00 Y10.00 Z0.20 E4.50 ; sets the jerk limits, mm/sec
M205 S0 T0 ; sets the minimum extruding and travel feed rate, mm/sec
M107
M862.3 P "MK2.5SMMU2S" ; printer model check
M862.1 P0.4 ; nozzle diameter check
M115 U3.9.1 ; tell printer latest fw version
G90 ; use absolute coordinates
M83 ; extruder relative mode
M104 S215 ; set extruder temp
M140 S60 ; set bed temp
Tx
M190 S60 ; wait for bed temp
M109 S215 ; wait for extruder temp
G28 W ; home all without mesh bed level
G80 ; mesh bed leveling

;go outside print area
G1 Y-3.0 F1000.0
G1 Z0.4 F1000.0
; select extruder
Tc
; purge line
G1 X55.0 F2000.0
G1 Z0.3 F1000.0
G92 E0.0
G1 X240.0 E25.0 F2200.0
M73 P0 R44
G1 Y-2.0 F1000.0
G1 X55.0 E25 F1400.0
G1 Z0.20 F1000.0
G1 X5.0 E4.0 F1000.0
G92 E0.0
G21 ; set units to millimeters
G90 ; use absolute coordinates
M83 ; use relative distances for extrusion
M900 K0.05 ; Filament gcode LA 1.5
M900 K30 ; Filament gcode LA 1.0
;BEFORE_LAYER_CHANGE
G92 E0.0
;0.2


G1 E-0.80000 F2100.00000
G1 Z0.600 F10800.000
;AFTER_LAYER_CHANGE
;0.2
G1 X113.741 Y87.045
G1 Z0.200
G1 E0.80000 F2100.00000
M204 S1000
G1 F1200.000
G1 X114.294 Y86.179 E0.03221
G1 X118.168 Y82.793 E0.16133
G1 X119.348 Y81.907 E0.04628
G1 X120.772 Y81.138 E0.05072
G1 X122.250 Y80.612 E0.04919
G1 X123.802 Y80.312 E0.04957
G1 X125.292 Y80.249 E0.04675
G1 X126.282 Y80.325 E0.03114
G1 X127.812 Y80.632 E0.04894
G1 X129.223 Y81.139 E0.04700
G1 X130.602 Y81.878 E0.04906
G1 X131.823 Y82.790 E0.04777
G1 X135.590 Y86.068 E0.15656
G1 X136.048 Y86.633 E0.02282
G1 X136.342 Y87.299 E0.02282
G1 X136.451 Y88.059 E0.02409
G1 X136.451 Y118.650 E0.95913
G1 X136.258 Y119.646 E0.03183
G1 X135.715 Y120.508 E0.03195
G1 X131.619 Y124.085 E0.17050
G1 X130.913 Y124.617 E0.02771
G1 X129.569 Y125.402 E0.04880
G1 X128.100 Y125.986 E0.04957
G1 X126.567 Y126.340 E0.04931
G1 X124.979 Y126.458 E0.04995
G1 X123.435 Y126.341 E0.04855
G1 X121.977 Y126.010 E0.04688
G1 X121.052 Y125.682 E0.03077
G1 X119.666 Y124.991 E0.04854
G1 X118.410 Y124.114 E0.04803
G1 X114.425 Y120.653 E0.16552
G1 X113.957 Y120.085 E0.02307
G1 X113.657 Y119.417 E0.02294
G1 X113.543 Y118.645 E0.02447
G1 X113.543 Y88.053 E0.95921
G1 X113.729 Y87.103 E0.03032
G1 X114.095 Y87.177 F10800.000
G1 F1200.000
G1 X114.589 Y86.416 E0.02844
G1 X118.410 Y83.082 E0.15899
G1 X119.573 Y82.211 E0.04554
G1 X120.928 Y81.482 E0.04825
G1 X122.353 Y80.975 E0.04742
G1 X123.849 Y80.687 E0.04777
G1 X125.291 Y80.626 E0.04527
G1 X126.225 Y80.697 E0.02936
G1 X127.703 Y80.993 E0.04726
G1 X129.069 Y81.483 E0.04551
G1 X130.399 Y82.196 E0.04730
G1 X131.580 Y83.078 E0.04622
G1 X135.322 Y86.334 E0.15553
G1 X135.727 Y86.832 E0.02012
G1 X135.984 Y87.420 E0.02012
G1 X136.074 Y88.063 E0.02036
G1 X136.074 Y118.648 E0.95898
G1 X135.902 Y119.521 E0.02790
G1 X135.421 Y120.270 E0.02790
G1 X131.373 Y123.799 E0.16840
G1 X130.688 Y124.314 E0.02687
G1 X129.401 Y125.065 E0.04670
G1 X127.989 Y125.626 E0.04765
G1 X126.511 Y125.967 E0.04754
G1 X124.981 Y126.081 E0.04813
G1 X123.488 Y125.967 E0.04694
G1 X122.080 Y125.647 E0.04527
G1 X121.206 Y125.337 E0.02909
G1 X119.868 Y124.673 E0.04682
G1 X118.650 Y123.823 E0.04658
G1 X114.688 Y120.382 E0.16452
G1 X114.277 Y119.885 E0.02024
G1 X114.014 Y119.295 E0.02024
G1 X113.920 Y118.641 E0.02071
G1 X113.920 Y88.054 E0.95905
G1 X114.084 Y87.235 E0.02616
G1 F8640.000
G1 X114.589 Y86.416 E-0.22241
G1 X116.344 Y84.885 E-0.53759
G1 E-0.04000 F2100.00000
G1 Z0.800 F10800.000
G1 X124.997 Y122.656
G1 Z0.200
G1 E0.80000 F2100.00000
G1 F1200.000
G1 X124.496 Y122.637 E0.01572
G1 X123.998 Y122.580 E0.01572
G1 X123.506 Y122.486 E0.01572
G1 X123.022 Y122.355 E0.01572
G1 X122.550 Y122.187 E0.01572
G1 X122.092 Y121.984 E0.01572
G1 X121.650 Y121.748 E0.01572
G1 X121.227 Y121.478 E0.01572
G1 X120.826 Y121.177 E0.01572
G1 X120.449 Y120.847 E0.01572
G1 X120.098 Y120.489 E0.01572
G1 X119.775 Y120.106 E0.01572
G1 X119.482 Y119.700 E0.01572
G1 X119.220 Y119.272 E0.01572
G1 X118.991 Y118.824 E0.01577
G1 X118.819 Y118.420 E0.01377
G1 X131.176 Y118.420 E0.38743
G1 X131.003 Y118.824 E0.01377
G1 X130.774 Y119.272 E0.01577
G1 X130.513 Y119.700 E0.01572
G1 X130.220 Y120.106 E0.01572
G1 X129.897 Y120.489 E0.01572
G1 X129.546 Y120.847 E0.01572
G1 X129.168 Y121.177 E0.01572
G1 X128.767 Y121.478 E0.01572
G1 X128.345 Y121.748 E0.01572
G1 X127.903 Y121.984 E0.01572
G1 X127.445 Y122.187 E0.01572
G1 X126.972 Y122.355 E0.01572
G1 X126.488 Y122.486 E0.01572
G1 X126.096 Y122.561 E0.01252
G1 X125.495 Y122.637 E0.01902
G1 X125.057 Y122.654 E0.01372
G1 F8640.000
G1 X124.496 Y122.637 E-0.12956
G1 X123.998 Y122.580 E-0.11574
G1 X123.506 Y122.486 E-0.11574
G1 X123.022 Y122.355 E-0.11574
G1 X122.550 Y122.187 E-0.11574
G1 X122.092 Y121.984 E-0.11574
G1 X121.894 Y121.879 E-0.05176
G1 E-0.04000 F2100.00000
G1 Z0.800 F10800.000
G1 X124.997 Y113.646
G1 Z0.200
G1 E0.80000 F2100.00000
G1 F1200.000
G1 X118.822 Y113.646 E0.19363
G1 X119.104 Y113.011 E0.02179
G1 X119.347 Y112.578 E0.01556
G1 X119.625 Y112.161 E0.01572
G1 X119.933 Y111.765 E0.01572
G1 X120.270 Y111.395 E0.01572
G1 X120.634 Y111.050 E0.01572
G1 X121.024 Y110.735 E0.01572
G1 X121.436 Y110.449 E0.01572
G1 X121.868 Y110.196 E0.01572
G1 X122.319 Y109.976 E0.01572
G1 X122.785 Y109.791 E0.01572
G1 X123.166 Y109.672 E0.01252
G1 X123.755 Y109.528 E0.01902
G1 X124.247 Y109.453 E0.01560
G1 X124.747 Y109.415 E0.01572
G1 X125.248 Y109.415 E0.01572
G1 X125.646 Y109.445 E0.01252
G1 X126.247 Y109.529 E0.01902
G1 X126.732 Y109.641 E0.01560
G1 X127.210 Y109.791 E0.01572
G1 X127.676 Y109.976 E0.01572
G1 X128.126 Y110.196 E0.01572
G1 X128.559 Y110.449 E0.01572
G1 X128.971 Y110.735 E0.01572
G1 X129.360 Y111.050 E0.01572
G1 X129.724 Y111.395 E0.01572
G1 X130.062 Y111.765 E0.01572
G1 X130.370 Y112.161 E0.01572
G1 X130.647 Y112.578 E0.01572
G1 X130.890 Y113.011 E0.01556
G1 X131.173 Y113.646 E0.02179
G1 X125.057 Y113.646 E0.19175
G1 F8640.000
G1 X121.766 Y113.646 E-0.76000
G1 E-0.04000 F2100.00000
G1 Z0.800 F10800.000
G1 X124.997 Y118.043
G1 Z0.200
G1 E0.80000 F2100.00000
G1 F1200.000
G1 X116.887 Y118.043 E0.25428
G1 X116.887 Y114.023 E0.12604
G1 X133.107 Y114.023 E0.50857
G1 X133.107 Y118.043 E0.12604
G1 X125.057 Y118.043 E0.25240
G1 X124.853 Y118.416 F10800.000
G1 F8640.000
G1 X121.766 Y118.043 E-0.76000
G1 E-0.04000 F2100.00000
G1 Z0.800 F10800.000
G1 X124.997 Y123.033
G1 Z0.200
G1 E0.80000 F2100.00000
G1 F1200.000
G1 X124.468 Y123.013 E0.01661
G1 X123.941 Y122.953 E0.01661
G1 X123.421 Y122.854 E0.01661
G1 X122.910 Y122.715 E0.01661
G1 X122.411 Y122.538 E0.01661
G1 X121.926 Y122.324 E0.01661
G1 X121.459 Y122.073 E0.01661
G1 X121.012 Y121.788 E0.01661
G1 X120.589 Y121.471 E0.01661
G1 X120.190 Y121.122 E0.01661
G1 X119.819 Y120.743 E0.01661
G1 X119.477 Y120.338 E0.01661
G1 X119.168 Y119.908 E0.01661
G1 X118.891 Y119.456 E0.01661
G1 X118.650 Y118.984 E0.01663
G1 X118.410 Y118.423 E0.01913
G1 X116.507 Y118.423 E0.05967
G1 X116.507 Y113.643 E0.14987
G1 X118.410 Y113.643 E0.05967
G1 X118.767 Y112.842 E0.02750
G1 X119.025 Y112.381 E0.01656
G1 X119.318 Y111.940 E0.01661
G1 X119.644 Y111.522 E0.01661
G1 X120.001 Y111.130 E0.01661
G1 X120.386 Y110.767 E0.01661
G1 X120.797 Y110.433 E0.01661
G1 X121.233 Y110.131 E0.01661
G1 X121.690 Y109.863 E0.01661
G1 X122.166 Y109.631 E0.01661
G1 X122.658 Y109.435 E0.01661
G1 X123.065 Y109.308 E0.01334
G1 X123.682 Y109.158 E0.01992
G1 X124.204 Y109.078 E0.01657
G1 X124.732 Y109.038 E0.01661
G1 X125.262 Y109.038 E0.01661
G1 X125.686 Y109.070 E0.01334
G1 X126.315 Y109.158 E0.01992
G1 X126.830 Y109.277 E0.01657
G1 X127.336 Y109.435 E0.01661
G1 X127.828 Y109.631 E0.01661
G1 X128.304 Y109.863 E0.01661
G1 X128.762 Y110.131 E0.01661
G1 X129.197 Y110.433 E0.01661
G1 X129.609 Y110.767 E0.01661
G1 X129.994 Y111.130 E0.01661
G1 X130.350 Y111.522 E0.01661
G1 X130.676 Y111.940 E0.01661
G1 X130.969 Y112.381 E0.01661
G1 X131.228 Y112.842 E0.01656
G1 X131.584 Y113.643 E0.02750
G1 X133.487 Y113.643 E0.05967
G1 X133.487 Y118.423 E0.14987
G1 X131.584 Y118.423 E0.05967
G1 X131.345 Y118.984 E0.01913
G1 X131.103 Y119.456 E0.01663
G1 X130.827 Y119.908 E0.01661
G1 X130.517 Y120.338 E0.01661
G1 X130.176 Y120.743 E0.01661
G1 X129.805 Y121.122 E0.01661
G1 X129.406 Y121.471 E0.01661
G1 X128.982 Y121.788 E0.01661
G1 X128.536 Y122.073 E0.01661
G1 X128.069 Y122.324 E0.01661
G1 X127.584 Y122.538 E0.01661
G1 X127.085 Y122.715 E0.01661
G1 X126.573 Y122.854 E0.01661
G1 X126.156 Y122.934 E0.01334
G1 X125.525 Y123.013 E0.01992
G1 X125.057 Y123.031 E0.01469
G1 X124.796 Y122.688 F10800.000
G1 F8640.000
G1 X124.468 Y123.013 E-0.13615
G1 X123.941 Y122.953 E-0.12233
G1 X123.421 Y122.854 E-0.12233
G1 X122.910 Y122.715 E-0.12233
G1 X122.411 Y122.538 E-0.12233
G1 X121.926 Y122.324 E-0.12233
G1 X121.879 Y122.299 E-0.01220
G1 E-0.04000 F2100.00000
G1 Z0.800 F10800.000
G1 X121.586 Y121.573
G1 Z0.200
G1 E0.80000 F2100.00000
G1 F1200.000
G1 X120.282 Y120.269 E0.06024
G1 X119.998 Y119.932 E0.01440
G1 X119.718 Y119.543 E0.01568
G1 X119.467 Y119.134 E0.01568
G1 X119.247 Y118.703 E0.01580
G1 X119.272 Y118.703 E0.00081
G1 X122.365 Y121.796 E0.14295
G1 X122.655 Y121.924 E0.01034
G1 X123.247 Y122.123 E0.02043
G1 X119.828 Y118.703 E0.15804
G1 X120.383 Y118.703 E0.01816
G1 X123.967 Y122.286 E0.16559
G1 X124.594 Y122.358 E0.02063
G1 X120.939 Y118.703 E0.16890
G1 X121.495 Y118.703 E0.01816
G1 X125.159 Y122.367 E0.16932
G1 X125.677 Y122.329 E0.01697
G1 X122.051 Y118.703 E0.16758
G1 X122.607 Y118.703 E0.01816
G1 X126.164 Y122.260 E0.16439
G1 X126.617 Y122.158 E0.01519
G1 X123.162 Y118.703 E0.15967
G1 X123.718 Y118.703 E0.01816
G1 X127.044 Y122.029 E0.15371
G1 X127.448 Y121.877 E0.01409
G1 X124.274 Y118.703 E0.14667
G1 X124.830 Y118.703 E0.01816
G1 X127.830 Y121.703 E0.13864
G1 X128.192 Y121.509 E0.01342
G1 X125.386 Y118.703 E0.12968
G1 X125.941 Y118.703 E0.01816
G1 X128.532 Y121.293 E0.11970
G1 X128.854 Y121.060 E0.01301
G1 X126.497 Y118.703 E0.10892
G1 X127.053 Y118.703 E0.01816
G1 X129.159 Y120.809 E0.09735
G1 X129.448 Y120.543 E0.01285
G1 X127.609 Y118.703 E0.08501
G1 X128.165 Y118.703 E0.01816
G1 X129.721 Y120.259 E0.07192
G1 X129.975 Y119.958 E0.01289
G1 X128.720 Y118.703 E0.05798
G1 X129.276 Y118.703 E0.01816
G1 X130.210 Y119.636 E0.04314
G1 X130.427 Y119.298 E0.01315
G1 X129.832 Y118.703 E0.02749
G1 X130.388 Y118.703 E0.01816
G1 X130.752 Y119.067 E0.01683
G1 F8640.000
G1 X130.388 Y118.703 E-0.11891
G1 X129.832 Y118.703 E-0.12833
G1 X130.427 Y119.298 E-0.19425
G1 X130.210 Y119.636 E-0.09288
G1 X129.519 Y118.946 E-0.22562
G1 E-0.04000 F2100.00000
G1 Z0.800 F10800.000
G1 X130.541 Y112.623
G1 Z0.200
G1 E0.80000 F2100.00000
G1 F1200.000
G1 X129.321 Y111.403 E0.05639
G1 X128.801 Y110.961 E0.02229
G1 X128.406 Y110.688 E0.01568
G1 X127.992 Y110.445 E0.01568
G1 X127.632 Y110.270 E0.01309
G1 X130.726 Y113.363 E0.14295
G1 X130.170 Y113.363 E0.01816
G1 X126.751 Y109.944 E0.15801
G1 X126.195 Y109.808 E0.01869
G1 X126.037 Y109.786 E0.00522
G1 X129.615 Y113.363 E0.16532
G1 X129.059 Y113.363 E0.01816
G1 X125.406 Y109.711 E0.16878
G1 X124.838 Y109.698 E0.01858
G1 X128.503 Y113.363 E0.16937
G1 X127.948 Y113.363 E0.01816
G1 X124.316 Y109.731 E0.16782
G1 X124.279 Y109.734 E0.00120
G1 X123.831 Y109.802 E0.01481
G1 X127.392 Y113.363 E0.16454
G1 X126.836 Y113.363 E0.01816
G1 X123.383 Y109.910 E0.15957
G1 X122.952 Y110.035 E0.01466
G1 X126.280 Y113.363 E0.15380
G1 X125.725 Y113.363 E0.01816
G1 X122.550 Y110.189 E0.14670
G1 X122.169 Y110.364 E0.01369
G1 X125.169 Y113.363 E0.13860
G1 X124.613 Y113.363 E0.01816
G1 X121.809 Y110.559 E0.12959
G1 X121.466 Y110.772 E0.01318
G1 X124.058 Y113.363 E0.11973
G1 X123.502 Y113.363 E0.01816
G1 X121.142 Y111.003 E0.10905
G1 X120.835 Y111.252 E0.01291
G1 X122.946 Y113.363 E0.09756
G1 X122.390 Y113.363 E0.01816
G1 X120.548 Y111.521 E0.08513
G1 X120.278 Y111.806 E0.01284
G1 X121.835 Y113.363 E0.07194
G1 X121.279 Y113.363 E0.01816
G1 X120.024 Y112.108 E0.05799
G1 X119.787 Y112.427 E0.01298
G1 X120.723 Y113.363 E0.04326
G1 X120.168 Y113.363 E0.01816
G1 X119.568 Y112.763 E0.02773
G1 X119.368 Y113.119 E0.01334
G1 X119.782 Y113.533 E0.01911
G1 F8640.000
G1 X119.368 Y113.119 E-0.13507
G1 X119.568 Y112.763 E-0.09426
G1 X120.168 Y113.363 E-0.19594
G1 X120.723 Y113.363 E-0.12832
G1 X120.091 Y112.731 E-0.20642
G1 E-0.04000 F2100.00000
G1 Z0.800 F10800.000
G1 X124.997 Y97.292
G1 Z0.200
G1 E0.80000 F2100.00000
G1 F1200.000
G1 X124.496 Y97.273 E0.01572
G1 X123.998 Y97.216 E0.01572
G1 X123.506 Y97.122 E0.01572
G1 X123.022 Y96.990 E0.01572
G1 X122.550 Y96.823 E0.01572
G1 X122.092 Y96.620 E0.01572
G1 X121.650 Y96.383 E0.01572
G1 X121.227 Y96.114 E0.01572
G1 X120.826 Y95.813 E0.01572
G1 X120.449 Y95.483 E0.01572
G1 X120.098 Y95.125 E0.01572
G1 X119.775 Y94.742 E0.01572
G1 X119.482 Y94.335 E0.01572
G1 X119.220 Y93.908 E0.01572
G1 X118.991 Y93.460 E0.01577
G1 X118.819 Y93.056 E0.01377
G1 X131.176 Y93.056 E0.38743
G1 X131.003 Y93.460 E0.01377
G1 X130.774 Y93.908 E0.01577
G1 X130.513 Y94.335 E0.01572
G1 X130.220 Y94.742 E0.01572
G1 X129.897 Y95.125 E0.01572
G1 X129.546 Y95.483 E0.01572
G1 X129.168 Y95.813 E0.01572
G1 X128.767 Y96.114 E0.01572
G1 X128.345 Y96.383 E0.01572
G1 X127.903 Y96.620 E0.01572
G1 X127.445 Y96.823 E0.01572
G1 X126.972 Y96.990 E0.01572
G1 X126.488 Y97.122 E0.01572
G1 X126.096 Y97.197 E0.01252
G1 X125.495 Y97.273 E0.01902
G1 X125.057 Y97.290 E0.01372
G1 F8640.000
G1 X124.496 Y97.273 E-0.12956
G1 X123.998 Y97.216 E-0.11574
G1 X123.506 Y97.122 E-0.11574
G1 X123.022 Y96.990 E-0.11574
G1 X122.550 Y96.823 E-0.11574
G1 X122.092 Y96.620 E-0.11574
G1 X121.894 Y96.514 E-0.05176
G1 E-0.04000 F2100.00000
G1 Z0.800 F10800.000
G1 X124.997 Y88.282
G1 Z0.200
G1 E0.80000 F2100.00000
G1 F1200.000
G1 X118.822 Y88.282 E0.19363
G1 X119.104 Y87.647 E0.02179
G1 X119.347 Y87.214 E0.01556
G1 X119.625 Y86.796 E0.01572
G1 X119.933 Y86.401 E0.01572
G1 X120.270 Y86.030 E0.01572
G1 X120.634 Y85.686 E0.01572
G1 X121.024 Y85.371 E0.01572
G1 X121.436 Y85.085 E0.01572
G1 X121.868 Y84.832 E0.01572
G1 X122.319 Y84.612 E0.01572
G1 X122.785 Y84.427 E0.01572
G1 X123.166 Y84.308 E0.01252
G1 X123.755 Y84.164 E0.01902
G1 X124.247 Y84.089 E0.01560
G1 X124.747 Y84.051 E0.01572
G1 X125.248 Y84.051 E0.01572
G1 X125.646 Y84.081 E0.01252
G1 X126.247 Y84.165 E0.01902
G1 X126.732 Y84.277 E0.01560
G1 X127.210 Y84.427 E0.01572
G1 X127.676 Y84.612 E0.01572
G1 X128.126 Y84.832 E0.01572
G1 X128.559 Y85.085 E0.01572
G1 X128.971 Y85.371 E0.01572
G1 X129.360 Y85.686 E0.01572
G1 X129.724 Y86.030 E0.01572
G1 X130.062 Y86.401 E0.01572
G1 X130.370 Y86.796 E0.01572
G1 X130.647 Y87.214 E0.01572
G1 X130.890 Y87.647 E0.01556
G1 X131.173 Y88.282 E0.02179
G1 X125.057 Y88.282 E0.19175
G1 F8640.000
G1 X121.766 Y88.282 E-0.76000
G1 E-0.04000 F2100.00000
G1 Z0.800 F10800.000
G1 X124.997 Y92.679
G1 Z0.200
G1 E0.80000 F2100.00000
G1 F1200.000
G1 X116.887 Y92.679 E0.25428
G1 X116.887 Y88.659 E0.12604
G1 X133.107 Y88.659 E0.50857
G1 X133.107 Y92.679 E0.12604
G1 X125.057 Y92.679 E0.25240
G1 X124.853 Y93.052 F10800.000
G1 F8640.000
G1 X121.766 Y92.679 E-0.76000
G1 E-0.04000 F2100.00000
G1 Z0.800 F10800.000
G1 X124.997 Y97.669
G1 Z0.200
G1 E0.80000 F2100.00000
G1 F1200.000
G1 X124.468 Y97.649 E0.01661
G1 X123.941 Y97.589 E0.01661
G1 X123.421 Y97.489 E0.01661
G1 X122.910 Y97.351 E0.01661
G1 X122.411 Y97.174 E0.01661
G1 X121.926 Y96.959 E0.01661
G1 X121.459 Y96.709 E0.01661
G1 X121.012 Y96.424 E0.01661
G1 X120.589 Y96.106 E0.01661
G1 X120.190 Y95.757 E0.01661
G1 X119.819 Y95.379 E0.01661
G1 X119.477 Y94.974 E0.01661
G1 X119.168 Y94.544 E0.01661
G1 X118.891 Y94.092 E0.01661
G1 X118.650 Y93.620 E0.01663
G1 X118.410 Y93.059 E0.01913
G1 X116.507 Y93.059 E0.05967
G1 X116.507 Y88.279 E0.14987
