; generated by PrusaSlicer 2.2.0+win64 on 2021-01-11 at 21:05:56 UTC

; 

; external perimeters extrusion width = 0.45mm
; perimeters extrusion width = 0.45mm
; infill extrusion width = 0.45mm
; solid infill extrusion width = 0.45mm
; top infill extrusion width = 0.40mm
; first layer extrusion width = 0.42mm

M73 P0 R12
M201 X9000 Y9000 Z500 E10000 ; sets maximum accelerations, mm/sec^2
M203 X500 Y500 Z12 E120 ; sets maximum feedrates, mm/sec
M204 P2000 R1500 T2000 ; sets acceleration (P, T) and retract acceleration (R), mm/sec^2
M205 X10.00 Y10.00 Z0.20 E4.50 ; sets the jerk limits, mm/sec
M205 S0 T0 ; sets the minimum extruding and travel feed rate, mm/sec
M107
M862.3 P "MK2.5SMMU2S" ; printer model check
M862.1 P0.4 ; nozzle diameter check
M115 U3.9.1 ; tell printer latest fw version
G90 ; use absolute coordinates
M83 ; extruder relative mode
M104 S215 ; set extruder temp
M140 S60 ; set bed temp
Tx
M190 S60 ; wait for bed temp
M109 S215 ; wait for extruder temp
G28 W ; home all without mesh bed level
G80 ; mesh bed leveling

;go outside print area
G1 Y-3.0 F1000.0
G1 Z0.4 F1000.0
; select extruder
Tc
; purge line
G1 X55.0 F2000.0
G1 Z0.3 F1000.0
G92 E0.0
G1 X240.0 E25.0 F2200.0
M73 P0 R12
G1 Y-2.0 F1000.0
G1 X55.0 E25 F1400.0
G1 Z0.20 F1000.0
G1 X5.0 E4.0 F1000.0
G92 E0.0
G21 ; set units to millimeters
G90 ; use absolute coordinates
M83 ; use relative distances for extrusion
M900 K0.05 ; Filament gcode LA 1.5
M900 K30 ; Filament gcode LA 1.0
;BEFORE_LAYER_CHANGE
G92 E0.0
;0.2


G1 E-0.80000 F2100.00000
G1 Z0.600 F10800.000
;AFTER_LAYER_CHANGE
;0.2
G1 X115.439 Y88.303
G1 Z0.200
G1 E0.80000 F2100.00000
M204 S1000
G1 F1200.000
G1 X116.105 Y87.465 E0.03357
G1 X116.825 Y86.728 E0.03229
G1 X117.632 Y86.056 E0.03293
G1 X118.500 Y85.472 E0.03280
G1 X119.442 Y84.972 E0.03344
G1 X120.403 Y84.582 E0.03255
G1 X121.423 Y84.287 E0.03327
G1 X122.457 Y84.100 E0.03297
G1 X123.597 Y84.020 E0.03582
G1 X125.382 Y84.152 E0.05612
G1 X126.614 Y84.429 E0.03959
G1 X128.419 Y85.153 E0.06100
G1 X129.444 Y85.756 E0.03729
G1 X130.433 Y86.517 E0.03913
G1 X131.740 Y87.879 E0.05918
G1 X132.448 Y88.896 E0.03885
G1 X133.262 Y90.541 E0.05755
G1 X133.612 Y91.618 E0.03549
G1 X133.837 Y92.719 E0.03524
G1 X136.436 Y115.131 E0.70742
G1 X136.446 Y116.264 E0.03555
G1 X136.365 Y117.130 E0.02725
G1 X136.082 Y118.519 E0.04447
G1 X135.366 Y120.377 E0.06241
G1 X134.851 Y121.280 E0.03261
G1 X134.179 Y122.209 E0.03594
G1 X132.779 Y123.629 E0.06253
G1 X131.948 Y124.251 E0.03255
G1 X131.045 Y124.792 E0.03300
G1 X130.100 Y125.234 E0.03271
G1 X129.109 Y125.579 E0.03292
G1 X128.089 Y125.820 E0.03285
G1 X127.061 Y125.954 E0.03249
G1 X125.806 Y125.973 E0.03936
G1 X123.918 Y125.713 E0.05977
G1 X122.695 Y125.339 E0.04008
G1 X121.009 Y124.531 E0.05862
G1 X120.025 Y123.856 E0.03744
G1 X118.598 Y122.521 E0.06126
G1 X117.866 Y121.578 E0.03744
G1 X116.913 Y119.872 E0.06126
G1 X116.486 Y118.698 E0.03917
G1 X116.122 Y116.918 E0.05698
G1 X113.596 Y95.189 E0.68589
G1 X113.549 Y94.205 E0.03087
G1 X113.605 Y93.155 E0.03296
G1 X113.766 Y92.128 E0.03261
G1 X114.037 Y91.102 E0.03328
G1 X114.404 Y90.131 E0.03255
G1 X114.875 Y89.189 E0.03302
G1 X115.407 Y88.354 E0.03105
G1 X115.725 Y88.556 F10800.000
G1 F1200.000
G1 X116.386 Y87.717 E0.03350
G1 X117.079 Y87.007 E0.03111
G1 X117.856 Y86.359 E0.03171
G1 X118.695 Y85.795 E0.03171
G1 X119.598 Y85.315 E0.03207
G1 X120.525 Y84.939 E0.03136
G1 X121.506 Y84.654 E0.03203
G1 X122.502 Y84.474 E0.03173
G1 X123.595 Y84.397 E0.03434
G1 X125.328 Y84.526 E0.05450
G1 X126.506 Y84.790 E0.03785
G1 X128.259 Y85.494 E0.05924
G1 X129.235 Y86.070 E0.03552
G1 X130.177 Y86.794 E0.03725
G1 X131.448 Y88.118 E0.05756
G1 X132.121 Y89.085 E0.03692
G1 X132.919 Y90.699 E0.05646
G1 X133.248 Y91.716 E0.03350
G1 X133.464 Y92.770 E0.03374
G1 X136.059 Y115.158 E0.70667
G1 X135.990 Y117.087 E0.06052
G1 X135.723 Y118.405 E0.04217
G1 X135.033 Y120.201 E0.06032
G1 X134.536 Y121.073 E0.03146
G1 X133.893 Y121.963 E0.03446
G1 X132.541 Y123.336 E0.06040
G1 X131.738 Y123.937 E0.03144
G1 X130.871 Y124.458 E0.03173
G1 X129.957 Y124.885 E0.03165
G1 X129.003 Y125.217 E0.03164
G1 X128.020 Y125.449 E0.03169
G1 X127.031 Y125.578 E0.03127
G1 X125.838 Y125.597 E0.03739
G1 X124.002 Y125.346 E0.05810
G1 X122.838 Y124.990 E0.03819
G1 X121.202 Y124.207 E0.05685
G1 X119.678 Y123.075 E0.05953
G1 X118.878 Y122.268 E0.03564
G1 X117.770 Y120.726 E0.05953
G1 X117.251 Y119.706 E0.03588
G1 X116.850 Y118.601 E0.03687
G1 X116.496 Y116.867 E0.05549
G1 X113.972 Y95.159 E0.68521
G1 X113.979 Y93.197 E0.06151
G1 X114.134 Y92.206 E0.03146
G1 X114.395 Y91.221 E0.03196
G1 X114.749 Y90.284 E0.03140
G1 X115.202 Y89.377 E0.03179
G1 X115.692 Y88.606 E0.02863
G1 F8640.000
G1 X116.386 Y87.717 E-0.26047
G1 X117.079 Y87.007 E-0.22913
G1 X117.856 Y86.359 E-0.23351
G1 X117.988 Y86.270 E-0.03688
G1 E-0.04000 F2100.00000
G1 Z0.800 F10800.000
G1 X123.750 Y96.784
G1 Z0.200
G1 E0.80000 F2100.00000
G1 F1200.000
G1 X123.384 Y96.758 E0.01153
G1 X123.026 Y96.680 E0.01148
G1 X122.683 Y96.552 E0.01148
G1 X122.361 Y96.377 E0.01148
G1 X122.068 Y96.157 E0.01148
G1 X121.810 Y95.899 E0.01146
G1 X121.589 Y95.604 E0.01157
G1 X121.412 Y95.277 E0.01164
G1 X121.286 Y94.941 E0.01126
G1 X121.209 Y94.583 E0.01148
G1 X121.182 Y94.218 E0.01148
G1 X121.209 Y93.852 E0.01148
G1 X121.286 Y93.495 E0.01148
G1 X121.412 Y93.158 E0.01127
G1 X121.589 Y92.831 E0.01168
G1 X121.809 Y92.537 E0.01150
G1 X122.068 Y92.278 E0.01148
G1 X122.352 Y92.066 E0.01111
G1 X122.681 Y91.884 E0.01181
G1 X123.026 Y91.755 E0.01153
G1 X123.384 Y91.677 E0.01148
G1 X123.737 Y91.652 E0.01111
G1 X124.113 Y91.677 E0.01181
G1 X124.472 Y91.755 E0.01153
G1 X124.815 Y91.883 E0.01148
G1 X125.133 Y92.056 E0.01134
G1 X125.436 Y92.285 E0.01192
G1 X125.688 Y92.536 E0.01116
G1 X125.909 Y92.831 E0.01154
G1 X126.084 Y93.152 E0.01145
G1 X126.212 Y93.495 E0.01148
G1 X126.287 Y93.841 E0.01111
G1 X126.316 Y94.216 E0.01181
G1 X126.289 Y94.583 E0.01153
G1 X126.212 Y94.941 E0.01148
G1 X126.083 Y95.284 E0.01149
G1 X125.906 Y95.608 E0.01158
G1 X125.689 Y95.899 E0.01138
G1 X125.430 Y96.157 E0.01148
G1 X125.137 Y96.377 E0.01148
G1 X124.815 Y96.552 E0.01148
G1 X124.472 Y96.680 E0.01148
G1 X124.126 Y96.756 E0.01111
G1 X123.810 Y96.780 E0.00993
G1 X123.750 Y96.406 F10800.000
G1 F1200.000
G1 X123.438 Y96.384 E0.00981
G1 X123.132 Y96.318 E0.00979
G1 X122.840 Y96.208 E0.00979
G1 X122.566 Y96.059 E0.00979
G1 X122.316 Y95.872 E0.00979
G1 X122.095 Y95.651 E0.00977
G1 X121.907 Y95.400 E0.00986
G1 X121.756 Y95.121 E0.00995
G1 X121.649 Y94.834 E0.00959
G1 X121.583 Y94.529 E0.00979
G1 X121.560 Y94.218 E0.00979
G1 X121.583 Y93.906 E0.00979
G1 X121.649 Y93.601 E0.00979
G1 X121.756 Y93.315 E0.00959
G1 X121.908 Y93.035 E0.00998
G1 X122.095 Y92.785 E0.00980
G1 X122.316 Y92.564 E0.00979
G1 X122.557 Y92.383 E0.00944
G1 X122.839 Y92.227 E0.01012
G1 X123.132 Y92.118 E0.00981
G1 X123.438 Y92.051 E0.00979
G1 X123.738 Y92.030 E0.00945
G1 X124.060 Y92.051 E0.01012
G1 X124.366 Y92.118 E0.00981
G1 X124.658 Y92.227 E0.00979
G1 X124.928 Y92.374 E0.00964
G1 X125.189 Y92.570 E0.01022
G1 X125.402 Y92.784 E0.00948
G1 X125.591 Y93.035 E0.00985
G1 X125.740 Y93.309 E0.00976
G1 X125.849 Y93.601 E0.00979
G1 X125.913 Y93.896 E0.00945
G1 X125.938 Y94.217 E0.01012
G1 X125.915 Y94.529 E0.00981
G1 X125.849 Y94.834 E0.00979
G1 X125.740 Y95.127 E0.00979
G1 X125.588 Y95.404 E0.00989
G1 X125.403 Y95.651 E0.00969
G1 X125.182 Y95.872 E0.00979
G1 X124.932 Y96.059 E0.00979
G1 X124.658 Y96.208 E0.00979
G1 X124.366 Y96.318 E0.00979
G1 X124.071 Y96.382 E0.00945
G1 X123.809 Y96.402 E0.00823
G1 X123.593 Y96.677 F10800.000
G1 F8640.000
G1 X123.438 Y96.384 E-0.08595
G1 X123.132 Y96.318 E-0.07210
G1 X122.840 Y96.208 E-0.07210
G1 X122.566 Y96.059 E-0.07210
G1 X122.316 Y95.872 E-0.07209
G1 X122.095 Y95.651 E-0.07194
G1 X121.907 Y95.400 E-0.07259
G1 X121.756 Y95.121 E-0.07327
G1 X121.649 Y94.834 E-0.07062
G1 X121.583 Y94.529 E-0.07208
G1 X121.575 Y94.420 E-0.02516
G1 E-0.04000 F2100.00000
G1 Z0.800 F10800.000
G1 X123.565 Y101.002
G1 Z0.200
G1 E0.80000 F2100.00000
G1 F1200.000
G1 X122.878 Y100.949 E0.02162
G1 X122.190 Y100.823 E0.02191
G1 X121.519 Y100.628 E0.02191
G1 X120.872 Y100.365 E0.02191
G1 X120.255 Y100.037 E0.02191
G1 X119.675 Y99.646 E0.02191
G1 X119.139 Y99.199 E0.02191
G1 X118.651 Y98.698 E0.02191
G1 X118.217 Y98.150 E0.02191
G1 X117.842 Y97.561 E0.02191
G1 X117.530 Y96.936 E0.02191
G1 X117.286 Y96.291 E0.02159
G1 X117.105 Y95.606 E0.02223
G1 X117.000 Y94.934 E0.02132
G1 X116.963 Y94.195 E0.02318
G1 X116.998 Y93.520 E0.02121
G1 X117.105 Y92.829 E0.02191
G1 X117.283 Y92.154 E0.02191
G1 X117.530 Y91.500 E0.02191
G1 X117.842 Y90.875 E0.02191
G1 X118.217 Y90.285 E0.02191
G1 X118.651 Y89.737 E0.02191
G1 X119.139 Y89.237 E0.02191
G1 X119.675 Y88.789 E0.02191
G1 X120.255 Y88.399 E0.02191
G1 X120.872 Y88.070 E0.02191
G1 X121.519 Y87.807 E0.02191
G1 X122.190 Y87.612 E0.02191
G1 X122.877 Y87.487 E0.02191
G1 X123.574 Y87.433 E0.02191
G1 X124.253 Y87.450 E0.02127
G1 X124.985 Y87.545 E0.02315
G1 X125.646 Y87.701 E0.02129
G1 X126.306 Y87.931 E0.02191
G1 X126.939 Y88.227 E0.02191
G1 X127.538 Y88.586 E0.02191
G1 X128.097 Y89.006 E0.02191
G1 X128.610 Y89.481 E0.02191
G1 X129.071 Y90.005 E0.02191
G1 X129.476 Y90.575 E0.02191
G1 X129.820 Y91.183 E0.02191
G1 X130.100 Y91.824 E0.02191
G1 X130.312 Y92.489 E0.02191
G1 X130.455 Y93.173 E0.02191
G1 X130.527 Y93.868 E0.02191
G1 X130.527 Y94.567 E0.02191
G1 X130.455 Y95.262 E0.02191
G1 X130.312 Y95.946 E0.02191
G1 X130.100 Y96.612 E0.02191
G1 X129.820 Y97.252 E0.02191
G1 X129.476 Y97.860 E0.02191
G1 X129.071 Y98.430 E0.02191
G1 X128.610 Y98.955 E0.02191
G1 X128.105 Y99.422 E0.02156
G1 X127.538 Y99.849 E0.02227
G1 X126.940 Y100.208 E0.02184
G1 X126.291 Y100.510 E0.02245
G1 X125.646 Y100.734 E0.02142
G1 X124.966 Y100.895 E0.02191
G1 X124.273 Y100.985 E0.02190
G1 X123.625 Y101.001 E0.02032
G1 X123.555 Y101.380 F10800.000
G1 F1200.000
G1 X122.829 Y101.323 E0.02283
G1 X122.103 Y101.191 E0.02313
G1 X121.395 Y100.985 E0.02313
G1 X120.712 Y100.707 E0.02313
G1 X120.061 Y100.360 E0.02313
G1 X119.449 Y99.948 E0.02313
G1 X118.882 Y99.476 E0.02313
G1 X118.367 Y98.948 E0.02313
G1 X117.909 Y98.369 E0.02313
G1 X117.514 Y97.747 E0.02313
G1 X117.184 Y97.087 E0.02313
G1 X116.927 Y96.406 E0.02281
G1 X116.736 Y95.683 E0.02345
G1 X116.625 Y94.973 E0.02255
G1 X116.585 Y94.195 E0.02441
G1 X116.622 Y93.481 E0.02242
G1 X116.736 Y92.752 E0.02313
G1 X116.924 Y92.039 E0.02313
G1 X117.184 Y91.349 E0.02313
G1 X117.514 Y90.689 E0.02313
G1 X117.909 Y90.066 E0.02313
G1 X118.367 Y89.488 E0.02313
G1 X118.882 Y88.960 E0.02313
G1 X119.449 Y88.487 E0.02313
G1 X120.061 Y88.075 E0.02313
G1 X120.712 Y87.729 E0.02313
G1 X121.395 Y87.451 E0.02313
G1 X122.103 Y87.244 E0.02313
G1 X122.829 Y87.112 E0.02313
G1 X123.565 Y87.055 E0.02313
G1 X124.282 Y87.073 E0.02249
G1 X125.053 Y87.173 E0.02438
G1 X125.751 Y87.338 E0.02251
G1 X126.448 Y87.581 E0.02313
G1 X127.116 Y87.893 E0.02313
G1 X127.749 Y88.273 E0.02313
G1 X128.339 Y88.716 E0.02313
G1 X128.880 Y89.217 E0.02313
G1 X129.367 Y89.771 E0.02313
G1 X129.794 Y90.372 E0.02313
G1 X130.158 Y91.014 E0.02313
G1 X130.453 Y91.690 E0.02313
G1 X130.678 Y92.393 E0.02313
G1 X130.828 Y93.115 E0.02313
G1 X130.904 Y93.849 E0.02313
G1 X130.904 Y94.587 E0.02313
G1 X130.828 Y95.320 E0.02313
G1 X130.678 Y96.042 E0.02313
G1 X130.453 Y96.745 E0.02313
G1 X130.158 Y97.421 E0.02313
G1 X129.794 Y98.063 E0.02313
G1 X129.367 Y98.664 E0.02313
G1 X128.880 Y99.218 E0.02313
G1 X128.347 Y99.712 E0.02277
G1 X127.749 Y100.162 E0.02349
G1 X127.118 Y100.541 E0.02308
G1 X126.433 Y100.860 E0.02367
G1 X125.751 Y101.097 E0.02263
G1 X125.033 Y101.266 E0.02313
G1 X124.302 Y101.361 E0.02313
G1 X123.615 Y101.378 E0.02155
G1 X123.364 Y101.028 F10800.000
G1 F8640.000
G1 X122.829 Y101.323 E-0.18194
G1 X122.103 Y101.191 E-0.17034
G1 X121.395 Y100.985 E-0.17033
G1 X120.712 Y100.707 E-0.17033
G1 X120.455 Y100.570 E-0.06706
G1 E-0.04000 F2100.00000
G1 Z0.800 F10800.000
G1 X126.179 Y100.429
G1 Z0.200
G1 E0.80000 F2100.00000
G1 F1200.000
G1 X117.673 Y91.923 E0.38242
G1 X117.531 Y92.322 E0.01347
G1 X125.645 Y100.436 E0.36474
G1 X125.214 Y100.546 E0.01412
G1 X117.419 Y92.750 E0.35045
G1 X117.333 Y93.205 E0.01472
G1 X124.764 Y100.636 E0.33405
G1 X124.285 Y100.698 E0.01534
G1 X117.272 Y93.685 E0.31526
G1 X117.246 Y94.199 E0.01637
G1 X123.761 Y100.715 E0.29288
G1 X123.573 Y100.719 E0.00600
G1 X123.196 Y100.690 E0.01201
G1 X117.275 Y94.769 E0.26617
G1 X117.358 Y95.393 E0.02000
G1 X122.571 Y100.605 E0.23433
G1 X122.255 Y100.548 E0.01020
G1 X121.857 Y100.432 E0.01319
G1 X117.530 Y96.105 E0.19452
G1 X117.789 Y96.822 E0.02424
G1 X117.872 Y96.988 E0.00589
G1 X120.993 Y100.109 E0.14031
G1 X120.401 Y99.794 E0.02133
G1 X119.845 Y99.420 E0.02129
G1 X119.352 Y99.009 E0.02041
G1 X118.102 Y97.758 E0.05620
G1 F8640.000
G1 X119.352 Y99.009 E-0.40821
G1 X119.845 Y99.420 E-0.14828
G1 X120.401 Y99.794 E-0.15462
G1 X120.588 Y99.893 E-0.04889
G1 E-0.04000 F2100.00000
G1 Z0.800 F10800.000
G1 X129.798 Y97.020
G1 Z0.200
G1 E0.80000 F2100.00000
G1 F1200.000
G1 X126.564 Y93.786 E0.14537
G1 X126.599 Y94.215 E0.01369
G1 X126.589 Y94.352 E0.00435
G1 X129.493 Y97.256 E0.13054
G1 X129.298 Y97.601 E0.01261
G1 X126.525 Y94.828 E0.12463
G1 X126.484 Y95.021 E0.00625
G1 X126.400 Y95.244 E0.00758
G1 X129.082 Y97.926 E0.12057
G1 X128.858 Y98.242 E0.01232
G1 X126.227 Y95.611 E0.11826
G1 X126.145 Y95.762 E0.00545
G1 X126.013 Y95.938 E0.00699
G1 X128.606 Y98.531 E0.11658
G1 X128.347 Y98.813 E0.01216
G1 X125.761 Y96.226 E0.11627
G1 X125.615 Y96.372 E0.00653
G1 X125.472 Y96.479 E0.00568
G1 X128.066 Y99.073 E0.11661
G1 X127.772 Y99.319 E0.01220
G1 X125.147 Y96.694 E0.11802
G1 X124.933 Y96.810 E0.00774
G1 X124.780 Y96.867 E0.00520
G1 X127.463 Y99.551 E0.12064
G1 X127.134 Y99.762 E0.01244
G1 X124.365 Y96.993 E0.12447
G1 X124.167 Y97.036 E0.00644
G1 X123.889 Y97.057 E0.00888
G1 X126.795 Y99.964 E0.13065
G1 X126.426 Y100.136 E0.01293
G1 X123.103 Y96.813 E0.14937
G1 F8640.000
G1 X125.431 Y99.140 E-0.76000
G1 E-0.04000 F2100.00000
G1 Z0.800 F10800.000
G1 X121.154 Y94.863
G1 Z0.200
G1 E0.80000 F2100.00000
G1 F1200.000
G1 X117.827 Y91.537 E0.14954
G1 X118.007 Y91.176 E0.01281
G1 X120.909 Y94.078 E0.13043
G1 X120.928 Y93.812 E0.00847
G1 X120.974 Y93.602 E0.00684
G1 X118.204 Y90.832 E0.12450
G1 X118.414 Y90.502 E0.01245
G1 X121.099 Y93.187 E0.12070
G1 X121.154 Y93.041 E0.00496
G1 X121.273 Y92.820 E0.00797
G1 X118.649 Y90.196 E0.11799
G1 X118.890 Y89.897 E0.01222
G1 X121.488 Y92.494 E0.11678
G1 X121.595 Y92.351 E0.00568
G1 X121.740 Y92.206 E0.00653
G1 X119.157 Y89.623 E0.11613
G1 X119.434 Y89.359 E0.01216
G1 X122.029 Y91.954 E0.11667
G1 X122.198 Y91.828 E0.00670
G1 X122.356 Y91.740 E0.00574
G1 X119.728 Y89.113 E0.11812
G1 X120.040 Y88.884 E0.01230
G1 X122.723 Y91.566 E0.12058
G1 X122.946 Y91.483 E0.00758
G1 X123.138 Y91.441 E0.00625
G1 X120.364 Y88.667 E0.12473
G1 X120.713 Y88.475 E0.01266
G1 X123.615 Y91.377 E0.13045
G1 X123.736 Y91.369 E0.00387
G1 X124.180 Y91.402 E0.01416
G1 X121.072 Y88.294 E0.13972
G1 X121.457 Y88.138 E0.01319
G1 X129.834 Y96.515 E0.37658
G1 X129.965 Y96.105 E0.01367
G1 X121.862 Y88.002 E0.36428
G1 X122.283 Y87.883 E0.01391
G1 X130.079 Y95.679 E0.35050
G1 X130.173 Y95.232 E0.01452
G1 X122.740 Y87.799 E0.33414
G1 X123.225 Y87.743 E0.01551
G1 X130.225 Y94.743 E0.31468
G1 X130.244 Y94.222 E0.01657
G1 X123.742 Y87.720 E0.29232
G1 X124.304 Y87.742 E0.01790
G1 X130.221 Y93.659 E0.26599
G1 X130.176 Y93.217 E0.01412
G1 X130.137 Y93.034 E0.00593
G1 X124.925 Y87.822 E0.23430
G1 X125.643 Y88.000 E0.02351
G1 X129.960 Y92.316 E0.19407
G1 X129.835 Y91.923 E0.01312
G1 X129.623 Y91.438 E0.01682
G1 X126.534 Y88.350 E0.13886
G1 X126.806 Y88.477 E0.00953
G1 X127.380 Y88.821 E0.02129
G1 X127.915 Y89.223 E0.02129
G1 X128.361 Y89.636 E0.01929
G1 X129.405 Y90.680 E0.04696
G1 F8640.000
G1 X128.361 Y89.636 E-0.34112
G1 X127.915 Y89.223 E-0.14014
G1 X127.380 Y88.821 E-0.15462
G1 X126.919 Y88.545 E-0.12412
G1 E-0.04000 F2100.00000
G1 Z0.800 F10800.000
G1 X126.260 Y118.352
G1 Z0.200
G1 E0.80000 F2100.00000
G1 F1200.000
G1 X125.893 Y118.326 E0.01153
G1 X125.535 Y118.248 E0.01148
G1 X125.192 Y118.120 E0.01148
