; generated by PrusaSlicer 2.2.0+win64 on 2020-11-09 at 19:09:14 UTC

; 

; external perimeters extrusion width = 0.60mm
; perimeters extrusion width = 0.43mm
; infill extrusion width = 0.45mm
; solid infill extrusion width = 0.70mm
; top infill extrusion width = 0.43mm
; first layer extrusion width = 0.42mm

M73 P0 R18
M201 X9000 Y9000 Z500 E10000 ; sets maximum accelerations, mm/sec^2
M203 X500 Y500 Z12 E120 ; sets maximum feedrates, mm/sec
M204 P2000 R1500 T2000 ; sets acceleration (P, T) and retract acceleration (R), mm/sec^2
M205 X10.00 Y10.00 Z0.20 E4.50 ; sets the jerk limits, mm/sec
M205 S0 T0 ; sets the minimum extruding and travel feed rate, mm/sec
M107
M862.3 P "MK2.5SMMU2S" ; printer model check
M862.1 P0.4 ; nozzle diameter check
M115 U3.9.1 ; tell printer latest fw version
G90 ; use absolute coordinates
M83 ; extruder relative mode
M104 S215 ; set extruder temp
M140 S60 ; set bed temp
Tx
M190 S60 ; wait for bed temp
M109 S215 ; wait for extruder temp
G28 W ; home all without mesh bed level
G80 ; mesh bed leveling

;go outside print area
G1 Y-3.0 F1000.0
G1 Z0.4 F1000.0
; select extruder
Tc
; purge line
G1 X55.0 F2000.0
G1 Z0.3 F1000.0
G92 E0.0
G1 X240.0 E25.0 F2200.0
M73 P0 R18
G1 Y-2.0 F1000.0
G1 X55.0 E25 F1400.0
G1 Z0.20 F1000.0
G1 X5.0 E4.0 F1000.0
G92 E0.0
G21 ; set units to millimeters
G90 ; use absolute coordinates
M83 ; use relative distances for extrusion
M900 K0.06 ; Filament gcode LA 1.5
M900 K30 ; Filament gcode LA 1.0
;BEFORE_LAYER_CHANGE
G92 E0.0
;0.2


G1 E-0.80000 F2100.00000
G1 Z0.600 F10800.000
;AFTER_LAYER_CHANGE
;0.2
G1 X103.757 Y59.422
G1 Z0.200
G1 E0.80000 F2100.00000
M204 S1000
G1 F1200.000
G1 X104.705 Y58.608 E0.03919
G1 X105.729 Y57.896 E0.03907
G1 X106.895 Y57.258 E0.04169
G1 X107.958 Y56.807 E0.03621
G1 X109.238 Y56.416 E0.04196
G1 X110.335 Y56.193 E0.03511
G1 X111.446 Y56.077 E0.03502
G1 X112.688 Y56.065 E0.03895
G1 X114.023 Y56.192 E0.04205
G1 X115.248 Y56.442 E0.03919
G1 X116.440 Y56.817 E0.03919
G1 X117.653 Y57.345 E0.04146
G1 X157.163 Y80.058 E1.42893
G1 X158.305 Y80.861 E0.04377
G1 X159.162 Y81.601 E0.03549
G1 X160.002 Y82.485 E0.03824
G1 X160.830 Y83.568 E0.04277
G1 X161.424 Y84.527 E0.03537
G1 X161.952 Y85.601 E0.03752
G1 X162.395 Y86.790 E0.03979
G1 X162.706 Y87.989 E0.03883
G1 X162.895 Y89.217 E0.03895
G1 X162.958 Y90.416 E0.03764
G1 X162.958 Y141.724 E1.60872
G1 X162.898 Y142.925 E0.03769
G1 X162.706 Y144.191 E0.04015
G1 X162.360 Y145.490 E0.04217
G1 X161.967 Y146.544 E0.03525
G1 X161.472 Y147.558 E0.03537
G1 X160.763 Y148.710 E0.04241
G1 X159.933 Y149.768 E0.04217
G1 X159.154 Y150.583 E0.03537
G1 X158.303 Y151.318 E0.03525
G1 X157.201 Y152.096 E0.04229
G1 X156.042 Y152.732 E0.04146
G1 X154.969 Y153.189 E0.03657
G1 X153.783 Y153.560 E0.03895
G1 X152.573 Y153.808 E0.03872
G1 X151.280 Y153.934 E0.04074
G1 X98.557 Y153.925 E1.65310
G1 X97.420 Y153.807 E0.03585
G1 X96.314 Y153.583 E0.03537
G1 X95.025 Y153.187 E0.04229
G1 X93.785 Y152.646 E0.04241
G1 X92.800 Y152.096 E0.03537
G1 X91.879 Y151.458 E0.03513
G1 X90.847 Y150.584 E0.04241
G1 X89.925 Y149.604 E0.04217
G1 X89.235 Y148.707 E0.03549
G1 X88.637 Y147.755 E0.03525
G1 X88.048 Y146.576 E0.04133
G1 X87.605 Y145.387 E0.03979
G1 X87.294 Y144.188 E0.03883
G1 X87.105 Y142.960 E0.03895
G1 X87.042 Y141.738 E0.03836
G1 X87.042 Y90.434 E1.60860
G1 X87.119 Y89.105 E0.04174
G1 X87.293 Y87.994 E0.03525
G1 X87.577 Y86.883 E0.03597
G1 X88.030 Y85.641 E0.04146
G1 X88.598 Y84.488 E0.04027
G1 X101.527 Y62.290 E0.80546
G1 X102.151 Y61.294 E0.03686
G1 X102.870 Y60.361 E0.03693
G1 X103.716 Y59.465 E0.03862
G1 F8640.000
G1 X104.705 Y58.608 E-0.30241
G1 X105.729 Y57.896 E-0.28775
G1 X106.374 Y57.543 E-0.16984
G1 E-0.04000 F2100.00000
G1 Z0.800 F10800.000
G1 X99.728 Y132.670
G1 Z0.200
G1 E0.80000 F2100.00000
G1 F1200.000
G1 X100.641 Y132.763 E0.02878
G1 X101.540 Y132.948 E0.02878
G1 X102.416 Y133.223 E0.02878
G1 X103.260 Y133.585 E0.02878
G1 X104.062 Y134.030 E0.02878
G1 X104.816 Y134.554 E0.02878
G1 X105.512 Y135.152 E0.02878
G1 X106.145 Y135.818 E0.02878
G1 X106.707 Y136.544 E0.02878
G1 X107.192 Y137.323 E0.02878
G1 X107.597 Y138.147 E0.02878
G1 X107.915 Y139.008 E0.02878
G1 X108.145 Y139.896 E0.02878
G1 X108.284 Y140.804 E0.02878
G1 X108.331 Y141.720 E0.02878
G1 X108.284 Y142.637 E0.02878
G1 X108.145 Y143.545 E0.02878
G1 X107.915 Y144.433 E0.02878
G1 X107.597 Y145.294 E0.02878
G1 X107.192 Y146.118 E0.02878
G1 X106.707 Y146.897 E0.02878
G1 X106.145 Y147.623 E0.02878
G1 X105.512 Y148.288 E0.02878
G1 X104.816 Y148.886 E0.02878
G1 X104.062 Y149.411 E0.02878
G1 X103.260 Y149.856 E0.02878
G1 X102.416 Y150.218 E0.02878
G1 X101.540 Y150.493 E0.02878
G1 X100.641 Y150.678 E0.02878
G1 X99.728 Y150.771 E0.02878
G1 X98.810 Y150.771 E0.02878
G1 X97.897 Y150.678 E0.02878
G1 X96.998 Y150.493 E0.02878
G1 X96.122 Y150.218 E0.02878
G1 X95.278 Y149.856 E0.02878
G1 X94.476 Y149.411 E0.02878
G1 X93.722 Y148.886 E0.02878
G1 X93.026 Y148.288 E0.02878
G1 X92.393 Y147.623 E0.02878
G1 X91.831 Y146.897 E0.02878
G1 X91.346 Y146.118 E0.02878
G1 X90.942 Y145.294 E0.02878
G1 X90.623 Y144.433 E0.02878
G1 X90.393 Y143.545 E0.02878
G1 X90.254 Y142.637 E0.02878
G1 X90.207 Y141.720 E0.02878
G1 X90.254 Y140.804 E0.02878
G1 X90.393 Y139.896 E0.02878
G1 X90.623 Y139.008 E0.02878
G1 X90.942 Y138.147 E0.02878
G1 X91.346 Y137.323 E0.02878
G1 X91.831 Y136.544 E0.02878
G1 X92.393 Y135.818 E0.02878
G1 X93.026 Y135.152 E0.02878
G1 X93.722 Y134.554 E0.02878
G1 X94.476 Y134.030 E0.02878
G1 X95.278 Y133.585 E0.02878
G1 X96.122 Y133.223 E0.02878
G1 X96.998 Y132.948 E0.02878
G1 X97.897 Y132.763 E0.02878
G1 X98.810 Y132.670 E0.02878
G1 X99.668 Y132.670 E0.02690
G1 X99.668 Y132.293 F10800.000
G1 F1200.000
G1 X100.698 Y132.390 E0.03245
G1 X101.635 Y132.582 E0.02998
G1 X102.547 Y132.868 E0.02998
G1 X103.426 Y133.246 E0.02998
G1 X104.262 Y133.710 E0.02998
G1 X105.047 Y134.256 E0.02998
G1 X105.773 Y134.879 E0.02998
G1 X106.431 Y135.572 E0.02998
G1 X107.017 Y136.328 E0.02998
G1 X107.522 Y137.139 E0.02998
G1 X107.944 Y137.998 E0.02998
G1 X108.276 Y138.895 E0.02998
G1 X108.515 Y139.820 E0.02998
G1 X108.660 Y140.765 E0.02998
G1 X108.709 Y141.720 E0.02998
G1 X108.660 Y142.675 E0.02998
G1 X108.515 Y143.621 E0.02998
G1 X108.276 Y144.546 E0.02998
G1 X107.944 Y145.443 E0.02998
G1 X107.522 Y146.301 E0.02998
G1 X107.017 Y147.113 E0.02998
G1 X106.431 Y147.869 E0.02998
G1 X105.773 Y148.562 E0.02998
G1 X105.047 Y149.185 E0.02998
G1 X104.262 Y149.731 E0.02998
G1 X103.426 Y150.195 E0.02998
G1 X102.547 Y150.572 E0.02998
G1 X101.635 Y150.859 E0.02998
G1 X100.698 Y151.051 E0.02998
G1 X99.747 Y151.148 E0.02998
G1 X98.791 Y151.148 E0.02998
G1 X97.840 Y151.051 E0.02998
G1 X96.903 Y150.859 E0.02998
G1 X95.991 Y150.572 E0.02998
G1 X95.112 Y150.195 E0.02998
G1 X94.276 Y149.731 E0.02998
G1 X93.491 Y149.185 E0.02998
G1 X92.766 Y148.562 E0.02998
G1 X92.107 Y147.869 E0.02998
G1 X91.521 Y147.113 E0.02998
G1 X91.016 Y146.301 E0.02998
G1 X90.595 Y145.443 E0.02998
G1 X90.262 Y144.546 E0.02998
G1 X90.023 Y143.621 E0.02998
G1 X89.878 Y142.675 E0.02998
G1 X89.830 Y141.720 E0.02998
G1 X89.878 Y140.765 E0.02998
G1 X90.023 Y139.820 E0.02998
G1 X90.262 Y138.895 E0.02998
G1 X90.595 Y137.998 E0.02998
G1 X91.016 Y137.139 E0.02998
G1 X91.521 Y136.328 E0.02998
G1 X92.107 Y135.572 E0.02998
G1 X92.766 Y134.879 E0.02998
G1 X93.491 Y134.256 E0.02998
G1 X94.276 Y133.710 E0.02998
G1 X95.112 Y133.246 E0.02998
G1 X95.991 Y132.868 E0.02998
G1 X96.903 Y132.582 E0.02998
G1 X97.840 Y132.390 E0.02998
G1 X98.791 Y132.293 E0.02998
G1 X99.608 Y132.293 E0.02562
G1 X99.852 Y132.648 F10800.000
G1 F8640.000
G1 X100.698 Y132.390 E-0.25277
G1 X101.635 Y132.582 E-0.22079
G1 X102.547 Y132.868 E-0.22079
G1 X102.809 Y132.981 E-0.06565
G1 E-0.04000 F2100.00000
G1 Z0.800 F10800.000
G1 X91.844 Y146.703
G1 Z0.200
G1 E0.80000 F2100.00000
G1 F1200.000
G1 X93.241 Y148.100 E0.06265
G1 X93.896 Y148.662 E0.02738
G1 X94.625 Y149.170 E0.02821
G1 X95.131 Y149.451 E0.01834
G1 X91.529 Y145.849 E0.16159
G1 X91.202 Y145.182 E0.02354
G1 X91.084 Y144.865 E0.01074
G1 X96.136 Y149.917 E0.22662
G1 X96.936 Y150.177 E0.02670
G1 X90.818 Y144.059 E0.27446
G1 X90.649 Y143.351 E0.02310
G1 X97.633 Y150.335 E0.31330
G1 X97.940 Y150.398 E0.00992
G1 X98.269 Y150.431 E0.01051
G1 X90.551 Y142.714 E0.34621
G1 X90.511 Y142.134 E0.01843
G1 X98.865 Y150.488 E0.37474
G1 X99.405 Y150.488 E0.01711
G1 X90.497 Y141.581 E0.39957
G1 X90.523 Y141.067 E0.01631
G1 X99.923 Y150.467 E0.42165
G1 X100.413 Y150.417 E0.01561
G1 X90.574 Y140.578 E0.44133
G1 X90.646 Y140.111 E0.01501
G1 X100.876 Y150.341 E0.45891
G1 X101.324 Y150.249 E0.01449
G1 X90.744 Y139.669 E0.47460
G1 X90.855 Y139.240 E0.01404
G1 X101.746 Y150.132 E0.48859
G1 X102.157 Y150.003 E0.01365
G1 X90.988 Y138.835 E0.50101
G1 X91.134 Y138.441 E0.01332
G1 X102.547 Y149.854 E0.51198
G1 X102.925 Y149.692 E0.01303
G1 X91.297 Y138.064 E0.52161
G1 X91.475 Y137.702 E0.01279
G1 X103.289 Y149.517 E0.52997
G1 X103.636 Y149.324 E0.01259
G1 X91.662 Y137.350 E0.53713
G1 X91.869 Y137.018 E0.01242
G1 X103.977 Y149.126 E0.54314
G1 X104.295 Y148.904 E0.01229
G1 X92.078 Y136.687 E0.54804
G1 X92.313 Y136.383 E0.01220
G1 X104.613 Y148.683 E0.55175
G1 X104.906 Y148.436 E0.01214
G1 X92.549 Y136.079 E0.55433
G1 X92.805 Y135.795 E0.01212
G1 X105.196 Y148.187 E0.55587
G1 X105.471 Y147.922 E0.01210
G1 X93.067 Y135.519 E0.55638
G1 X93.342 Y135.254 E0.01210
G1 X105.733 Y147.645 E0.55587
G1 X105.989 Y147.362 E0.01212
G1 X93.632 Y135.004 E0.55433
G1 X93.925 Y134.758 E0.01214
G1 X106.225 Y147.058 E0.55175
G1 X106.460 Y146.754 E0.01220
G1 X94.243 Y134.536 E0.54804
G1 X94.561 Y134.315 E0.01229
G1 X106.669 Y146.423 E0.54314
G1 X106.876 Y146.091 E0.01242
G1 X94.902 Y134.117 E0.53713
G1 X95.249 Y133.924 E0.01259
G1 X107.064 Y145.738 E0.52997
G1 X107.241 Y145.377 E0.01279
G1 X95.613 Y133.749 E0.52161
G1 X95.991 Y133.587 E0.01303
G1 X107.404 Y145.000 E0.51198
G1 X107.550 Y144.606 E0.01332
G1 X96.381 Y133.438 E0.50101
M73 P6 R17
G1 X96.792 Y133.309 E0.01365
G1 X107.683 Y144.201 E0.48859
G1 X107.794 Y143.772 E0.01404
G1 X97.214 Y133.192 E0.47461
G1 X97.662 Y133.100 E0.01449
G1 X107.892 Y143.330 E0.45892
G1 X107.964 Y142.862 E0.01501
G1 X98.125 Y133.024 E0.44134
G1 X98.615 Y132.974 E0.01561
G1 X108.015 Y142.374 E0.42165
G1 X108.041 Y141.860 E0.01631
G1 X99.133 Y132.953 E0.39957
G1 X99.673 Y132.953 E0.01711
G1 X108.027 Y141.307 E0.37475
G1 X107.987 Y140.727 E0.01843
G1 X100.269 Y133.009 E0.34622
G1 X100.598 Y133.043 E0.01051
G1 X100.905 Y133.106 E0.00992
G1 X107.889 Y140.090 E0.31331
G1 X107.720 Y139.382 E0.02310
G1 X101.602 Y133.263 E0.27446
G1 X102.402 Y133.524 E0.02670
G1 X107.454 Y138.576 E0.22663
G1 X107.336 Y138.258 E0.01075
G1 X107.010 Y137.592 E0.02353
G1 X103.407 Y133.990 E0.16161
G1 X103.913 Y134.270 E0.01835
G1 X104.643 Y134.778 E0.02821
G1 X105.297 Y135.340 E0.02734
G1 X106.694 Y136.738 E0.06270
G1 F8640.000
G1 X105.297 Y135.340 E-0.45641
G1 X104.643 Y134.778 E-0.19905
G1 X104.271 Y134.520 E-0.10454
G1 E-0.04000 F2100.00000
G1 Z0.800 F10800.000
G1 X102.416 Y124.586
G1 Z0.200
G1 E0.80000 F2100.00000
G1 F1200.000
G1 X101.540 Y124.861 E0.02878
G1 X100.641 Y125.046 E0.02878
G1 X99.728 Y125.139 E0.02878
G1 X98.810 Y125.139 E0.02878
G1 X97.897 Y125.046 E0.02878
G1 X96.998 Y124.861 E0.02878
G1 X96.122 Y124.586 E0.02878
G1 X95.278 Y124.224 E0.02878
G1 X94.476 Y123.779 E0.02878
G1 X93.722 Y123.254 E0.02878
G1 X93.026 Y122.657 E0.02878
G1 X92.393 Y121.991 E0.02878
G1 X91.831 Y121.265 E0.02878
G1 X91.346 Y120.486 E0.02878
G1 X90.942 Y119.662 E0.02878
G1 X90.623 Y118.801 E0.02878
G1 X90.393 Y117.913 E0.02878
G1 X90.254 Y117.005 E0.02878
G1 X90.207 Y116.089 E0.02878
G1 X90.254 Y115.172 E0.02878
G1 X90.393 Y114.264 E0.02878
G1 X90.623 Y113.376 E0.02878
G1 X90.942 Y112.515 E0.02878
G1 X91.346 Y111.691 E0.02878
G1 X91.831 Y110.912 E0.02878
G1 X92.393 Y110.186 E0.02878
G1 X93.026 Y109.521 E0.02878
G1 X93.722 Y108.923 E0.02878
G1 X94.476 Y108.398 E0.02878
G1 X95.278 Y107.953 E0.02878
G1 X96.122 Y107.591 E0.02878
G1 X96.998 Y107.316 E0.02878
G1 X97.897 Y107.131 E0.02878
G1 X98.810 Y107.038 E0.02878
G1 X99.728 Y107.038 E0.02878
G1 X100.641 Y107.131 E0.02878
G1 X101.540 Y107.316 E0.02878
G1 X102.416 Y107.591 E0.02878
G1 X103.260 Y107.953 E0.02878
G1 X104.062 Y108.398 E0.02878
G1 X104.816 Y108.923 E0.02878
G1 X105.512 Y109.521 E0.02878
G1 X106.145 Y110.186 E0.02878
G1 X106.707 Y110.912 E0.02878
G1 X107.192 Y111.691 E0.02878
G1 X107.597 Y112.515 E0.02878
G1 X107.915 Y113.376 E0.02878
G1 X108.145 Y114.264 E0.02878
G1 X108.284 Y115.172 E0.02878
G1 X108.331 Y116.089 E0.02878
G1 X108.284 Y117.005 E0.02878
G1 X108.145 Y117.913 E0.02878
G1 X107.915 Y118.801 E0.02878
G1 X107.597 Y119.662 E0.02878
G1 X107.192 Y120.486 E0.02878
G1 X106.707 Y121.265 E0.02878
G1 X106.145 Y121.991 E0.02878
G1 X105.512 Y122.657 E0.02878
G1 X104.816 Y123.254 E0.02878
G1 X104.062 Y123.779 E0.02878
G1 X103.260 Y124.224 E0.02878
G1 X102.471 Y124.563 E0.02690
G1 X102.620 Y124.909 F10800.000
G1 F1200.000
G1 X101.635 Y125.227 E0.03245
G1 X100.698 Y125.419 E0.02998
G1 X99.747 Y125.516 E0.02998
G1 X98.791 Y125.516 E0.02998
G1 X97.840 Y125.419 E0.02998
G1 X96.903 Y125.227 E0.02998
G1 X95.991 Y124.940 E0.02998
G1 X95.112 Y124.563 E0.02998
G1 X94.276 Y124.099 E0.02998
G1 X93.491 Y123.553 E0.02998
G1 X92.766 Y122.930 E0.02998
G1 X92.107 Y122.237 E0.02998
G1 X91.521 Y121.481 E0.02998
G1 X91.016 Y120.670 E0.02998
G1 X90.595 Y119.811 E0.02998
G1 X90.262 Y118.914 E0.02998
G1 X90.023 Y117.989 E0.02998
G1 X89.878 Y117.044 E0.02998
G1 X89.830 Y116.089 E0.02998
G1 X89.878 Y115.134 E0.02998
G1 X90.023 Y114.188 E0.02998
G1 X90.262 Y113.263 E0.02998
G1 X90.595 Y112.366 E0.02998
G1 X91.016 Y111.508 E0.02998
G1 X91.521 Y110.696 E0.02998
G1 X92.107 Y109.940 E0.02998
G1 X92.766 Y109.247 E0.02998
G1 X93.491 Y108.624 E0.02998
G1 X94.276 Y108.078 E0.02998
G1 X95.112 Y107.614 E0.02998
G1 X95.991 Y107.237 E0.02998
G1 X96.903 Y106.950 E0.02998
G1 X97.840 Y106.758 E0.02998
G1 X98.791 Y106.661 E0.02998
G1 X99.747 Y106.661 E0.02998
G1 X100.698 Y106.758 E0.02998
G1 X101.635 Y106.950 E0.02998
G1 X102.547 Y107.237 E0.02998
G1 X103.426 Y107.614 E0.02998
G1 X104.262 Y108.078 E0.02998
G1 X105.047 Y108.624 E0.02998
G1 X105.773 Y109.247 E0.02998
G1 X106.431 Y109.940 E0.02998
G1 X107.017 Y110.696 E0.02998
G1 X107.522 Y111.508 E0.02998
G1 X107.944 Y112.366 E0.02998
G1 X108.276 Y113.263 E0.02998
G1 X108.515 Y114.188 E0.02998
G1 X108.660 Y115.134 E0.02998
G1 X108.709 Y116.089 E0.02998
G1 X108.660 Y117.044 E0.02998
G1 X108.515 Y117.989 E0.02998
G1 X108.276 Y118.914 E0.02998
G1 X107.944 Y119.811 E0.02998
G1 X107.522 Y120.670 E0.02998
G1 X107.017 Y121.481 E0.02998
G1 X106.431 Y122.237 E0.02998
G1 X105.773 Y122.930 E0.02998
G1 X105.047 Y123.553 E0.02998
G1 X104.262 Y124.099 E0.02998
G1 X103.426 Y124.563 E0.02998
G1 X102.675 Y124.886 E0.02562
G1 X102.311 Y124.656 F10800.000
G1 F8640.000
G1 X101.635 Y125.227 E-0.25277
G1 X100.698 Y125.419 E-0.22079
G1 X99.747 Y125.516 E-0.22079
G1 X99.463 Y125.516 E-0.06565
G1 E-0.04000 F2100.00000
G1 Z0.800 F10800.000
G1 X106.694 Y111.106
G1 Z0.200
G1 E0.80000 F2100.00000
G1 F1200.000
G1 X105.297 Y109.708 E0.06270
G1 X104.643 Y109.147 E0.02734
G1 X103.913 Y108.639 E0.02821
G1 X103.407 Y108.358 E0.01835
G1 X107.010 Y111.960 E0.16161
G1 X107.336 Y112.627 E0.02353
G1 X107.454 Y112.944 E0.01075
G1 X102.402 Y107.892 E0.22663
G1 X101.602 Y107.632 E0.02670
G1 X107.720 Y113.750 E0.27446
G1 X107.889 Y114.458 E0.02310
G1 X100.905 Y107.474 E0.31331
G1 X100.598 Y107.411 E0.00992
G1 X100.269 Y107.377 E0.01051
G1 X107.987 Y115.095 E0.34622
G1 X108.027 Y115.675 E0.01843
G1 X99.673 Y107.321 E0.37475
G1 X99.133 Y107.321 E0.01711
G1 X108.041 Y116.228 E0.39957
G1 X108.015 Y116.742 E0.01631
G1 X98.615 Y107.342 E0.42165
G1 X98.125 Y107.392 E0.01561
G1 X107.964 Y117.231 E0.44134
G1 X107.892 Y117.698 E0.01501
G1 X97.662 Y107.468 E0.45892
G1 X97.214 Y107.560 E0.01449
G1 X107.794 Y118.140 E0.47461
G1 X107.683 Y118.569 E0.01404
G1 X96.792 Y107.677 E0.48859
G1 X96.381 Y107.806 E0.01365
G1 X107.550 Y118.974 E0.50101
G1 X107.404 Y119.368 E0.01332
G1 X95.991 Y107.955 E0.51198
G1 X95.613 Y108.117 E0.01303
G1 X107.241 Y119.745 E0.52161
