; generated by PrusaSlicer 2.2.0+win64 on 2020-11-09 at 19:16:07 UTC

; 

; external perimeters extrusion width = 0.60mm
; perimeters extrusion width = 0.43mm
; infill extrusion width = 0.45mm
; solid infill extrusion width = 0.70mm
; top infill extrusion width = 0.43mm
; first layer extrusion width = 0.42mm

M73 P0 R42
M201 X9000 Y9000 Z500 E10000 ; sets maximum accelerations, mm/sec^2
M203 X500 Y500 Z12 E120 ; sets maximum feedrates, mm/sec
M204 P2000 R1500 T2000 ; sets acceleration (P, T) and retract acceleration (R), mm/sec^2
M205 X10.00 Y10.00 Z0.20 E4.50 ; sets the jerk limits, mm/sec
M205 S0 T0 ; sets the minimum extruding and travel feed rate, mm/sec
M107
M862.3 P "MK2.5SMMU2S" ; printer model check
M862.1 P0.4 ; nozzle diameter check
M115 U3.9.1 ; tell printer latest fw version
G90 ; use absolute coordinates
M83 ; extruder relative mode
M104 S215 ; set extruder temp
M140 S60 ; set bed temp
Tx
M190 S60 ; wait for bed temp
M109 S215 ; wait for extruder temp
G28 W ; home all without mesh bed level
G80 ; mesh bed leveling

;go outside print area
G1 Y-3.0 F1000.0
G1 Z0.4 F1000.0
; select extruder
Tc
; purge line
G1 X55.0 F2000.0
G1 Z0.3 F1000.0
G92 E0.0
G1 X240.0 E25.0 F2200.0
M73 P0 R42
G1 Y-2.0 F1000.0
G1 X55.0 E25 F1400.0
G1 Z0.20 F1000.0
G1 X5.0 E4.0 F1000.0
G92 E0.0
G21 ; set units to millimeters
G90 ; use absolute coordinates
M83 ; use relative distances for extrusion
M900 K0.06 ; Filament gcode LA 1.5
M900 K30 ; Filament gcode LA 1.0
;BEFORE_LAYER_CHANGE
G92 E0.0
;0.2


G1 E-0.80000 F2100.00000
G1 Z0.600 F10800.000
;AFTER_LAYER_CHANGE
;0.2
G1 X96.303 Y66.685
G1 Z0.200
G1 E0.80000 F2100.00000
M204 S1000
G1 F1200.000
G1 X97.227 Y65.519 E0.04663
G1 X98.259 Y64.462 E0.04631
G1 X99.458 Y63.470 E0.04879
G1 X100.592 Y62.709 E0.04283
G1 X101.469 Y62.233 E0.03130
G1 X103.296 Y61.441 E0.06243
G1 X104.830 Y61.004 E0.04998
G1 X106.174 Y60.762 E0.04283
G1 X107.608 Y60.650 E0.04510
G1 X167.632 Y60.648 E1.88201
G1 X169.050 Y60.687 E0.04448
G1 X170.510 Y60.876 E0.04617
G1 X171.948 Y61.214 E0.04629
G1 X173.253 Y61.665 E0.04331
G1 X174.677 Y62.321 E0.04915
G1 X175.860 Y63.027 E0.04319
G1 X177.235 Y64.058 E0.05392
G1 X178.238 Y64.991 E0.04295
G1 X179.215 Y66.104 E0.04641
G1 X180.068 Y67.304 E0.04617
G1 X180.797 Y68.592 E0.04641
G1 X181.390 Y69.949 E0.04641
G1 X181.838 Y71.351 E0.04617
G1 X182.142 Y72.800 E0.04641
G1 X182.287 Y74.174 E0.04331
G1 X182.289 Y135.807 E1.93246
G1 X182.140 Y137.214 E0.04438
G1 X181.807 Y138.758 E0.04951
G1 X181.344 Y140.169 E0.04656
G1 X180.797 Y141.411 E0.04256
G1 X180.129 Y142.598 E0.04271
G1 X179.218 Y143.897 E0.04975
G1 X178.242 Y145.009 E0.04641
G1 X177.150 Y146.021 E0.04665
G1 X175.992 Y146.892 E0.04546
G1 X174.594 Y147.724 E0.05102
G1 X173.354 Y148.301 E0.04287
G1 X172.043 Y148.760 E0.04355
G1 X170.489 Y149.132 E0.05010
G1 X168.657 Y149.337 E0.05778
G1 X107.901 Y149.358 E1.90496
G1 X106.062 Y149.225 E0.05782
G1 X104.708 Y148.975 E0.04319
G1 X103.294 Y148.563 E0.04617
G1 X101.929 Y148.008 E0.04617
G1 X100.709 Y147.362 E0.04331
G1 X74.695 Y132.274 E0.94291
G1 X73.446 Y131.435 E0.04717
G1 X72.309 Y130.487 E0.04641
G1 X71.274 Y129.424 E0.04653
G1 X70.342 Y128.245 E0.04713
G1 X69.507 Y126.914 E0.04927
G1 X68.901 Y125.694 E0.04271
G1 X68.418 Y124.420 E0.04271
G1 X68.004 Y122.888 E0.04975
G1 X67.774 Y121.411 E0.04689
G1 X67.700 Y119.822 E0.04987
G1 X67.774 Y118.458 E0.04283
G1 X67.980 Y117.112 E0.04271
G1 X68.376 Y115.571 E0.04986
G1 X68.911 Y114.155 E0.04748
G1 X69.572 Y112.838 E0.04617
G1 X95.538 Y67.882 E1.62781
G1 X96.271 Y66.735 E0.04267
G1 F8640.000
G1 X97.227 Y65.519 E-0.35720
G1 X98.259 Y64.462 E-0.34103
G1 X98.465 Y64.292 E-0.06176
G1 E-0.04000 F2100.00000
G1 Z0.800 F10800.000
G1 X99.583 Y68.293
G1 Z0.200
G1 E0.80000 F2100.00000
G1 F1200.000
G1 X100.388 Y67.392 E0.03789
G1 X101.290 Y66.586 E0.03793
G1 X102.277 Y65.886 E0.03793
G1 X103.337 Y65.300 E0.03796
G1 X104.454 Y64.838 E0.03791
G1 X105.616 Y64.503 E0.03793
G1 X106.809 Y64.300 E0.03793
G1 X107.993 Y64.234 E0.03718
G1 X109.224 Y64.300 E0.03866
G1 X110.417 Y64.503 E0.03795
G1 X111.580 Y64.838 E0.03793
G1 X112.698 Y65.301 E0.03793
G1 X113.756 Y65.886 E0.03793
G1 X114.743 Y66.586 E0.03793
G1 X115.645 Y67.392 E0.03793
G1 X116.451 Y68.294 E0.03793
G1 X117.151 Y69.281 E0.03793
G1 X117.737 Y70.340 E0.03793
G1 X118.190 Y71.435 E0.03718
G1 X118.534 Y72.619 E0.03866
G1 X118.737 Y73.813 E0.03795
G1 X118.805 Y75.021 E0.03793
G1 X118.737 Y76.229 E0.03793
G1 X118.535 Y77.421 E0.03793
G1 X118.200 Y78.584 E0.03793
G1 X117.737 Y79.702 E0.03793
G1 X117.151 Y80.760 E0.03793
G1 X116.451 Y81.747 E0.03793
G1 X115.645 Y82.650 E0.03796
G1 X114.708 Y83.481 E0.03925
G1 X113.753 Y84.157 E0.03668
G1 X112.698 Y84.741 E0.03783
G1 X111.580 Y85.204 E0.03793
G1 X110.417 Y85.539 E0.03793
G1 X109.225 Y85.741 E0.03793
G1 X108.017 Y85.809 E0.03794
G1 X106.805 Y85.741 E0.03806
G1 X105.616 Y85.539 E0.03780
G1 X104.454 Y85.204 E0.03793
G1 X103.336 Y84.741 E0.03793
G1 X102.277 Y84.155 E0.03793
G1 X101.310 Y83.469 E0.03718
G1 X100.389 Y82.650 E0.03866
G1 X99.582 Y81.747 E0.03795
G1 X98.882 Y80.760 E0.03793
G1 X98.297 Y79.702 E0.03793
G1 X97.834 Y78.584 E0.03793
G1 X97.499 Y77.421 E0.03793
G1 X97.296 Y76.229 E0.03793
G1 X97.228 Y75.021 E0.03793
G1 X97.296 Y73.813 E0.03793
G1 X97.499 Y72.620 E0.03793
G1 X97.834 Y71.458 E0.03793
G1 X98.297 Y70.340 E0.03793
G1 X98.880 Y69.285 E0.03780
G1 X99.548 Y68.342 E0.03623
G1 X99.856 Y68.560 F10800.000
G1 F1200.000
G1 X100.655 Y67.659 E0.03777
G1 X101.526 Y66.881 E0.03660
G1 X102.478 Y66.206 E0.03661
G1 X103.500 Y65.641 E0.03663
G1 X104.578 Y65.194 E0.03658
G1 X105.700 Y64.871 E0.03660
G1 X106.851 Y64.676 E0.03660
G1 X107.993 Y64.611 E0.03587
G1 X109.182 Y64.676 E0.03733
G1 X110.333 Y64.871 E0.03661
G1 X111.455 Y65.194 E0.03660
G1 X112.534 Y65.641 E0.03660
G1 X113.556 Y66.206 E0.03660
G1 X114.508 Y66.881 E0.03660
G1 X115.378 Y67.659 E0.03660
G1 X116.156 Y68.530 E0.03660
G1 X116.832 Y69.482 E0.03660
G1 X117.396 Y70.504 E0.03661
G1 X117.834 Y71.561 E0.03587
G1 X118.166 Y72.704 E0.03733
G1 X118.362 Y73.855 E0.03661
G1 X118.427 Y75.021 E0.03661
G1 X118.362 Y76.186 E0.03660
G1 X118.166 Y77.337 E0.03660
G1 X117.843 Y78.459 E0.03660
G1 X117.396 Y79.538 E0.03660
G1 X116.832 Y80.560 E0.03661
G1 X116.156 Y81.512 E0.03660
G1 X115.378 Y82.382 E0.03662
G1 X114.474 Y83.185 E0.03792
G1 X113.553 Y83.837 E0.03537
G1 X112.534 Y84.400 E0.03650
G1 X111.455 Y84.847 E0.03660
G1 X110.333 Y85.170 E0.03660
G1 X109.182 Y85.366 E0.03660
G1 X108.017 Y85.431 E0.03661
G1 X106.847 Y85.365 E0.03673
G1 X105.700 Y85.170 E0.03648
G1 X104.578 Y84.847 E0.03660
G1 X103.500 Y84.400 E0.03660
G1 X102.478 Y83.836 E0.03660
G1 X101.545 Y83.174 E0.03587
G1 X100.655 Y82.382 E0.03733
G1 X99.877 Y81.512 E0.03661
G1 X99.202 Y80.560 E0.03660
G1 X98.637 Y79.538 E0.03661
G1 X98.190 Y78.459 E0.03660
G1 X97.867 Y77.337 E0.03660
G1 X97.672 Y76.186 E0.03660
G1 X97.606 Y75.021 E0.03660
G1 X97.672 Y73.855 E0.03661
G1 X97.867 Y72.704 E0.03660
G1 X98.190 Y71.582 E0.03660
G1 X98.637 Y70.504 E0.03660
G1 X99.200 Y69.486 E0.03647
G1 X99.821 Y68.609 E0.03368
G1 X99.709 Y68.188 F10800.000
G1 X98.880 Y68.523
G1 F1200.000
G1 X99.595 Y67.619 E0.03614
G1 X100.401 Y66.793 E0.03620
G1 X101.287 Y66.053 E0.03619
G1 X102.248 Y65.406 E0.03632
G1 X103.263 Y64.867 E0.03603
G1 X104.333 Y64.431 E0.03623
G1 X105.441 Y64.109 E0.03619
G1 X106.577 Y63.902 E0.03619
G1 X107.728 Y63.813 E0.03619
G1 X108.882 Y63.842 E0.03619
G1 X110.027 Y63.991 E0.03619
G1 X111.150 Y64.256 E0.03619
G1 X112.241 Y64.635 E0.03619
G1 X113.286 Y65.124 E0.03619
G1 X114.276 Y65.718 E0.03619
G1 X115.199 Y66.411 E0.03619
G1 X116.046 Y67.195 E0.03619
G1 X116.808 Y68.063 E0.03619
G1 X117.477 Y69.003 E0.03619
G1 X118.046 Y70.008 E0.03619
G1 X118.508 Y71.066 E0.03619
G1 X118.859 Y72.165 E0.03619
G1 X119.095 Y73.295 E0.03619
G1 X119.214 Y74.444 E0.03619
G1 X119.214 Y75.598 E0.03619
G1 X119.095 Y76.746 E0.03619
G1 X118.859 Y77.876 E0.03619
G1 X118.508 Y78.976 E0.03619
G1 X118.046 Y80.033 E0.03619
G1 X117.477 Y81.038 E0.03619
G1 X116.808 Y81.979 E0.03619
G1 X116.046 Y82.846 E0.03619
G1 X115.199 Y83.630 E0.03619
G1 X114.275 Y84.323 E0.03621
G1 X113.286 Y84.917 E0.03618
G1 X112.241 Y85.407 E0.03619
G1 X111.150 Y85.786 E0.03619
G1 X110.027 Y86.051 E0.03619
G1 X108.880 Y86.199 E0.03626
G1 X107.731 Y86.229 E0.03603
G1 X106.577 Y86.140 E0.03629
G1 X105.441 Y85.933 E0.03619
G1 X104.333 Y85.610 E0.03619
G1 X103.264 Y85.175 E0.03619
G1 X102.245 Y84.633 E0.03619
G1 X101.287 Y83.988 E0.03619
G1 X100.401 Y83.249 E0.03619
G1 X99.595 Y82.422 E0.03619
G1 X98.879 Y81.517 E0.03619
G1 X98.259 Y80.543 E0.03619
G1 X97.743 Y79.511 E0.03619
G1 X97.336 Y78.430 E0.03619
G1 X97.042 Y77.314 E0.03619
G1 X96.864 Y76.174 E0.03619
G1 X96.805 Y75.021 E0.03619
G1 X96.864 Y73.868 E0.03619
G1 X97.042 Y72.727 E0.03619
G1 X97.336 Y71.611 E0.03619
G1 X97.743 Y70.531 E0.03619
G1 X98.259 Y69.498 E0.03619
G1 X98.847 Y68.573 E0.03437
G1 X98.529 Y68.371 F10800.000
G1 F1200.000
G1 X99.311 Y67.370 E0.03983
G1 X100.144 Y66.515 E0.03741
G1 X101.061 Y65.751 E0.03741
G1 X102.054 Y65.083 E0.03754
G1 X103.103 Y64.525 E0.03725
G1 X104.209 Y64.075 E0.03744
G1 X105.355 Y63.741 E0.03741
G1 X106.529 Y63.527 E0.03741
G1 X107.718 Y63.435 E0.03741
G1 X108.911 Y63.466 E0.03741
G1 X110.094 Y63.619 E0.03741
G1 X111.256 Y63.893 E0.03741
G1 X112.383 Y64.285 E0.03741
G1 X113.463 Y64.791 E0.03741
G1 X114.486 Y65.405 E0.03741
G1 X115.441 Y66.121 E0.03741
G1 X116.317 Y66.932 E0.03741
G1 X117.104 Y67.828 E0.03741
G1 X117.796 Y68.801 E0.03741
G1 X118.383 Y69.839 E0.03741
G1 X118.861 Y70.933 E0.03741
G1 X119.224 Y72.069 E0.03741
G1 X119.468 Y73.237 E0.03741
G1 X119.591 Y74.424 E0.03741
G1 X119.591 Y75.617 E0.03741
G1 X119.468 Y76.804 E0.03741
G1 X119.224 Y77.972 E0.03741
G1 X118.861 Y79.109 E0.03741
G1 X118.383 Y80.202 E0.03741
G1 X117.796 Y81.241 E0.03741
G1 X117.104 Y82.213 E0.03741
G1 X116.317 Y83.110 E0.03741
G1 X115.441 Y83.920 E0.03741
G1 X114.486 Y84.637 E0.03743
G1 X113.463 Y85.250 E0.03740
G1 X112.383 Y85.756 E0.03741
G1 X111.256 Y86.148 E0.03741
G1 X110.094 Y86.422 E0.03741
G1 X108.909 Y86.576 E0.03748
G1 X107.721 Y86.607 E0.03725
G1 X106.529 Y86.514 E0.03751
G1 X105.355 Y86.300 E0.03741
G1 X104.209 Y85.967 E0.03741
G1 X103.104 Y85.517 E0.03741
G1 X102.051 Y84.957 E0.03741
G1 X101.061 Y84.290 E0.03741
G1 X100.144 Y83.526 E0.03741
G1 X99.312 Y82.672 E0.03741
G1 X98.571 Y81.736 E0.03741
G1 X97.931 Y80.729 E0.03741
G1 X97.397 Y79.662 E0.03741
G1 X96.976 Y78.545 E0.03741
G1 X96.672 Y77.391 E0.03741
G1 X96.489 Y76.212 E0.03741
G1 X96.427 Y75.021 E0.03741
G1 X96.489 Y73.829 E0.03741
G1 X96.672 Y72.650 E0.03741
G1 X96.976 Y71.496 E0.03741
G1 X97.397 Y70.380 E0.03741
G1 X97.931 Y69.312 E0.03741
G1 X98.497 Y68.422 E0.03310
G1 X98.928 Y68.407 F10800.000
G1 X98.900 Y68.889
G1 F1200.000
G1 X99.224 Y68.431 E0.00296
G1 X99.611 Y67.943 F10800.000
G1 F1200.000
G1 X99.973 Y67.537 E0.00284
G1 X100.416 Y67.082 F10800.000
G1 F1200.000
G1 X100.815 Y66.724 E0.00274
G1 X101.309 Y66.312 F10800.000
G1 F1200.000
G1 X101.732 Y66.011 E0.00256
G1 X102.279 Y65.642 F10800.000
G1 F1200.000
G1 X102.719 Y65.398 E0.00236
G1 X103.316 Y65.079 F10800.000
G1 F1200.000
G1 X103.608 Y64.957 E0.00137
G1 F8640.000
G1 X103.316 Y65.079 E-0.07307
G1 E-0.72693 F2100.00000
G1 Z0.800 F10800.000
G1 X106.237 Y64.181
G1 Z0.200
G1 E0.80000 F2100.00000
G1 F1200.000
G1 X106.675 Y64.107 E0.00202
G1 X107.345 Y64.056 F10800.000
G1 F1200.000
G1 X107.853 Y64.029 E0.00245
G1 X108.447 Y64.045 F10800.000
G1 F1200.000
G1 X108.496 Y64.047 E0.00021
G1 X109.037 Y64.077 E0.00277
G1 X109.663 Y64.158 F10800.000
G1 F1200.000
G1 X110.197 Y64.249 E0.00281
G1 X110.812 Y64.395 F10800.000
G1 F1200.000
G1 X111.336 Y64.546 E0.00286
G1 X111.932 Y64.753 F10800.000
G1 F1200.000
G1 X112.435 Y64.961 E0.00285
G1 X113.009 Y65.230 F10800.000
G1 F1200.000
G1 X113.480 Y65.490 E0.00277
G1 X114.030 Y65.819 F10800.000
G1 F1200.000
G1 X114.458 Y66.122 E0.00261
G1 X114.982 Y66.515 F10800.000
G1 F1200.000
G1 X115.349 Y66.842 E0.00232
G1 X115.856 Y67.309 F10800.000
G1 F1200.000
G1 X116.109 Y67.590 E0.00167
G1 F8640.000
G1 X115.856 Y67.309 E-0.08741
G1 E-0.71259 F2100.00000
G1 Z0.800 F10800.000
G1 X117.679 Y69.794
G1 Z0.200
G1 E0.80000 F2100.00000
G1 F1200.000
G1 X117.880 Y70.159 E0.00187
G1 X118.151 Y70.783 F10800.000
G1 F1200.000
G1 X118.342 Y71.245 E0.00239
G1 X118.522 Y71.812 F10800.000
G1 F1200.000
G1 X118.686 Y72.379 E0.00299
G1 X118.815 Y72.999 F10800.000
G1 F1200.000
G1 X118.905 Y73.532 E0.00279
G1 X118.970 Y74.161 F10800.000
G1 F1200.000
G1 X119.001 Y74.705 E0.00286
G1 X119.001 Y75.336 F10800.000
G1 F1200.000
G1 X118.970 Y75.880 E0.00286
G1 X118.905 Y76.510 F10800.000
G1 F1200.000
G1 X118.815 Y77.042 E0.00279
G1 X118.685 Y77.667 F10800.000
G1 F1200.000
G1 X118.539 Y78.175 E0.00265
G1 X118.342 Y78.796 F10800.000
G1 F1200.000
G1 X118.151 Y79.259 E0.00239
G1 X117.880 Y79.882 F10800.000
G1 F1200.000
G1 X117.679 Y80.248 E0.00186
G1 F8640.000
G1 X117.880 Y79.882 E-0.09634
G1 E-0.70366 F2100.00000
G1 Z0.800 F10800.000
G1 X116.109 Y82.451
G1 Z0.200
G1 E0.80000 F2100.00000
G1 F1200.000
G1 X115.856 Y82.732 E0.00166
G1 X115.416 Y83.138 F10800.000
G1 F1200.000
G1 X114.950 Y83.551 E0.00310
G1 X114.448 Y83.927 F10800.000
G1 F1200.000
G1 X114.027 Y84.224 E0.00256
G1 X113.481 Y84.551 F10800.000
G1 F1200.000
G1 X113.009 Y84.812 E0.00277
G1 X112.435 Y85.080 F10800.000
G1 F1200.000
G1 X111.932 Y85.288 E0.00285
G1 X111.336 Y85.496 F10800.000
G1 F1200.000
G1 X110.812 Y85.647 E0.00286
G1 X110.197 Y85.792 F10800.000
G1 F1200.000
G1 X109.663 Y85.883 E0.00281
G1 X109.031 Y85.965 F10800.000
G1 F1200.000
G1 X108.493 Y85.996 E0.00273
G1 X107.857 Y86.013 F10800.000
G1 F1200.000
G1 X107.334 Y85.984 E0.00254
G1 X106.675 Y85.934 F10800.000
G1 F1200.000
G1 X106.236 Y85.861 E0.00202
G1 F8640.000
G1 X106.675 Y85.934 E-0.10282
G1 E-0.69718 F2100.00000
G1 Z0.800 F10800.000
G1 X103.609 Y85.085
G1 Z0.200
G1 E0.80000 F2100.00000
G1 F1200.000
G1 X103.317 Y84.963 E0.00137
G1 X102.699 Y84.632 F10800.000
G1 F1200.000
G1 X102.279 Y84.400 E0.00224
G1 X101.732 Y84.031 F10800.000
G1 F1200.000
G1 X101.309 Y83.729 E0.00256
G1 X100.854 Y83.349 F10800.000
G1 F1200.000
G1 X100.411 Y82.954 E0.00308
G1 X99.973 Y82.505 F10800.000
G1 F1200.000
G1 X99.611 Y82.099 E0.00284
G1 X99.219 Y81.604 F10800.000
G1 F1200.000
G1 X98.904 Y81.159 E0.00287
G1 X98.565 Y80.627 F10800.000
G1 F1200.000
G1 X98.302 Y80.152 E0.00283
G1 X98.017 Y79.583 F10800.000
G1 F1200.000
G1 X97.812 Y79.090 E0.00271
G1 X97.584 Y78.486 F10800.000
G1 F1200.000
G1 X97.441 Y77.992 E0.00251
G1 X97.271 Y77.349 F10800.000
G1 F1200.000
G1 X97.192 Y76.891 E0.00214
G1 X97.081 Y76.183 F10800.000
G1 F1200.000
G1 X97.068 Y75.980 E0.00086
G1 F8640.000
G1 X97.081 Y76.183 E-0.04701
G1 E-0.75299 F2100.00000
G1 Z0.800 F10800.000
G1 X97.068 Y74.061
G1 Z0.200
G1 E0.80000 F2100.00000
G1 F1200.000
G1 X97.081 Y73.858 E0.00086
G1 X97.192 Y73.151 F10800.000
G1 F1200.000
G1 X97.271 Y72.693 E0.00214
G1 X97.441 Y72.049 F10800.000
G1 F1200.000
G1 X97.584 Y71.555 E0.00251
G1 X97.812 Y70.952 F10800.000
G1 F1200.000
G1 X98.017 Y70.458 E0.00271
G1 X98.302 Y69.890 F10800.000
G1 F1200.000
G1 X98.565 Y69.415 E0.00283
G1 F8640.000
G1 X98.302 Y69.890 E-0.12537
G1 E-0.67463 F2100.00000
G1 Z0.800 F10800.000
G1 X127.256 Y73.813
G1 Z0.200
G1 E0.80000 F2100.00000
G1 F1200.000
G1 X127.459 Y72.620 E0.03793
G1 X127.794 Y71.458 E0.03793
G1 X128.257 Y70.340 E0.03793
G1 X128.840 Y69.285 E0.03780
G1 X129.543 Y68.293 E0.03811
G1 X130.348 Y67.392 E0.03789
G1 X131.251 Y66.586 E0.03793
G1 X132.237 Y65.886 E0.03793
G1 X133.297 Y65.300 E0.03796
G1 X134.414 Y64.838 E0.03791
G1 X135.576 Y64.503 E0.03793
G1 X136.769 Y64.300 E0.03793
G1 X137.953 Y64.234 E0.03718
G1 X139.184 Y64.300 E0.03866
G1 X140.378 Y64.503 E0.03795
G1 X141.540 Y64.838 E0.03793
G1 X142.658 Y65.301 E0.03793
G1 X143.717 Y65.886 E0.03793
G1 X144.703 Y66.586 E0.03793
G1 X145.605 Y67.392 E0.03793
G1 X146.412 Y68.294 E0.03793
G1 X147.112 Y69.281 E0.03793
G1 X147.697 Y70.340 E0.03793
G1 X148.151 Y71.435 E0.03718
G1 X148.495 Y72.619 E0.03866
G1 X148.697 Y73.813 E0.03795
G1 X148.765 Y75.021 E0.03793
G1 X148.697 Y76.229 E0.03793
G1 X148.495 Y77.421 E0.03793
