; generated by PrusaSlicer 2.2.0+win64 on 2020-11-09 at 19:14:33 UTC

; 

; external perimeters extrusion width = 0.45mm
; perimeters extrusion width = 0.45mm
; infill extrusion width = 0.45mm
; solid infill extrusion width = 0.45mm
; top infill extrusion width = 0.40mm
; first layer extrusion width = 0.42mm

M73 P0 R113
M201 X9000 Y9000 Z500 E10000 ; sets maximum accelerations, mm/sec^2
M203 X500 Y500 Z12 E120 ; sets maximum feedrates, mm/sec
M204 P2000 R1500 T2000 ; sets acceleration (P, T) and retract acceleration (R), mm/sec^2
M205 X10.00 Y10.00 Z0.20 E4.50 ; sets the jerk limits, mm/sec
M205 S0 T0 ; sets the minimum extruding and travel feed rate, mm/sec
M107
M862.3 P "MK2.5SMMU2S" ; printer model check
M862.1 P0.4 ; nozzle diameter check
M115 U3.9.1 ; tell printer latest fw version
G90 ; use absolute coordinates
M83 ; extruder relative mode
M104 S215 ; set extruder temp
M140 S60 ; set bed temp
Tx
M190 S60 ; wait for bed temp
M109 S215 ; wait for extruder temp
G28 W ; home all without mesh bed level
G80 ; mesh bed leveling

;go outside print area
G1 Y-3.0 F1000.0
G1 Z0.4 F1000.0
; select extruder
Tc
; purge line
G1 X55.0 F2000.0
G1 Z0.3 F1000.0
G92 E0.0
G1 X240.0 E25.0 F2200.0
M73 P0 R113
G1 Y-2.0 F1000.0
G1 X55.0 E25 F1400.0
G1 Z0.20 F1000.0
G1 X5.0 E4.0 F1000.0
G92 E0.0
G21 ; set units to millimeters
G90 ; use absolute coordinates
M83 ; use relative distances for extrusion
M900 K0.06 ; Filament gcode LA 1.5
M900 K30 ; Filament gcode LA 1.0
;BEFORE_LAYER_CHANGE
G92 E0.0
;0.2


G1 E-0.80000 F2100.00000
G1 Z0.600 F10800.000
;AFTER_LAYER_CHANGE
;0.2
G1 X71.699 Y86.590
G1 Z0.200
G1 E0.80000 F2100.00000
M204 S1000
G1 F1200.000
G1 X72.256 Y86.027 E0.02484
G1 X113.295 Y56.691 E1.58172
G1 X113.834 Y56.435 E0.01870
G1 X114.423 Y56.321 E0.01882
G1 X119.036 Y56.316 E0.14461
G1 X119.955 Y56.503 E0.02942
G1 X132.816 Y62.135 E0.44023
G1 X179.042 Y94.190 E1.76376
G1 X179.537 Y94.656 E0.02130
G1 X179.879 Y95.243 E0.02130
G1 X180.033 Y95.835 E0.01917
G1 X180.517 Y100.235 E0.13878
G1 X180.051 Y118.076 E0.55960
G1 X179.906 Y118.820 E0.02378
G1 X159.584 Y152.558 E1.23491
G1 X159.096 Y153.124 E0.02343
G1 X158.456 Y153.510 E0.02343
G1 X157.652 Y153.682 E0.02579
G1 X153.750 Y153.682 E0.12233
G1 X88.102 Y150.949 E2.06012
G1 X87.388 Y150.806 E0.02284
G1 X86.627 Y150.352 E0.02778
G1 X86.088 Y149.654 E0.02767
G1 X72.766 Y122.159 E0.95792
G1 X72.594 Y121.371 E0.02532
G1 X71.268 Y88.029 E1.04624
G1 X71.366 Y87.276 E0.02378
G1 X71.672 Y86.644 E0.02202
G1 F8640.000
G1 X72.256 Y86.027 E-0.19612
G1 X74.242 Y84.607 E-0.56388
G1 E-0.04000 F2100.00000
G1 Z0.800 F10800.000
G1 X122.802 Y69.489
G1 Z0.200
G1 E0.80000 F2100.00000
G1 F1200.000
G1 X128.973 Y69.489 E0.19351
G1 X128.973 Y80.501 E0.34526
G1 X127.637 Y80.775 E0.04276
G1 X122.825 Y69.544 E0.38309
G1 X123.373 Y69.866 F10800.000
G1 F1200.000
G1 X128.596 Y69.866 E0.16376
G1 X128.596 Y80.193 E0.32379
G1 X127.863 Y80.344 E0.02348
G1 X123.397 Y69.922 E0.35552
G1 X123.311 Y69.471 F10800.000
G1 F8640.000
G1 X126.688 Y69.887 E-0.76000
G1 E-0.04000 F2100.00000
G1 Z0.800 F10800.000
G1 X121.966 Y67.539
G1 Z0.200
G1 E0.80000 F2100.00000
G1 F1200.000
G1 X128.973 Y67.539 E0.21972
G1 X128.973 Y64.924 E0.08197
G1 X130.832 Y64.924 E0.05828
G1 X131.199 Y68.160 E0.10210
G1 X130.748 Y69.571 E0.04644
G1 X130.748 Y85.214 E0.49049
G1 X128.307 Y85.214 E0.07655
G1 X115.833 Y59.480 E0.89667
G1 X118.513 Y59.480 E0.08402
G1 X121.942 Y67.483 E0.27301
G1 X122.214 Y67.162 F10800.000
G1 F1200.000
G1 X128.596 Y67.162 E0.20010
G1 X128.596 Y64.547 E0.08197
G1 X131.169 Y64.547 E0.08066
G1 X131.582 Y68.198 E0.11519
G1 X131.125 Y69.630 E0.04713
G1 X131.125 Y85.591 E0.50047
G1 X128.070 Y85.591 E0.09578
G1 X115.231 Y59.103 E0.92295
G1 X118.761 Y59.103 E0.11069
G1 X122.191 Y67.106 E0.27301
G1 X122.309 Y67.550 F10800.000
G1 F8640.000
G1 X125.482 Y67.135 E-0.76000
G1 E-0.04000 F2100.00000
G1 Z0.800 F10800.000
G1 X124.131 Y69.376
G1 Z0.200
G1 E0.80000 F2100.00000
G1 F1200.000
G1 X122.576 Y67.821 E0.06921
G1 X123.112 Y67.821 E0.01685
G1 X124.497 Y69.207 E0.06166
G1 X125.032 Y69.207 E0.01685
G1 X123.647 Y67.821 E0.06166
G1 X124.182 Y67.821 E0.01685
G1 X125.568 Y69.207 E0.06166
G1 X126.103 Y69.207 E0.01685
G1 X124.718 Y67.821 E0.06166
G1 X125.253 Y67.821 E0.01685
G1 X126.638 Y69.207 E0.06166
G1 X127.174 Y69.207 E0.01685
G1 X125.788 Y67.821 E0.06166
G1 X126.324 Y67.821 E0.01685
G1 X127.709 Y69.207 E0.06166
G1 X128.244 Y69.207 E0.01685
G1 X126.859 Y67.821 E0.06166
G1 X127.394 Y67.821 E0.01685
G1 X128.949 Y69.376 E0.06921
G1 F8640.000
G1 X127.394 Y67.821 E-0.50772
G1 X126.859 Y67.821 E-0.12361
G1 X127.253 Y68.215 E-0.12867
G1 E-0.04000 F2100.00000
G1 Z0.800 F10800.000
G1 X130.829 Y65.903
G1 Z0.200
G1 E0.80000 F2100.00000
G1 F1200.000
G1 X130.133 Y65.207 E0.03097
G1 X129.598 Y65.207 E0.01685
G1 X130.705 Y66.314 E0.04927
G1 X130.773 Y66.918 E0.01912
G1 X129.256 Y65.401 E0.06753
G1 X129.256 Y65.936 E0.01685
G1 X130.842 Y67.521 E0.07058
G1 X130.910 Y68.125 E0.01912
G1 X129.256 Y66.471 E0.07362
G1 X129.256 Y67.007 E0.01685
G1 X130.783 Y68.533 E0.06795
G1 X130.653 Y68.939 E0.01341
G1 X129.256 Y67.542 E0.06218
G1 X129.256 Y67.821 E0.00880
G1 X129.000 Y67.821 E0.00805
G1 X130.523 Y69.344 E0.06779
G1 X130.465 Y69.527 E0.00602
G1 X130.465 Y69.822 E0.00928
G1 X128.465 Y67.821 E0.08903
G1 X127.930 Y67.821 E0.01685
G1 X130.465 Y70.357 E0.11286
G1 X130.465 Y70.892 E0.01685
G1 X129.256 Y69.683 E0.05382
G1 X129.256 Y70.219 E0.01685
G1 X130.465 Y71.428 E0.05382
G1 X130.465 Y71.963 E0.01685
G1 X129.256 Y70.754 E0.05382
G1 X129.256 Y71.289 E0.01685
G1 X130.465 Y72.498 E0.05382
G1 X130.465 Y73.033 E0.01685
G1 X129.256 Y71.824 E0.05382
G1 X129.256 Y72.360 E0.01685
G1 X130.465 Y73.569 E0.05382
G1 X130.465 Y74.104 E0.01685
G1 X129.256 Y72.895 E0.05382
G1 X129.256 Y73.430 E0.01685
G1 X130.465 Y74.639 E0.05382
G1 X130.465 Y75.175 E0.01685
G1 X129.256 Y73.966 E0.05382
G1 X129.256 Y74.501 E0.01685
G1 X130.465 Y75.710 E0.05382
G1 X130.465 Y76.245 E0.01685
G1 X129.256 Y75.036 E0.05382
G1 X129.256 Y75.572 E0.01685
G1 X130.465 Y76.781 E0.05382
G1 X130.465 Y77.316 E0.01685
G1 X129.256 Y76.107 E0.05382
G1 X129.256 Y76.642 E0.01685
G1 X130.465 Y77.851 E0.05382
G1 X130.465 Y78.387 E0.01685
G1 X129.256 Y77.178 E0.05382
G1 X129.256 Y77.713 E0.01685
G1 X130.465 Y78.922 E0.05382
G1 X130.465 Y79.457 E0.01685
G1 X129.256 Y78.248 E0.05382
G1 X129.256 Y78.784 E0.01685
G1 X130.465 Y79.993 E0.05382
G1 X130.465 Y80.528 E0.01685
G1 X129.256 Y79.319 E0.05382
G1 X129.256 Y79.854 E0.01685
G1 X130.465 Y81.063 E0.05382
G1 X130.465 Y81.599 E0.01685
G1 X129.256 Y80.390 E0.05382
G1 X129.256 Y80.732 E0.01076
G1 X129.096 Y80.764 E0.00516
G1 X130.465 Y82.134 E0.06096
G1 X130.465 Y82.669 E0.01685
G1 X128.651 Y80.856 E0.08073
G1 X128.207 Y80.947 E0.01427
G1 X130.465 Y83.205 E0.10050
G1 X130.465 Y83.740 E0.01685
G1 X127.763 Y81.038 E0.12028
G1 X127.468 Y81.098 E0.00947
G1 X127.202 Y80.477 E0.02129
G1 X125.499 Y78.774 E0.07579
G1 X124.996 Y77.735 E0.03634
G1 X126.800 Y79.540 E0.08034
G1 X126.399 Y78.603 E0.03207
G1 X124.492 Y76.696 E0.08489
G1 X123.989 Y75.657 E0.03634
G1 X125.998 Y77.667 E0.08943
G1 X125.596 Y76.730 E0.03207
G1 X123.485 Y74.619 E0.09398
G1 X122.981 Y73.580 E0.03634
G1 X125.195 Y75.793 E0.09853
G1 X124.794 Y74.857 E0.03207
G1 X122.478 Y72.541 E0.10308
G1 X121.974 Y71.502 E0.03634
G1 X124.392 Y73.920 E0.10763
G1 X123.991 Y72.983 E0.03207
G1 X121.471 Y70.463 E0.11218
G1 X120.967 Y69.424 E0.03634
G1 X123.590 Y72.046 E0.11673
G1 X123.188 Y71.110 E0.03207
G1 X120.464 Y68.385 E0.12128
G1 X119.960 Y67.346 E0.03634
G1 X122.787 Y70.173 E0.12583
G1 X122.385 Y69.236 E0.03207
G1 X119.457 Y66.307 E0.13038
G1 X118.953 Y65.269 E0.03634
G1 X122.891 Y69.207 E0.17529
G1 X123.426 Y69.207 E0.01685
G1 X118.449 Y64.230 E0.22153
G1 X117.946 Y63.191 E0.03634
G1 X121.181 Y66.426 E0.14402
G1 X120.780 Y65.490 E0.03207
G1 X117.442 Y62.152 E0.14857
G1 X116.939 Y61.113 E0.03634
G1 X120.379 Y64.553 E0.15312
G1 X119.977 Y63.616 E0.03207
G1 X116.435 Y60.074 E0.15767
G1 X116.284 Y59.763 E0.01089
G1 X116.659 Y59.763 E0.01180
G1 X119.576 Y62.680 E0.12983
G1 X119.175 Y61.743 E0.03207
G1 X117.195 Y59.763 E0.08813
G1 X117.730 Y59.763 E0.01685
G1 X118.773 Y60.806 E0.04644
G1 X118.372 Y59.870 E0.03207
G1 X118.096 Y59.593 E0.01230
G1 F8640.000
G1 X118.372 Y59.870 E-0.09022
G1 X118.773 Y60.806 E-0.23530
G1 X117.730 Y59.763 E-0.34068
G1 X117.324 Y59.763 E-0.09380
G1 E-0.04000 F2100.00000
G1 Z0.800 F10800.000
G1 X127.651 Y83.603
G1 Z0.200
G1 E0.80000 F2100.00000
G1 F1200.000
G1 X128.980 Y84.932 E0.05916
G1 X129.515 Y84.932 E0.01685
G1 X127.513 Y82.930 E0.08911
G1 X127.010 Y81.891 E0.03634
G1 X130.051 Y84.932 E0.13536
G1 X130.465 Y84.932 E0.01304
G1 X130.465 Y84.811 E0.00381
G1 X126.506 Y80.852 E0.17622
G1 X126.003 Y79.813 E0.03634
G1 X130.635 Y84.445 E0.20619
G1 F8640.000
G1 X128.307 Y82.118 E-0.76000
G1 E-0.04000 F2100.00000
G1 Z0.800 F10800.000
G1 X168.942 Y101.486
G1 Z0.200
G1 E0.80000 F2100.00000
G1 F1200.000
G1 X175.114 Y101.486 E0.19351
G1 X175.114 Y112.498 E0.34526
G1 X173.778 Y112.772 E0.04276
G1 X168.965 Y101.542 E0.38309
G1 X169.514 Y101.864 F10800.000
G1 F1200.000
G1 X174.736 Y101.864 E0.16376
G1 X174.736 Y112.190 E0.32379
G1 X174.003 Y112.341 E0.02348
G1 X169.537 Y101.919 E0.35552
G1 X169.451 Y101.468 F10800.000
G1 F8640.000
G1 X172.828 Y101.884 E-0.76000
G1 E-0.04000 F2100.00000
G1 Z0.800 F10800.000
G1 X168.106 Y99.536
G1 Z0.200
G1 E0.80000 F2100.00000
G1 F1200.000
G1 X175.114 Y99.536 E0.21972
G1 X175.114 Y96.922 E0.08197
G1 X176.972 Y96.922 E0.05828
G1 X177.339 Y100.157 E0.10210
G1 X176.888 Y101.568 E0.04644
G1 X176.888 Y117.212 E0.49049
M73 P0 R112
G1 X174.447 Y117.212 E0.07655
G1 X161.973 Y91.477 E0.89667
G1 X164.653 Y91.477 E0.08402
G1 X168.082 Y99.481 E0.27301
G1 X168.355 Y99.159 F10800.000
G1 F1200.000
G1 X174.736 Y99.159 E0.20010
G1 X174.736 Y96.544 E0.08197
G1 X177.309 Y96.544 E0.08066
G1 X177.723 Y100.195 E0.11519
G1 X177.265 Y101.627 E0.04713
G1 X177.265 Y117.589 E0.50047
G1 X174.211 Y117.589 E0.09578
G1 X161.371 Y91.100 E0.92295
G1 X164.902 Y91.100 E0.11069
G1 X168.331 Y99.104 E0.27301
G1 X168.449 Y99.547 F10800.000
G1 F8640.000
G1 X171.622 Y99.132 E-0.76000
G1 E-0.04000 F2100.00000
G1 Z0.800 F10800.000
G1 X170.271 Y101.373
G1 Z0.200
G1 E0.80000 F2100.00000
G1 F1200.000
G1 X168.717 Y99.819 E0.06921
G1 X169.252 Y99.819 E0.01685
G1 X170.637 Y101.204 E0.06166
G1 X171.172 Y101.204 E0.01685
G1 X169.787 Y99.819 E0.06166
G1 X170.323 Y99.819 E0.01685
G1 X171.708 Y101.204 E0.06166
G1 X172.243 Y101.204 E0.01685
G1 X170.858 Y99.819 E0.06166
G1 X171.393 Y99.819 E0.01685
G1 X172.778 Y101.204 E0.06166
G1 X173.314 Y101.204 E0.01685
G1 X171.929 Y99.819 E0.06166
G1 X172.464 Y99.819 E0.01685
G1 X173.849 Y101.204 E0.06166
G1 X174.384 Y101.204 E0.01685
G1 X172.999 Y99.819 E0.06166
G1 X173.535 Y99.819 E0.01685
G1 X175.089 Y101.373 E0.06921
G1 F8640.000
G1 X173.535 Y99.819 E-0.50772
G1 X172.999 Y99.819 E-0.12361
G1 X173.393 Y100.213 E-0.12867
G1 E-0.04000 F2100.00000
G1 Z0.800 F10800.000
G1 X176.969 Y97.900
G1 Z0.200
G1 E0.80000 F2100.00000
G1 F1200.000
G1 X176.274 Y97.204 E0.03097
G1 X175.738 Y97.204 E0.01685
G1 X176.845 Y98.311 E0.04927
G1 X176.914 Y98.915 E0.01912
G1 X175.396 Y97.398 E0.06753
G1 X175.396 Y97.933 E0.01685
G1 X176.982 Y99.519 E0.07058
G1 X177.050 Y100.122 E0.01912
G1 X175.396 Y98.468 E0.07362
G1 X175.396 Y99.004 E0.01685
G1 X176.923 Y100.530 E0.06795
G1 X176.793 Y100.936 E0.01341
G1 X175.396 Y99.539 E0.06218
G1 X175.396 Y99.819 E0.00880
G1 X175.141 Y99.819 E0.00805
G1 X176.664 Y101.342 E0.06779
G1 X176.605 Y101.524 E0.00602
G1 X176.605 Y101.819 E0.00928
G1 X174.605 Y99.819 E0.08903
G1 X174.070 Y99.819 E0.01685
G1 X176.605 Y102.354 E0.11286
G1 X176.605 Y102.889 E0.01685
G1 X175.396 Y101.680 E0.05382
G1 X175.396 Y102.216 E0.01685
G1 X176.605 Y103.425 E0.05382
G1 X176.605 Y103.960 E0.01685
G1 X175.396 Y102.751 E0.05382
G1 X175.396 Y103.286 E0.01685
G1 X176.605 Y104.495 E0.05382
G1 X176.605 Y105.031 E0.01685
G1 X175.396 Y103.822 E0.05382
G1 X175.396 Y104.357 E0.01685
G1 X176.605 Y105.566 E0.05382
G1 X176.605 Y106.101 E0.01685
G1 X175.396 Y104.892 E0.05382
G1 X175.396 Y105.428 E0.01685
G1 X176.605 Y106.637 E0.05382
G1 X176.605 Y107.172 E0.01685
G1 X175.396 Y105.963 E0.05382
G1 X175.396 Y106.498 E0.01685
G1 X176.605 Y107.707 E0.05382
G1 X176.605 Y108.243 E0.01685
G1 X175.396 Y107.034 E0.05382
G1 X175.396 Y107.569 E0.01685
G1 X176.605 Y108.778 E0.05382
G1 X176.605 Y109.313 E0.01685
G1 X175.396 Y108.104 E0.05382
G1 X175.396 Y108.640 E0.01685
G1 X176.605 Y109.849 E0.05382
G1 X176.605 Y110.384 E0.01685
G1 X175.396 Y109.175 E0.05382
G1 X175.396 Y109.710 E0.01685
G1 X176.605 Y110.919 E0.05382
G1 X176.605 Y111.455 E0.01685
G1 X175.396 Y110.246 E0.05382
G1 X175.396 Y110.781 E0.01685
G1 X176.605 Y111.990 E0.05382
G1 X176.605 Y112.525 E0.01685
G1 X175.396 Y111.316 E0.05382
G1 X175.396 Y111.852 E0.01685
G1 X176.605 Y113.061 E0.05382
G1 X176.605 Y113.596 E0.01685
G1 X175.396 Y112.387 E0.05382
G1 X175.396 Y112.729 E0.01076
G1 X175.236 Y112.762 E0.00516
G1 X176.605 Y114.131 E0.06096
G1 X176.605 Y114.666 E0.01685
G1 X174.792 Y112.853 E0.08073
G1 X174.347 Y112.944 E0.01427
G1 X176.605 Y115.202 E0.10050
G1 X176.605 Y115.737 E0.01685
G1 X173.903 Y113.035 E0.12028
G1 X173.608 Y113.096 E0.00947
G1 X173.342 Y112.474 E0.02129
G1 X171.639 Y110.771 E0.07579
G1 X171.136 Y109.732 E0.03634
G1 X172.941 Y111.537 E0.08034
G1 X172.539 Y110.600 E0.03207
G1 X170.632 Y108.693 E0.08489
G1 X170.129 Y107.655 E0.03634
G1 X172.138 Y109.664 E0.08943
G1 X171.737 Y108.727 E0.03207
G1 X169.625 Y106.616 E0.09398
G1 X169.122 Y105.577 E0.03634
G1 X171.335 Y107.790 E0.09853
G1 X170.934 Y106.854 E0.03207
G1 X168.618 Y104.538 E0.10308
G1 X168.115 Y103.499 E0.03634
G1 X170.533 Y105.917 E0.10763
G1 X170.131 Y104.980 E0.03207
G1 X167.611 Y102.460 E0.11218
G1 X167.107 Y101.421 E0.03634
G1 X169.730 Y104.044 E0.11673
G1 X169.328 Y103.107 E0.03207
G1 X166.604 Y100.382 E0.12128
G1 X166.100 Y99.343 E0.03634
G1 X168.927 Y102.170 E0.12583
G1 X168.526 Y101.234 E0.03207
G1 X165.597 Y98.305 E0.13038
G1 X165.093 Y97.266 E0.03634
G1 X169.031 Y101.204 E0.17529
G1 X169.566 Y101.204 E0.01685
G1 X164.590 Y96.227 E0.22153
G1 X164.086 Y95.188 E0.03634
G1 X167.322 Y98.424 E0.14402
G1 X166.920 Y97.487 E0.03207
G1 X163.582 Y94.149 E0.14857
G1 X163.079 Y93.110 E0.03634
G1 X166.519 Y96.550 E0.15312
G1 X166.118 Y95.613 E0.03207
G1 X162.575 Y92.071 E0.15767
G1 X162.425 Y91.760 E0.01089
G1 X162.799 Y91.760 E0.01180
G1 X165.716 Y94.677 E0.12983
G1 X165.315 Y93.740 E0.03207
G1 X163.335 Y91.760 E0.08813
G1 X163.870 Y91.760 E0.01685
G1 X164.913 Y92.803 E0.04644
G1 X164.512 Y91.867 E0.03207
G1 X164.236 Y91.590 E0.01230
G1 F8640.000
G1 X164.512 Y91.867 E-0.09022
G1 X164.913 Y92.803 E-0.23530
G1 X163.870 Y91.760 E-0.34068
G1 X163.464 Y91.760 E-0.09380
G1 E-0.04000 F2100.00000
G1 Z0.800 F10800.000
G1 X173.791 Y115.600
G1 Z0.200
G1 E0.80000 F2100.00000
G1 F1200.000
G1 X175.120 Y116.929 E0.05916
G1 X175.656 Y116.929 E0.01685
G1 X173.654 Y114.927 E0.08911
G1 X173.150 Y113.888 E0.03634
G1 X176.191 Y116.929 E0.13536
G1 X176.605 Y116.929 E0.01304
G1 X176.605 Y116.808 E0.00381
G1 X172.647 Y112.849 E0.17622
G1 X172.143 Y111.810 E0.03634
G1 X176.775 Y116.442 E0.20619
G1 F8640.000
G1 X174.448 Y114.115 E-0.76000
G1 E-0.04000 F2100.00000
G1 Z0.800 F10800.000
G1 X153.676 Y112.498
G1 Z0.200
G1 E0.80000 F2100.00000
G1 F1200.000
G1 X152.340 Y112.772 E0.04276
G1 X147.505 Y101.486 E0.38497
G1 X153.676 Y101.486 E0.19351
G1 X153.676 Y112.438 E0.34338
G1 X153.299 Y112.190 F10800.000
G1 F1200.000
G1 X152.566 Y112.341 E0.02348
G1 X148.076 Y101.864 E0.35740
G1 X153.299 Y101.864 E0.16376
G1 X153.299 Y112.130 E0.32191
G1 X153.414 Y112.574 F10800.000
G1 F8640.000
G1 X152.566 Y112.341 E-0.17619
G1 X151.570 Y110.017 E-0.58381
G1 E-0.04000 F2100.00000
G1 Z0.800 F10800.000
G1 X146.669 Y99.536
G1 Z0.200
G1 E0.80000 F2100.00000
G1 F1200.000
G1 X153.676 Y99.536 E0.21972
G1 X153.676 Y96.922 E0.08197
G1 X155.535 Y96.922 E0.05828
G1 X155.902 Y100.157 E0.10210
G1 X155.451 Y101.568 E0.04644
G1 X155.451 Y117.212 E0.49049
G1 X153.010 Y117.212 E0.07655
G1 X140.536 Y91.477 E0.89667
G1 X143.216 Y91.477 E0.08402
