; generated by PrusaSlicer 2.2.0+win64 on 2020-11-09 at 19:12:11 UTC

; 

; external perimeters extrusion width = 0.60mm
; perimeters extrusion width = 0.43mm
; infill extrusion width = 0.45mm
; solid infill extrusion width = 0.70mm
; top infill extrusion width = 0.43mm
; first layer extrusion width = 0.42mm

M73 P0 R38
M201 X9000 Y9000 Z500 E10000 ; sets maximum accelerations, mm/sec^2
M203 X500 Y500 Z12 E120 ; sets maximum feedrates, mm/sec
M204 P2000 R1500 T2000 ; sets acceleration (P, T) and retract acceleration (R), mm/sec^2
M205 X10.00 Y10.00 Z0.20 E4.50 ; sets the jerk limits, mm/sec
M205 S0 T0 ; sets the minimum extruding and travel feed rate, mm/sec
M107
M862.3 P "MK2.5SMMU2S" ; printer model check
M862.1 P0.4 ; nozzle diameter check
M115 U3.9.1 ; tell printer latest fw version
G90 ; use absolute coordinates
M83 ; extruder relative mode
M104 S215 ; set extruder temp
M140 S60 ; set bed temp
Tx
M190 S60 ; wait for bed temp
M109 S215 ; wait for extruder temp
G28 W ; home all without mesh bed level
G80 ; mesh bed leveling

;go outside print area
G1 Y-3.0 F1000.0
G1 Z0.4 F1000.0
; select extruder
Tc
; purge line
G1 X55.0 F2000.0
G1 Z0.3 F1000.0
G92 E0.0
G1 X240.0 E25.0 F2200.0
M73 P0 R38
G1 Y-2.0 F1000.0
G1 X55.0 E25 F1400.0
G1 Z0.20 F1000.0
G1 X5.0 E4.0 F1000.0
G92 E0.0
G21 ; set units to millimeters
G90 ; use absolute coordinates
M83 ; use relative distances for extrusion
M900 K0.06 ; Filament gcode LA 1.5
M900 K30 ; Filament gcode LA 1.0
;BEFORE_LAYER_CHANGE
G92 E0.0
;0.2


G1 E-0.80000 F2100.00000
G1 Z0.600 F10800.000
;AFTER_LAYER_CHANGE
;0.2
G1 X69.546 Y52.761
G1 Z0.200
G1 E0.80000 F2100.00000
M204 S1000
G1 F1200.000
G1 X69.927 Y52.226 E0.02060
G1 X70.302 Y51.904 E0.01550
G1 X79.701 Y45.482 E0.35692
G1 X80.208 Y45.230 E0.01775
G1 X80.764 Y45.104 E0.01787
G1 X174.535 Y41.522 E2.94228
G1 X176.002 Y41.672 E0.04625
G1 X177.117 Y41.905 E0.03570
G1 X178.379 Y42.310 E0.04157
G1 X179.425 Y42.763 E0.03573
G1 X180.508 Y43.365 E0.03883
G1 X181.518 Y44.068 E0.03860
G1 X182.452 Y44.870 E0.03860
G1 X183.308 Y45.770 E0.03895
G1 X184.062 Y46.743 E0.03860
G1 X184.718 Y47.794 E0.03884
G1 X185.221 Y48.812 E0.03561
G1 X185.731 Y50.187 E0.04598
G1 X186.012 Y51.291 E0.03573
G1 X186.203 Y52.573 E0.04062
G1 X186.259 Y53.734 E0.03645
G1 X186.258 Y156.328 E3.21678
G1 X186.196 Y157.506 E0.03697
G1 X186.010 Y158.723 E0.03860
G1 X185.702 Y159.914 E0.03860
G1 X185.306 Y160.991 E0.03597
G1 X184.733 Y162.179 E0.04134
G1 X184.134 Y163.148 E0.03573
G1 X183.232 Y164.314 E0.04622
G1 X182.450 Y165.132 E0.03549
G1 X181.515 Y165.933 E0.03860
G1 X180.505 Y166.637 E0.03860
G1 X179.507 Y167.195 E0.03585
G1 X178.165 Y167.769 E0.04577
G1 X177.077 Y168.105 E0.03570
G1 X175.799 Y168.361 E0.04086
G1 X174.540 Y168.478 E0.03966
G1 X147.673 Y168.475 E0.84239
G1 X65.916 Y158.408 E2.58280
G1 X65.202 Y158.200 E0.02331
G1 X64.585 Y157.778 E0.02343
G1 X64.045 Y157.015 E0.02931
G1 X63.842 Y156.106 E0.02919
G1 X63.777 Y152.354 E0.11768
G1 X63.780 Y123.129 E0.91632
G1 X68.126 Y60.975 E1.95354
G1 X69.325 Y53.380 E0.24110
G1 X69.525 Y52.818 E0.01871
G1 F8640.000
G1 X69.927 Y52.226 E-0.16504
G1 X70.302 Y51.904 E-0.11413
G1 X72.022 Y50.730 E-0.48083
G1 E-0.04000 F2100.00000
G1 Z0.800 F10800.000
G1 X164.970 Y53.736
G1 Z0.200
G1 E0.80000 F2100.00000
G1 F1200.000
G1 X165.017 Y52.820 E0.02878
G1 X165.156 Y51.912 E0.02878
G1 X165.386 Y51.024 E0.02878
G1 X165.705 Y50.163 E0.02878
G1 X166.109 Y49.339 E0.02878
G1 X166.595 Y48.560 E0.02878
G1 X167.156 Y47.834 E0.02878
G1 X167.789 Y47.168 E0.02878
G1 X168.485 Y46.570 E0.02878
G1 X169.239 Y46.046 E0.02878
G1 X170.041 Y45.601 E0.02878
G1 X170.885 Y45.239 E0.02878
G1 X171.761 Y44.964 E0.02878
G1 X172.660 Y44.779 E0.02878
G1 X173.573 Y44.686 E0.02878
G1 X174.491 Y44.686 E0.02878
G1 X175.404 Y44.779 E0.02878
G1 X176.304 Y44.964 E0.02878
G1 X177.180 Y45.239 E0.02878
G1 X178.023 Y45.601 E0.02878
G1 X178.826 Y46.046 E0.02878
G1 X179.579 Y46.570 E0.02878
G1 X180.276 Y47.168 E0.02878
G1 X180.908 Y47.834 E0.02878
G1 X181.470 Y48.560 E0.02878
G1 X181.956 Y49.339 E0.02878
G1 X182.360 Y50.163 E0.02878
G1 X182.679 Y51.024 E0.02878
G1 X182.909 Y51.912 E0.02878
G1 X183.048 Y52.820 E0.02878
G1 X183.094 Y53.736 E0.02878
G1 X183.048 Y54.653 E0.02878
G1 X182.909 Y55.561 E0.02878
G1 X182.679 Y56.449 E0.02878
G1 X182.360 Y57.310 E0.02878
G1 X181.956 Y58.134 E0.02878
G1 X181.470 Y58.913 E0.02878
G1 X180.908 Y59.639 E0.02878
G1 X180.276 Y60.304 E0.02878
G1 X179.579 Y60.902 E0.02878
G1 X178.826 Y61.427 E0.02878
G1 X178.023 Y61.872 E0.02878
G1 X177.180 Y62.234 E0.02878
G1 X176.304 Y62.509 E0.02878
G1 X175.404 Y62.694 E0.02878
G1 X174.491 Y62.787 E0.02878
G1 X173.573 Y62.787 E0.02878
G1 X172.660 Y62.694 E0.02878
G1 X171.761 Y62.509 E0.02878
G1 X170.885 Y62.234 E0.02878
G1 X170.041 Y61.872 E0.02878
G1 X169.239 Y61.427 E0.02878
G1 X168.485 Y60.902 E0.02878
G1 X167.789 Y60.304 E0.02878
G1 X167.156 Y59.639 E0.02878
G1 X166.595 Y58.913 E0.02878
G1 X166.109 Y58.134 E0.02878
G1 X165.705 Y57.310 E0.02878
G1 X165.386 Y56.449 E0.02878
G1 X165.156 Y55.561 E0.02878
G1 X165.017 Y54.653 E0.02878
G1 X164.973 Y53.796 E0.02690
G1 X164.597 Y53.815 F10800.000
G1 F1200.000
G1 X164.641 Y52.781 E0.03245
G1 X164.786 Y51.836 E0.02998
G1 X165.026 Y50.911 E0.02998
G1 X165.358 Y50.014 E0.02998
G1 X165.779 Y49.155 E0.02998
G1 X166.285 Y48.344 E0.02998
G1 X166.870 Y47.588 E0.02998
G1 X167.529 Y46.895 E0.02998
G1 X168.254 Y46.272 E0.02998
G1 X169.039 Y45.726 E0.02998
G1 X169.875 Y45.262 E0.02998
G1 X170.754 Y44.884 E0.02998
G1 X171.666 Y44.598 E0.02998
G1 X172.603 Y44.406 E0.02998
G1 X173.554 Y44.309 E0.02998
G1 X174.510 Y44.309 E0.02998
G1 X175.462 Y44.406 E0.02998
G1 X176.398 Y44.598 E0.02998
G1 X177.311 Y44.884 E0.02998
G1 X178.189 Y45.262 E0.02998
G1 X179.025 Y45.726 E0.02998
G1 X179.810 Y46.272 E0.02998
G1 X180.536 Y46.895 E0.02998
G1 X181.195 Y47.588 E0.02998
G1 X181.780 Y48.344 E0.02998
G1 X182.286 Y49.155 E0.02998
G1 X182.707 Y50.014 E0.02998
G1 X183.039 Y50.911 E0.02998
G1 X183.279 Y51.836 E0.02998
G1 X183.423 Y52.781 E0.02998
G1 X183.472 Y53.736 E0.02998
G1 X183.423 Y54.691 E0.02998
G1 X183.279 Y55.637 E0.02998
G1 X183.039 Y56.562 E0.02998
G1 X182.707 Y57.459 E0.02998
G1 X182.286 Y58.317 E0.02998
G1 X181.780 Y59.129 E0.02998
G1 X181.195 Y59.885 E0.02998
G1 X180.536 Y60.578 E0.02998
G1 X179.810 Y61.201 E0.02998
G1 X179.025 Y61.747 E0.02998
G1 X178.189 Y62.211 E0.02998
G1 X177.311 Y62.588 E0.02998
G1 X176.398 Y62.874 E0.02998
G1 X175.462 Y63.067 E0.02998
G1 X174.510 Y63.164 E0.02998
G1 X173.554 Y63.164 E0.02998
G1 X172.603 Y63.067 E0.02998
G1 X171.666 Y62.874 E0.02998
G1 X170.754 Y62.588 E0.02998
G1 X169.875 Y62.211 E0.02998
G1 X169.039 Y61.747 E0.02998
G1 X168.254 Y61.201 E0.02998
G1 X167.529 Y60.578 E0.02998
G1 X166.870 Y59.885 E0.02998
G1 X166.285 Y59.129 E0.02998
G1 X165.779 Y58.317 E0.02998
G1 X165.358 Y57.459 E0.02998
G1 X165.026 Y56.562 E0.02998
G1 X164.786 Y55.637 E0.02998
G1 X164.641 Y54.691 E0.02998
G1 X164.600 Y53.875 E0.02562
G1 X164.942 Y53.613 F10800.000
G1 F8640.000
G1 X164.641 Y52.781 E-0.25277
G1 X164.786 Y51.836 E-0.22079
G1 X165.026 Y50.911 E-0.22079
G1 X165.124 Y50.644 E-0.06565
G1 E-0.04000 F2100.00000
G1 Z0.800 F10800.000
G1 X181.458 Y48.754
G1 Z0.200
G1 E0.80000 F2100.00000
G1 F1200.000
G1 X180.060 Y47.356 E0.06270
G1 X179.406 Y46.794 E0.02734
G1 X178.676 Y46.286 E0.02821
G1 X178.170 Y46.006 E0.01835
G1 X181.773 Y49.608 E0.16161
G1 X182.100 Y50.274 E0.02353
G1 X182.217 Y50.592 E0.01075
G1 X177.165 Y45.540 E0.22663
G1 X176.365 Y45.279 E0.02670
G1 X182.483 Y51.398 E0.27446
G1 X182.652 Y52.106 E0.02310
G1 X175.668 Y45.122 E0.31331
G1 X175.362 Y45.059 E0.00992
G1 X175.032 Y45.025 E0.01051
G1 X182.750 Y52.743 E0.34622
G1 X182.790 Y53.323 E0.01843
G1 X174.436 Y44.969 E0.37475
G1 X173.896 Y44.969 E0.01711
G1 X182.804 Y53.876 E0.39957
G1 X182.778 Y54.390 E0.01631
G1 X173.378 Y44.990 E0.42165
G1 X172.889 Y45.040 E0.01561
G1 X182.727 Y54.878 E0.44134
G1 X182.655 Y55.346 E0.01501
G1 X172.425 Y45.116 E0.45892
G1 X171.978 Y45.208 E0.01449
G1 X182.558 Y55.788 E0.47461
G1 X182.447 Y56.217 E0.01404
G1 X171.555 Y45.325 E0.48859
G1 X171.144 Y45.454 E0.01365
G1 X182.313 Y56.622 E0.50101
G1 X182.167 Y57.016 E0.01332
G1 X170.754 Y45.603 E0.51198
G1 X170.376 Y45.765 E0.01303
G1 X182.004 Y57.393 E0.52161
G1 X181.827 Y57.754 E0.01279
G1 X170.012 Y45.940 E0.52997
G1 X169.665 Y46.133 E0.01259
G1 X181.639 Y58.107 E0.53713
G1 X181.432 Y58.439 E0.01242
G1 X169.324 Y46.331 E0.54314
G1 X169.006 Y46.552 E0.01229
G1 X181.223 Y58.770 E0.54804
G1 X180.988 Y59.074 E0.01220
G1 X168.688 Y46.774 E0.55175
G1 X168.395 Y47.020 E0.01214
G1 X180.753 Y59.378 E0.55433
G1 X180.497 Y59.661 E0.01212
G1 X168.105 Y47.270 E0.55587
G1 X167.831 Y47.535 E0.01210
G1 X180.234 Y59.938 E0.55638
G1 X179.959 Y60.203 E0.01210
G1 X167.568 Y47.811 E0.55587
M73 P2 R37
G1 X167.312 Y48.095 E0.01212
G1 X179.669 Y60.452 E0.55433
G1 X179.376 Y60.699 E0.01214
G1 X167.076 Y48.399 E0.55175
G1 X166.841 Y48.703 E0.01220
G1 X179.058 Y60.920 E0.54804
G1 X178.740 Y61.142 E0.01229
G1 X166.632 Y49.034 E0.54314
G1 X166.425 Y49.366 E0.01242
G1 X178.399 Y61.340 E0.53713
G1 X178.052 Y61.533 E0.01259
G1 X166.238 Y49.718 E0.52997
G1 X166.060 Y50.080 E0.01279
G1 X177.688 Y61.708 E0.52161
G1 X177.311 Y61.870 E0.01303
G1 X165.897 Y50.457 E0.51198
G1 X165.752 Y50.851 E0.01332
G1 X176.920 Y62.019 E0.50101
G1 X176.510 Y62.148 E0.01365
G1 X165.618 Y51.256 E0.48859
G1 X165.507 Y51.685 E0.01404
G1 X176.087 Y62.265 E0.47460
G1 X175.639 Y62.357 E0.01449
G1 X165.409 Y52.127 E0.45891
G1 X165.337 Y52.594 E0.01501
G1 X175.176 Y62.433 E0.44133
G1 X174.686 Y62.483 E0.01561
G1 X165.287 Y53.083 E0.42165
G1 X165.261 Y53.597 E0.01631
G1 X174.168 Y62.504 E0.39957
G1 X173.628 Y62.504 E0.01711
G1 X165.274 Y54.150 E0.37474
G1 X165.315 Y54.730 E0.01843
G1 X173.032 Y62.447 E0.34621
G1 X172.703 Y62.414 E0.01051
G1 X172.397 Y62.351 E0.00992
G1 X165.412 Y55.367 E0.31330
G1 X165.581 Y56.075 E0.02310
G1 X171.699 Y62.193 E0.27446
G1 X170.899 Y61.933 E0.02670
G1 X165.847 Y56.881 E0.22662
G1 X165.965 Y57.198 E0.01074
G1 X166.292 Y57.865 E0.02354
G1 X169.894 Y61.467 E0.16159
G1 X169.389 Y61.186 E0.01834
G1 X168.659 Y60.678 E0.02821
G1 X168.004 Y60.116 E0.02738
G1 X166.607 Y58.719 E0.06265
G1 F8640.000
G1 X168.004 Y60.116 E-0.45610
G1 X168.659 Y60.678 E-0.19928
G1 X169.031 Y60.937 E-0.10462
G1 E-0.04000 F2100.00000
G1 Z0.800 F10800.000
G1 X170.885 Y70.870
G1 Z0.200
G1 E0.80000 F2100.00000
G1 F1200.000
G1 X171.761 Y70.596 E0.02878
G1 X172.660 Y70.411 E0.02878
G1 X173.573 Y70.318 E0.02878
G1 X174.491 Y70.318 E0.02878
G1 X175.404 Y70.411 E0.02878
G1 X176.304 Y70.596 E0.02878
G1 X177.180 Y70.870 E0.02878
G1 X178.023 Y71.232 E0.02878
G1 X178.826 Y71.678 E0.02878
G1 X179.579 Y72.202 E0.02878
G1 X180.276 Y72.800 E0.02878
G1 X180.908 Y73.466 E0.02878
G1 X181.470 Y74.191 E0.02878
G1 X181.956 Y74.970 E0.02878
G1 X182.360 Y75.795 E0.02878
G1 X182.679 Y76.655 E0.02878
G1 X182.909 Y77.544 E0.02878
G1 X183.048 Y78.451 E0.02878
G1 X183.094 Y79.368 E0.02878
G1 X183.048 Y80.285 E0.02878
G1 X182.909 Y81.192 E0.02878
G1 X182.679 Y82.081 E0.02878
G1 X182.360 Y82.942 E0.02878
G1 X181.956 Y83.766 E0.02878
G1 X181.470 Y84.545 E0.02878
G1 X180.908 Y85.271 E0.02878
G1 X180.276 Y85.936 E0.02878
G1 X179.579 Y86.534 E0.02878
G1 X178.826 Y87.059 E0.02878
G1 X178.023 Y87.504 E0.02878
G1 X177.180 Y87.866 E0.02878
G1 X176.304 Y88.141 E0.02878
G1 X175.404 Y88.326 E0.02878
G1 X174.491 Y88.418 E0.02878
G1 X173.573 Y88.418 E0.02878
G1 X172.660 Y88.326 E0.02878
G1 X171.761 Y88.141 E0.02878
G1 X170.885 Y87.866 E0.02878
G1 X170.041 Y87.504 E0.02878
G1 X169.239 Y87.059 E0.02878
G1 X168.485 Y86.534 E0.02878
G1 X167.789 Y85.936 E0.02878
G1 X167.156 Y85.271 E0.02878
G1 X166.595 Y84.545 E0.02878
G1 X166.109 Y83.766 E0.02878
G1 X165.705 Y82.942 E0.02878
G1 X165.386 Y82.081 E0.02878
G1 X165.156 Y81.192 E0.02878
G1 X165.017 Y80.285 E0.02878
G1 X164.970 Y79.368 E0.02878
G1 X165.017 Y78.451 E0.02878
G1 X165.156 Y77.544 E0.02878
G1 X165.386 Y76.655 E0.02878
G1 X165.705 Y75.795 E0.02878
G1 X166.109 Y74.970 E0.02878
G1 X166.595 Y74.191 E0.02878
G1 X167.156 Y73.466 E0.02878
G1 X167.789 Y72.800 E0.02878
G1 X168.485 Y72.202 E0.02878
G1 X169.239 Y71.678 E0.02878
G1 X170.041 Y71.232 E0.02878
G1 X170.830 Y70.894 E0.02690
G1 X170.681 Y70.547 F10800.000
G1 F1200.000
G1 X171.666 Y70.230 E0.03245
G1 X172.603 Y70.038 E0.02998
G1 X173.554 Y69.941 E0.02998
G1 X174.510 Y69.941 E0.02998
G1 X175.462 Y70.038 E0.02998
G1 X176.398 Y70.230 E0.02998
G1 X177.311 Y70.516 E0.02998
G1 X178.189 Y70.893 E0.02998
G1 X179.025 Y71.357 E0.02998
G1 X179.810 Y71.904 E0.02998
G1 X180.536 Y72.527 E0.02998
G1 X181.195 Y73.220 E0.02998
G1 X181.780 Y73.976 E0.02998
G1 X182.286 Y74.787 E0.02998
G1 X182.707 Y75.646 E0.02998
G1 X183.039 Y76.542 E0.02998
G1 X183.279 Y77.468 E0.02998
G1 X183.423 Y78.413 E0.02998
G1 X183.472 Y79.368 E0.02998
G1 X183.423 Y80.323 E0.02998
G1 X183.279 Y81.268 E0.02998
G1 X183.039 Y82.194 E0.02998
G1 X182.707 Y83.091 E0.02998
G1 X182.286 Y83.949 E0.02998
G1 X181.780 Y84.761 E0.02998
G1 X181.195 Y85.517 E0.02998
G1 X180.536 Y86.210 E0.02998
G1 X179.810 Y86.833 E0.02998
G1 X179.025 Y87.379 E0.02998
G1 X178.189 Y87.843 E0.02998
G1 X177.311 Y88.220 E0.02998
G1 X176.398 Y88.506 E0.02998
G1 X175.462 Y88.699 E0.02998
G1 X174.510 Y88.796 E0.02998
G1 X173.554 Y88.796 E0.02998
G1 X172.603 Y88.699 E0.02998
G1 X171.666 Y88.506 E0.02998
G1 X170.754 Y88.220 E0.02998
G1 X169.875 Y87.843 E0.02998
G1 X169.039 Y87.379 E0.02998
G1 X168.254 Y86.833 E0.02998
G1 X167.529 Y86.210 E0.02998
G1 X166.870 Y85.517 E0.02998
G1 X166.285 Y84.761 E0.02998
G1 X165.779 Y83.949 E0.02998
G1 X165.358 Y83.091 E0.02998
G1 X165.026 Y82.194 E0.02998
G1 X164.786 Y81.268 E0.02998
G1 X164.641 Y80.323 E0.02998
G1 X164.593 Y79.368 E0.02998
G1 X164.641 Y78.413 E0.02998
G1 X164.786 Y77.468 E0.02998
G1 X165.026 Y76.542 E0.02998
G1 X165.358 Y75.646 E0.02998
G1 X165.779 Y74.787 E0.02998
G1 X166.285 Y73.976 E0.02998
G1 X166.870 Y73.220 E0.02998
G1 X167.529 Y72.527 E0.02998
G1 X168.254 Y71.904 E0.02998
G1 X169.039 Y71.357 E0.02998
G1 X169.875 Y70.893 E0.02998
G1 X170.626 Y70.571 E0.02562
G1 X170.991 Y70.801 F10800.000
G1 F8640.000
G1 X171.666 Y70.230 E-0.25277
G1 X172.603 Y70.038 E-0.22079
G1 X173.554 Y69.941 E-0.22079
G1 X173.838 Y69.941 E-0.06565
G1 E-0.04000 F2100.00000
G1 Z0.800 F10800.000
G1 X166.607 Y84.351
G1 Z0.200
G1 E0.80000 F2100.00000
G1 F1200.000
G1 X168.004 Y85.748 E0.06265
G1 X168.659 Y86.310 E0.02738
G1 X169.389 Y86.818 E0.02821
G1 X169.894 Y87.099 E0.01834
G1 X166.292 Y83.496 E0.16159
G1 X165.965 Y82.830 E0.02354
G1 X165.847 Y82.512 E0.01074
G1 X170.899 Y87.564 E0.22662
G1 X171.699 Y87.825 E0.02670
G1 X165.581 Y81.707 E0.27446
G1 X165.412 Y80.998 E0.02310
G1 X172.397 Y87.983 E0.31330
G1 X172.703 Y88.046 E0.00992
G1 X173.032 Y88.079 E0.01051
G1 X165.315 Y80.361 E0.34621
G1 X165.274 Y79.782 E0.01843
G1 X173.628 Y88.136 E0.37474
G1 X174.168 Y88.136 E0.01711
G1 X165.261 Y79.228 E0.39957
G1 X165.287 Y78.715 E0.01631
G1 X174.686 Y88.114 E0.42165
G1 X175.176 Y88.065 E0.01561
G1 X165.337 Y78.226 E0.44133
G1 X165.409 Y77.758 E0.01501
G1 X175.639 Y87.989 E0.45891
G1 X176.087 Y87.897 E0.01449
G1 X165.507 Y77.317 E0.47460
G1 X165.618 Y76.888 E0.01404
G1 X176.510 Y87.780 E0.48859
G1 X176.920 Y87.651 E0.01365
G1 X165.752 Y76.482 E0.50101
G1 X165.897 Y76.089 E0.01332
G1 X177.311 Y87.502 E0.51198
G1 X177.688 Y87.340 E0.01303
G1 X166.060 Y75.712 E0.52161
G1 X166.238 Y75.350 E0.01279
G1 X178.052 Y87.164 E0.52997
G1 X178.399 Y86.972 E0.01259
G1 X166.425 Y74.998 E0.53713
G1 X166.632 Y74.666 E0.01242
G1 X178.740 Y86.774 E0.54314
G1 X179.058 Y86.552 E0.01229
G1 X166.841 Y74.335 E0.54804
G1 X167.076 Y74.031 E0.01220
G1 X179.376 Y86.331 E0.55175
G1 X179.669 Y86.084 E0.01214
G1 X167.312 Y73.727 E0.55433
G1 X167.568 Y73.443 E0.01212
G1 X179.959 Y85.835 E0.55587
G1 X180.234 Y85.570 E0.01210
G1 X167.831 Y73.167 E0.55638
G1 X168.105 Y72.902 E0.01210
G1 X180.497 Y85.293 E0.55587
G1 X180.753 Y85.010 E0.01212
G1 X168.395 Y72.652 E0.55433
G1 X168.688 Y72.406 E0.01214
G1 X180.988 Y84.706 E0.55175
G1 X181.223 Y84.401 E0.01220
G1 X169.006 Y72.184 E0.54804
G1 X169.324 Y71.963 E0.01229
