; generated by PrusaSlicer 2.2.0+win64 on 2020-11-09 at 19:13:33 UTC

; 

; external perimeters extrusion width = 0.60mm
; perimeters extrusion width = 0.43mm
; infill extrusion width = 0.45mm
; solid infill extrusion width = 0.70mm
; top infill extrusion width = 0.43mm
; first layer extrusion width = 0.42mm

M73 P0 R112
M201 X9000 Y9000 Z500 E10000 ; sets maximum accelerations, mm/sec^2
M203 X500 Y500 Z12 E120 ; sets maximum feedrates, mm/sec
M204 P2000 R1500 T2000 ; sets acceleration (P, T) and retract acceleration (R), mm/sec^2
M205 X10.00 Y10.00 Z0.20 E4.50 ; sets the jerk limits, mm/sec
M205 S0 T0 ; sets the minimum extruding and travel feed rate, mm/sec
M107
M862.3 P "MK2.5SMMU2S" ; printer model check
M862.1 P0.4 ; nozzle diameter check
M115 U3.9.1 ; tell printer latest fw version
G90 ; use absolute coordinates
M83 ; extruder relative mode
M104 S215 ; set extruder temp
M140 S60 ; set bed temp
Tx
M190 S60 ; wait for bed temp
M109 S215 ; wait for extruder temp
G28 W ; home all without mesh bed level
G80 ; mesh bed leveling

;go outside print area
G1 Y-3.0 F1000.0
G1 Z0.4 F1000.0
; select extruder
Tc
; purge line
G1 X55.0 F2000.0
G1 Z0.3 F1000.0
G92 E0.0
G1 X240.0 E25.0 F2200.0
M73 P0 R111
G1 Y-2.0 F1000.0
G1 X55.0 E25 F1400.0
G1 Z0.20 F1000.0
G1 X5.0 E4.0 F1000.0
G92 E0.0
G21 ; set units to millimeters
G90 ; use absolute coordinates
M83 ; use relative distances for extrusion
M900 K0.06 ; Filament gcode LA 1.5
M900 K30 ; Filament gcode LA 1.0
;BEFORE_LAYER_CHANGE
G92 E0.0
;0.2


G1 E-0.80000 F2100.00000
G1 Z0.600 F10800.000
;AFTER_LAYER_CHANGE
;0.2
G1 X241.832 Y48.790
G1 Z0.200
G1 E0.80000 F2100.00000
M204 S1000
G1 F1200.000
G1 X243.283 Y51.728 E0.10275
G1 X243.479 Y52.461 E0.02378
G1 X243.874 Y69.032 E0.51971
G1 X243.872 Y169.424 E3.14772
G1 X240.714 Y195.190 E0.81393
G1 X240.426 Y196.289 E0.03561
G1 X239.995 Y197.450 E0.03883
G1 X239.453 Y198.555 E0.03860
G1 X238.797 Y199.606 E0.03883
G1 X238.039 Y200.585 E0.03884
G1 X237.194 Y201.475 E0.03848
G1 X236.255 Y202.283 E0.03883
G1 X235.312 Y202.943 E0.03609
G1 X234.056 Y203.640 E0.04503
G1 X233.011 Y204.085 E0.03561
G1 X231.943 Y204.424 E0.03513
G1 X230.616 Y204.706 E0.04253
G1 X229.281 Y204.834 E0.04205
G1 X22.382 Y204.834 E6.48719
G1 X21.073 Y204.707 E0.04122
G1 X19.849 Y204.456 E0.03919
G1 X18.656 Y204.081 E0.03919
G1 X17.428 Y203.544 E0.04205
G1 X16.446 Y202.996 E0.03525
G1 X15.528 Y202.360 E0.03502
G1 X14.572 Y201.555 E0.03919
G1 X13.644 Y200.592 E0.04193
G1 X12.866 Y199.585 E0.03991
G1 X12.172 Y198.455 E0.04157
G1 X11.678 Y197.440 E0.03537
G1 X11.286 Y196.391 E0.03514
G1 X10.940 Y195.091 E0.04217
G1 X10.748 Y193.825 E0.04015
G1 X5.126 Y111.080 E2.60038
G1 X5.072 Y109.956 E0.03531
G1 X5.073 Y58.602 E1.61016
G1 X5.134 Y57.455 E0.03602
G1 X5.304 Y56.328 E0.03573
G1 X5.669 Y54.923 E0.04550
G1 X19.526 Y19.115 E1.20389
G1 X20.072 Y18.004 E0.03880
G1 X20.787 Y16.874 E0.04193
G1 X21.477 Y15.987 E0.03525
G1 X22.247 Y15.172 E0.03513
G1 X23.187 Y14.349 E0.03919
G1 X24.277 Y13.580 E0.04181
G1 X25.373 Y12.971 E0.03931
G1 X26.522 Y12.479 E0.03919
G1 X27.804 Y12.086 E0.04205
G1 X28.944 Y11.858 E0.03645
G1 X96.586 Y2.736 E2.14007
G1 X97.766 Y2.617 E0.03718
G1 X98.894 Y2.614 E0.03537
G1 X183.398 Y6.225 E2.65199
G1 X184.023 Y6.338 E0.01989
G1 X216.097 Y23.147 E1.13540
G1 X241.790 Y48.748 E1.13722
G1 F8640.000
G1 X243.264 Y51.690 E-0.76000
G1 E-0.04000 F2100.00000
G1 Z0.800 F10800.000
G1 X131.386 Y185.454
G1 Z0.200
G1 E0.80000 F2100.00000
G1 F1200.000
G1 X132.082 Y186.052 E0.02878
G1 X132.715 Y186.717 E0.02878
G1 X133.277 Y187.443 E0.02878
G1 X133.762 Y188.222 E0.02878
G1 X134.166 Y189.046 E0.02878
G1 X134.485 Y189.907 E0.02878
G1 X134.715 Y190.796 E0.02878
G1 X134.854 Y191.703 E0.02878
G1 X134.901 Y192.620 E0.02878
G1 X134.854 Y193.537 E0.02878
G1 X134.715 Y194.444 E0.02878
G1 X134.485 Y195.333 E0.02878
G1 X134.166 Y196.194 E0.02878
G1 X133.762 Y197.018 E0.02878
G1 X133.277 Y197.797 E0.02878
G1 X132.715 Y198.523 E0.02878
G1 X132.082 Y199.188 E0.02878
G1 X131.386 Y199.786 E0.02878
G1 X130.632 Y200.310 E0.02878
G1 X129.830 Y200.756 E0.02878
G1 X128.986 Y201.118 E0.02878
G1 X128.110 Y201.393 E0.02878
G1 X127.211 Y201.577 E0.02878
G1 X126.298 Y201.670 E0.02878
G1 X125.380 Y201.670 E0.02878
G1 X124.467 Y201.577 E0.02878
G1 X123.567 Y201.393 E0.02878
G1 X122.692 Y201.118 E0.02878
G1 X121.848 Y200.756 E0.02878
G1 X121.045 Y200.310 E0.02878
G1 X120.292 Y199.786 E0.02878
G1 X119.595 Y199.188 E0.02878
G1 X118.963 Y198.523 E0.02878
G1 X118.401 Y197.797 E0.02878
G1 X117.916 Y197.018 E0.02878
G1 X117.511 Y196.194 E0.02878
G1 X117.193 Y195.333 E0.02878
G1 X116.962 Y194.444 E0.02878
G1 X116.823 Y193.537 E0.02878
G1 X116.777 Y192.620 E0.02878
G1 X116.823 Y191.703 E0.02878
G1 X116.962 Y190.796 E0.02878
G1 X117.193 Y189.907 E0.02878
G1 X117.511 Y189.046 E0.02878
G1 X117.916 Y188.222 E0.02878
G1 X118.401 Y187.443 E0.02878
G1 X118.963 Y186.717 E0.02878
G1 X119.595 Y186.052 E0.02878
G1 X120.292 Y185.454 E0.02878
G1 X121.045 Y184.930 E0.02878
G1 X121.848 Y184.484 E0.02878
G1 X122.692 Y184.122 E0.02878
G1 X123.567 Y183.847 E0.02878
G1 X124.467 Y183.663 E0.02878
G1 X125.380 Y183.570 E0.02878
G1 X126.298 Y183.570 E0.02878
G1 X127.211 Y183.663 E0.02878
G1 X128.110 Y183.847 E0.02878
G1 X128.986 Y184.122 E0.02878
G1 X129.830 Y184.484 E0.02878
G1 X130.632 Y184.930 E0.02878
G1 X131.336 Y185.420 E0.02690
G1 X131.552 Y185.110 F10800.000
G1 F1200.000
G1 X132.342 Y185.778 E0.03245
G1 X133.001 Y186.471 E0.02998
G1 X133.586 Y187.227 E0.02998
G1 X134.092 Y188.039 E0.02998
G1 X134.513 Y188.897 E0.02998
G1 X134.845 Y189.794 E0.02998
G1 X135.085 Y190.720 E0.02998
G1 X135.230 Y191.665 E0.02998
G1 X135.278 Y192.620 E0.02998
G1 X135.230 Y193.575 E0.02998
G1 X135.085 Y194.520 E0.02998
G1 X134.845 Y195.446 E0.02998
G1 X134.513 Y196.342 E0.02998
G1 X134.092 Y197.201 E0.02998
G1 X133.586 Y198.012 E0.02998
G1 X133.001 Y198.769 E0.02998
G1 X132.342 Y199.462 E0.02998
G1 X131.617 Y200.084 E0.02998
G1 X130.832 Y200.631 E0.02998
G1 X129.996 Y201.095 E0.02998
G1 X129.117 Y201.472 E0.02998
G1 X128.205 Y201.758 E0.02998
G1 X127.268 Y201.951 E0.02998
G1 X126.317 Y202.047 E0.02998
G1 X125.361 Y202.047 E0.02998
G1 X124.409 Y201.951 E0.02998
G1 X123.473 Y201.758 E0.02998
G1 X122.560 Y201.472 E0.02998
G1 X121.682 Y201.095 E0.02998
G1 X120.846 Y200.631 E0.02998
G1 X120.061 Y200.084 E0.02998
G1 X119.335 Y199.462 E0.02998
G1 X118.677 Y198.769 E0.02998
G1 X118.091 Y198.012 E0.02998
G1 X117.585 Y197.201 E0.02998
G1 X117.164 Y196.342 E0.02998
G1 X116.832 Y195.446 E0.02998
G1 X116.593 Y194.520 E0.02998
G1 X116.448 Y193.575 E0.02998
G1 X116.399 Y192.620 E0.02998
G1 X116.448 Y191.665 E0.02998
G1 X116.593 Y190.720 E0.02998
G1 X116.832 Y189.794 E0.02998
G1 X117.164 Y188.897 E0.02998
G1 X117.585 Y188.039 E0.02998
G1 X118.091 Y187.227 E0.02998
G1 X118.677 Y186.471 E0.02998
G1 X119.335 Y185.778 E0.02998
G1 X120.061 Y185.155 E0.02998
G1 X120.846 Y184.609 E0.02998
G1 X121.682 Y184.145 E0.02998
G1 X122.560 Y183.768 E0.02998
G1 X123.473 Y183.482 E0.02998
G1 X124.409 Y183.289 E0.02998
G1 X125.361 Y183.193 E0.02998
G1 X126.317 Y183.193 E0.02998
G1 X127.268 Y183.289 E0.02998
G1 X128.205 Y183.482 E0.02998
M73 P1 R110
G1 X129.117 Y183.768 E0.02998
G1 X129.996 Y184.145 E0.02998
G1 X130.832 Y184.609 E0.02998
G1 X131.503 Y185.076 E0.02562
G1 X131.500 Y185.507 F10800.000
G1 F8640.000
G1 X132.342 Y185.778 E-0.25277
G1 X133.001 Y186.471 E-0.22079
G1 X133.586 Y187.227 E-0.22079
G1 X133.737 Y187.469 E-0.06565
G1 E-0.04000 F2100.00000
G1 Z0.800 F10800.000
G1 X118.414 Y197.603
G1 Z0.200
G1 E0.80000 F2100.00000
G1 F1200.000
G1 X119.810 Y199.000 E0.06265
G1 X120.465 Y199.562 E0.02738
G1 X121.195 Y200.070 E0.02821
G1 X121.701 Y200.351 E0.01834
G1 X118.098 Y196.748 E0.16159
G1 X117.772 Y196.082 E0.02354
G1 X117.654 Y195.764 E0.01074
G1 X122.706 Y200.816 E0.22662
G1 X123.506 Y201.077 E0.02670
G1 X117.388 Y194.959 E0.27446
G1 X117.219 Y194.250 E0.02310
G1 X124.203 Y201.234 E0.31330
G1 X124.509 Y201.297 E0.00992
G1 X124.839 Y201.331 E0.01051
G1 X117.121 Y193.613 E0.34621
G1 X117.081 Y193.033 E0.01843
G1 X125.435 Y201.387 E0.37474
G1 X125.974 Y201.387 E0.01711
G1 X117.067 Y192.480 E0.39957
G1 X117.093 Y191.967 E0.01631
G1 X126.493 Y201.366 E0.42165
G1 X126.982 Y201.316 E0.01561
G1 X117.144 Y191.478 E0.44133
G1 X117.216 Y191.010 E0.01501
G1 X127.446 Y201.240 E0.45891
G1 X127.893 Y201.148 E0.01449
G1 X117.313 Y190.568 E0.47460
G1 X117.424 Y190.140 E0.01404
G1 X128.316 Y201.032 E0.48859
G1 X128.727 Y200.903 E0.01365
G1 X117.558 Y189.734 E0.50101
G1 X117.704 Y189.340 E0.01332
G1 X129.117 Y200.754 E0.51198
G1 X129.495 Y200.592 E0.01303
G1 X117.867 Y188.964 E0.52161
G1 X118.044 Y188.602 E0.01279
G1 X129.859 Y200.416 E0.52997
G1 X130.206 Y200.224 E0.01259
G1 X118.232 Y188.250 E0.53713
G1 X118.439 Y187.917 E0.01242
G1 X130.547 Y200.025 E0.54314
G1 X130.865 Y199.804 E0.01229
G1 X118.648 Y187.587 E0.54804
G1 X118.883 Y187.283 E0.01220
G1 X131.183 Y199.582 E0.55175
G1 X131.476 Y199.336 E0.01214
G1 X119.118 Y186.979 E0.55433
G1 X119.374 Y186.695 E0.01212
G1 X131.766 Y199.087 E0.55587
G1 X132.040 Y198.821 E0.01210
G1 X119.637 Y186.418 E0.55638
G1 X119.912 Y186.153 E0.01210
G1 X132.303 Y198.545 E0.55587
G1 X132.559 Y198.261 E0.01212
G1 X120.202 Y185.904 E0.55433
G1 X120.495 Y185.657 E0.01214
G1 X132.795 Y197.957 E0.55175
G1 X133.030 Y197.653 E0.01220
G1 X120.813 Y185.436 E0.54804
G1 X121.131 Y185.215 E0.01229
G1 X133.239 Y197.323 E0.54314
G1 X133.446 Y196.990 E0.01242
G1 X121.472 Y185.016 E0.53713
G1 X121.819 Y184.824 E0.01259
G1 X133.633 Y196.638 E0.52997
G1 X133.811 Y196.276 E0.01279
G1 X122.183 Y184.648 E0.52161
G1 X122.560 Y184.486 E0.01303
G1 X133.974 Y195.899 E0.51198
G1 X134.119 Y195.506 E0.01332
G1 X122.951 Y184.337 E0.50101
G1 X123.361 Y184.208 E0.01365
G1 X134.253 Y195.100 E0.48859
G1 X134.364 Y194.672 E0.01404
G1 X123.784 Y184.091 E0.47461
G1 X124.232 Y183.999 E0.01449
G1 X134.462 Y194.230 E0.45892
G1 X134.534 Y193.762 E0.01501
G1 X124.695 Y183.924 E0.44134
G1 X125.185 Y183.874 E0.01561
G1 X134.584 Y193.273 E0.42165
G1 X134.610 Y192.760 E0.01631
G1 X125.703 Y183.852 E0.39957
G1 X126.243 Y183.852 E0.01711
G1 X134.597 Y192.206 E0.37475
G1 X134.556 Y191.627 E0.01843
G1 X126.838 Y183.909 E0.34622
G1 X127.168 Y183.942 E0.01051
G1 X127.474 Y184.005 E0.00992
G1 X134.459 Y190.990 E0.31331
G1 X134.290 Y190.281 E0.02310
G1 X128.171 Y184.163 E0.27446
G1 X128.972 Y184.424 E0.02670
G1 X134.024 Y189.476 E0.22663
G1 X133.906 Y189.158 E0.01075
G1 X133.579 Y188.492 E0.02353
G1 X129.977 Y184.889 E0.16161
G1 X130.482 Y185.170 E0.01835
G1 X131.212 Y185.678 E0.02821
G1 X131.866 Y186.239 E0.02734
G1 X133.264 Y187.637 E0.06270
G1 F8640.000
G1 X131.866 Y186.239 E-0.45641
G1 X131.212 Y185.678 E-0.19905
G1 X130.841 Y185.419 E-0.10454
G1 E-0.04000 F2100.00000
G1 Z0.800 F10800.000
G1 X120.163 Y178.956
G1 Z0.200
G1 E0.80000 F2100.00000
G1 F1200.000
G1 X119.677 Y179.735 E0.02878
G1 X119.116 Y180.460 E0.02878
G1 X118.483 Y181.126 E0.02878
G1 X117.787 Y181.724 E0.02878
G1 X117.033 Y182.248 E0.02878
G1 X116.231 Y182.694 E0.02878
G1 X115.387 Y183.056 E0.02878
G1 X114.511 Y183.330 E0.02878
G1 X113.612 Y183.515 E0.02878
G1 X112.699 Y183.608 E0.02878
G1 X111.781 Y183.608 E0.02878
G1 X110.868 Y183.515 E0.02878
G1 X109.968 Y183.330 E0.02878
G1 X109.093 Y183.056 E0.02878
G1 X108.249 Y182.694 E0.02878
G1 X107.446 Y182.248 E0.02878
G1 X106.693 Y181.724 E0.02878
G1 X105.996 Y181.126 E0.02878
G1 X105.364 Y180.460 E0.02878
G1 X104.802 Y179.735 E0.02878
G1 X104.317 Y178.956 E0.02878
G1 X103.912 Y178.131 E0.02878
G1 X103.593 Y177.271 E0.02878
G1 X103.363 Y176.382 E0.02878
G1 X103.224 Y175.475 E0.02878
G1 X103.178 Y174.558 E0.02878
G1 X103.224 Y173.641 E0.02878
G1 X103.363 Y172.734 E0.02878
G1 X103.593 Y171.845 E0.02878
G1 X103.912 Y170.984 E0.02878
G1 X104.317 Y170.160 E0.02878
G1 X104.802 Y169.381 E0.02878
G1 X105.364 Y168.655 E0.02878
G1 X105.996 Y167.990 E0.02878
G1 X106.693 Y167.392 E0.02878
G1 X107.446 Y166.867 E0.02878
G1 X108.249 Y166.422 E0.02878
G1 X109.093 Y166.060 E0.02878
G1 X109.968 Y165.785 E0.02878
G1 X110.868 Y165.600 E0.02878
G1 X111.781 Y165.507 E0.02878
G1 X112.699 Y165.507 E0.02878
G1 X113.612 Y165.600 E0.02878
G1 X114.511 Y165.785 E0.02878
G1 X115.387 Y166.060 E0.02878
G1 X116.231 Y166.422 E0.02878
G1 X117.033 Y166.867 E0.02878
G1 X117.787 Y167.392 E0.02878
G1 X118.483 Y167.990 E0.02878
G1 X119.116 Y168.655 E0.02878
G1 X119.677 Y169.381 E0.02878
G1 X120.163 Y170.160 E0.02878
G1 X120.567 Y170.984 E0.02878
G1 X120.886 Y171.845 E0.02878
G1 X121.116 Y172.734 E0.02878
G1 X121.255 Y173.641 E0.02878
G1 X121.302 Y174.558 E0.02878
G1 X121.255 Y175.475 E0.02878
G1 X121.116 Y176.382 E0.02878
G1 X120.886 Y177.271 E0.02878
G1 X120.567 Y178.131 E0.02878
G1 X120.189 Y178.902 E0.02690
G1 X120.528 Y179.068 F10800.000
G1 F1200.000
G1 X119.987 Y179.950 E0.03245
G1 X119.402 Y180.706 E0.02998
G1 X118.743 Y181.399 E0.02998
G1 X118.018 Y182.022 E0.02998
G1 X117.233 Y182.569 E0.02998
G1 X116.397 Y183.033 E0.02998
G1 X115.518 Y183.410 E0.02998
G1 X114.606 Y183.696 E0.02998
G1 X113.669 Y183.888 E0.02998
G1 X112.718 Y183.985 E0.02998
G1 X111.762 Y183.985 E0.02998
G1 X110.810 Y183.888 E0.02998
G1 X109.874 Y183.696 E0.02998
G1 X108.961 Y183.410 E0.02998
G1 X108.083 Y183.033 E0.02998
G1 X107.247 Y182.569 E0.02998
G1 X106.462 Y182.022 E0.02998
G1 X105.736 Y181.399 E0.02998
G1 X105.078 Y180.706 E0.02998
G1 X104.492 Y179.950 E0.02998
G1 X103.986 Y179.139 E0.02998
G1 X103.565 Y178.280 E0.02998
G1 X103.233 Y177.384 E0.02998
G1 X102.994 Y176.458 E0.02998
G1 X102.849 Y175.513 E0.02998
G1 X102.800 Y174.558 E0.02998
G1 X102.849 Y173.603 E0.02998
G1 X102.994 Y172.658 E0.02998
G1 X103.233 Y171.732 E0.02998
G1 X103.565 Y170.835 E0.02998
G1 X103.986 Y169.977 E0.02998
G1 X104.492 Y169.165 E0.02998
G1 X105.078 Y168.409 E0.02998
G1 X105.736 Y167.716 E0.02998
G1 X106.462 Y167.093 E0.02998
G1 X107.247 Y166.547 E0.02998
G1 X108.083 Y166.083 E0.02998
G1 X108.961 Y165.706 E0.02998
G1 X109.874 Y165.420 E0.02998
G1 X110.810 Y165.227 E0.02998
G1 X111.762 Y165.130 E0.02998
G1 X112.718 Y165.130 E0.02998
G1 X113.669 Y165.227 E0.02998
G1 X114.606 Y165.420 E0.02998
G1 X115.518 Y165.706 E0.02998
G1 X116.397 Y166.083 E0.02998
G1 X117.233 Y166.547 E0.02998
G1 X118.018 Y167.093 E0.02998
G1 X118.743 Y167.716 E0.02998
G1 X119.402 Y168.409 E0.02998
G1 X119.987 Y169.165 E0.02998
G1 X120.493 Y169.977 E0.02998
G1 X120.914 Y170.835 E0.02998
G1 X121.246 Y171.732 E0.02998
G1 X121.486 Y172.658 E0.02998
G1 X121.631 Y173.603 E0.02998
G1 X121.679 Y174.558 E0.02998
G1 X121.631 Y175.513 E0.02998
G1 X121.486 Y176.458 E0.02998
G1 X121.246 Y177.384 E0.02998
G1 X120.914 Y178.280 E0.02998
G1 X120.554 Y179.014 E0.02562
G1 X120.128 Y179.077 F10800.000
G1 F8640.000
G1 X119.987 Y179.950 E-0.25277
G1 X119.402 Y180.706 E-0.22079
G1 X118.743 Y181.399 E-0.22079
G1 X118.528 Y181.585 E-0.06565
G1 E-0.04000 F2100.00000
G1 Z0.800 F10800.000
G1 X104.815 Y179.541
G1 Z0.200
G1 E0.80000 F2100.00000
G1 F1200.000
G1 X106.211 Y180.938 E0.06265
G1 X106.866 Y181.500 E0.02738
G1 X107.596 Y182.008 E0.02821
G1 X108.102 Y182.288 E0.01834
G1 X104.499 Y178.686 E0.16159
G1 X104.172 Y178.020 E0.02354
G1 X104.055 Y177.702 E0.01074
G1 X109.107 Y182.754 E0.22662
G1 X109.907 Y183.015 E0.02670
G1 X103.789 Y176.896 E0.27446
G1 X103.620 Y176.188 E0.02310
G1 X110.604 Y183.172 E0.31330
G1 X110.910 Y183.235 E0.00992
G1 X111.240 Y183.269 E0.01051
G1 X103.522 Y175.551 E0.34621
G1 X103.482 Y174.971 E0.01843
G1 X111.836 Y183.325 E0.37474
G1 X112.375 Y183.325 E0.01711
G1 X103.468 Y174.418 E0.39957
G1 X103.494 Y173.904 E0.01631
G1 X112.894 Y183.304 E0.42165
G1 X113.383 Y183.254 E0.01561
G1 X103.545 Y173.416 E0.44133
G1 X103.617 Y172.948 E0.01501
G1 X113.847 Y183.178 E0.45891
G1 X114.294 Y183.086 E0.01449
G1 X103.714 Y172.506 E0.47460
G1 X103.825 Y172.078 E0.01404
G1 X114.717 Y182.969 E0.48859
G1 X115.128 Y182.841 E0.01365
G1 X103.959 Y171.672 E0.50101
G1 X104.105 Y171.278 E0.01332
G1 X115.518 Y182.692 E0.51198
G1 X115.896 Y182.530 E0.01303
G1 X104.268 Y170.902 E0.52161
G1 X104.445 Y170.540 E0.01279
G1 X116.260 Y182.354 E0.52997
G1 X116.607 Y182.161 E0.01259
G1 X104.633 Y170.188 E0.53713
