; generated by PrusaSlicer 2.2.0+win64 on 2020-11-09 at 19:12:25 UTC

; 

; external perimeters extrusion width = 0.60mm
; perimeters extrusion width = 0.43mm
; infill extrusion width = 0.45mm
; solid infill extrusion width = 0.70mm
; top infill extrusion width = 0.43mm
; first layer extrusion width = 0.42mm

M73 P0 R75
M201 X9000 Y9000 Z500 E10000 ; sets maximum accelerations, mm/sec^2
M203 X500 Y500 Z12 E120 ; sets maximum feedrates, mm/sec
M204 P2000 R1500 T2000 ; sets acceleration (P, T) and retract acceleration (R), mm/sec^2
M205 X10.00 Y10.00 Z0.20 E4.50 ; sets the jerk limits, mm/sec
M205 S0 T0 ; sets the minimum extruding and travel feed rate, mm/sec
M107
M862.3 P "MK2.5SMMU2S" ; printer model check
M862.1 P0.4 ; nozzle diameter check
M115 U3.9.1 ; tell printer latest fw version
G90 ; use absolute coordinates
M83 ; extruder relative mode
M104 S215 ; set extruder temp
M140 S60 ; set bed temp
Tx
M190 S60 ; wait for bed temp
M109 S215 ; wait for extruder temp
G28 W ; home all without mesh bed level
G80 ; mesh bed leveling

;go outside print area
G1 Y-3.0 F1000.0
G1 Z0.4 F1000.0
; select extruder
Tc
; purge line
G1 X55.0 F2000.0
G1 Z0.3 F1000.0
G92 E0.0
G1 X240.0 E25.0 F2200.0
M73 P0 R75
G1 Y-2.0 F1000.0
G1 X55.0 E25 F1400.0
G1 Z0.20 F1000.0
G1 X5.0 E4.0 F1000.0
G92 E0.0
G21 ; set units to millimeters
G90 ; use absolute coordinates
M83 ; use relative distances for extrusion
M900 K0.06 ; Filament gcode LA 1.5
M900 K30 ; Filament gcode LA 1.0
;BEFORE_LAYER_CHANGE
G92 E0.0
;0.2


G1 E-0.80000 F2100.00000
G1 Z0.600 F10800.000
;AFTER_LAYER_CHANGE
;0.2
G1 X46.769 Y16.379
G1 Z0.200
G1 E0.80000 F2100.00000
M204 S1000
G1 F1200.000
G1 X47.309 Y15.858 E0.02355
G1 X56.708 Y9.435 E0.35692
G1 X57.227 Y9.175 E0.01823
G1 X57.795 Y9.049 E0.01823
G1 X120.634 Y5.003 E1.97435
G1 X165.032 Y5.001 E1.39206
G1 X165.806 Y5.132 E0.02461
G1 X166.495 Y5.507 E0.02461
G1 X197.913 Y30.588 E1.26049
G1 X198.429 Y31.164 E0.02426
G1 X199.917 Y34.234 E0.10697
G1 X218.323 Y88.047 E1.78320
G1 X218.627 Y89.197 E0.03732
G1 X218.847 Y90.635 E0.04562
G1 X218.901 Y91.770 E0.03561
G1 X218.836 Y93.018 E0.03919
G1 X209.869 Y168.441 E2.38148
G1 X209.663 Y169.715 E0.04047
G1 X209.378 Y170.803 E0.03525
G1 X208.987 Y171.866 E0.03549
G1 X208.404 Y173.073 E0.04205
G1 X207.697 Y174.195 E0.04158
G1 X206.912 Y175.192 E0.03978
G1 X206.135 Y176.004 E0.03525
G1 X205.286 Y176.737 E0.03513
G1 X204.194 Y177.508 E0.04193
G1 X203.122 Y178.106 E0.03848
G1 X151.610 Y203.763 E1.80439
G1 X150.492 Y204.241 E0.03814
G1 X149.302 Y204.613 E0.03907
G1 X148.092 Y204.861 E0.03872
G1 X146.784 Y204.987 E0.04122
G1 X94.274 Y204.987 E1.64642
G1 X92.950 Y204.861 E0.04169
G1 X91.733 Y204.612 E0.03896
G1 X90.540 Y204.239 E0.03919
G1 X89.390 Y203.744 E0.03924
G1 X37.922 Y178.109 E1.80286
G1 X36.860 Y177.519 E0.03807
G1 X35.868 Y176.830 E0.03788
G1 X34.904 Y176.005 E0.03979
G1 X34.053 Y175.110 E0.03872
G1 X33.292 Y174.128 E0.03895
G1 X32.640 Y173.084 E0.03860
G1 X32.091 Y171.965 E0.03907
G1 X31.662 Y170.807 E0.03872
G1 X31.351 Y169.609 E0.03883
G1 X31.169 Y168.441 E0.03704
G1 X31.099 Y167.144 E0.04074
G1 X31.099 Y141.506 E0.80386
G1 X31.155 Y140.351 E0.03625
G1 X45.152 Y24.828 E3.64861
G1 X46.335 Y17.360 E0.23708
G1 X46.496 Y16.845 E0.01692
G1 X46.738 Y16.431 E0.01504
G1 F8640.000
G1 X47.309 Y15.858 E-0.18679
G1 X49.359 Y14.457 E-0.57321
G1 E-0.04000 F2100.00000
G1 Z0.800 F10800.000
G1 X110.900 Y132.448
G1 Z0.200
G1 E0.80000 F2100.00000
G1 F1200.000
G1 X175.540 Y132.448 E2.02673
G1 X175.503 Y134.573 E0.06666
G1 X110.937 Y134.573 E2.02443
G1 X110.901 Y132.508 E0.06478
G1 X110.517 Y132.070 F10800.000
G1 F1200.000
G1 X175.923 Y132.070 E2.05078
G1 X175.874 Y134.950 E0.09031
G1 X110.566 Y134.950 E2.04767
G1 X110.518 Y132.130 E0.08843
G1 X110.917 Y132.076 F10800.000
G1 F8640.000
G1 X113.809 Y132.127 E-0.76000
G1 E-0.04000 F2100.00000
G1 Z0.800 F10800.000
G1 X175.412 Y133.312
G1 Z0.200
G1 E0.80000 F2100.00000
M73 P1 R74
G1 F1200.000
G1 X174.830 Y132.730 E0.02590
G1 X174.295 Y132.730 E0.01683
G1 X175.236 Y133.672 E0.04188
G1 X175.227 Y134.198 E0.01655
G1 X173.760 Y132.730 E0.06528
G1 X173.225 Y132.730 E0.01683
G1 X174.785 Y134.291 E0.06942
G1 X174.250 Y134.291 E0.01683
G1 X172.689 Y132.730 E0.06942
G1 X172.154 Y132.730 E0.01683
G1 X173.715 Y134.291 E0.06942
G1 X173.179 Y134.291 E0.01683
G1 X171.619 Y132.730 E0.06942
G1 X171.084 Y132.730 E0.01683
G1 X172.644 Y134.291 E0.06942
G1 X172.109 Y134.291 E0.01683
G1 X170.549 Y132.730 E0.06942
G1 X170.014 Y132.730 E0.01683
G1 X171.574 Y134.291 E0.06942
G1 X171.039 Y134.291 E0.01683
G1 X169.479 Y132.730 E0.06942
G1 X168.944 Y132.730 E0.01683
G1 X170.504 Y134.291 E0.06942
G1 X169.969 Y134.291 E0.01683
G1 X168.409 Y132.730 E0.06942
G1 X167.874 Y132.730 E0.01683
G1 X169.434 Y134.291 E0.06942
G1 X168.899 Y134.291 E0.01683
G1 X167.338 Y132.730 E0.06942
G1 X166.803 Y132.730 E0.01683
G1 X168.364 Y134.291 E0.06942
G1 X167.829 Y134.291 E0.01683
G1 X166.268 Y132.730 E0.06942
G1 X165.733 Y132.730 E0.01683
G1 X167.293 Y134.291 E0.06942
G1 X166.758 Y134.291 E0.01683
G1 X165.198 Y132.730 E0.06942
G1 X164.663 Y132.730 E0.01683
G1 X166.223 Y134.291 E0.06942
G1 X165.688 Y134.291 E0.01683
G1 X164.128 Y132.730 E0.06942
G1 X163.593 Y132.730 E0.01683
G1 X165.153 Y134.291 E0.06942
G1 X164.618 Y134.291 E0.01683
G1 X163.058 Y132.730 E0.06942
G1 X162.523 Y132.730 E0.01683
G1 X164.083 Y134.291 E0.06942
G1 X163.548 Y134.291 E0.01683
G1 X161.988 Y132.730 E0.06942
G1 X161.452 Y132.730 E0.01683
G1 X163.013 Y134.291 E0.06942
G1 X162.478 Y134.291 E0.01683
G1 X160.917 Y132.730 E0.06942
G1 X160.382 Y132.730 E0.01683
G1 X161.943 Y134.291 E0.06942
G1 X161.407 Y134.291 E0.01683
G1 X159.847 Y132.730 E0.06942
G1 X159.312 Y132.730 E0.01683
G1 X160.872 Y134.291 E0.06942
G1 X160.337 Y134.291 E0.01683
G1 X158.777 Y132.730 E0.06942
G1 X158.242 Y132.730 E0.01683
G1 X159.802 Y134.291 E0.06942
G1 X159.267 Y134.291 E0.01683
G1 X157.707 Y132.730 E0.06942
G1 X157.172 Y132.730 E0.01683
G1 X158.732 Y134.291 E0.06942
G1 X158.197 Y134.291 E0.01683
G1 X156.637 Y132.730 E0.06942
G1 X156.102 Y132.730 E0.01683
G1 X157.662 Y134.291 E0.06942
G1 X157.127 Y134.291 E0.01683
G1 X155.566 Y132.730 E0.06942
G1 X155.031 Y132.730 E0.01683
G1 X156.592 Y134.291 E0.06942
G1 X156.056 Y134.291 E0.01683
G1 X154.496 Y132.730 E0.06942
G1 X153.961 Y132.730 E0.01683
G1 X155.521 Y134.291 E0.06942
G1 X154.986 Y134.291 E0.01683
G1 X153.426 Y132.730 E0.06942
G1 X152.891 Y132.730 E0.01683
G1 X154.451 Y134.291 E0.06942
G1 X153.916 Y134.291 E0.01683
G1 X152.356 Y132.730 E0.06942
G1 X151.821 Y132.730 E0.01683
G1 X153.381 Y134.291 E0.06942
G1 X152.846 Y134.291 E0.01683
G1 X151.286 Y132.730 E0.06942
G1 X150.751 Y132.730 E0.01683
G1 X152.311 Y134.291 E0.06942
G1 X151.776 Y134.291 E0.01683
G1 X150.216 Y132.730 E0.06942
G1 X149.680 Y132.730 E0.01683
G1 X151.241 Y134.291 E0.06942
G1 X150.706 Y134.291 E0.01683
G1 X149.145 Y132.730 E0.06942
G1 X148.610 Y132.730 E0.01683
G1 X150.170 Y134.291 E0.06942
G1 X149.635 Y134.291 E0.01683
G1 X148.075 Y132.730 E0.06942
G1 X147.540 Y132.730 E0.01683
G1 X149.100 Y134.291 E0.06942
G1 X148.565 Y134.291 E0.01683
G1 X147.005 Y132.730 E0.06942
G1 X146.470 Y132.730 E0.01683
G1 X148.030 Y134.291 E0.06942
G1 X147.495 Y134.291 E0.01683
G1 X145.935 Y132.730 E0.06942
G1 X145.400 Y132.730 E0.01683
G1 X146.960 Y134.291 E0.06942
G1 X146.425 Y134.291 E0.01683
G1 X144.865 Y132.730 E0.06942
G1 X144.329 Y132.730 E0.01683
G1 X145.890 Y134.291 E0.06942
G1 X145.355 Y134.291 E0.01683
G1 X143.794 Y132.730 E0.06942
G1 X143.259 Y132.730 E0.01683
G1 X144.820 Y134.291 E0.06942
G1 X144.284 Y134.291 E0.01683
G1 X142.724 Y132.730 E0.06942
G1 X142.189 Y132.730 E0.01683
G1 X143.749 Y134.291 E0.06942
G1 X143.214 Y134.291 E0.01683
G1 X141.654 Y132.730 E0.06942
G1 X141.119 Y132.730 E0.01683
G1 X142.679 Y134.291 E0.06942
G1 X142.144 Y134.291 E0.01683
G1 X140.584 Y132.730 E0.06942
G1 X140.049 Y132.730 E0.01683
G1 X141.609 Y134.291 E0.06942
G1 X141.074 Y134.291 E0.01683
G1 X139.514 Y132.730 E0.06942
G1 X138.979 Y132.730 E0.01683
G1 X140.539 Y134.291 E0.06942
G1 X140.004 Y134.291 E0.01683
G1 X138.443 Y132.730 E0.06942
G1 X137.908 Y132.730 E0.01683
G1 X139.469 Y134.291 E0.06942
G1 X138.934 Y134.291 E0.01683
G1 X137.373 Y132.730 E0.06942
G1 X136.838 Y132.730 E0.01683
G1 X138.398 Y134.291 E0.06942
G1 X137.863 Y134.291 E0.01683
G1 X136.303 Y132.730 E0.06942
G1 X135.768 Y132.730 E0.01683
G1 X137.328 Y134.291 E0.06942
G1 X136.793 Y134.291 E0.01683
G1 X135.233 Y132.730 E0.06942
G1 X134.698 Y132.730 E0.01683
G1 X136.258 Y134.291 E0.06942
G1 X135.723 Y134.291 E0.01683
G1 X134.163 Y132.730 E0.06942
G1 X133.628 Y132.730 E0.01683
G1 X135.188 Y134.291 E0.06942
G1 X134.653 Y134.291 E0.01683
G1 X133.093 Y132.730 E0.06942
G1 X132.557 Y132.730 E0.01683
G1 X134.118 Y134.291 E0.06942
G1 X133.583 Y134.291 E0.01683
G1 X132.022 Y132.730 E0.06942
G1 X131.487 Y132.730 E0.01683
G1 X133.047 Y134.291 E0.06942
G1 X132.512 Y134.291 E0.01683
G1 X130.952 Y132.730 E0.06942
G1 X130.417 Y132.730 E0.01683
G1 X131.977 Y134.291 E0.06942
G1 X131.442 Y134.291 E0.01683
G1 X129.882 Y132.730 E0.06942
G1 X129.347 Y132.730 E0.01683
G1 X130.907 Y134.291 E0.06942
G1 X130.372 Y134.291 E0.01683
G1 X128.812 Y132.730 E0.06942
G1 X128.277 Y132.730 E0.01683
G1 X129.837 Y134.291 E0.06942
G1 X129.302 Y134.291 E0.01683
G1 X127.742 Y132.730 E0.06942
G1 X127.207 Y132.730 E0.01683
G1 X128.767 Y134.291 E0.06942
G1 X128.232 Y134.291 E0.01683
G1 X126.671 Y132.730 E0.06942
G1 X126.136 Y132.730 E0.01683
G1 X127.697 Y134.291 E0.06942
G1 X127.161 Y134.291 E0.01683
G1 X125.601 Y132.730 E0.06942
G1 X125.066 Y132.730 E0.01683
G1 X126.626 Y134.291 E0.06942
G1 X126.091 Y134.291 E0.01683
G1 X124.531 Y132.730 E0.06942
G1 X123.996 Y132.730 E0.01683
G1 X125.556 Y134.291 E0.06942
G1 X125.021 Y134.291 E0.01683
G1 X123.461 Y132.730 E0.06942
G1 X122.926 Y132.730 E0.01683
G1 X124.486 Y134.291 E0.06942
G1 X123.951 Y134.291 E0.01683
G1 X122.391 Y132.730 E0.06942
G1 X121.856 Y132.730 E0.01683
G1 X123.416 Y134.291 E0.06942
G1 X122.881 Y134.291 E0.01683
G1 X121.320 Y132.730 E0.06942
G1 X120.785 Y132.730 E0.01683
G1 X122.346 Y134.291 E0.06942
G1 X121.811 Y134.291 E0.01683
G1 X120.250 Y132.730 E0.06942
G1 X119.715 Y132.730 E0.01683
G1 X121.275 Y134.291 E0.06942
G1 X120.740 Y134.291 E0.01683
G1 X119.180 Y132.730 E0.06942
G1 X118.645 Y132.730 E0.01683
G1 X120.205 Y134.291 E0.06942
G1 X119.670 Y134.291 E0.01683
G1 X118.110 Y132.730 E0.06942
G1 X117.575 Y132.730 E0.01683
G1 X119.135 Y134.291 E0.06942
G1 X118.600 Y134.291 E0.01683
G1 X117.040 Y132.730 E0.06942
G1 X116.505 Y132.730 E0.01683
G1 X118.065 Y134.291 E0.06942
G1 X117.530 Y134.291 E0.01683
G1 X115.970 Y132.730 E0.06942
G1 X115.434 Y132.730 E0.01683
G1 X116.995 Y134.291 E0.06942
G1 X116.460 Y134.291 E0.01683
G1 X114.899 Y132.730 E0.06942
G1 X114.364 Y132.730 E0.01683
G1 X115.925 Y134.291 E0.06942
G1 X115.389 Y134.291 E0.01683
G1 X113.829 Y132.730 E0.06942
G1 X113.294 Y132.730 E0.01683
G1 X114.854 Y134.291 E0.06942
G1 X114.319 Y134.291 E0.01683
G1 X112.759 Y132.730 E0.06942
G1 X112.224 Y132.730 E0.01683
G1 X113.784 Y134.291 E0.06942
G1 X113.249 Y134.291 E0.01683
G1 X111.689 Y132.730 E0.06942
G1 X111.188 Y132.730 E0.01575
G1 X111.189 Y132.765 E0.00110
G1 X112.714 Y134.291 E0.06786
G1 X112.179 Y134.291 E0.01683
G1 X111.198 Y133.310 E0.04364
G1 X111.207 Y133.854 E0.01713
G1 X111.813 Y134.460 E0.02696
G1 F8640.000
G1 X111.207 Y133.854 E-0.19787
G1 X111.198 Y133.310 E-0.12574
G1 X112.179 Y134.291 E-0.32026
G1 X112.682 Y134.291 E-0.11613
G1 E-0.04000 F2100.00000
G1 Z0.800 F10800.000
G1 X110.937 Y124.873
G1 Z0.200
G1 E0.80000 F2100.00000
G1 F1200.000
G1 X110.900 Y122.748 E0.06666
G1 X175.540 Y122.748 E2.02673
G1 X175.503 Y124.873 E0.06666
G1 X110.997 Y124.873 E2.02255
G1 X110.566 Y125.250 F10800.000
G1 F1200.000
G1 X110.517 Y122.370 E0.09031
G1 X175.923 Y122.370 E2.05078
G1 X175.874 Y125.250 E0.09031
G1 X110.626 Y125.250 E2.04579
G1 X110.757 Y124.899 F10800.000
G1 F8640.000
G1 X110.517 Y122.370 E-0.66548
G1 X110.926 Y122.370 E-0.09452
G1 E-0.04000 F2100.00000
G1 Z0.800 F10800.000
G1 X175.412 Y123.612
G1 Z0.200
G1 E0.80000 F2100.00000
G1 F1200.000
G1 X174.830 Y123.030 E0.02590
G1 X174.295 Y123.030 E0.01683
G1 X175.236 Y123.972 E0.04188
G1 X175.227 Y124.498 E0.01655
G1 X173.760 Y123.030 E0.06528
G1 X173.225 Y123.030 E0.01683
G1 X174.785 Y124.591 E0.06942
G1 X174.250 Y124.591 E0.01683
G1 X172.689 Y123.030 E0.06942
G1 X172.154 Y123.030 E0.01683
G1 X173.715 Y124.591 E0.06942
G1 X173.179 Y124.591 E0.01683
G1 X171.619 Y123.030 E0.06942
G1 X171.084 Y123.030 E0.01683
G1 X172.644 Y124.591 E0.06942
G1 X172.109 Y124.591 E0.01683
G1 X170.549 Y123.030 E0.06942
G1 X170.014 Y123.030 E0.01683
G1 X171.574 Y124.591 E0.06942
G1 X171.039 Y124.591 E0.01683
G1 X169.479 Y123.030 E0.06942
G1 X168.944 Y123.030 E0.01683
G1 X170.504 Y124.591 E0.06942
G1 X169.969 Y124.591 E0.01683
G1 X168.409 Y123.030 E0.06942
G1 X167.874 Y123.030 E0.01683
G1 X169.434 Y124.591 E0.06942
G1 X168.899 Y124.591 E0.01683
G1 X167.338 Y123.030 E0.06942
G1 X166.803 Y123.030 E0.01683
G1 X168.364 Y124.591 E0.06942
G1 X167.829 Y124.591 E0.01683
G1 X166.268 Y123.030 E0.06942
G1 X165.733 Y123.030 E0.01683
G1 X167.293 Y124.591 E0.06942
G1 X166.758 Y124.591 E0.01683
G1 X165.198 Y123.030 E0.06942
G1 X164.663 Y123.030 E0.01683
G1 X166.223 Y124.591 E0.06942
G1 X165.688 Y124.591 E0.01683
G1 X164.128 Y123.030 E0.06942
G1 X163.593 Y123.030 E0.01683
G1 X165.153 Y124.591 E0.06942
G1 X164.618 Y124.591 E0.01683
G1 X163.058 Y123.030 E0.06942
G1 X162.523 Y123.030 E0.01683
G1 X164.083 Y124.591 E0.06942
G1 X163.548 Y124.591 E0.01683
G1 X161.988 Y123.030 E0.06942
G1 X161.452 Y123.030 E0.01683
G1 X163.013 Y124.591 E0.06942
G1 X162.478 Y124.591 E0.01683
G1 X160.917 Y123.030 E0.06942
G1 X160.382 Y123.030 E0.01683
G1 X161.943 Y124.591 E0.06942
G1 X161.407 Y124.591 E0.01683
G1 X159.847 Y123.030 E0.06942
G1 X159.312 Y123.030 E0.01683
G1 X160.872 Y124.591 E0.06942
G1 X160.337 Y124.591 E0.01683
G1 X158.777 Y123.030 E0.06942
G1 X158.242 Y123.030 E0.01683
G1 X159.802 Y124.591 E0.06942
G1 X159.267 Y124.591 E0.01683
G1 X157.707 Y123.030 E0.06942
G1 X157.172 Y123.030 E0.01683
G1 X158.732 Y124.591 E0.06942
G1 X158.197 Y124.591 E0.01683
G1 X156.637 Y123.030 E0.06942
G1 X156.102 Y123.030 E0.01683
G1 X157.662 Y124.591 E0.06942
G1 X157.127 Y124.591 E0.01683
G1 X155.566 Y123.030 E0.06942
G1 X155.031 Y123.030 E0.01683
G1 X156.592 Y124.591 E0.06942
G1 X156.056 Y124.591 E0.01683
G1 X154.496 Y123.030 E0.06942
G1 X153.961 Y123.030 E0.01683
G1 X155.521 Y124.591 E0.06942
G1 X154.986 Y124.591 E0.01683
G1 X153.426 Y123.030 E0.06942
G1 X152.891 Y123.030 E0.01683
G1 X154.451 Y124.591 E0.06942
G1 X153.916 Y124.591 E0.01683
G1 X152.356 Y123.030 E0.06942
G1 X151.821 Y123.030 E0.01683
G1 X153.381 Y124.591 E0.06942
G1 X152.846 Y124.591 E0.01683
G1 X151.286 Y123.030 E0.06942
G1 X150.751 Y123.030 E0.01683
G1 X152.311 Y124.591 E0.06942
G1 X151.776 Y124.591 E0.01683
G1 X150.216 Y123.030 E0.06942
G1 X149.680 Y123.030 E0.01683
G1 X151.241 Y124.591 E0.06942
G1 X150.706 Y124.591 E0.01683
G1 X149.145 Y123.030 E0.06942
G1 X148.610 Y123.030 E0.01683
G1 X150.170 Y124.591 E0.06942
G1 X149.635 Y124.591 E0.01683
G1 X148.075 Y123.030 E0.06942
G1 X147.540 Y123.030 E0.01683
G1 X149.100 Y124.591 E0.06942
G1 X148.565 Y124.591 E0.01683
G1 X147.005 Y123.030 E0.06942
G1 X146.470 Y123.030 E0.01683
G1 X148.030 Y124.591 E0.06942
G1 X147.495 Y124.591 E0.01683
G1 X145.935 Y123.030 E0.06942
G1 X145.400 Y123.030 E0.01683
G1 X146.960 Y124.591 E0.06942
G1 X146.425 Y124.591 E0.01683
G1 X144.865 Y123.030 E0.06942
G1 X144.329 Y123.030 E0.01683
G1 X145.890 Y124.591 E0.06942
G1 X145.355 Y124.591 E0.01683
G1 X143.794 Y123.030 E0.06942
G1 X143.259 Y123.030 E0.01683
G1 X144.820 Y124.591 E0.06942
G1 X144.284 Y124.591 E0.01683
G1 X142.724 Y123.030 E0.06942
G1 X142.189 Y123.030 E0.01683
G1 X143.749 Y124.591 E0.06942
G1 X143.214 Y124.591 E0.01683
G1 X141.654 Y123.030 E0.06942
G1 X141.119 Y123.030 E0.01683
G1 X142.679 Y124.591 E0.06942
G1 X142.144 Y124.591 E0.01683
G1 X140.584 Y123.030 E0.06942
G1 X140.049 Y123.030 E0.01683
G1 X141.609 Y124.591 E0.06942
G1 X141.074 Y124.591 E0.01683
G1 X139.514 Y123.030 E0.06942
