; generated by PrusaSlicer 2.2.0+win64 on 2020-11-09 at 19:12:00 UTC

; 

; external perimeters extrusion width = 0.60mm
; perimeters extrusion width = 0.43mm
; infill extrusion width = 0.45mm
; solid infill extrusion width = 0.70mm
; top infill extrusion width = 0.43mm
; first layer extrusion width = 0.42mm

M73 P0 R19
M201 X9000 Y9000 Z500 E10000 ; sets maximum accelerations, mm/sec^2
M203 X500 Y500 Z12 E120 ; sets maximum feedrates, mm/sec
M204 P2000 R1500 T2000 ; sets acceleration (P, T) and retract acceleration (R), mm/sec^2
M205 X10.00 Y10.00 Z0.20 E4.50 ; sets the jerk limits, mm/sec
M205 S0 T0 ; sets the minimum extruding and travel feed rate, mm/sec
M107
M862.3 P "MK2.5SMMU2S" ; printer model check
M862.1 P0.4 ; nozzle diameter check
M115 U3.9.1 ; tell printer latest fw version
G90 ; use absolute coordinates
M83 ; extruder relative mode
M104 S215 ; set extruder temp
M140 S60 ; set bed temp
Tx
M190 S60 ; wait for bed temp
M109 S215 ; wait for extruder temp
G28 W ; home all without mesh bed level
G80 ; mesh bed leveling

;go outside print area
G1 Y-3.0 F1000.0
G1 Z0.4 F1000.0
; select extruder
Tc
; purge line
G1 X55.0 F2000.0
G1 Z0.3 F1000.0
G92 E0.0
G1 X240.0 E25.0 F2200.0
M73 P0 R19
G1 Y-2.0 F1000.0
G1 X55.0 E25 F1400.0
G1 Z0.20 F1000.0
G1 X5.0 E4.0 F1000.0
G92 E0.0
G21 ; set units to millimeters
G90 ; use absolute coordinates
M83 ; use relative distances for extrusion
M900 K0.06 ; Filament gcode LA 1.5
M900 K30 ; Filament gcode LA 1.0
;BEFORE_LAYER_CHANGE
G92 E0.0
;0.2


G1 E-0.80000 F2100.00000
G1 Z0.600 F10800.000
;AFTER_LAYER_CHANGE
;0.2
G1 X181.778 Y144.378
G1 Z0.200
G1 E0.80000 F2100.00000
M204 S1000
G1 F1200.000
G1 X181.028 Y144.864 E0.02802
G1 X180.155 Y145.038 E0.02790
G1 X113.811 Y145.029 E2.08016
G1 X113.319 Y144.932 E0.01574
G1 X93.821 Y138.845 E0.64043
G1 X92.672 Y138.353 E0.03919
G1 X91.583 Y137.747 E0.03907
G1 X90.564 Y137.037 E0.03895
G1 X89.555 Y136.159 E0.04193
G1 X88.780 Y135.339 E0.03537
G1 X88.076 Y134.434 E0.03597
G1 X69.626 Y109.868 E0.96328
G1 X68.974 Y108.838 E0.03823
G1 X68.388 Y107.661 E0.04122
G1 X67.987 Y106.591 E0.03585
G1 X67.618 Y105.167 E0.04610
G1 X67.450 Y104.048 E0.03549
G1 X67.388 Y102.803 E0.03907
G1 X67.452 Y101.578 E0.03848
G1 X67.649 Y100.309 E0.04027
G1 X67.986 Y99.050 E0.04086
G1 X68.380 Y97.997 E0.03525
G1 X68.874 Y96.982 E0.03537
G1 X69.576 Y95.840 E0.04205
G1 X70.390 Y94.797 E0.04146
G1 X96.946 Y68.304 E1.17615
G1 X97.863 Y67.518 E0.03788
G1 X98.880 Y66.811 E0.03884
G1 X99.963 Y66.210 E0.03883
G1 X101.094 Y65.724 E0.03860
G1 X102.279 Y65.352 E0.03895
G1 X103.485 Y65.103 E0.03860
G1 X104.717 Y64.977 E0.03884
G1 X105.849 Y64.974 E0.03549
G1 X107.226 Y65.106 E0.04336
G1 X173.794 Y76.199 E2.11598
G1 X174.508 Y76.443 E0.02367
G1 X175.110 Y76.899 E0.02367
G1 X175.531 Y77.505 E0.02314
G1 X176.811 Y80.147 E0.09205
G1 X176.993 Y80.778 E0.02060
G1 X182.563 Y129.026 E1.52283
G1 X182.575 Y138.972 E0.31186
G1 X182.508 Y142.782 E0.11946
G1 X182.296 Y143.650 E0.02802
G1 X181.813 Y144.329 E0.02614
G1 F8640.000
G1 X181.028 Y144.864 E-0.21926
G1 X180.155 Y145.038 E-0.20547
G1 X178.703 Y145.038 E-0.33527
G1 E-0.04000 F2100.00000
G1 Z0.800 F10800.000
G1 X173.412 Y96.399
G1 Z0.200
G1 E0.80000 F2100.00000
G1 F1200.000
G1 X172.302 Y96.116 E0.03593
G1 X150.864 Y91.635 E0.68670
G1 X151.805 Y85.694 E0.18861
G1 X152.204 Y85.678 E0.01253
G1 X153.278 Y85.524 E0.03402
G1 X154.331 Y85.262 E0.03402
G1 X155.352 Y84.895 E0.03402
G1 X156.330 Y84.426 E0.03402
G1 X157.256 Y83.860 E0.03402
G1 X158.119 Y83.203 E0.03402
G1 X158.912 Y82.462 E0.03402
G1 X159.625 Y81.645 E0.03402
G1 X160.251 Y80.759 E0.03402
G1 X160.785 Y79.814 E0.03402
G1 X160.997 Y79.329 E0.01662
G1 X172.899 Y79.329 E0.37317
G1 X173.740 Y81.063 E0.06043
G1 X173.284 Y81.779 E0.02661
G1 X172.678 Y82.956 E0.04149
G1 X172.181 Y84.182 E0.04149
G1 X171.797 Y85.449 E0.04149
G1 X171.530 Y86.745 E0.04149
G1 X171.381 Y88.060 E0.04149
G1 X171.352 Y89.383 E0.04149
G1 X171.443 Y90.703 E0.04149
G1 X171.653 Y92.010 E0.04149
G1 X171.981 Y93.292 E0.04149
G1 X172.424 Y94.539 E0.04150
G1 X172.982 Y95.748 E0.04174
G1 X173.237 Y96.164 E0.01530
G1 X173.377 Y96.351 E0.00732
G1 F8640.000
G1 X172.302 Y96.116 E-0.25400
G1 X170.157 Y95.667 E-0.50600
G1 E-0.04000 F2100.00000
G1 Z0.800 F10800.000
G1 X174.544 Y97.173
G1 Z0.200
G1 E0.80000 F2100.00000
G1 F1200.000
G1 X174.122 Y97.085 E0.01353
G1 X173.674 Y96.896 E0.01525
G1 X173.191 Y96.720 E0.01612
G1 X172.219 Y96.483 E0.03135
G1 X150.435 Y91.931 E0.69776
G1 X151.481 Y85.330 E0.20955
G1 X152.170 Y85.302 E0.02162
G1 X153.206 Y85.154 E0.03281
G1 X154.222 Y84.901 E0.03281
G1 X155.206 Y84.547 E0.03281
G1 X156.150 Y84.094 E0.03281
G1 X157.043 Y83.548 E0.03281
G1 X157.876 Y82.915 E0.03281
G1 X158.640 Y82.200 E0.03281
G1 X159.328 Y81.411 E0.03281
G1 X159.933 Y80.557 E0.03281
G1 X160.447 Y79.646 E0.03281
G1 X160.751 Y78.952 E0.02375
G1 X173.135 Y78.952 E0.38831
G1 X174.171 Y81.088 E0.07444
G1 X173.612 Y81.967 E0.03266
G1 X173.021 Y83.113 E0.04042
G1 X172.537 Y84.308 E0.04042
G1 X172.163 Y85.542 E0.04042
G1 X171.903 Y86.804 E0.04042
G1 X171.758 Y88.085 E0.04042
G1 X171.729 Y89.374 E0.04042
G1 X171.818 Y90.660 E0.04042
G1 X172.023 Y91.933 E0.04042
G1 X172.342 Y93.182 E0.04042
G1 X172.773 Y94.397 E0.04042
G1 X173.315 Y95.570 E0.04051
G1 X173.549 Y95.952 E0.01406
G1 X173.815 Y96.308 E0.01392
G1 X174.121 Y96.620 E0.01369
G1 X174.510 Y97.124 E0.01998
G1 X174.180 Y97.008 F10800.000
G1 X174.014 Y96.807
G1 F1200.000
G1 X173.565 Y96.510 E0.00713
G1 X173.580 Y96.489 F10800.000
G1 F1200.000
G1 X174.010 Y96.812 E0.00324
G1 F8640.000
G1 X173.580 Y96.489 E-0.12405
G1 E-0.67595 F2100.00000
G1 Z0.800 F10800.000
G1 X173.561 Y80.954
G1 Z0.200
G1 E0.80000 F2100.00000
G1 F1200.000
G1 X172.219 Y79.611 E0.06025
G1 X171.679 Y79.611 E0.01713
G1 X173.298 Y81.231 E0.07267
G1 X173.088 Y81.561 E0.01241
G1 X171.139 Y79.611 E0.08748
G1 X170.599 Y79.611 E0.01713
G1 X172.898 Y81.911 E0.10319
G1 X172.715 Y82.267 E0.01272
G1 X170.059 Y79.611 E0.11918
G1 X169.520 Y79.611 E0.01713
G1 X172.531 Y82.623 E0.13517
G1 X172.359 Y82.990 E0.01288
G1 X168.980 Y79.611 E0.15166
G1 X168.440 Y79.611 E0.01713
G1 X172.203 Y83.375 E0.16890
G1 X172.048 Y83.759 E0.01315
G1 X167.900 Y79.611 E0.18615
G1 X167.360 Y79.611 E0.01713
G1 X171.896 Y84.147 E0.20358
G1 X171.771 Y84.561 E0.01374
G1 X166.821 Y79.611 E0.22218
G1 X166.281 Y79.611 E0.01713
G1 X171.645 Y84.976 E0.24077
G1 X171.520 Y85.391 E0.01376
G1 X165.741 Y79.611 E0.25940
G1 X165.201 Y79.611 E0.01713
G1 X171.428 Y85.838 E0.27949
G1 X171.336 Y86.286 E0.01450
G1 X164.661 Y79.611 E0.29957
G1 X164.122 Y79.611 E0.01713
G1 X171.246 Y86.736 E0.31978
G1 X171.191 Y87.221 E0.01549
G1 X163.582 Y79.611 E0.34155
G1 X163.042 Y79.611 E0.01713
G1 X171.136 Y87.706 E0.36331
G1 X171.095 Y88.204 E0.01587
G1 X162.502 Y79.611 E0.38568
G1 X161.963 Y79.611 E0.01713
G1 X171.083 Y88.732 E0.40938
G1 X171.072 Y89.261 E0.01677
G1 X161.423 Y79.611 E0.43309
G1 X161.182 Y79.611 E0.00763
G1 X161.091 Y79.820 E0.00721
G1 X171.099 Y89.828 E0.44920
G1 X171.139 Y90.407 E0.01844
G1 X160.906 Y80.175 E0.45929
G1 X160.711 Y80.520 E0.01257
G1 X171.207 Y91.015 E0.47107
G1 X171.310 Y91.658 E0.02068
G1 X160.517 Y80.865 E0.48446
G1 X160.297 Y81.185 E0.01232
G1 X171.443 Y92.331 E0.50030
G1 X171.629 Y93.056 E0.02376
G1 X160.073 Y81.501 E0.51866
G1 X159.850 Y81.817 E0.01229
G1 X171.877 Y93.844 E0.53983
G1 X172.181 Y94.688 E0.02846
G1 X159.598 Y82.105 E0.56475
G1 X159.347 Y82.394 E0.01214
G1 X172.644 Y95.691 E0.59684
G1 X172.770 Y95.943 E0.00894
G1 X172.224 Y95.810 E0.01785
G1 X159.093 Y82.680 E0.58935
G1 X158.814 Y82.941 E0.01212
G1 X171.541 Y95.668 E0.57124
G1 X170.859 Y95.525 E0.02213
G1 X158.535 Y83.202 E0.55313
G1 X158.252 Y83.458 E0.01213
G1 X170.176 Y95.382 E0.53522
G1 X169.494 Y95.240 E0.02213
G1 X157.945 Y83.691 E0.51836
G1 X157.639 Y83.924 E0.01223
G1 X168.811 Y95.097 E0.50149
G1 X168.129 Y94.955 E0.02213
G1 X157.324 Y84.150 E0.48497
M73 P5 R18
G1 X156.989 Y84.355 E0.01246
G1 X167.447 Y94.812 E0.46938
G1 X166.764 Y94.669 E0.02213
G1 X156.654 Y84.559 E0.45378
G1 X156.306 Y84.751 E0.01261
G1 X166.082 Y94.527 E0.43877
G1 X165.399 Y94.384 E0.02213
G1 X155.941 Y84.926 E0.42452
G1 X155.576 Y85.101 E0.01284
G1 X164.717 Y94.242 E0.41027
G1 X164.035 Y94.099 E0.02213
G1 X155.190 Y85.254 E0.39700
G1 X154.793 Y85.397 E0.01339
G1 X163.352 Y93.956 E0.38419
G1 X162.670 Y93.814 E0.02213
G1 X154.394 Y85.538 E0.37145
G1 X153.962 Y85.645 E0.01414
G1 X161.987 Y93.671 E0.36022
G1 X161.305 Y93.528 E0.02213
G1 X153.530 Y85.753 E0.34899
G1 X153.076 Y85.839 E0.01466
G1 X160.623 Y93.386 E0.33874
G1 X159.940 Y93.243 E0.02213
G1 X152.603 Y85.906 E0.32931
G1 X152.121 Y85.964 E0.01541
G1 X159.258 Y93.101 E0.32031
G1 X158.575 Y92.958 E0.02213
G1 X151.985 Y86.367 E0.29582
G1 X151.911 Y86.833 E0.01497
G1 X157.893 Y92.815 E0.26850
G1 X157.210 Y92.673 E0.02213
G1 X151.837 Y87.299 E0.24118
G1 X151.763 Y87.765 E0.01497
G1 X156.528 Y92.530 E0.21387
G1 X155.846 Y92.388 E0.02213
G1 X151.689 Y88.231 E0.18655
G1 X151.616 Y88.697 E0.01497
G1 X155.163 Y92.245 E0.15923
G1 X154.481 Y92.102 E0.02213
G1 X151.542 Y89.163 E0.13191
G1 X151.468 Y89.629 E0.01497
G1 X153.798 Y91.960 E0.10460
G1 X153.116 Y91.817 E0.02213
G1 X151.394 Y90.095 E0.07728
G1 X151.320 Y90.561 E0.01497
G1 X152.434 Y91.674 E0.04996
G1 X151.751 Y91.532 E0.02213
G1 X151.098 Y90.879 E0.02930
G1 F8640.000
G1 X151.751 Y91.532 E-0.21320
G1 X152.434 Y91.674 E-0.16098
G1 X151.320 Y90.561 E-0.36350
G1 X151.336 Y90.466 E-0.02232
G1 E-0.04000 F2100.00000
G1 Z0.800 F10800.000
G1 X160.997 Y104.392
G1 Z0.200
G1 E0.80000 F2100.00000
G1 F1200.000
G1 X172.899 Y104.392 E0.37317
G1 X173.740 Y106.126 E0.06043
G1 X173.284 Y106.842 E0.02661
G1 X172.678 Y108.019 E0.04149
G1 X172.181 Y109.245 E0.04149
G1 X171.797 Y110.512 E0.04149
G1 X171.530 Y111.808 E0.04149
G1 X171.381 Y113.123 E0.04149
G1 X171.352 Y114.446 E0.04149
G1 X171.443 Y115.766 E0.04149
G1 X171.653 Y117.073 E0.04149
G1 X171.981 Y118.355 E0.04149
G1 X172.424 Y119.602 E0.04150
G1 X172.982 Y120.811 E0.04174
G1 X173.237 Y121.227 E0.01530
G1 X173.412 Y121.462 E0.00921
G1 X172.302 Y121.179 E0.03593
G1 X150.864 Y116.698 E0.68670
G1 X151.805 Y110.757 E0.18861
G1 X152.204 Y110.741 E0.01253
G1 X153.278 Y110.587 E0.03402
G1 X154.331 Y110.325 E0.03402
G1 X155.352 Y109.958 E0.03402
G1 X156.330 Y109.489 E0.03402
G1 X157.256 Y108.923 E0.03402
G1 X158.119 Y108.266 E0.03402
G1 X158.912 Y107.525 E0.03402
G1 X159.625 Y106.708 E0.03402
G1 X160.251 Y105.822 E0.03402
G1 X160.785 Y104.877 E0.03402
G1 X160.973 Y104.447 E0.01474
G1 X160.751 Y104.015 F10800.000
G1 F1200.000
G1 X173.135 Y104.015 E0.38831
G1 X174.171 Y106.151 E0.07444
G1 X173.612 Y107.030 E0.03266
G1 X173.021 Y108.176 E0.04042
G1 X172.537 Y109.371 E0.04042
G1 X172.163 Y110.605 E0.04042
G1 X171.903 Y111.867 E0.04042
G1 X171.758 Y113.148 E0.04042
G1 X171.729 Y114.437 E0.04042
G1 X171.818 Y115.723 E0.04042
G1 X172.023 Y116.996 E0.04042
G1 X172.342 Y118.245 E0.04042
G1 X172.773 Y119.460 E0.04042
G1 X173.315 Y120.633 E0.04051
G1 X173.549 Y121.015 E0.01406
G1 X173.815 Y121.371 E0.01392
G1 X174.121 Y121.683 E0.01369
G1 X174.544 Y122.237 E0.02186
G1 X174.122 Y122.148 E0.01353
G1 X173.674 Y121.959 E0.01525
G1 X173.191 Y121.783 E0.01612
G1 X172.219 Y121.547 E0.03135
G1 X150.435 Y116.994 E0.69776
G1 X151.481 Y110.393 E0.20955
G1 X152.170 Y110.365 E0.02162
G1 X153.206 Y110.217 E0.03281
G1 X154.222 Y109.964 E0.03281
G1 X155.206 Y109.610 E0.03281
G1 X156.150 Y109.157 E0.03281
G1 X157.043 Y108.611 E0.03281
G1 X157.876 Y107.978 E0.03281
G1 X158.640 Y107.263 E0.03281
G1 X159.328 Y106.474 E0.03281
G1 X159.933 Y105.620 E0.03281
G1 X160.447 Y104.709 E0.03281
G1 X160.727 Y104.070 E0.02187
G1 X161.062 Y104.266 F10800.000
G1 F8640.000
G1 X164.018 Y104.055 E-0.76000
G1 E-0.04000 F2100.00000
G1 Z0.800 F10800.000
G1 X173.561 Y106.017
G1 Z0.200
G1 E0.80000 F2100.00000
G1 F1200.000
G1 X172.219 Y104.675 E0.06025
G1 X171.679 Y104.675 E0.01713
G1 X173.298 Y106.294 E0.07267
G1 X173.088 Y106.624 E0.01241
G1 X171.139 Y104.675 E0.08748
G1 X170.599 Y104.675 E0.01713
G1 X172.898 Y106.974 E0.10319
G1 X172.715 Y107.330 E0.01272
G1 X170.059 Y104.675 E0.11918
G1 X169.520 Y104.675 E0.01713
G1 X172.531 Y107.686 E0.13517
G1 X172.359 Y108.054 E0.01288
G1 X168.980 Y104.675 E0.15166
G1 X168.440 Y104.675 E0.01713
G1 X172.203 Y108.438 E0.16890
G1 X172.048 Y108.822 E0.01315
G1 X167.900 Y104.675 E0.18615
G1 X167.360 Y104.675 E0.01713
G1 X171.896 Y109.210 E0.20358
G1 X171.771 Y109.625 E0.01374
G1 X166.821 Y104.675 E0.22218
G1 X166.281 Y104.675 E0.01713
G1 X171.645 Y110.039 E0.24077
G1 X171.520 Y110.454 E0.01376
G1 X165.741 Y104.675 E0.25940
G1 X165.201 Y104.675 E0.01713
G1 X171.428 Y110.901 E0.27949
G1 X171.336 Y111.349 E0.01450
G1 X164.661 Y104.675 E0.29957
G1 X164.122 Y104.675 E0.01713
G1 X171.246 Y111.799 E0.31978
G1 X171.191 Y112.284 E0.01549
G1 X163.582 Y104.675 E0.34155
G1 X163.042 Y104.675 E0.01713
G1 X171.136 Y112.769 E0.36331
G1 X171.095 Y113.267 E0.01587
G1 X162.502 Y104.675 E0.38568
G1 X161.963 Y104.675 E0.01713
G1 X171.083 Y113.795 E0.40938
G1 X171.072 Y114.324 E0.01677
G1 X161.423 Y104.675 E0.43309
G1 X161.182 Y104.675 E0.00763
G1 X161.091 Y104.883 E0.00721
G1 X171.099 Y114.891 E0.44920
G1 X171.139 Y115.471 E0.01844
G1 X160.906 Y105.238 E0.45929
G1 X160.711 Y105.583 E0.01257
G1 X171.207 Y116.078 E0.47107
G1 X171.310 Y116.721 E0.02068
G1 X160.517 Y105.928 E0.48446
G1 X160.297 Y106.248 E0.01232
G1 X171.443 Y117.394 E0.50030
G1 X171.629 Y118.119 E0.02376
G1 X160.073 Y106.564 E0.51866
G1 X159.850 Y106.880 E0.01229
G1 X171.877 Y118.907 E0.53983
G1 X172.181 Y119.751 E0.02846
G1 X159.598 Y107.169 E0.56475
G1 X159.347 Y107.457 E0.01214
G1 X172.644 Y120.754 E0.59684
G1 X172.770 Y121.006 E0.00894
G1 X172.224 Y120.873 E0.01785
G1 X159.093 Y107.743 E0.58935
G1 X158.814 Y108.004 E0.01212
G1 X171.541 Y120.731 E0.57124
G1 X170.859 Y120.588 E0.02213
G1 X158.535 Y108.265 E0.55313
G1 X158.252 Y108.521 E0.01213
G1 X170.176 Y120.446 E0.53522
G1 X169.494 Y120.303 E0.02213
G1 X157.945 Y108.754 E0.51836
G1 X157.639 Y108.987 E0.01223
G1 X168.811 Y120.160 E0.50149
G1 X168.129 Y120.018 E0.02213
G1 X157.324 Y109.213 E0.48497
G1 X156.989 Y109.418 E0.01246
G1 X167.447 Y119.875 E0.46938
G1 X166.764 Y119.732 E0.02213
G1 X156.654 Y109.622 E0.45378
G1 X156.306 Y109.814 E0.01261
G1 X166.082 Y119.590 E0.43877
G1 X165.399 Y119.447 E0.02213
G1 X155.941 Y109.989 E0.42452
G1 X155.576 Y110.164 E0.01284
G1 X164.717 Y119.305 E0.41027
G1 X164.035 Y119.162 E0.02213
G1 X155.190 Y110.317 E0.39700
G1 X154.793 Y110.460 E0.01339
G1 X163.352 Y119.019 E0.38419
G1 X162.670 Y118.877 E0.02213
G1 X154.394 Y110.601 E0.37145
G1 X153.962 Y110.709 E0.01414
G1 X161.987 Y118.734 E0.36022
G1 X161.305 Y118.592 E0.02213
G1 X153.530 Y110.816 E0.34899
G1 X153.076 Y110.902 E0.01466
G1 X160.623 Y118.449 E0.33874
G1 X159.940 Y118.306 E0.02213
G1 X152.603 Y110.970 E0.32931
G1 X152.121 Y111.027 E0.01541
G1 X159.258 Y118.164 E0.32031
G1 X158.575 Y118.021 E0.02213
G1 X151.985 Y111.430 E0.29582
G1 X151.911 Y111.896 E0.01497
G1 X157.893 Y117.878 E0.26850
G1 X157.210 Y117.736 E0.02213
G1 X151.837 Y112.362 E0.24118
G1 X151.763 Y112.828 E0.01497
G1 X156.528 Y117.593 E0.21387
G1 X155.846 Y117.451 E0.02213
G1 X151.689 Y113.294 E0.18655
G1 X151.616 Y113.760 E0.01497
G1 X155.163 Y117.308 E0.15923
G1 X154.481 Y117.165 E0.02213
G1 X151.542 Y114.226 E0.13191
G1 X151.468 Y114.692 E0.01497
G1 X153.798 Y117.023 E0.10460
G1 X153.116 Y116.880 E0.02213
G1 X151.394 Y115.158 E0.07728
G1 X151.320 Y115.624 E0.01497
G1 X152.434 Y116.738 E0.04996
G1 X151.751 Y116.595 E0.02213
G1 X151.098 Y115.942 E0.02930
G1 F8640.000
G1 X151.751 Y116.595 E-0.21320
G1 X152.434 Y116.738 E-0.16098
G1 X151.320 Y115.624 E-0.36350
G1 X151.336 Y115.529 E-0.02232
G1 E-0.04000 F2100.00000
G1 Z0.800 F10800.000
G1 X173.565 Y121.573
G1 Z0.200
G1 E0.80000 F2100.00000
G1 F1200.000
G1 X174.014 Y121.870 E0.00713
G1 X174.010 Y121.875 F10800.000
G1 F1200.000
G1 X173.580 Y121.553 E0.00324
G1 F8640.000
G1 X174.010 Y121.875 E-0.12405
G1 E-0.67595 F2100.00000
G1 Z0.800 F10800.000
G1 X179.397 Y130.048
G1 Z0.200
G1 E0.80000 F2100.00000
G1 F1200.000
G1 X179.360 Y132.174 E0.06666
G1 X114.794 Y132.174 E2.02443
