; generated by PrusaSlicer 2.2.0+win64 on 2020-11-02 at 23:57:13 UTC

; 

; external perimeters extrusion width = 0.60mm
; perimeters extrusion width = 0.43mm
; infill extrusion width = 0.45mm
; solid infill extrusion width = 0.70mm
; top infill extrusion width = 0.43mm
; first layer extrusion width = 0.42mm

M73 P0 R193
M201 X9000 Y9000 Z500 E10000 ; sets maximum accelerations, mm/sec^2
M203 X500 Y500 Z12 E120 ; sets maximum feedrates, mm/sec
M204 P2000 R1500 T2000 ; sets acceleration (P, T) and retract acceleration (R), mm/sec^2
M205 X10.00 Y10.00 Z0.20 E2.50 ; sets the jerk limits, mm/sec
M205 S0 T0 ; sets the minimum extruding and travel feed rate, mm/sec
M107
M862.3 P "MK2.5SMMU2S" ; printer model check
M862.1 P0.4 ; nozzle diameter check
M115 U3.8.0 ; tell printer latest fw version
G90 ; use absolute coordinates
M83 ; extruder relative mode
M104 S215 ; set extruder temp
M140 S60 ; set bed temp
Tx
M190 S60 ; wait for bed temp
M109 S215 ; wait for extruder temp
G28 W ; home all without mesh bed level
G80 ; mesh bed leveling

G21 ; set units to millimeters

;go outside print area
G1 Y-3.0 F1000.0
G1 Z0.4 F1000.0
; select extruder
Tc
; purge line
G1 X55.0 F2000.0
G1 Z0.3 F1000.0
G92 E0.0
G1 X240.0 E25.0 F2200.0
M73 P0 R193
G1 Y-2.0 F1000.0
G1 X55.0 E25 F1400.0
G1 Z0.20 F1000.0
G1 X5.0 E4.0 F1000.0
G92 E0.0
G21 ; set units to millimeters
G90 ; use absolute coordinates
M83 ; use relative distances for extrusion
M900 K0.06 ; Filament gcode LA 1.5
M900 K30 ; Filament gcode LA 1.0
;BEFORE_LAYER_CHANGE
G92 E0.0
;0.2


G1 E-0.80000 F2100.00000
G1 Z0.600 F10800.000
;AFTER_LAYER_CHANGE
;0.2
G1 X9.399 Y18.177
G1 Z0.200
G1 E0.80000 F2100.00000
M204 S1000
G1 F1200.000
G1 X10.115 Y18.042 E0.02284
G1 X23.759 Y17.791 E0.42788
G1 X67.393 Y17.693 E1.36809
G1 X241.748 Y18.009 E5.46680
G1 X242.663 Y18.198 E0.02931
G1 X243.435 Y18.725 E0.02931
G1 X243.915 Y19.438 E0.02696
G1 X244.110 Y20.272 E0.02684
G1 X244.481 Y40.370 E0.63026
G1 X244.302 Y182.157 E4.44566
G1 X243.789 Y196.085 E0.43699
G1 X243.573 Y196.906 E0.02661
G1 X243.079 Y197.601 E0.02673
G1 X242.386 Y198.070 E0.02626
G1 X241.569 Y198.271 E0.02637
G1 X229.101 Y198.491 E0.39099
G1 X185.443 Y198.590 E1.36887
G1 X11.084 Y198.274 E5.46692
G1 X10.169 Y198.085 E0.02931
G1 X9.397 Y197.558 E0.02931
G1 X8.918 Y196.848 E0.02684
G1 X8.722 Y196.015 E0.02684
G1 X7.728 Y167.135 E0.90604
G1 X7.638 Y162.209 E0.15448
G1 X7.044 Y55.787 E3.33684
G1 X7.817 Y20.358 E1.11113
G1 X7.931 Y19.688 E0.02130
G1 X8.256 Y19.040 E0.02272
G1 X8.761 Y18.521 E0.02272
G1 X9.346 Y18.206 E0.02084
G1 E-0.80000 F2100.00000
G1 Z0.800 F10800.000
G1 X11.730 Y35.088
G1 Z0.200
G1 E0.80000 F2100.00000
G1 F1200.000
G1 X12.886 Y36.699 E0.06216
G1 X14.469 Y38.808 E0.08268
G1 X16.154 Y40.963 E0.08577
G1 X17.953 Y43.174 E0.08938
G1 X19.881 Y45.461 E0.09378
G1 X22.758 Y48.738 E0.13673
G1 X22.835 Y53.136 E0.13794
G1 X12.049 Y53.325 E0.33824
G1 X11.731 Y35.148 E0.56999
G1 X11.344 Y34.531 F10800.000
G1 F1200.000
G1 X11.789 Y34.523 E0.01397
G1 X13.190 Y36.476 E0.07535
G1 X14.768 Y38.579 E0.08243
G1 X16.449 Y40.728 E0.08554
G1 X18.243 Y42.934 E0.08916
G1 X20.167 Y45.215 E0.09355
G1 X23.133 Y48.593 E0.14095
G1 X23.218 Y53.507 E0.15410
G1 X11.678 Y53.708 E0.36189
G1 X11.345 Y34.591 E0.59949
G1 X11.723 Y34.659 F10800.000
G1 E-0.80000 F2100.00000
G1 Z0.800 F10800.000
G1 X12.927 Y53.196
G1 Z0.200
G1 E0.80000 F2100.00000
G1 F1200.000
G1 X12.319 Y52.588 E0.02762
G1 X12.309 Y52.032 E0.01783
G1 X13.297 Y53.020 E0.04483
G1 X13.833 Y53.011 E0.01722
G1 X12.299 Y51.477 E0.06962
G1 X12.290 Y50.921 E0.01783
G1 X14.370 Y53.001 E0.09440
G1 X14.906 Y52.992 E0.01722
G1 X12.280 Y50.366 E0.11918
G1 X12.270 Y49.810 E0.01783
G1 X15.443 Y52.983 E0.14397
M73 P0 R192
G1 X15.979 Y52.973 E0.01722
G1 X12.261 Y49.255 E0.16875
G1 X12.251 Y48.699 E0.01783
G1 X16.515 Y52.964 E0.19353
G1 X17.052 Y52.955 E0.01722
G1 X12.241 Y48.144 E0.21831
G1 X12.231 Y47.588 E0.01783
G1 X17.588 Y52.945 E0.24310
G1 X18.125 Y52.936 E0.01722
G1 X12.222 Y47.033 E0.26788
G1 X12.212 Y46.478 E0.01783
G1 X18.661 Y52.926 E0.29266
G1 X19.197 Y52.917 E0.01722
G1 X12.202 Y45.922 E0.31744
G1 X12.193 Y45.367 E0.01783
G1 X19.734 Y52.908 E0.34223
G1 X20.270 Y52.898 E0.01722
G1 X12.183 Y44.811 E0.36701
G1 X12.173 Y44.256 E0.01783
G1 X20.807 Y52.889 E0.39179
G1 X21.343 Y52.880 E0.01722
G1 X12.164 Y43.700 E0.41658
G1 X12.154 Y43.145 E0.01783
G1 X21.879 Y52.870 E0.44136
G1 X22.416 Y52.861 E0.01722
G1 X12.144 Y42.589 E0.46614
G1 X12.134 Y42.034 E0.01783
G1 X22.540 Y52.439 E0.47220
G1 X22.530 Y51.884 E0.01783
G1 X12.125 Y41.478 E0.47220
G1 X12.115 Y40.923 E0.01783
G1 X22.520 Y51.328 E0.47220
G1 X22.511 Y50.773 E0.01783
G1 X12.105 Y40.367 E0.47220
G1 X12.096 Y39.812 E0.01783
G1 X22.501 Y50.217 E0.47220
G1 X22.491 Y49.662 E0.01783
G1 X12.086 Y39.256 E0.47220
G1 X12.076 Y38.701 E0.01783
G1 X22.482 Y49.106 E0.47220
G1 X22.477 Y48.846 E0.00834
G1 X20.387 Y46.466 E0.10166
G1 X12.067 Y38.146 E0.37758
G1 X12.057 Y37.590 E0.01783
G1 X17.358 Y42.891 E0.24057
G1 X15.933 Y41.139 E0.07247
G1 X15.149 Y40.136 E0.04085
G1 X12.047 Y37.035 E0.14076
G1 X12.038 Y36.479 E0.01783
G1 X14.211 Y38.653 E0.09863
G1 E-0.80000 F2100.00000
G1 Z0.800 F10800.000
G1 X18.117 Y39.488
G1 Z0.200
G1 E0.80000 F2100.00000
G1 F1200.000
G1 X17.442 Y37.821 E0.05641
G1 X16.486 Y35.593 E0.07600
G1 X15.457 Y33.339 E0.07771
G1 X14.390 Y31.143 E0.07654
G1 X13.286 Y29.006 E0.07541
G1 X12.147 Y26.927 E0.07432
G1 X11.066 Y25.067 E0.06747
G1 X10.995 Y21.190 E0.12159
G1 X23.000 Y20.970 E0.37647
G1 X23.339 Y39.393 E0.57773
G1 X18.177 Y39.487 E0.16188
G1 X17.865 Y39.870 F10800.000
G1 F1200.000
G1 X17.094 Y37.966 E0.06441
G1 X16.141 Y35.746 E0.07574
G1 X15.116 Y33.499 E0.07743
G1 X14.053 Y31.312 E0.07626
G1 X12.954 Y29.183 E0.07512
G1 X11.819 Y27.113 E0.07402
G1 X10.690 Y25.172 E0.07039
G1 X10.611 Y20.820 E0.13648
G1 X23.370 Y20.586 E0.40011
G1 X23.723 Y39.763 E0.60138
G1 X17.925 Y39.869 E0.18183
G1 X17.800 Y39.475 F10800.000
G1 E-0.80000 F2100.00000
G1 Z0.800 F10800.000
G1 X22.903 Y21.866
G1 Z0.200
G1 E0.80000 F2100.00000
G1 F1200.000
G1 X22.303 Y21.266 E0.02677
G1 X21.776 Y21.275 E0.01660
G1 X22.740 Y22.239 E0.04298
G1 X22.750 Y22.786 E0.01722
G1 X21.250 Y21.285 E0.06690
G1 X20.723 Y21.294 E0.01660
G1 X22.761 Y23.332 E0.09082
G1 X22.771 Y23.878 E0.01722
G1 X20.197 Y21.304 E0.11474
G1 X19.670 Y21.314 E0.01660
G1 X22.781 Y24.424 E0.13866
G1 X22.791 Y24.970 E0.01722
G1 X19.144 Y21.323 E0.16258
G1 X18.617 Y21.333 E0.01660
G1 X22.801 Y25.517 E0.18650
G1 X22.811 Y26.063 E0.01722
G1 X18.091 Y21.343 E0.21042
G1 X17.564 Y21.352 E0.01660
G1 X22.821 Y26.609 E0.23433
G1 X22.831 Y27.155 E0.01722
G1 X17.038 Y21.362 E0.25825
G1 X16.511 Y21.372 E0.01660
G1 X22.841 Y27.701 E0.28217
G1 X22.851 Y28.247 E0.01722
G1 X15.985 Y21.381 E0.30609
G1 X15.458 Y21.391 E0.01660
G1 X22.861 Y28.794 E0.33001
G1 X22.871 Y29.340 E0.01722
G1 X14.932 Y21.401 E0.35393
G1 X14.406 Y21.410 E0.01660
G1 X22.881 Y29.886 E0.37785
G1 X22.891 Y30.432 E0.01722
G1 X13.879 Y21.420 E0.40177
G1 X13.353 Y21.430 E0.01660
G1 X22.901 Y30.978 E0.42569
G1 X22.911 Y31.525 E0.01722
G1 X12.826 Y21.439 E0.44961
G1 X12.300 Y21.449 E0.01660
G1 X22.922 Y32.071 E0.47353
G1 X22.932 Y32.617 E0.01722
G1 X11.773 Y21.459 E0.49744
G1 X11.283 Y21.468 E0.01545
G1 X11.284 Y21.505 E0.00119
G1 X22.942 Y33.163 E0.51972
G1 X22.952 Y33.709 E0.01722
G1 X11.294 Y22.051 E0.51972
G1 X11.304 Y22.597 E0.01722
G1 X22.962 Y34.256 E0.51972
G1 X22.972 Y34.802 E0.01722
G1 X11.313 Y23.143 E0.51973
G1 X11.323 Y23.690 E0.01722
G1 X22.982 Y35.348 E0.51973
G1 X22.992 Y35.894 E0.01722
G1 X11.333 Y24.236 E0.51974
G1 X11.343 Y24.782 E0.01722
G1 X23.002 Y36.440 E0.51974
G1 X23.012 Y36.987 E0.01722
G1 X11.810 Y25.784 E0.49939
G1 X12.534 Y27.045 E0.04582
G1 X23.022 Y37.533 E0.46756
G1 X23.032 Y38.079 E0.01722
G1 X13.184 Y28.231 E0.43902
G1 X13.799 Y29.382 E0.04112
G1 X23.042 Y38.625 E0.41208
G1 X23.051 Y39.115 E0.01544
G1 X22.997 Y39.116 E0.00172
G1 X14.371 Y30.490 E0.38454
G1 X14.909 Y31.564 E0.03786
G1 X22.470 Y39.126 E0.33709
G1 X21.944 Y39.135 E0.01660
G1 X15.416 Y32.607 E0.29103
G1 X15.899 Y33.627 E0.03557
G1 X21.417 Y39.145 E0.24600
G1 X20.891 Y39.154 E0.01660
G1 X16.350 Y34.613 E0.20244
G1 X16.794 Y35.594 E0.03395
G1 X20.364 Y39.164 E0.15915
G1 X19.838 Y39.174 E0.01660
G1 X17.197 Y36.533 E0.11772
G1 X17.600 Y37.472 E0.03220
G1 X19.311 Y39.183 E0.07629
G1 X18.785 Y39.193 E0.01660
G1 X17.667 Y38.075 E0.04984
G1 E-0.80000 F2100.00000
G1 Z0.800 F10800.000
G1 X32.686 Y39.439
G1 Z0.200
G1 E0.80000 F2100.00000
G1 F1200.000
G1 X32.010 Y37.772 E0.05641
G1 X31.055 Y35.544 E0.07600
G1 X30.025 Y33.290 E0.07771
G1 X28.958 Y31.094 E0.07654
G1 X27.855 Y28.957 E0.07541
G1 X26.716 Y26.878 E0.07432
G1 X25.634 Y25.018 E0.06747
G1 X25.564 Y21.141 E0.12159
G1 X37.568 Y20.921 E0.37647
G1 X37.908 Y39.344 E0.57773
G1 X32.746 Y39.438 E0.16188
G1 X32.434 Y39.821 F10800.000
G1 F1200.000
G1 X31.662 Y37.917 E0.06441
G1 X30.710 Y35.697 E0.07574
G1 X29.684 Y33.450 E0.07743
G1 X28.621 Y31.263 E0.07626
G1 X27.522 Y29.134 E0.07512
G1 X26.387 Y27.064 E0.07402
G1 X25.259 Y25.123 E0.07039
G1 X25.180 Y20.771 E0.13648
G1 X37.938 Y20.537 E0.40011
G1 X38.292 Y39.714 E0.60138
G1 X32.494 Y39.820 E0.18183
G1 X32.368 Y39.426 F10800.000
G1 E-0.80000 F2100.00000
G1 Z0.800 F10800.000
G1 X37.472 Y21.817
G1 Z0.200
G1 E0.80000 F2100.00000
G1 F1200.000
G1 X36.871 Y21.217 E0.02677
G1 X36.345 Y21.226 E0.01660
G1 X37.309 Y22.190 E0.04298
G1 X37.319 Y22.737 E0.01722
G1 X35.818 Y21.236 E0.06690
G1 X35.292 Y21.245 E0.01660
G1 X37.329 Y23.283 E0.09082
G1 X37.339 Y23.829 E0.01722
G1 X34.765 Y21.255 E0.11474
G1 X34.239 Y21.265 E0.01660
G1 X37.349 Y24.375 E0.13866
G1 X37.359 Y24.921 E0.01722
G1 X33.712 Y21.274 E0.16258
G1 X33.186 Y21.284 E0.01660
G1 X37.369 Y25.468 E0.18650
G1 X37.379 Y26.014 E0.01722
G1 X32.659 Y21.294 E0.21042
G1 X32.133 Y21.303 E0.01660
G1 X37.389 Y26.560 E0.23433
G1 X37.399 Y27.106 E0.01722
G1 X31.606 Y21.313 E0.25825
G1 X31.080 Y21.323 E0.01660
G1 X37.410 Y27.652 E0.28217
G1 X37.420 Y28.199 E0.01722
G1 X30.553 Y21.332 E0.30609
G1 X30.027 Y21.342 E0.01660
G1 X37.430 Y28.745 E0.33001
G1 X37.440 Y29.291 E0.01722
G1 X29.501 Y21.352 E0.35393
G1 X28.974 Y21.361 E0.01660
G1 X37.450 Y29.837 E0.37785
G1 X37.460 Y30.383 E0.01722
G1 X28.448 Y21.371 E0.40177
G1 X27.921 Y21.381 E0.01660
G1 X37.470 Y30.930 E0.42569
G1 X37.480 Y31.476 E0.01722
G1 X27.395 Y21.390 E0.44961
G1 X26.868 Y21.400 E0.01660
G1 X37.490 Y32.022 E0.47353
G1 X37.500 Y32.568 E0.01722
G1 X26.342 Y21.410 E0.49744
G1 X25.851 Y21.419 E0.01545
G1 X25.852 Y21.456 E0.00119
G1 X37.510 Y33.114 E0.51972
G1 X37.520 Y33.660 E0.01722
G1 X25.862 Y22.002 E0.51972
M73 P1 R191
G1 X25.872 Y22.548 E0.01722
G1 X37.530 Y34.207 E0.51972
G1 X37.540 Y34.753 E0.01722
G1 X25.882 Y23.095 E0.51973
G1 X25.892 Y23.641 E0.01722
G1 X37.550 Y35.299 E0.51973
G1 X37.560 Y35.845 E0.01722
G1 X25.902 Y24.187 E0.51974
G1 X25.912 Y24.733 E0.01722
G1 X37.571 Y36.391 E0.51974
G1 X37.581 Y36.938 E0.01722
G1 X26.378 Y25.735 E0.49939
G1 X27.103 Y26.996 E0.04582
G1 X37.591 Y37.484 E0.46756
G1 X37.601 Y38.030 E0.01722
G1 X27.753 Y28.182 E0.43902
G1 X28.367 Y29.333 E0.04112
G1 X37.611 Y38.576 E0.41208
G1 X37.620 Y39.066 E0.01544
G1 X37.565 Y39.067 E0.00172
G1 X28.940 Y30.441 E0.38454
G1 X29.477 Y31.515 E0.03786
G1 X37.039 Y39.077 E0.33709
G1 X36.512 Y39.086 E0.01660
G1 X29.984 Y32.558 E0.29103
G1 X30.468 Y33.578 E0.03557
G1 X35.986 Y39.096 E0.24600
G1 X35.459 Y39.106 E0.01660
G1 X30.918 Y34.564 E0.20244
G1 X31.363 Y35.545 E0.03395
G1 X34.933 Y39.115 E0.15915
G1 X34.406 Y39.125 E0.01660
G1 X31.766 Y36.484 E0.11772
G1 X32.168 Y37.423 E0.03220
G1 X33.880 Y39.134 E0.07629
G1 X33.353 Y39.144 E0.01660
G1 X32.235 Y38.026 E0.04984
G1 E-0.80000 F2100.00000
G1 Z0.800 F10800.000
G1 X26.299 Y35.039
G1 Z0.200
G1 E0.80000 F2100.00000
G1 F1200.000
G1 X27.455 Y36.650 E0.06216
G1 X29.038 Y38.759 E0.08268
G1 X30.723 Y40.914 E0.08577
G1 X32.521 Y43.125 E0.08938
G1 X34.449 Y45.412 E0.09378
G1 X37.326 Y48.689 E0.13673
G1 X37.403 Y53.088 E0.13794
G1 X26.617 Y53.276 E0.33824
G1 X26.300 Y35.099 E0.56999
G1 X25.912 Y34.482 F10800.000
G1 F1200.000
G1 X26.358 Y34.475 E0.01397
G1 X27.759 Y36.427 E0.07535
G1 X29.337 Y38.530 E0.08243
G1 X31.018 Y40.679 E0.08554
G1 X32.812 Y42.885 E0.08916
G1 X34.735 Y45.166 E0.09355
G1 X37.701 Y48.544 E0.14095
G1 X37.787 Y53.458 E0.15410
G1 X26.247 Y53.659 E0.36189
G1 X25.913 Y34.542 E0.59949
G1 X26.291 Y34.610 F10800.000
G1 E-0.80000 F2100.00000
G1 Z0.800 F10800.000
G1 X27.496 Y53.147
G1 Z0.200
G1 E0.80000 F2100.00000
G1 F1200.000
G1 X26.887 Y52.539 E0.02762
G1 X26.878 Y51.983 E0.01783
G1 X27.865 Y52.971 E0.04483
G1 X28.402 Y52.962 E0.01722
G1 X26.868 Y51.428 E0.06962
G1 X26.858 Y50.872 E0.01783
G1 X28.938 Y52.952 E0.09440
G1 X29.475 Y52.943 E0.01722
G1 X26.848 Y50.317 E0.11918
G1 X26.839 Y49.761 E0.01783
G1 X30.011 Y52.934 E0.14397
G1 X30.548 Y52.924 E0.01722
G1 X26.829 Y49.206 E0.16875
G1 X26.819 Y48.650 E0.01783
G1 X31.084 Y52.915 E0.19353
G1 X31.620 Y52.906 E0.01722
G1 X26.810 Y48.095 E0.21831
G1 X26.800 Y47.539 E0.01783
G1 X32.157 Y52.896 E0.24310
G1 X32.693 Y52.887 E0.01722
G1 X26.790 Y46.984 E0.26788
G1 X26.781 Y46.429 E0.01783
G1 X33.230 Y52.878 E0.29266
G1 X33.766 Y52.868 E0.01722
G1 X26.771 Y45.873 E0.31744
G1 X26.761 Y45.318 E0.01783
G1 X34.302 Y52.859 E0.34223
G1 X34.839 Y52.849 E0.01722
G1 X26.751 Y44.762 E0.36701
G1 X26.742 Y44.207 E0.01783
G1 X35.375 Y52.840 E0.39179
G1 X35.912 Y52.831 E0.01722
G1 X26.732 Y43.651 E0.41658
G1 X26.722 Y43.096 E0.01783
G1 X36.448 Y52.821 E0.44136
G1 X36.984 Y52.812 E0.01722
G1 X26.713 Y42.540 E0.46614
G1 X26.703 Y41.985 E0.01783
G1 X37.108 Y52.390 E0.47220
G1 X37.099 Y51.835 E0.01783
G1 X26.693 Y41.429 E0.47220
G1 X26.684 Y40.874 E0.01783
G1 X37.089 Y51.279 E0.47220
G1 X37.079 Y50.724 E0.01783
G1 X26.674 Y40.318 E0.47220
G1 X26.664 Y39.763 E0.01783
G1 X37.069 Y50.168 E0.47220
G1 X37.060 Y49.613 E0.01783
G1 X26.655 Y39.207 E0.47220
G1 X26.645 Y38.652 E0.01783
G1 X37.050 Y49.057 E0.47220
G1 X37.046 Y48.797 E0.00834
G1 X34.955 Y46.417 E0.10166
G1 X26.635 Y38.097 E0.37758
G1 X26.625 Y37.541 E0.01783
G1 X31.927 Y42.842 E0.24057
G1 X30.502 Y41.090 E0.07247
G1 X29.717 Y40.087 E0.04085
G1 X26.616 Y36.986 E0.14076
G1 X26.606 Y36.430 E0.01783
G1 X28.779 Y38.604 E0.09863
G1 E-0.80000 F2100.00000
G1 Z0.800 F10800.000
G1 X40.779 Y35.039
G1 Z0.200
G1 E0.80000 F2100.00000
G1 F1200.000
G1 X41.934 Y36.650 E0.06216
G1 X43.517 Y38.759 E0.08268
G1 X45.202 Y40.914 E0.08577
G1 X47.001 Y43.125 E0.08938
G1 X48.929 Y45.412 E0.09378
G1 X51.806 Y48.689 E0.13673
G1 X51.883 Y53.088 E0.13794
G1 X41.097 Y53.276 E0.33824
G1 X40.780 Y35.099 E0.56999
G1 X40.392 Y34.482 F10800.000
G1 F1200.000
G1 X40.837 Y34.475 E0.01397
G1 X42.238 Y36.427 E0.07535
G1 X43.817 Y38.530 E0.08243
G1 X45.497 Y40.679 E0.08554
G1 X47.291 Y42.885 E0.08916
G1 X49.215 Y45.166 E0.09355
G1 X52.181 Y48.544 E0.14095
G1 X52.266 Y53.458 E0.15410
G1 X40.726 Y53.659 E0.36189
G1 X40.393 Y34.542 E0.59949
G1 X40.771 Y34.610 F10800.000
G1 E-0.80000 F2100.00000
G1 Z0.800 F10800.000
G1 X41.975 Y53.147
G1 Z0.200
G1 E0.80000 F2100.00000
G1 F1200.000
G1 X41.367 Y52.539 E0.02762
G1 X41.357 Y51.983 E0.01783
G1 X42.345 Y52.971 E0.04483
G1 X42.881 Y52.962 E0.01722
G1 X41.347 Y51.428 E0.06962
G1 X41.338 Y50.872 E0.01783
G1 X43.418 Y52.952 E0.09440
G1 X43.954 Y52.943 E0.01722
G1 X41.328 Y50.317 E0.11918
G1 X41.318 Y49.761 E0.01783
G1 X44.491 Y52.934 E0.14397
G1 X45.027 Y52.924 E0.01722
G1 X41.309 Y49.206 E0.16875
G1 X41.299 Y48.650 E0.01783
G1 X45.564 Y52.915 E0.19353
G1 X46.100 Y52.906 E0.01722
G1 X41.289 Y48.095 E0.21831
G1 X41.280 Y47.539 E0.01783
G1 X46.636 Y52.896 E0.24310
G1 X47.173 Y52.887 E0.01722
G1 X41.270 Y46.984 E0.26788
G1 X41.260 Y46.429 E0.01783
G1 X47.709 Y52.878 E0.29266
G1 X48.246 Y52.868 E0.01722
G1 X41.250 Y45.873 E0.31744
G1 X41.241 Y45.318 E0.01783
G1 X48.782 Y52.859 E0.34223
G1 X49.318 Y52.849 E0.01722
G1 X41.231 Y44.762 E0.36701
G1 X41.221 Y44.207 E0.01783
G1 X49.855 Y52.840 E0.39179
G1 X50.391 Y52.831 E0.01722
G1 X41.212 Y43.651 E0.41658
G1 X41.202 Y43.096 E0.01783
G1 X50.928 Y52.821 E0.44136
G1 X51.464 Y52.812 E0.01722
G1 X41.192 Y42.540 E0.46614
