; generated by PrusaSlicer 2.2.0+win64 on 2020-12-01 at 21:09:50 UTC

; 

; external perimeters extrusion width = 0.60mm
; perimeters extrusion width = 0.43mm
; infill extrusion width = 0.45mm
; solid infill extrusion width = 0.70mm
; top infill extrusion width = 0.43mm
; first layer extrusion width = 0.42mm

M73 P0 R50
M201 X9000 Y9000 Z500 E10000 ; sets maximum accelerations, mm/sec^2
M203 X500 Y500 Z12 E120 ; sets maximum feedrates, mm/sec
M204 P2000 R1500 T2000 ; sets acceleration (P, T) and retract acceleration (R), mm/sec^2
M205 X10.00 Y10.00 Z0.20 E2.50 ; sets the jerk limits, mm/sec
M205 S0 T0 ; sets the minimum extruding and travel feed rate, mm/sec
M107
M862.3 P "MK2.5SMMU2S" ; printer model check
M862.1 P0.4 ; nozzle diameter check
M115 U3.8.0 ; tell printer latest fw version
G90 ; use absolute coordinates
M83 ; extruder relative mode
M104 S215 ; set extruder temp
M140 S60 ; set bed temp
Tx
M190 S60 ; wait for bed temp
M109 S215 ; wait for extruder temp
G28 W ; home all without mesh bed level
G80 ; mesh bed leveling

G21 ; set units to millimeters

;go outside print area
G1 Y-3.0 F1000.0
G1 Z0.4 F1000.0
; select extruder
Tc
; purge line
G1 X55.0 F2000.0
G1 Z0.3 F1000.0
G92 E0.0
G1 X240.0 E25.0 F2200.0
M73 P0 R49
G1 Y-2.0 F1000.0
G1 X55.0 E25 F1400.0
G1 Z0.20 F1000.0
G1 X5.0 E4.0 F1000.0
G92 E0.0
G21 ; set units to millimeters
G90 ; use absolute coordinates
M83 ; use relative distances for extrusion
M900 K0.05 ; Filament gcode LA 1.5
M900 K30 ; Filament gcode LA 1.0
;BEFORE_LAYER_CHANGE
G92 E0.0
;0.2


G1 E-0.80000 F2100.00000
G1 Z0.600 F10800.000
;AFTER_LAYER_CHANGE
;0.2
G1 X46.623 Y39.531
G1 Z0.200
G1 E0.80000 F2100.00000
M204 S1000
G1 F1200.000
G1 X47.179 Y39.031 E0.02343
G1 X47.792 Y38.748 E0.02119
G1 X48.461 Y38.648 E0.02120
G1 X133.085 Y38.260 E2.65334
G1 X203.406 Y38.260 E2.20488
G1 X204.027 Y38.343 E0.01965
G1 X204.608 Y38.588 E0.01977
G1 X205.101 Y38.975 E0.01965
G1 X205.479 Y39.480 E0.01977
G1 X212.826 Y54.789 E0.53243
G1 X213.035 Y55.507 E0.02343
G1 X213.884 Y115.890 E1.89348
G1 X213.689 Y120.134 E0.13319
G1 X213.137 Y124.062 E0.12438
G1 X212.213 Y127.985 E0.12638
G1 X211.012 Y131.615 E0.11987
G1 X209.495 Y135.127 E0.11996
G1 X207.576 Y138.673 E0.12641
G1 X205.337 Y142.025 E0.12641
G1 X202.939 Y145.007 E0.11997
G1 X200.291 Y147.764 E0.11985
G1 X197.253 Y150.413 E0.12641
G1 X194.053 Y152.726 E0.12378
G1 X190.692 Y154.724 E0.12259
G1 X187.243 Y156.380 E0.11997
G1 X183.466 Y157.800 E0.12653
G1 X179.573 Y158.862 E0.12650
G1 X175.811 Y159.540 E0.11987
G1 X171.940 Y159.889 E0.12188
G1 X87.114 Y160.283 E2.65966
G1 X83.349 Y160.279 E0.11806
G1 X79.534 Y159.940 E0.12009
G1 X75.569 Y159.229 E0.12629
G1 X71.684 Y158.154 E0.12641
G1 X68.101 Y156.812 E0.11996
G1 X64.650 Y155.160 E0.11997
G1 X61.184 Y153.108 E0.12629
G1 X57.994 Y150.801 E0.12343
G1 X54.958 Y148.154 E0.12629
G1 X52.308 Y145.395 E0.11997
G1 X49.913 Y142.416 E0.11985
G1 X47.711 Y139.125 E0.12414
G1 X45.795 Y135.609 E0.12557
G1 X44.200 Y131.903 E0.12650
G1 X43.003 Y128.272 E0.11987
G1 X42.131 Y124.547 E0.11997
G1 X41.559 Y120.537 E0.12700
G1 X41.362 Y116.657 E0.12178
G1 X40.532 Y56.553 E1.88472
G1 X40.551 Y55.913 E0.02008
G1 X40.667 Y55.409 E0.01621
G1 X46.249 Y40.182 E0.50849
G1 X46.593 Y39.583 E0.02167
G1 E-0.80000 F2100.00000
G1 Z0.800 F10800.000
G1 X99.026 Y128.255
G1 Z0.200
G1 E0.80000 F2100.00000
G1 F1200.000
G1 X105.996 Y128.255 E0.21854
G1 X105.996 Y131.575 E0.10410
G1 X99.026 Y131.575 E0.21854
G1 X99.026 Y128.315 E0.10221
G1 X98.879 Y127.883 F10800.000
G1 X99.026 Y127.575
G1 F1200.000
G1 X99.026 Y124.255 E0.10410
G1 X105.996 Y124.255 E0.21854
G1 X105.996 Y127.575 E0.10410
G1 X99.086 Y127.575 E0.21666
G1 X98.630 Y127.634 F10800.000
G1 E-0.80000 F2100.00000
G1 Z0.800 F10800.000
G1 X99.086 Y123.575
G1 Z0.200
G1 E0.80000 F2100.00000
G1 F1200.000
G1 X99.026 Y123.575 E0.00188
G1 X99.026 Y120.255 E0.10411
G1 X104.174 Y120.261 E0.16143
G1 X104.665 Y120.297 E0.01542
G1 X105.768 Y120.482 E0.03508
G1 X105.962 Y121.642 E0.03685
G1 X105.991 Y122.159 E0.01623
G1 X105.997 Y123.575 E0.04441
G1 X99.146 Y123.575 E0.21480
G1 X99.059 Y123.629 F10800.000
G1 E-0.80000 F2100.00000
G1 Z0.800 F10800.000
G1 X98.686 Y117.396
G1 Z0.200
G1 E0.80000 F2100.00000
G1 F1200.000
G1 X98.648 Y117.056 E0.01072
G1 X98.517 Y116.566 E0.01590
G1 X98.857 Y116.559 E0.01064
G1 X98.724 Y117.056 E0.01614
G1 X98.692 Y117.336 E0.00884
G1 E-0.80000 F2100.00000
G1 Z0.800 F10800.000
G1 X91.625 Y116.455
G1 Z0.200
G1 E0.80000 F2100.00000
G1 F1200.000
G1 X98.097 Y116.455 E0.20294
G1 X98.276 Y117.126 E0.02178
G1 X98.335 Y117.652 E0.01661
G1 X98.347 Y119.575 E0.06027
G1 X91.375 Y119.575 E0.21862
G1 X91.387 Y117.652 E0.06027
G1 X91.445 Y117.126 E0.01661
G1 X91.609 Y116.513 E0.01990
G1 X91.651 Y116.056 F10800.000
G1 X91.193 Y116.608
G1 F1200.000
G1 X91.074 Y117.056 E0.01454
G1 X91.039 Y117.364 E0.00972
G1 X90.995 Y116.633 E0.02297
G1 X91.134 Y116.615 E0.00438
G1 X90.624 Y116.741 F10800.000
G1 F1200.000
G1 X90.693 Y117.875 E0.03561
G1 X90.696 Y119.575 E0.05330
G1 X88.509 Y119.575 E0.06857
G1 X89.428 Y117.690 E0.06575
G1 X90.033 Y116.624 E0.03842
G1 X90.565 Y116.730 E0.01701
G1 X91.010 Y116.637 F10800.000
G1 X89.542 Y116.715
G1 F1200.000
G1 X89.092 Y117.518 E0.02885
G1 X87.942 Y119.878 E0.08231
G1 X87.730 Y119.878 E0.00665
G1 X89.258 Y116.724 E0.10986
G1 X89.482 Y116.717 E0.00703
G1 E-0.80000 F2100.00000
G1 Z0.800 F10800.000
G1 X87.903 Y120.255
G1 Z0.200
G1 E0.80000 F2100.00000
G1 F1200.000
G1 X90.696 Y120.255 E0.08756
G1 X90.696 Y123.575 E0.10410
G1 X89.561 Y123.575 E0.03557
G1 X89.111 Y122.472 E0.03734
G1 X88.714 Y121.663 E0.02827
G1 X87.933 Y120.307 E0.04906
G1 X87.837 Y119.860 F10800.000
G1 E-0.80000 F2100.00000
G1 Z0.800 F10800.000
G1 X91.376 Y120.307
G1 Z0.200
G1 E0.80000 F2100.00000
G1 F1200.000
G1 X91.376 Y120.255 E0.00163
G1 X98.346 Y120.255 E0.21854
G1 X98.346 Y123.575 E0.10410
G1 X91.376 Y123.575 E0.21854
G1 X91.376 Y120.367 E0.10058
G1 X91.324 Y120.299 F10800.000
G1 E-0.80000 F2100.00000
G1 Z0.800 F10800.000
G1 X91.376 Y124.255
G1 Z0.200
G1 E0.80000 F2100.00000
G1 F1200.000
G1 X98.346 Y124.255 E0.21854
G1 X98.346 Y127.575 E0.10410
G1 X91.376 Y127.575 E0.21854
G1 X91.376 Y124.315 E0.10222
G1 X91.229 Y123.883 F10800.000
G1 E-0.80000 F2100.00000
G1 Z0.800 F10800.000
G1 X91.376 Y128.255
G1 Z0.200
G1 E0.80000 F2100.00000
G1 F1200.000
G1 X98.346 Y128.255 E0.21854
G1 X98.346 Y131.575 E0.10410
G1 X91.376 Y131.575 E0.21854
G1 X91.376 Y128.315 E0.10221
G1 X91.229 Y127.883 F10800.000
G1 E-0.80000 F2100.00000
G1 Z0.800 F10800.000
G1 X91.376 Y132.255
G1 Z0.200
G1 E0.80000 F2100.00000
G1 F1200.000
G1 X98.348 Y132.255 E0.21861
G1 X98.327 Y134.179 E0.06033
G1 X98.262 Y134.702 E0.01653
G1 X98.102 Y135.372 E0.02160
G1 X97.001 Y135.391 E0.03454
G1 X95.107 Y135.561 E0.05961
G1 X91.376 Y135.576 E0.11699
G1 X91.376 Y132.315 E0.10224
G1 X91.265 Y131.871 F10800.000
G1 X90.999 Y131.878
G1 F1200.000
G1 X89.363 Y131.878 E0.05129
G1 X89.508 Y131.442 E0.01440
G1 X89.801 Y130.121 E0.04243
G1 X89.956 Y128.777 E0.04243
G1 X89.971 Y127.423 E0.04243
G1 X89.847 Y126.076 E0.04243
G1 X89.584 Y124.748 E0.04243
G1 X89.338 Y123.952 E0.02613
G1 X90.999 Y123.952 E0.05207
G1 X90.999 Y131.818 E0.24663
G1 X90.696 Y132.255 F10800.000
G1 F1200.000
G1 X90.696 Y135.575 E0.10410
G1 X87.955 Y135.575 E0.08595
G1 X88.753 Y134.169 E0.05070
G1 X89.143 Y133.359 E0.02819
G1 X89.587 Y132.255 E0.03731
G1 X90.636 Y132.255 E0.03288
G1 X91.087 Y132.173 F10800.000
G1 E-0.80000 F2100.00000
G1 Z0.800 F10800.000
G1 X87.578 Y135.474
G1 Z0.200
G1 E0.80000 F2100.00000
G1 F1200.000
G1 X87.326 Y135.919 E0.01604
G1 X87.164 Y135.942 E0.00512
G1 X87.542 Y135.522 E0.01772
G1 E-0.80000 F2100.00000
G1 Z0.800 F10800.000
G1 X98.559 Y135.083
G1 Z0.200
G1 E0.80000 F2100.00000
G1 F1200.000
G1 X98.634 Y134.769 E0.01013
G1 X98.681 Y134.389 E0.01202
G1 X98.724 Y134.774 E0.01214
G1 X98.793 Y135.035 E0.00847
G1 X98.618 Y135.071 E0.00563
G1 E-0.80000 F2100.00000
G1 Z0.800 F10800.000
G1 X106.676 Y131.575
G1 Z0.200
G1 E0.80000 F2100.00000
G1 F1200.000
G1 X106.676 Y128.254 E0.10411
G1 X112.302 Y128.266 E0.17641
G1 X112.804 Y128.325 E0.01584
G1 X113.443 Y128.505 E0.02082
G1 X113.455 Y129.155 E0.02039
G1 X113.623 Y131.530 E0.07465
G1 X112.293 Y131.573 E0.04173
G1 X106.736 Y131.575 E0.17424
G1 X106.276 Y131.576 F10800.000
G1 E-0.80000 F2100.00000
G1 Z0.800 F10800.000
G1 X112.548 Y127.915
G1 Z0.200
G1 E0.80000 F2100.00000
G1 F1200.000
G1 X112.877 Y127.876 E0.01041
G1 X113.239 Y127.774 E0.01178
G1 X113.272 Y128.065 E0.00918
G1 X112.877 Y127.954 E0.01284
G1 X112.607 Y127.922 E0.00853
G1 E-0.80000 F2100.00000
G1 Z0.800 F10800.000
G1 X112.609 Y124.030
G1 Z0.200
G1 E0.80000 F2100.00000
G1 F1200.000
G1 X112.179 Y123.952 E0.01369
G1 X112.578 Y123.940 E0.01250
G1 X112.589 Y123.973 E0.00109
G1 E-0.80000 F2100.00000
G1 Z0.800 F10800.000
G1 X106.312 Y121.450
G1 Z0.200
G1 E0.80000 F2100.00000
G1 F1200.000
G1 X106.293 Y121.334 E0.00369
G1 X106.313 Y121.353 E0.00087
G1 X106.313 Y121.390 E0.00117
G1 E-0.80000 F2100.00000
G1 Z0.800 F10800.000
G1 X99.275 Y116.455
G1 Z0.200
G1 E0.80000 F2100.00000
G1 F1200.000
G1 X99.095 Y117.126 E0.02178
G1 X99.037 Y117.652 E0.01661
G1 X99.025 Y119.575 E0.06029
G1 X104.878 Y119.561 E0.18353
G1 X105.108 Y119.764 E0.00961
G1 X105.508 Y120.031 E0.01507
G1 X105.845 Y120.329 E0.01412
G1 X106.184 Y120.635 E0.01430
G1 X106.488 Y120.999 E0.01489
G1 X106.691 Y121.191 E0.00877
G1 X106.674 Y123.575 E0.07474
G1 X112.188 Y123.574 E0.17288
G1 X112.844 Y123.555 E0.02056
G1 X113.061 Y124.182 E0.02080
G1 X113.104 Y124.455 E0.00867
G1 X112.786 Y124.455 E0.00998
G1 X112.327 Y124.354 E0.01472
G1 X111.837 Y124.283 E0.01554
G1 X111.349 Y124.259 E0.01532
G1 X106.676 Y124.255 E0.14652
G1 X106.676 Y127.575 E0.10412
M73 P2 R48
G1 X112.302 Y127.564 E0.17641
G1 X112.804 Y127.505 E0.01584
G1 X113.446 Y127.324 E0.02092
G1 X113.446 Y126.613 E0.02227
G1 X113.592 Y127.539 E0.02937
G1 X113.647 Y128.027 E0.01542
G1 X113.821 Y128.987 E0.03057
G1 X114.022 Y131.425 E0.07672
G1 X114.104 Y132.017 E0.01873
G1 X112.965 Y132.255 E0.03649
G1 X106.676 Y132.255 E0.19719
G1 X106.676 Y133.569 E0.04121
G1 X105.996 Y133.711 E0.02178
G1 X105.996 Y132.255 E0.04566
G1 X99.025 Y132.255 E0.21858
G1 X99.037 Y134.177 E0.06027
G1 X99.095 Y134.704 E0.01661
G1 X99.261 Y135.322 E0.02008
G1 X97.182 Y135.756 E0.06657
G1 X95.232 Y135.977 E0.06154
G1 X93.825 Y136.255 E0.04496
G1 X91.376 Y136.255 E0.07679
G1 X91.376 Y136.766 E0.01604
G1 X90.696 Y136.908 E0.02178
G1 X90.696 Y136.254 E0.02050
G1 X87.926 Y136.259 E0.08686
G1 X87.440 Y136.283 E0.01525
G1 X86.951 Y136.354 E0.01547
G1 X86.495 Y136.455 E0.01465
G1 X86.051 Y136.453 E0.01393
G1 X86.289 Y136.190 E0.01112
G1 X86.622 Y135.928 E0.01330
G1 X86.958 Y135.619 E0.01430
G1 X87.249 Y135.284 E0.01393
G1 X87.523 Y134.922 E0.01423
G1 X88.187 Y133.786 E0.04126
G1 X88.729 Y132.588 E0.04121
G1 X89.144 Y131.341 E0.04121
G1 X89.429 Y130.058 E0.04121
G1 X89.579 Y128.753 E0.04121
G1 X89.594 Y127.439 E0.04121
G1 X89.473 Y126.130 E0.04121
G1 X89.218 Y124.841 E0.04121
G1 X88.830 Y123.585 E0.04121
G1 X88.316 Y122.376 E0.04121
G1 X87.679 Y121.226 E0.04121
G1 X87.076 Y120.363 E0.03300
G1 X89.018 Y116.355 E0.13963
G1 X89.750 Y116.331 E0.02296
G1 X90.237 Y116.292 E0.01533
G1 X90.732 Y116.286 E0.01551
G1 X91.710 Y116.162 E0.03092
G1 X98.056 Y116.162 E0.19900
G1 X98.549 Y116.190 E0.01547
G1 X99.534 Y116.162 E0.03091
G1 X102.932 Y116.162 E0.10651
G1 X103.146 Y116.220 E0.00698
G1 X103.195 Y116.445 E0.00721
G1 X99.335 Y116.455 E0.12104
G1 X98.879 Y116.393 F10800.000
G1 X98.686 Y117.584
G1 F1200.000
G1 X98.686 Y119.763 E0.05396
G1 X98.686 Y119.814 E0.00144
G1 X98.686 Y119.865 E0.00162
G1 X98.685 Y119.916 E0.00180
G1 X98.636 Y119.916 E0.00175
G1 X91.185 Y119.915 E0.18770
G1 X91.135 Y119.915 E0.00142
G1 X91.086 Y119.916 E0.00159
G1 X91.036 Y119.916 E0.00176
G1 X91.035 Y119.915 F10800.000
G1 F1200.000
G1 X91.036 Y119.966 E0.00181
G1 X91.036 Y123.763 E0.09564
G1 X91.187 Y123.915 F10800.000
G1 F1200.000
G1 X98.635 Y123.915 E0.18760
G1 X98.686 Y123.915 E0.00180
G1 X98.686 Y123.864 E0.00180
G1 X98.686 Y123.814 E0.00162
G1 X98.686 Y123.763 E0.00145
G1 X98.686 Y119.966 E0.09565
G1 X98.685 Y119.916 E0.00177
G1 X98.686 Y119.916 F10800.000
G1 F1200.000
G1 X98.735 Y119.916 E0.00177
G1 X98.838 Y119.915 E0.00256
G1 X104.193 Y119.912 E0.14337
G1 X105.062 Y119.960 E0.02646
G1 X105.394 Y120.225 F10800.000
G1 F1200.000
G1 X104.306 Y119.751 E0.02606
G1 E-0.80000 F2100.00000
G1 Z0.800 F10800.000
G1 X106.325 Y121.638
G1 Z0.200
G1 E0.80000 F2100.00000
G1 F1200.000
G1 X106.335 Y123.763 E0.05270
G1 X106.335 Y123.814 E0.00145
G1 X106.335 Y123.865 E0.00163
G1 X106.335 Y123.916 E0.00181
G1 X106.286 Y123.915 E0.00176
G1 X98.837 Y123.915 E0.18760
G1 X98.787 Y123.915 E0.00145
G1 X98.736 Y123.915 E0.00162
G1 X98.686 Y123.915 E0.00180
G1 X98.686 Y123.965 E0.00180
G1 X98.686 Y127.763 E0.09567
G1 X98.686 Y127.814 E0.00145
G1 X98.686 Y127.864 E0.00162
G1 X98.686 Y127.915 E0.00180
G1 X98.635 Y127.915 E0.00180
G1 X91.187 Y127.915 E0.18760
G1 E-0.80000 F2100.00000
G1 Z0.800 F10800.000
G1 X91.035 Y135.914
G1 Z0.200
G1 E0.80000 F2100.00000
G1 F1200.000
G1 X91.087 Y135.916 E0.00183
G1 X91.137 Y135.916 E0.00161
G1 X91.187 Y135.916 E0.00144
G1 X93.791 Y135.911 E0.06526
G1 X94.012 Y135.889 E0.00556
G1 X94.233 Y135.867 E0.00497
G1 X94.454 Y135.845 E0.00419
G1 X94.675 Y135.823 E0.00341
G1 X94.895 Y135.801 E0.00262
G1 X95.116 Y135.779 E0.00184
G1 X95.209 Y135.765 E0.00045
G1 E-0.80000 F2100.00000
G1 Z0.800 F10800.000
G1 X98.682 Y134.200
G1 Z0.200
G1 E0.80000 F2100.00000
G1 F1200.000
G1 X98.687 Y132.068 E0.05858
G1 X98.687 Y131.965 E0.00254
G1 X98.686 Y131.913 E0.00185
G1 X98.687 Y131.914 F10800.000
G1 F1200.000
G1 X98.736 Y131.914 E0.00174
G1 X98.785 Y131.914 E0.00158
G1 X98.835 Y131.915 E0.00141
G1 X106.285 Y131.915 E0.18768
G1 X106.336 Y131.915 E0.00180
G1 X106.336 Y131.864 E0.00180
G1 X106.336 Y131.814 E0.00162
G1 X106.336 Y131.763 E0.00145
G1 X106.336 Y127.965 E0.09568
G1 X106.335 Y127.915 E0.00179
G1 X106.386 Y127.915 E0.00180
G1 X112.359 Y127.915 E0.16099
G1 E-0.80000 F2100.00000
G1 Z0.800 F10800.000
G1 X111.992 Y123.933
G1 Z0.200
G1 E0.80000 F2100.00000
G1 F1200.000
G1 X111.361 Y123.917 E0.01735
G1 X106.385 Y123.916 E0.12727
G1 X106.336 Y123.916 E0.00176
G1 X106.335 Y123.916 F10800.000
G1 F1200.000
G1 X106.336 Y123.966 E0.00178
G1 X106.336 Y127.764 E0.09567
G1 X106.336 Y127.814 E0.00144
G1 X106.336 Y127.865 E0.00161
G1 X106.335 Y127.915 E0.00179
G1 X106.285 Y127.915 E0.00179
G1 X98.837 Y127.915 E0.18759
G1 X98.787 Y127.915 E0.00145
G1 X98.736 Y127.915 E0.00162
G1 X98.686 Y127.915 E0.00180
G1 X98.686 Y127.965 E0.00180
G1 X98.686 Y131.763 E0.09567
G1 X98.686 Y131.813 E0.00142
G1 X98.686 Y131.863 E0.00159
G1 X98.686 Y131.913 E0.00176
G1 X98.637 Y131.913 E0.00173
G1 X91.187 Y131.915 E0.18764
G1 X91.036 Y132.066 F10800.000
G1 F1200.000
G1 X91.036 Y135.765 E0.09316
G1 X91.036 Y135.815 E0.00143
G1 X91.035 Y135.865 E0.00160
G1 X91.035 Y135.914 E0.00177
G1 X90.985 Y135.914 E0.00178
G1 X87.913 Y135.917 E0.07850
G1 X87.538 Y135.926 E0.00988
G1 X87.053 Y136.147 F10800.000
G1 F1200.000
G1 X86.901 Y136.067 E0.00293
G1 X86.587 Y136.225 E0.00600
G1 X86.587 Y136.225 F10800.000
G1 F1200.000
G1 X86.994 Y136.023 E0.00532
G1 X87.682 Y135.316 F10800.000
G1 F1200.000
G1 X88.484 Y133.948 E0.03891
G1 X89.044 Y132.704 E0.03349
G1 X89.279 Y132.066 E0.01839
G1 X89.685 Y131.167 F10800.000
G1 F1200.000
G1 X90.112 Y131.595 E0.01913
G1 X90.650 Y131.595 E0.01703
G1 X89.925 Y130.869 E0.03247
G1 X90.022 Y130.429 E0.01427
G1 X90.716 Y131.122 E0.03104
G1 X90.716 Y130.584 E0.01703
G1 X90.103 Y129.971 E0.02743
G1 X90.159 Y129.489 E0.01537
G1 X90.716 Y130.046 E0.02495
G1 X90.716 Y129.508 E0.01703
G1 X90.214 Y129.006 E0.02246
G1 X90.239 Y128.794 E0.00674
G1 X90.242 Y128.496 E0.00945
G1 X90.716 Y128.970 E0.02122
G1 X90.716 Y128.432 E0.01703
G1 X90.248 Y127.964 E0.02095
G1 X90.254 Y127.432 E0.01684
G1 X90.716 Y127.894 E0.02068
G1 X90.716 Y127.356 E0.01703
G1 X90.201 Y126.841 E0.02303
G1 X90.147 Y126.248 E0.01884
G1 X90.716 Y126.817 E0.02548
G1 X90.716 Y126.279 E0.01703
G1 X90.042 Y125.605 E0.03017
G1 X89.909 Y124.934 E0.02165
G1 X90.716 Y125.741 E0.03612
