; generated by PrusaSlicer 2.1.1+win64 on 2020-01-15 at 17:29:02 UTC

; 

; external perimeters extrusion width = 0.45mm
; perimeters extrusion width = 0.45mm
; infill extrusion width = 0.45mm
; solid infill extrusion width = 0.45mm
; top infill extrusion width = 0.40mm
; first layer extrusion width = 0.42mm

M73 P0 R1
M201 X9000 Y9000 Z500 E10000 ; sets maximum accelerations, mm/sec^2
M203 X500 Y500 Z12 E120 ; sets maximum feedrates, mm/sec
M204 P2000 R1500 T2000 ; sets acceleration (P, T) and retract acceleration (R), mm/sec^2
M205 X10.00 Y10.00 Z0.20 E2.50 ; sets the jerk limits, mm/sec
M205 S0 T0 ; sets the minimum extruding and travel feed rate, mm/sec
M107
M862.3 P "MK2.5SMMU2S" ; printer model check
M862.1 P0.4 ; nozzle diameter check
M115 U3.8.1 ; tell printer latest fw version
G90 ; use absolute coordinates
M83 ; extruder relative mode
M104 S215 ; set extruder temp
M140 S60 ; set bed temp
Tx
M190 S60 ; wait for bed temp
M109 S215 ; wait for extruder temp
G28 W ; home all without mesh bed level
G80 ; mesh bed leveling

;go outside print area
G1 Y-3.0 F1000.0
G1 Z0.4 F1000.0
; select extruder
Tc
; purge line
G1 X55.0 F2000.0
G1 Z0.3 F1000.0
G92 E0.0
G1 X240.0 E25.0 F2200.0
M73 P7 R1
G1 Y-2.0 F1000.0
G1 X55.0 E25 F1400.0
G1 Z0.20 F1000.0
G1 X5.0 E4.0 F1000.0
G92 E0.0
G21 ; set units to millimeters
G90 ; use absolute coordinates
M83 ; use relative distances for extrusion
M900 K30 ; Filament gcode
;BEFORE_LAYER_CHANGE
G92 E0.0
;0.2


G1 E-0.80000 F2100.00000
G1 Z0.600 F10800.000
;AFTER_LAYER_CHANGE
;0.2
G1 X124.956 Y96.579
G1 Z0.200
G1 E0.80000 F2100.00000
M204 S1000
G1 F900
G1 X125.843 Y96.092 E0.03173
G1 X126.826 Y95.787 E0.03227
G1 X127.834 Y95.687 E0.03174
G1 X129.030 Y95.835 E0.03780
G1 X129.761 Y96.069 E0.02405
G1 X130.407 Y96.397 E0.02272
G1 X131.356 Y97.112 E0.03726
G1 X132.054 Y97.947 E0.03412
G1 X132.596 Y99.024 E0.03780
G1 X132.807 Y99.761 E0.02405
G1 X132.894 Y100.481 E0.02272
G1 X132.826 Y101.667 E0.03726
G1 X132.518 Y102.715 E0.03425
G1 X132.066 Y103.564 E0.03015
G1 X126.387 Y112.063 E0.32051
G1 X125.663 Y112.919 E0.03514
G1 X125.012 Y113.442 E0.02618
G1 X124.329 Y113.826 E0.02458
G1 X123.119 Y114.223 E0.03991
G1 X122.230 Y114.312 E0.02803
G1 X121.452 Y114.256 E0.02445
G1 X120.220 Y113.923 E0.04004
G1 X119.346 Y113.455 E0.03108
G1 X118.577 Y112.823 E0.03121
G1 X117.946 Y112.053 E0.03121
G1 X117.477 Y111.175 E0.03121
G1 X117.189 Y110.222 E0.03121
G1 X117.092 Y109.232 E0.03121
G1 X117.191 Y108.241 E0.03121
G1 X117.482 Y107.285 E0.03134
G1 X117.945 Y106.418 E0.03081
G1 X123.620 Y97.926 E0.32025
G1 X124.126 Y97.295 E0.02535
G1 X124.911 Y96.618 E0.03249
G1 X125.156 Y96.902 F10800.000
G1 F900
G1 X125.993 Y96.439 E0.02999
G1 X126.903 Y96.157 E0.02988
G1 X127.836 Y96.064 E0.02938
G1 X128.933 Y96.199 E0.03468
G1 X129.619 Y96.418 E0.02258
G1 X130.229 Y96.729 E0.02146
G1 X131.104 Y97.392 E0.03442
G1 X131.744 Y98.161 E0.03136
G1 X132.241 Y99.149 E0.03468
G1 X132.438 Y99.838 E0.02246
G1 X132.519 Y100.525 E0.02171
G1 X132.452 Y101.621 E0.03442
G1 X132.162 Y102.590 E0.03173
G1 X131.749 Y103.361 E0.02741
G1 X126.076 Y111.850 E0.32013
G1 X125.424 Y112.626 E0.03177
G1 X124.803 Y113.129 E0.02506
G1 X124.165 Y113.487 E0.02295
G1 X123.054 Y113.852 E0.03664
G1 X122.216 Y113.935 E0.02642
G1 X121.486 Y113.881 E0.02295
G1 X120.344 Y113.567 E0.03713
G1 X119.547 Y113.136 E0.02840
G1 X118.837 Y112.549 E0.02889
G1 X118.256 Y111.839 E0.02877
G1 X117.821 Y111.018 E0.02914
G1 X117.558 Y110.143 E0.02864
G1 X117.469 Y109.222 E0.02901
G1 X117.562 Y108.305 E0.02889
G1 X117.838 Y107.410 E0.02938
G1 X118.258 Y106.629 E0.02778
G1 X123.931 Y98.140 E0.32013
G1 X124.396 Y97.558 E0.02336
G1 X125.111 Y96.941 E0.02959
G1 X125.356 Y97.225 F10800.000
G1 F900
G1 X126.139 Y96.786 E0.02816
G1 X126.977 Y96.527 E0.02749
G1 X127.835 Y96.441 E0.02703
G1 X128.838 Y96.564 E0.03169
G1 X129.479 Y96.768 E0.02109
G1 X130.051 Y97.061 E0.02017
G1 X130.846 Y97.667 E0.03134
G1 X131.431 Y98.373 E0.02874
G1 X131.884 Y99.272 E0.03157
G1 X132.069 Y99.915 E0.02097
G1 X132.144 Y100.565 E0.02051
G1 X132.078 Y101.566 E0.03146
G1 X131.807 Y102.460 E0.02931
G1 X131.433 Y103.155 E0.02475
G1 X125.762 Y111.640 E0.31998
G1 X125.184 Y112.334 E0.02830
G1 X124.595 Y112.814 E0.02383
G1 X123.999 Y113.148 E0.02143
G1 X122.987 Y113.480 E0.03339
G1 X122.206 Y113.558 E0.02463
G1 X121.521 Y113.505 E0.02154
G1 X120.474 Y113.212 E0.03407
G1 X119.755 Y112.821 E0.02566
G1 X119.102 Y112.281 E0.02657
G1 X118.571 Y111.630 E0.02634
G1 X118.167 Y110.869 E0.02703
G1 X117.928 Y110.071 E0.02612
G1 X117.847 Y109.220 E0.02680
G1 X117.933 Y108.377 E0.02657
G1 X118.193 Y107.540 E0.02748
G1 X118.574 Y106.836 E0.02509
G1 X124.242 Y98.354 E0.31986
G1 X124.669 Y97.819 E0.02145
G1 X125.311 Y97.264 E0.02660
G1 F8640
G1 X126.139 Y96.786 E-0.22098
G1 X126.977 Y96.527 E-0.20241
G1 X127.835 Y96.441 E-0.19905
G1 X128.426 Y96.514 E-0.13755
G1 E-0.04000 F2100.00000
G1 Z0.800 F10800.000
G1 X122.447 Y107.718
G1 Z0.200
G1 E0.80000 F2100.00000
G1 F900
G1 X122.764 Y107.810 E0.01035
G1 X123.028 Y107.951 E0.00938
G1 X123.262 Y108.143 E0.00950
G1 X123.454 Y108.377 E0.00950
G1 X123.597 Y108.644 E0.00950
G1 X123.685 Y108.934 E0.00950
G1 X123.715 Y109.235 E0.00950
G1 X123.685 Y109.537 E0.00950
G1 X123.597 Y109.826 E0.00950
G1 X123.454 Y110.093 E0.00950
G1 X123.262 Y110.328 E0.00950
G1 X123.028 Y110.520 E0.00950
G1 X122.761 Y110.662 E0.00950
G1 X122.471 Y110.750 E0.00950
G1 X122.170 Y110.780 E0.00950
G1 X121.868 Y110.750 E0.00950
G1 X121.579 Y110.663 E0.00950
G1 X121.312 Y110.520 E0.00950
G1 X121.077 Y110.328 E0.00950
G1 X120.885 Y110.093 E0.00950
G1 X120.743 Y109.826 E0.00950
G1 X120.655 Y109.537 E0.00950
G1 X120.625 Y109.235 E0.00950
G1 X120.655 Y108.934 E0.00950
G1 X120.743 Y108.644 E0.00950
G1 X120.885 Y108.377 E0.00950
G1 X121.077 Y108.143 E0.00950
G1 X121.312 Y107.951 E0.00950
G1 X121.579 Y107.808 E0.00950
G1 X121.868 Y107.720 E0.00950
G1 X122.170 Y107.690 E0.00950
G1 X122.387 Y107.712 E0.00685
G1 X122.170 Y107.311 F10800.000
G1 F900
G1 X122.519 Y107.346 E0.01099
G1 X122.907 Y107.458 E0.01268
G1 X123.239 Y107.636 E0.01178
G1 X123.530 Y107.875 E0.01182
G1 X123.769 Y108.166 E0.01182
G1 X123.947 Y108.499 E0.01182
G1 X124.057 Y108.860 E0.01182
G1 X124.094 Y109.235 E0.01182
G1 X124.057 Y109.611 E0.01182
G1 X123.947 Y109.971 E0.01182
G1 X123.769 Y110.304 E0.01182
G1 X123.530 Y110.596 E0.01182
G1 X123.239 Y110.835 E0.01182
G1 X122.906 Y111.013 E0.01182
G1 X122.545 Y111.122 E0.01182
G1 X122.170 Y111.159 E0.01182
G1 X121.795 Y111.122 E0.01182
G1 X121.434 Y111.013 E0.01182
G1 X121.101 Y110.835 E0.01182
G1 X120.810 Y110.596 E0.01182
G1 X120.570 Y110.304 E0.01182
G1 X120.392 Y109.971 E0.01182
G1 X120.283 Y109.611 E0.01182
G1 X120.246 Y109.235 E0.01182
G1 X120.283 Y108.860 E0.01182
G1 X120.392 Y108.499 E0.01182
G1 X120.570 Y108.166 E0.01182
G1 X120.809 Y107.875 E0.01182
G1 X121.101 Y107.636 E0.01182
G1 X121.434 Y107.458 E0.01182
G1 X121.795 Y107.348 E0.01182
G1 X122.110 Y107.317 E0.00994
G1 X122.345 Y107.615 F10800.000
G1 F8640
G1 X122.519 Y107.346 E-0.09456
G1 X122.907 Y107.458 E-0.09341
G1 X123.239 Y107.636 E-0.08678
G1 X123.530 Y107.875 E-0.08708
G1 X123.769 Y108.166 E-0.08708
G1 X123.947 Y108.499 E-0.08708
G1 X124.057 Y108.860 E-0.08708
G1 X124.094 Y109.235 E-0.08708
G1 X124.072 Y109.450 E-0.04984
G1 E-0.04000 F2100.00000
G1 Z0.800 F10800.000
G1 X123.541 Y108.849
G1 Z0.200
G1 E0.80000 F2100.00000
G1 F900
G1 X122.870 Y108.187 E0.03246
G1 X122.657 Y108.073 E0.00833
G1 X122.393 Y107.996 E0.00946
G1 X122.089 Y107.982 E0.01050
G1 X123.423 Y109.316 E0.06498
G1 X123.406 Y109.481 E0.00571
G1 X123.301 Y109.780 E0.01093
G1 X121.625 Y108.104 E0.08168
G1 X121.469 Y108.187 E0.00606
G1 X121.278 Y108.344 E0.00852
G1 X123.061 Y110.127 E0.08687
G1 X122.870 Y110.283 E0.00851
G1 X122.715 Y110.366 E0.00606
G1 X121.039 Y108.690 E0.08168
G1 X120.933 Y108.989 E0.01093
G1 X120.917 Y109.154 E0.00572
G1 X122.251 Y110.488 E0.06498
G1 X121.924 Y110.472 E0.01127
G1 X121.687 Y110.400 E0.00851
G1 X121.469 Y110.283 E0.00851
G1 X120.799 Y109.622 E0.03245
G1 F8640
G1 X121.469 Y110.283 E-0.21750
G1 X121.687 Y110.400 E-0.05707
G1 X121.924 Y110.472 E-0.05707
G1 X122.251 Y110.488 E-0.07554
G1 X121.170 Y109.407 E-0.35283
G1 E-0.04000 F2100.00000
G1 Z0.800 F10800.000
G1 X126.972 Y102.049
G1 Z0.200
G1 E0.80000 F2100.00000
G1 F900
G1 X126.738 Y101.857 E0.00950
G1 X126.546 Y101.623 E0.00950
G1 X126.403 Y101.356 E0.00950
G1 X126.315 Y101.066 E0.00950
G1 X126.285 Y100.765 E0.00950
G1 X126.315 Y100.463 E0.00950
G1 X126.403 Y100.174 E0.00950
G1 X126.546 Y99.907 E0.00950
G1 X126.738 Y99.672 E0.00950
G1 X126.972 Y99.480 E0.00950
G1 X127.239 Y99.338 E0.00950
G1 X127.529 Y99.250 E0.00950
G1 X127.830 Y99.220 E0.00950
G1 X128.107 Y99.247 E0.00873
G1 X128.425 Y99.339 E0.01035
G1 X128.688 Y99.480 E0.00938
G1 X128.923 Y99.672 E0.00950
G1 X129.115 Y99.907 E0.00950
G1 X129.257 Y100.174 E0.00950
G1 X129.345 Y100.463 E0.00950
G1 X129.375 Y100.765 E0.00950
G1 X129.345 Y101.066 E0.00950
G1 X129.257 Y101.356 E0.00950
G1 X129.115 Y101.623 E0.00950
G1 X128.923 Y101.857 E0.00950
G1 X128.688 Y102.049 E0.00950
G1 X128.421 Y102.192 E0.00950
G1 X128.132 Y102.280 E0.00950
G1 X127.830 Y102.310 E0.00950
G1 X127.529 Y102.280 E0.00950
G1 X127.239 Y102.192 E0.00950
G1 X127.025 Y102.078 E0.00761
G1 X126.761 Y102.364 F10800.000
G1 F900
G1 X126.470 Y102.125 E0.01182
G1 X126.231 Y101.834 E0.01182
G1 X126.053 Y101.501 E0.01182
G1 X125.943 Y101.140 E0.01182
G1 X125.906 Y100.765 E0.01182
G1 X125.943 Y100.389 E0.01182
G1 X126.053 Y100.029 E0.01182
G1 X126.231 Y99.696 E0.01182
G1 X126.470 Y99.404 E0.01182
G1 X126.761 Y99.165 E0.01182
G1 X127.094 Y98.987 E0.01182
G1 X127.455 Y98.878 E0.01182
G1 X127.830 Y98.841 E0.01182
G1 X128.179 Y98.875 E0.01099
G1 X128.568 Y98.988 E0.01268
G1 X128.899 Y99.165 E0.01178
G1 X129.190 Y99.404 E0.01182
G1 X129.430 Y99.696 E0.01182
G1 X129.608 Y100.029 E0.01182
G1 X129.717 Y100.389 E0.01182
G1 X129.754 Y100.765 E0.01182
G1 X129.717 Y101.140 E0.01182
G1 X129.608 Y101.501 E0.01182
G1 X129.430 Y101.834 E0.01182
G1 X129.190 Y102.125 E0.01182
G1 X128.899 Y102.364 E0.01182
G1 X128.566 Y102.542 E0.01182
G1 X128.205 Y102.652 E0.01182
G1 X127.830 Y102.689 E0.01182
G1 X127.455 Y102.652 E0.01182
G1 X127.094 Y102.542 E0.01182
G1 X126.814 Y102.393 E0.00994
G1 X126.786 Y101.988 F10800.000
G1 F8640
G1 X126.470 Y102.125 E-0.10070
G1 X126.231 Y101.834 E-0.08708
G1 X126.053 Y101.501 E-0.08708
G1 X125.943 Y101.140 E-0.08708
G1 X125.906 Y100.765 E-0.08708
G1 X125.943 Y100.389 E-0.08708
G1 X126.053 Y100.029 E-0.08708
G1 X126.231 Y99.696 E-0.08708
G1 X126.367 Y99.530 E-0.04973
G1 E-0.04000 F2100.00000
G1 Z0.800 F10800.000
G1 X126.459 Y101.152
G1 Z0.200
G1 E0.80000 F2100.00000
G1 F900
G1 X127.130 Y101.813 E0.03245
G1 X127.348 Y101.930 E0.00851
G1 X127.584 Y102.001 E0.00851
G1 X127.911 Y102.018 E0.01127
G1 X126.577 Y100.684 E0.06498
G1 X126.594 Y100.519 E0.00572
G1 X126.699 Y100.220 E0.01093
G1 X128.375 Y101.896 E0.08168
G1 X128.531 Y101.813 E0.00606
G1 X128.722 Y101.656 E0.00851
G1 X126.939 Y99.873 E0.08687
G1 X127.130 Y99.717 E0.00852
G1 X127.285 Y99.634 E0.00606
G1 X128.961 Y101.310 E0.08168
G1 X129.067 Y101.011 E0.01093
G1 X129.083 Y100.846 E0.00571
G1 X127.749 Y99.512 E0.06498
G1 X128.054 Y99.526 E0.01050
G1 X128.317 Y99.603 E0.00946
G1 X128.531 Y99.717 E0.00833
G1 X129.201 Y100.378 E0.03246
M106 S255
;BEFORE_LAYER_CHANGE
G92 E0.0
;0.4


G1 F8640
G1 X128.531 Y99.717 E-0.21754
G1 X128.317 Y99.603 E-0.05583
G1 X128.054 Y99.526 E-0.06339
G1 X127.749 Y99.512 E-0.07037
G1 X128.830 Y100.593 E-0.35287
G1 E-0.04000 F2100.00000
G1 Z0.800 F10800.000
;AFTER_LAYER_CHANGE
;0.4
G1 X132.826 Y101.667
G1 Z0.400
G1 E0.80000 F2100.00000
G1 F900
G1 X132.518 Y102.715 E0.03425
G1 X132.066 Y103.564 E0.03015
G1 X126.387 Y112.063 E0.32051
G1 X125.663 Y112.919 E0.03514
G1 X125.012 Y113.442 E0.02618
G1 X124.329 Y113.826 E0.02458
G1 X123.119 Y114.223 E0.03991
G1 X122.230 Y114.312 E0.02803
G1 X121.452 Y114.256 E0.02445
G1 X120.220 Y113.923 E0.04004
G1 X119.346 Y113.455 E0.03108
G1 X118.577 Y112.823 E0.03121
G1 X117.946 Y112.053 E0.03121
G1 X117.477 Y111.175 E0.03121
G1 X117.189 Y110.222 E0.03121
G1 X117.092 Y109.232 E0.03121
G1 X117.191 Y108.241 E0.03121
G1 X117.482 Y107.285 E0.03134
G1 X117.945 Y106.418 E0.03081
G1 X123.620 Y97.926 E0.32025
G1 X124.126 Y97.295 E0.02535
G1 X124.956 Y96.579 E0.03438
G1 X125.843 Y96.092 E0.03173
G1 X126.826 Y95.787 E0.03227
G1 X127.834 Y95.687 E0.03174
G1 X129.030 Y95.835 E0.03780
G1 X129.761 Y96.069 E0.02405
G1 X130.407 Y96.397 E0.02272
G1 X131.356 Y97.112 E0.03726
G1 X132.054 Y97.947 E0.03412
G1 X132.596 Y99.024 E0.03780
G1 X132.807 Y99.761 E0.02405
G1 X132.894 Y100.481 E0.02272
G1 X132.830 Y101.607 E0.03538
G1 F8640
G1 X132.518 Y102.715 E-0.26572
G1 X132.066 Y103.564 E-0.22204
G1 X131.411 Y104.544 E-0.27225
G1 E-0.04000 F2100.00000
G1 Z1.000 F10800.000
G1 X123.417 Y108.402
G1 Z0.400
G1 E0.80000 F2100.00000
M204 S800
G1 F900
G1 X123.555 Y108.661 E0.00995
G1 X123.641 Y108.943 E0.00995
G1 X123.670 Y109.235 E0.00995
G1 X123.641 Y109.528 E0.00995
G1 X123.555 Y109.809 E0.00995
G1 X123.417 Y110.068 E0.00995
G1 X123.230 Y110.296 E0.00995
G1 X123.003 Y110.482 E0.00995
G1 X122.744 Y110.621 E0.00995
G1 X122.462 Y110.706 E0.00995
G1 X122.170 Y110.735 E0.00995
G1 X121.877 Y110.706 E0.00995
G1 X121.596 Y110.621 E0.00995
G1 X121.337 Y110.482 E0.00995
G1 X121.109 Y110.296 E0.00995
G1 X120.923 Y110.068 E0.00995
G1 X120.784 Y109.809 E0.00995
G1 X120.699 Y109.528 E0.00995
G1 X120.670 Y109.235 E0.00995
G1 X120.699 Y108.943 E0.00995
G1 X120.784 Y108.661 E0.00995
G1 X120.923 Y108.402 E0.00995
G1 X121.109 Y108.175 E0.00995
G1 X121.337 Y107.988 E0.00995
G1 X121.596 Y107.850 E0.00995
G1 X121.877 Y107.764 E0.00995
G1 X122.170 Y107.736 E0.00995
G1 X122.462 Y107.764 E0.00995
G1 X122.744 Y107.850 E0.00995
G1 X123.003 Y107.988 E0.00995
G1 X123.230 Y108.175 E0.00995
G1 X123.379 Y108.356 E0.00792
M204 S1000
G1 X123.757 Y108.175 F10800.000
M204 S800
G1 F900
G1 X123.933 Y108.505 E0.01267
G1 X124.042 Y108.863 E0.01267
G1 X124.079 Y109.235 E0.01267
G1 X124.042 Y109.608 E0.01267
G1 X123.933 Y109.966 E0.01267
G1 X123.757 Y110.296 E0.01267
G1 X123.520 Y110.585 E0.01267
G1 X123.230 Y110.822 E0.01267
G1 X122.900 Y110.999 E0.01267
G1 X122.542 Y111.107 E0.01267
G1 X122.170 Y111.144 E0.01267
G1 X121.797 Y111.107 E0.01267
G1 X121.439 Y110.999 E0.01267
G1 X121.109 Y110.822 E0.01267
G1 X120.820 Y110.585 E0.01267
G1 X120.583 Y110.296 E0.01267
G1 X120.406 Y109.966 E0.01267
G1 X120.298 Y109.608 E0.01267
G1 X120.261 Y109.235 E0.01267
G1 X120.298 Y108.863 E0.01267
G1 X120.406 Y108.505 E0.01267
G1 X120.583 Y108.175 E0.01267
G1 X120.820 Y107.886 E0.01267
G1 X121.109 Y107.648 E0.01267
G1 X121.439 Y107.472 E0.01267
G1 X121.797 Y107.363 E0.01267
G1 X122.170 Y107.326 E0.01267
G1 X122.542 Y107.363 E0.01267
G1 X122.900 Y107.472 E0.01267
G1 X123.230 Y107.648 E0.01267
G1 X123.520 Y107.886 E0.01267
G1 X123.719 Y108.128 E0.01063
M204 S1000
G1 X123.591 Y108.510 F10800.000
G1 F8640
G1 X123.933 Y108.505 E-0.10002
G1 X124.042 Y108.863 E-0.08640
G1 X124.079 Y109.235 E-0.08640
G1 X124.042 Y109.608 E-0.08640
G1 X123.933 Y109.966 E-0.08640
G1 X123.757 Y110.296 E-0.08640
G1 X123.520 Y110.585 E-0.08640
G1 X123.230 Y110.822 E-0.08640
G1 X123.019 Y110.935 E-0.05519
G1 E-0.04000 F2100.00000
G1 Z1.000 F10800.000
G1 X122.478 Y110.574
G1 Z0.400
G1 E0.80000 F2100.00000
M204 S2000
G1 F900
G1 X123.171 Y109.881 E0.03793
G1 X123.272 Y109.692 E0.00832
G1 X123.340 Y109.468 E0.00906
G1 X123.363 Y109.235 E0.00906
G1 X123.344 Y109.049 E0.00726
G1 X121.983 Y110.410 E0.07455
G1 X121.713 Y110.337 E0.01083
G1 X121.507 Y110.227 E0.00905
G1 X123.162 Y108.573 E0.09063
G1 X123.013 Y108.392 E0.00906
G1 X122.832 Y108.243 E0.00907
G1 X121.178 Y109.898 E0.09063
G1 X121.068 Y109.692 E0.00905
G1 X120.995 Y109.422 E0.01083
G1 X122.356 Y108.061 E0.07454
G1 X122.170 Y108.042 E0.00725
G1 X121.937 Y108.065 E0.00906
G1 X121.713 Y108.133 E0.00906
G1 X121.524 Y108.235 E0.00834
G1 X120.831 Y108.927 E0.03791
M204 S1000
G1 F8640
G1 X121.524 Y108.235 E-0.22601
G1 X121.713 Y108.133 E-0.04969
G1 X121.937 Y108.065 E-0.05400
G1 X122.170 Y108.042 E-0.05400
G1 X122.356 Y108.061 E-0.04324
