; generated by PrusaSlicer 2.1.1+win64 on 2020-02-03 at 22:40:46 UTC

; 

; external perimeters extrusion width = 0.45mm
; perimeters extrusion width = 0.45mm
; infill extrusion width = 0.45mm
; solid infill extrusion width = 0.45mm
; top infill extrusion width = 0.40mm
; support material extrusion width = 0.35mm
; first layer extrusion width = 0.42mm

M73 P0 R18
M201 X9000 Y9000 Z500 E10000 ; sets maximum accelerations, mm/sec^2
M203 X500 Y500 Z12 E120 ; sets maximum feedrates, mm/sec
M204 P2000 R1500 T2000 ; sets acceleration (P, T) and retract acceleration (R), mm/sec^2
M205 X10.00 Y10.00 Z0.20 E4.50 ; sets the jerk limits, mm/sec
M205 S0 T0 ; sets the minimum extruding and travel feed rate, mm/sec
M107
M862.3 P "MK2.5SMMU2S" ; printer model check
M862.1 P0.4 ; nozzle diameter check
M115 U3.8.1 ; tell printer latest fw version
G90 ; use absolute coordinates
M83 ; extruder relative mode
M104 S215 ; set extruder temp
M140 S60 ; set bed temp
Tx
M190 S60 ; wait for bed temp
M109 S215 ; wait for extruder temp
G28 W ; home all without mesh bed level
G80 ; mesh bed leveling

;go outside print area
G1 Y-3.0 F1000.0
G1 Z0.4 F1000.0
; select extruder
Tc
; purge line
G1 X55.0 F2000.0
G1 Z0.3 F1000.0
G92 E0.0
G1 X240.0 E25.0 F2200.0
M73 P0 R18
G1 Y-2.0 F1000.0
G1 X55.0 E25 F1400.0
G1 Z0.20 F1000.0
G1 X5.0 E4.0 F1000.0
G92 E0.0
G21 ; set units to millimeters
G90 ; use absolute coordinates
M83 ; use relative distances for extrusion
M900 K30 ; Filament gcode
;BEFORE_LAYER_CHANGE
G92 E0.0
;0.2


G1 E-0.80000 F2100.00000
G1 Z0.600 F10800.000
;AFTER_LAYER_CHANGE
;0.2
G1 X115.519 Y90.117
G1 Z0.200
G1 E0.80000 F2100.00000
M204 S1000
G1 F1200
G1 X116.378 Y89.733 E0.02949
G1 X116.966 Y89.663 E0.01857
G1 X133.027 Y89.663 E0.50361
G1 X133.926 Y89.826 E0.02863
G1 X134.713 Y90.297 E0.02875
G1 X135.158 Y90.804 E0.02116
G1 X136.057 Y92.315 E0.05513
G1 X136.847 Y94.520 E0.07344
G1 X137.087 Y96.539 E0.06372
G1 X135.270 Y115.326 E0.59180
G1 X134.844 Y118.689 E0.10629
G1 X134.604 Y119.260 E0.01943
G1 X134.236 Y119.754 E0.01931
G1 X128.232 Y125.760 E0.26627
G1 X127.788 Y126.109 E0.01771
G1 X127.185 Y126.384 E0.02079
G1 X126.531 Y126.495 E0.02079
G1 X123.200 Y126.406 E0.10449
G1 X122.619 Y126.311 E0.01845
G1 X122.024 Y126.057 E0.02029
G1 X121.508 Y125.660 E0.02042
G1 X115.932 Y120.081 E0.24733
G1 X115.578 Y119.601 E0.01869
G1 X115.346 Y119.056 E0.01857
G1 X112.918 Y96.923 E0.69814
G1 X113.177 Y94.428 E0.07865
G1 X113.823 Y92.545 E0.06241
G1 X114.856 Y90.784 E0.06401
G1 X115.477 Y90.159 E0.02760
G1 X115.731 Y90.428 F10800.000
G1 F1200
G1 X116.486 Y90.095 E0.02586
G1 X116.968 Y90.040 E0.01521
G1 X133.027 Y90.040 E0.50354
G1 X133.820 Y90.190 E0.02529
G1 X134.504 Y90.617 E0.02529
G1 X134.860 Y91.037 E0.01726
G1 X135.754 Y92.545 E0.05498
G1 X136.484 Y94.625 E0.06910
G1 X136.712 Y96.589 E0.06199
G1 X134.895 Y115.288 E0.58907
G1 X134.479 Y118.592 E0.10442
G1 X134.273 Y119.079 E0.01658
G1 X133.956 Y119.502 E0.01658
G1 X127.969 Y125.489 E0.26548
G1 X127.591 Y125.788 E0.01510
G1 X127.067 Y126.026 E0.01805
G1 X126.502 Y126.119 E0.01794
G1 X123.222 Y126.030 E0.10289
G1 X122.718 Y125.947 E0.01601
G1 X122.209 Y125.728 E0.01737
G1 X121.773 Y125.391 E0.01729
G1 X116.213 Y119.829 E0.24656
G1 X115.907 Y119.416 E0.01612
G1 X115.706 Y118.943 E0.01612
G1 X113.294 Y96.893 E0.69548
G1 X113.541 Y94.526 E0.07463
G1 X114.164 Y92.705 E0.06035
G1 X115.154 Y91.017 E0.06134
G1 X115.689 Y90.471 E0.02398
G1 F8640
G1 X116.486 Y90.095 E-0.20336
G1 X116.968 Y90.040 E-0.11201
G1 X118.893 Y90.040 E-0.44463
G1 E-0.04000 F2100.00000
G1 Z0.800 F10800.000
G1 X120.082 Y100.418
G1 Z0.200
G1 E0.80000 F2100.00000
G1 F1200
G1 X123.970 Y96.530 E0.17240
G1 X124.503 Y97.064 E0.02365
G1 X120.683 Y100.883 E0.16938
G1 X120.758 Y100.974 E0.00368
G1 X121.253 Y101.381 E0.02008
G1 X125.036 Y97.597 E0.16777
G1 X125.570 Y98.130 E0.02365
G1 X121.869 Y101.831 E0.16408
G1 X122.564 Y102.202 E0.02471
G1 X126.103 Y98.663 E0.15691
G1 X126.636 Y99.197 E0.02365
G1 X123.355 Y102.478 E0.14549
G1 X123.854 Y102.629 E0.01634
G1 X124.233 Y102.666 E0.01195
G1 X127.169 Y99.730 E0.13021
G1 X127.703 Y100.263 E0.02365
G1 X125.241 Y102.725 E0.10915
G1 X126.213 Y102.629 E0.03061
G1 X126.486 Y102.546 E0.00897
G1 X128.236 Y100.796 E0.07758
G1 X128.769 Y101.330 E0.02365
G1 X127.937 Y102.162 E0.03691
G1 F8640
G1 X128.769 Y101.330 E-0.27181
G1 X128.236 Y100.796 E-0.17414
G1 X127.274 Y101.758 E-0.31406
G1 E-0.04000 F2100.00000
G1 Z0.800 F10800.000
G1 X119.772 Y107.127
G1 Z0.200
G1 E0.80000 F2100.00000
G1 F1200
G1 X118.082 Y108.817 E0.07492
G1 X118.616 Y109.350 E0.02365
G1 X120.669 Y107.297 E0.09104
G1 X121.735 Y107.297 E0.03344
G1 X119.149 Y109.884 E0.11469
G1 X119.438 Y110.172 E0.01281
G1 X117.806 Y111.804 E0.07234
G1 X118.051 Y112.048 E0.01084
G1 X122.802 Y107.297 E0.21067
G1 X123.868 Y107.297 E0.03344
G1 X118.584 Y112.581 E0.23432
G1 X119.117 Y113.115 E0.02365
G1 X124.935 Y107.297 E0.25796
G1 X126.002 Y107.297 E0.03344
G1 X118.019 Y115.279 E0.35395
G1 X118.553 Y115.813 E0.02365
G1 X127.068 Y107.297 E0.37759
G1 X128.135 Y107.297 E0.03344
G1 X119.086 Y116.346 E0.40124
G1 X119.438 Y116.698 E0.01561
G1 X117.806 Y118.329 E0.07234
G1 X117.988 Y118.510 E0.00804
G1 X129.201 Y107.297 E0.49722
G1 X130.268 Y107.297 E0.03344
G1 X118.521 Y119.044 E0.52087
G1 X119.054 Y119.577 E0.02365
G1 X131.334 Y107.297 E0.54452
G1 X131.474 Y107.297 E0.00438
G1 X131.937 Y107.761 E0.02055
G1 X119.588 Y120.110 E0.54761
G1 X120.121 Y120.644 E0.02365
G1 X132.471 Y108.294 E0.54761
G1 X132.718 Y108.541 E0.01096
G1 X131.087 Y110.172 E0.07234
G1 X131.373 Y110.458 E0.01268
G1 X120.654 Y121.177 E0.47527
G1 X121.187 Y121.710 E0.02365
G1 X131.906 Y110.992 E0.47527
G1 X132.439 Y111.525 E0.02365
G1 X121.721 Y122.243 E0.47527
G1 X122.254 Y122.777 E0.02365
G1 X131.341 Y113.690 E0.40294
G1 X131.874 Y114.223 E0.02365
G1 X122.787 Y123.310 E0.40294
G1 X123.320 Y123.843 E0.02365
G1 X132.408 Y114.756 E0.40294
G1 X132.718 Y115.066 E0.01376
G1 X131.087 Y116.698 E0.07234
G1 X131.309 Y116.921 E0.00988
G1 X125.485 Y122.745 E0.25826
G1 X126.018 Y123.278 E0.02365
G1 X131.843 Y117.454 E0.25826
G1 X132.376 Y117.987 E0.02365
G1 X126.432 Y123.932 E0.26358
G1 F8640
G1 X128.759 Y121.604 E-0.76000
G1 E-0.04000 F2100.00000
G1 Z0.800 F10800.000
G1 X131.338 Y106.184
G1 Z0.200
G1 E0.80000 F2100.00000
G1 F1200
G1 X118.652 Y106.184 E0.39774
G1 X118.652 Y104.180 E0.06284
G1 X117.497 Y100.921 E0.10839
G1 X116.690 Y99.534 E0.05031
G1 X116.222 Y98.142 E0.04607
G1 X116.065 Y96.699 E0.04551
G1 X116.222 Y95.256 E0.04551
G1 X116.689 Y93.865 E0.04600
G1 X117.311 Y92.815 E0.03826
G1 X118.164 Y92.815 E0.02676
G1 X118.800 Y93.240 E0.02395
G1 X118.404 Y93.988 E0.02655
G1 X118.006 Y95.301 E0.04301
G1 X117.868 Y96.699 E0.04404
G1 X118.006 Y98.097 E0.04404
G1 X118.414 Y99.441 E0.04404
G1 X119.076 Y100.679 E0.04404
G1 X119.968 Y101.766 E0.04408
G1 X121.081 Y102.671 E0.04500
G1 X122.291 Y103.318 E0.04302
G1 X123.635 Y103.726 E0.04404
G1 X125.035 Y103.864 E0.04408
G1 X126.462 Y103.717 E0.04499
G1 X127.775 Y103.318 E0.04302
G1 X129.014 Y102.656 E0.04404
G1 X130.101 Y101.764 E0.04408
G1 X131.006 Y100.651 E0.04500
G1 X131.653 Y99.441 E0.04302
G1 X132.061 Y98.097 E0.04404
G1 X132.198 Y96.697 E0.04408
G1 X132.051 Y95.270 E0.04501
G1 X131.653 Y93.957 E0.04301
G1 X131.269 Y93.238 E0.02554
G1 X131.902 Y92.815 E0.02388
G1 X132.689 Y92.815 E0.02467
G1 X133.291 Y93.832 E0.03707
G1 X133.778 Y95.257 E0.04721
G1 X133.935 Y96.699 E0.04547
G1 X133.778 Y98.142 E0.04551
G1 X133.310 Y99.533 E0.04601
G1 X132.491 Y100.920 E0.05050
G1 X131.334 Y104.180 E0.10848
G1 X131.338 Y106.124 E0.06095
G1 X131.715 Y106.561 F10800.000
G1 F1200
G1 X118.275 Y106.561 E0.42140
G1 X118.275 Y104.245 E0.07263
G1 X117.153 Y101.081 E0.10525
G1 X116.345 Y99.691 E0.05041
G1 X115.852 Y98.223 E0.04855
G1 X115.685 Y96.699 E0.04808
G1 X115.852 Y95.174 E0.04808
G1 X116.345 Y93.707 E0.04852
G1 X117.096 Y92.438 E0.04625
G1 X118.279 Y92.438 E0.03708
G1 X119.292 Y93.115 E0.03821
G1 X118.754 Y94.132 E0.03607
G1 X118.377 Y95.375 E0.04071
G1 X118.247 Y96.699 E0.04171
G1 X118.377 Y98.023 E0.04171
G1 X118.764 Y99.296 E0.04171
G1 X119.391 Y100.469 E0.04171
G1 X120.235 Y101.498 E0.04173
G1 X121.291 Y102.356 E0.04267
G1 X122.436 Y102.968 E0.04072
G1 X123.709 Y103.354 E0.04171
G1 X125.034 Y103.485 E0.04173
G1 X126.387 Y103.345 E0.04266
G1 X127.630 Y102.968 E0.04072
G1 X128.803 Y102.341 E0.04171
G1 X129.832 Y101.497 E0.04173
G1 X130.691 Y100.441 E0.04267
G1 X131.303 Y99.296 E0.04072
G1 X131.689 Y98.023 E0.04171
G1 X131.819 Y96.698 E0.04173
G1 X131.680 Y95.344 E0.04268
G1 X131.303 Y94.102 E0.04071
G1 X130.775 Y93.115 E0.03509
G1 X131.787 Y92.438 E0.03818
G1 X132.904 Y92.438 E0.03500
G1 X133.635 Y93.674 E0.04502
G1 X134.148 Y95.175 E0.04974
G1 X134.315 Y96.699 E0.04807
G1 X134.148 Y98.223 E0.04808
G1 X133.655 Y99.690 E0.04853
G1 X132.835 Y101.080 E0.05060
G1 X131.711 Y104.245 E0.10529
G1 X131.715 Y106.501 E0.07075
G1 X131.383 Y106.338 F10800.000
G1 F8640
G1 X128.424 Y106.516 E-0.76000
G1 E-0.04000 F2100.00000
G1 Z0.800 F10800.000
G1 X122.788 Y106.071
G1 Z0.200
G1 E0.80000 F2100.00000
G1 F1200
G1 X117.884 Y101.167 E0.22075
G1 X118.182 Y102.006 E0.02833
G1 X122.077 Y105.901 E0.17535
G1 X121.536 Y105.901 E0.01723
G1 X118.479 Y102.845 E0.13759
G1 X118.777 Y103.683 E0.02833
G1 X120.994 Y105.901 E0.09983
G1 X120.453 Y105.901 E0.01723
G1 X118.935 Y104.383 E0.06832
G1 X118.935 Y104.925 E0.01723
G1 X119.912 Y105.901 E0.04395
G1 X119.370 Y105.901 E0.01723
G1 X118.766 Y105.297 E0.02722
G1 F8640
G1 X119.370 Y105.901 E-0.19743
G1 X119.912 Y105.901 E-0.12500
G1 X118.935 Y104.925 E-0.31880
G1 X118.935 Y104.411 E-0.11876
G1 E-0.04000 F2100.00000
G1 Z0.800 F10800.000
G1 X121.210 Y102.869
G1 Z0.200
G1 E0.80000 F2100.00000
G1 F1200
G1 X124.243 Y105.901 E0.13651
G1 X124.784 Y105.901 E0.01723
G1 X122.586 Y103.703 E0.09894
G1 X123.363 Y103.939 E0.02585
G1 X125.325 Y105.901 E0.08833
G1 X125.867 Y105.901 E0.01723
G1 X124.013 Y104.047 E0.08345
G1 X124.613 Y104.107 E0.01921
G1 X126.408 Y105.901 E0.08078
G1 X126.949 Y105.901 E0.01723
G1 X125.181 Y104.133 E0.07959
G1 X125.672 Y104.082 E0.01570
G1 X127.491 Y105.901 E0.08187
G1 X128.032 Y105.901 E0.01723
G1 X126.163 Y104.032 E0.08415
G1 X126.518 Y103.995 E0.01137
G1 X126.633 Y103.960 E0.00381
G1 X128.573 Y105.901 E0.08736
G1 X129.115 Y105.901 E0.01723
G1 X127.048 Y103.834 E0.09304
G1 X127.463 Y103.708 E0.01382
G1 X129.656 Y105.901 E0.09871
G1 X130.198 Y105.901 E0.01723
G1 X127.879 Y103.582 E0.10438
G1 X128.232 Y103.395 E0.01274
G1 X130.739 Y105.901 E0.11283
G1 X131.054 Y105.901 E0.01004
G1 X131.054 Y105.675 E0.00720
G1 X128.585 Y103.206 E0.11114
G1 X128.938 Y103.017 E0.01273
G1 X131.053 Y105.133 E0.09521
G1 X131.052 Y104.590 E0.01726
G1 X129.272 Y102.810 E0.08013
G1 X129.569 Y102.566 E0.01224
G1 X131.073 Y104.070 E0.06770
G1 X131.215 Y103.670 E0.01350
G1 X129.867 Y102.322 E0.06069
G1 X130.164 Y102.078 E0.01224
G1 X131.357 Y103.271 E0.05369
G1 X131.499 Y102.871 E0.01350
G1 X130.432 Y101.805 E0.04801
G1 X130.675 Y101.506 E0.01225
G1 X131.640 Y102.472 E0.04346
G1 X131.782 Y102.072 E0.01350
G1 X130.918 Y101.208 E0.03892
G1 X131.160 Y100.909 E0.01225
G1 X131.924 Y101.673 E0.03438
G1 X132.066 Y101.273 E0.01350
G1 X131.367 Y100.574 E0.03145
G1 X131.556 Y100.222 E0.01273
G1 X132.208 Y100.873 E0.02934
G1 X132.398 Y100.522 E0.01271
G1 X131.745 Y99.869 E0.02940
G1 X131.927 Y99.510 E0.01281
G1 X132.599 Y100.182 E0.03023
G1 X132.800 Y99.841 E0.01258
G1 X132.053 Y99.095 E0.03361
G1 X132.179 Y98.679 E0.01382
G1 X133.001 Y99.501 E0.03698
G1 X133.052 Y99.414 E0.00320
G1 X133.153 Y99.112 E0.01015
G1 X132.305 Y98.264 E0.03818
G1 X132.339 Y98.152 E0.00373
G1 X132.375 Y97.792 E0.01151
G1 X133.290 Y98.707 E0.04119
G1 X133.426 Y98.302 E0.01361
G1 X132.423 Y97.299 E0.04513
G1 X132.472 Y96.806 E0.01576
G1 X133.524 Y97.859 E0.04738
G1 X133.578 Y97.371 E0.01563
G1 X132.434 Y96.228 E0.05147
G1 X132.372 Y95.624 E0.01932
G1 X133.631 Y96.883 E0.05667
G1 X133.651 Y96.699 E0.00590
G1 X133.610 Y96.320 E0.01212
G1 X132.254 Y94.965 E0.06102
G1 X132.018 Y94.188 E0.02585
G1 X133.543 Y95.713 E0.06865
G1 X133.500 Y95.319 E0.01260
G1 X133.401 Y95.029 E0.00975
G1 X131.677 Y93.305 E0.07760
G1 X131.988 Y93.098 E0.01188
G1 X132.012 Y93.098 E0.00076
G1 X133.393 Y94.479 E0.06217
G1 F8640
G1 X132.012 Y93.098 E-0.45102
G1 X131.988 Y93.098 E-0.00551
G1 X131.677 Y93.305 E-0.08615
G1 X132.343 Y93.971 E-0.21732
G1 E-0.04000 F2100.00000
G1 Z0.800 F10800.000
G1 X118.466 Y93.628
G1 Z0.200
G1 E0.80000 F2100.00000
G1 F1200
G1 X117.936 Y93.098 E0.02388
G1 X117.472 Y93.098 E0.01476
G1 X117.443 Y93.147 E0.00181
G1 X118.154 Y93.857 E0.03197
G1 X118.024 Y94.268 E0.01373
G1 X117.242 Y93.487 E0.03518
G1 X117.041 Y93.827 E0.01258
G1 X117.898 Y94.684 E0.03857
G1 X117.772 Y95.099 E0.01382
G1 X116.874 Y94.202 E0.04038
G1 X116.738 Y94.607 E0.01361
G1 X117.696 Y95.565 E0.04310
G1 X117.647 Y96.058 E0.01576
G1 X116.602 Y95.013 E0.04704
G1 X116.500 Y95.317 E0.01022
G1 X116.487 Y95.438 E0.00389
G1 X117.599 Y96.550 E0.05006
G1 X117.584 Y96.699 E0.00474
G1 X117.625 Y97.119 E0.01343
G1 X116.433 Y95.926 E0.05366
G1 X116.380 Y96.415 E0.01563
G1 X117.685 Y97.719 E0.05872
G1 X117.727 Y98.152 E0.01385
G1 X117.793 Y98.369 E0.00721
G1 X116.377 Y96.953 E0.06375
G1 X116.443 Y97.560 E0.01946
G1 X118.029 Y99.146 E0.07137
G1 X118.151 Y99.549 E0.01342
G1 X118.450 Y100.109 E0.02018
G1 X116.539 Y98.198 E0.08601
G1 X116.813 Y99.013 E0.02738
G1 X123.701 Y105.901 E0.31006
G1 X123.160 Y105.901 E0.01723
G1 X116.860 Y99.601 E0.28359
M106 S255
;BEFORE_LAYER_CHANGE
G92 E0.0
;0.4


G1 F8640
G1 X119.187 Y101.929 E-0.76000
G1 E-0.04000 F2100.00000
G1 Z0.800 F10800.000
;AFTER_LAYER_CHANGE
;0.4
M104 S210 ; set temperature
G1 X115.519 Y90.117
G1 Z0.400
G1 E0.80000 F2100.00000
G1 F1254
G1 X116.378 Y89.733 E0.02949
G1 X116.966 Y89.663 E0.01857
G1 X133.027 Y89.663 E0.50361
M73 P6 R17
G1 X133.926 Y89.826 E0.02863
G1 X134.713 Y90.297 E0.02875
G1 X135.158 Y90.804 E0.02116
G1 X136.057 Y92.315 E0.05513
G1 X136.847 Y94.520 E0.07344
G1 X137.087 Y96.539 E0.06372
G1 X135.270 Y115.326 E0.59180
G1 X134.844 Y118.689 E0.10629
G1 X134.604 Y119.260 E0.01943
G1 X134.236 Y119.754 E0.01931
G1 X128.232 Y125.760 E0.26627
G1 X127.788 Y126.109 E0.01771
G1 X127.185 Y126.384 E0.02079
G1 X126.531 Y126.495 E0.02079
G1 X123.200 Y126.406 E0.10449
G1 X122.619 Y126.311 E0.01845
G1 X122.024 Y126.057 E0.02029
G1 X121.508 Y125.660 E0.02042
G1 X115.932 Y120.081 E0.24733
G1 X115.578 Y119.601 E0.01869
G1 X115.346 Y119.056 E0.01857
G1 X112.918 Y96.923 E0.69814
G1 X113.177 Y94.428 E0.07865
G1 X113.823 Y92.545 E0.06241
G1 X114.856 Y90.784 E0.06401
G1 X115.477 Y90.159 E0.02760
G1 F8640
G1 X116.378 Y89.733 E-0.23012
G1 X116.966 Y89.663 E-0.13675
G1 X118.668 Y89.663 E-0.39312
G1 E-0.04000 F2100.00000
G1 Z1.000 F10800.000
G1 X117.337 Y92.860
G1 Z0.400
G1 E0.80000 F2100.00000
M204 S800
G1 F1254
G1 X118.151 Y92.860 E0.02755
G1 X118.739 Y93.253 E0.02393
G1 X118.372 Y93.939 E0.02634
G1 X117.962 Y95.292 E0.04784
G1 X117.823 Y96.699 E0.04784
G1 X117.962 Y98.105 E0.04784
G1 X118.372 Y99.458 E0.04784
G1 X119.038 Y100.704 E0.04784
G1 X119.935 Y101.797 E0.04784
G1 X121.027 Y102.694 E0.04784
G1 X122.274 Y103.360 E0.04784
G1 X123.627 Y103.770 E0.04784
G1 X125.033 Y103.909 E0.04784
G1 X126.440 Y103.770 E0.04784
G1 X127.792 Y103.360 E0.04784
G1 X129.039 Y102.694 E0.04784
G1 X130.132 Y101.797 E0.04784
G1 X131.028 Y100.704 E0.04784
G1 X131.695 Y99.458 E0.04784
G1 X132.105 Y98.105 E0.04784
G1 X132.243 Y96.699 E0.04784
G1 X132.105 Y95.292 E0.04784
G1 X131.695 Y93.939 E0.04784
G1 X131.328 Y93.253 E0.02634
G1 X131.916 Y92.860 E0.02393
G1 X132.663 Y92.860 E0.02531
G1 X133.269 Y93.884 E0.04027
G1 X133.734 Y95.265 E0.04933
G1 X133.890 Y96.699 E0.04880
G1 X133.734 Y98.132 E0.04880
G1 X133.269 Y99.514 E0.04934
G1 X132.451 Y100.900 E0.05450
G1 X131.289 Y104.172 E0.11752
G1 X131.293 Y106.139 E0.06657
G1 X118.697 Y106.139 E0.42633
G1 X118.697 Y104.172 E0.06658
G1 X117.538 Y100.902 E0.11742
G1 X116.731 Y99.516 E0.05430
G1 X116.266 Y98.132 E0.04941
G1 X116.110 Y96.699 E0.04880
G1 X116.266 Y95.265 E0.04880
G1 X116.731 Y93.884 E0.04933
G1 X117.306 Y92.912 E0.03824
M204 S1000
G1 X117.105 Y92.453 F10800.000
M204 S800
