; generated by PrusaSlicer 2.1.1+win64 on 2020-04-21 at 17:50:04 UTC

; 

; external perimeters extrusion width = 0.45mm
; perimeters extrusion width = 0.45mm
; infill extrusion width = 0.45mm
; solid infill extrusion width = 0.45mm
; top infill extrusion width = 0.40mm
; support material extrusion width = 0.35mm
; first layer extrusion width = 0.42mm

M73 P0 R49
M201 X9000 Y9000 Z500 E10000 ; sets maximum accelerations, mm/sec^2
M203 X500 Y500 Z12 E120 ; sets maximum feedrates, mm/sec
M204 P2000 R1500 T2000 ; sets acceleration (P, T) and retract acceleration (R), mm/sec^2
M205 X10.00 Y10.00 Z0.20 E2.50 ; sets the jerk limits, mm/sec
M205 S0 T0 ; sets the minimum extruding and travel feed rate, mm/sec
M107
M862.3 P "MK2.5SMMU2S" ; printer model check
M862.1 P0.4 ; nozzle diameter check
M115 U3.8.0 ; tell printer latest fw version
G90 ; use absolute coordinates
M83 ; extruder relative mode
M104 S215 ; set extruder temp
M140 S60 ; set bed temp
Tx
M190 S60 ; wait for bed temp
M109 S215 ; wait for extruder temp
G28 W ; home all without mesh bed level
G80 ; mesh bed leveling

G21 ; set units to millimeters

;go outside print area
G1 Y-3.0 F1000.0
G1 Z0.4 F1000.0
; select extruder
Tc
; purge line
G1 X55.0 F2000.0
G1 Z0.3 F1000.0
G92 E0.0
G1 X240.0 E25.0 F2200.0
M73 P0 R49
G1 Y-2.0 F1000.0
G1 X55.0 E25 F1400.0
G1 Z0.20 F1000.0
G1 X5.0 E4.0 F1000.0
G92 E0.0
G21 ; set units to millimeters
G90 ; use absolute coordinates
M83 ; use relative distances for extrusion
M900 K30 ; Filament gcode
;BEFORE_LAYER_CHANGE
G92 E0.0
;0.2


G1 E-0.80000 F2100.00000
G1 Z0.600 F10800.000
;AFTER_LAYER_CHANGE
;0.2
G1 X103.988 Y85.254
G1 Z0.200
G1 E0.80000 F2100.00000
M204 S1000
G1 F1200
G1 X104.234 Y84.685 E0.01942
G1 X104.549 Y84.284 E0.01601
G1 X114.076 Y74.813 E0.42121
G1 X114.512 Y74.584 E0.01544
G1 X123.807 Y71.028 E0.31204
G1 X124.576 Y70.890 E0.02451
G1 X128.693 Y71.268 E0.12963
G1 X138.861 Y74.606 E0.33556
G1 X139.340 Y74.964 E0.01873
G1 X146.337 Y81.963 E0.31030
G1 X146.731 Y82.553 E0.02225
G1 X146.915 Y83.242 E0.02236
G1 X145.433 Y103.479 E0.63621
G1 X145.135 Y105.485 E0.06359
G1 X144.626 Y107.499 E0.06512
G1 X143.967 Y109.333 E0.06111
G1 X143.104 Y111.157 E0.06329
G1 X132.215 Y130.568 E0.69783
G1 X131.903 Y130.981 E0.01623
G1 X131.506 Y131.308 E0.01612
G1 X131.044 Y131.533 E0.01612
G1 X130.538 Y131.644 E0.01623
G1 X119.555 Y131.651 E0.34437
G1 X118.741 Y131.445 E0.02631
G1 X118.065 Y130.948 E0.02631
G1 X117.769 Y130.541 E0.01578
G1 X106.859 Y111.084 E0.69941
G1 X106.031 Y109.329 E0.06086
G1 X105.352 Y107.432 E0.06317
G1 X104.864 Y105.481 E0.06306
G1 X104.568 Y103.484 E0.06329
G1 X103.911 Y85.868 E0.55272
G1 X103.980 Y85.313 E0.01753
G1 E-0.80000 F2100.00000
G1 Z0.800 F10800.000
G1 X118.039 Y83.985
G1 Z0.200
G1 E0.80000 F2100.00000
G1 F1200
G1 X121.399 Y80.624 E0.12135
G1 X121.758 Y80.983 E0.01295
G1 X119.154 Y83.586 E0.09402
G1 X119.488 Y83.468 E0.00904
G1 X120.165 Y83.293 E0.01786
G1 X122.116 Y81.341 E0.07046
G1 X122.475 Y81.700 E0.01295
G1 X121.122 Y83.053 E0.04886
G1 X121.773 Y82.931 E0.01692
G1 X121.947 Y82.743 E0.00655
G1 X122.167 Y82.725 E0.00562
G1 X122.834 Y82.058 E0.02408
G1 X123.192 Y82.417 E0.01295
G1 X122.796 Y82.813 E0.01432
G1 E-0.80000 F2100.00000
G1 Z0.800 F10800.000
G1 X127.987 Y80.491
G1 Z0.200
G1 E0.80000 F2100.00000
G1 F1200
G1 X126.258 Y82.220 E0.06244
G1 X126.616 Y82.578 E0.01295
G1 X128.248 Y80.947 E0.05891
G1 X128.606 Y81.306 E0.01295
G1 X127.235 Y82.677 E0.04953
G1 X127.898 Y82.730 E0.01701
G1 X128.965 Y81.664 E0.03850
G1 X129.323 Y82.023 E0.01295
G1 X128.381 Y82.965 E0.03404
G1 X128.733 Y83.018 E0.00909
G1 X128.984 Y83.079 E0.00660
G1 X131.313 Y80.750 E0.08412
G1 X131.672 Y81.108 E0.01295
G1 X129.557 Y83.223 E0.07636
G1 X130.131 Y83.367 E0.01510
G1 X132.030 Y81.467 E0.06860
G1 X132.389 Y81.826 E0.01295
G1 X130.577 Y83.637 E0.06542
G1 E-0.80000 F2100.00000
G1 Z0.800 F10800.000
G1 X139.039 Y89.153
G1 Z0.200
G1 E0.80000 F2100.00000
G1 F1200
G1 X144.737 Y83.455 E0.25265
G1 X144.203 Y82.922 E0.02365
G1 X138.652 Y88.473 E0.24616
G1 X138.351 Y88.141 E0.01404
G1 X138.124 Y87.934 E0.00963
G1 X143.670 Y82.388 E0.24590
G1 X143.137 Y81.855 E0.02365
G1 X137.565 Y87.427 E0.24706
G1 X137.005 Y86.920 E0.02367
G1 X142.603 Y81.322 E0.24823
G1 X142.070 Y80.788 E0.02365
G1 X136.396 Y86.462 E0.25159
G1 X135.784 Y86.008 E0.02390
G1 X141.537 Y80.255 E0.25509
G1 X141.004 Y79.722 E0.02365
G1 X135.144 Y85.582 E0.25983
G1 X134.477 Y85.182 E0.02438
G1 X140.470 Y79.189 E0.26575
G1 X139.937 Y78.655 E0.02365
G1 X133.803 Y84.790 E0.27200
G1 X133.079 Y84.447 E0.02511
G1 X139.404 Y78.122 E0.28046
G1 X138.871 Y77.589 E0.02365
G1 X132.355 Y84.105 E0.28892
G1 X131.581 Y83.812 E0.02595
G1 X138.337 Y77.056 E0.29960
G1 X137.804 Y76.522 E0.02365
G1 X132.687 Y81.640 E0.22691
G1 X132.153 Y81.106 E0.02365
G1 X135.639 Y77.620 E0.15457
G1 X135.106 Y77.087 E0.02365
G1 X131.620 Y80.573 E0.15457
G1 X131.097 Y80.050 E0.02319
G1 X129.466 Y81.682 E0.07234
G1 X129.456 Y81.671 E0.00046
G1 X134.573 Y76.554 E0.22691
G1 X134.360 Y76.341 E0.00944
G1 X132.729 Y77.972 E0.07234
G1 X132.408 Y77.652 E0.01421
G1 X128.922 Y81.138 E0.15457
G1 X128.389 Y80.605 E0.02365
G1 X131.875 Y77.119 E0.15457
G1 X131.342 Y76.585 E0.02365
G1 X125.243 Y82.684 E0.27042
G1 X124.169 Y82.691 E0.03367
G1 X130.808 Y76.052 E0.29439
G1 X130.275 Y75.519 E0.02365
G1 X123.526 Y82.268 E0.29925
G1 X122.993 Y81.734 E0.02365
G1 X129.742 Y74.986 E0.29925
G1 X129.209 Y74.452 E0.02365
G1 X122.460 Y81.201 E0.29925
G1 X121.927 Y80.668 E0.02365
G1 X128.675 Y73.919 E0.29925
G1 X128.142 Y73.386 E0.02365
G1 X117.224 Y84.304 E0.48412
G1 X116.094 Y84.840 E0.03921
G1 X114.915 Y85.546 E0.04310
G1 X125.977 Y74.484 E0.49053
G1 X125.444 Y73.951 E0.02365
G1 X109.832 Y89.563 E0.69228
G1 X109.298 Y89.030 E0.02365
G1 X124.911 Y73.417 E0.69228
G1 X124.572 Y73.078 E0.01503
G1 X119.678 Y77.972 E0.21701
G1 X119.484 Y77.778 E0.00861
G1 X108.765 Y88.497 E0.47527
G1 X108.232 Y87.963 E0.02365
G1 X118.950 Y77.245 E0.47527
G1 X118.417 Y76.712 E0.02365
G1 X107.699 Y87.430 E0.47527
G1 X107.165 Y86.897 E0.02365
G1 X116.252 Y77.810 E0.40294
G1 X115.719 Y77.276 E0.02365
G1 X106.632 Y86.363 E0.40294
G1 X106.099 Y85.830 E0.02365
G1 X115.306 Y76.623 E0.40826
G1 E-0.80000 F2100.00000
G1 Z0.800 F10800.000
G1 X125.000 Y117.905
G1 Z0.200
G1 E0.80000 F2100.00000
G1 F1200
G1 X123.389 Y117.826 E0.05056
G1 X121.794 Y117.589 E0.05056
G1 X120.230 Y117.198 E0.05056
G1 X118.712 Y116.654 E0.05056
G1 X117.254 Y115.965 E0.05056
G1 X115.871 Y115.136 E0.05056
G1 X114.576 Y114.175 E0.05056
G1 X113.381 Y113.093 E0.05056
G1 X112.299 Y111.898 E0.05056
G1 X111.338 Y110.603 E0.05056
G1 X110.509 Y109.220 E0.05056
G1 X109.820 Y107.762 E0.05056
G1 X109.276 Y106.244 E0.05056
G1 X108.885 Y104.680 E0.05056
G1 X108.648 Y103.085 E0.05056
G1 X108.569 Y101.474 E0.05056
G1 X108.648 Y99.863 E0.05056
G1 X108.885 Y98.268 E0.05056
G1 X109.276 Y96.704 E0.05056
G1 X109.820 Y95.186 E0.05056
G1 X110.509 Y93.728 E0.05056
G1 X111.338 Y92.345 E0.05056
G1 X112.299 Y91.050 E0.05056
G1 X113.381 Y89.855 E0.05056
G1 X114.576 Y88.773 E0.05056
G1 X115.871 Y87.812 E0.05056
G1 X117.254 Y86.983 E0.05056
G1 X118.712 Y86.294 E0.05056
G1 X120.230 Y85.750 E0.05056
G1 X121.794 Y85.359 E0.05056
G1 X123.389 Y85.122 E0.05056
G1 X124.939 Y85.046 E0.04865
G1 X126.609 Y85.122 E0.05242
G1 X128.206 Y85.359 E0.05059
G1 X129.770 Y85.750 E0.05056
G1 X131.288 Y86.294 E0.05056
G1 X132.746 Y86.983 E0.05056
G1 X134.129 Y87.812 E0.05056
G1 X135.424 Y88.773 E0.05056
G1 X136.619 Y89.855 E0.05056
G1 X137.701 Y91.050 E0.05056
G1 X138.662 Y92.345 E0.05056
G1 X139.491 Y93.728 E0.05056
G1 X140.180 Y95.186 E0.05056
G1 X140.724 Y96.704 E0.05056
G1 X141.115 Y98.268 E0.05056
G1 X141.352 Y99.863 E0.05056
G1 X141.431 Y101.474 E0.05056
G1 X141.352 Y103.085 E0.05056
G1 X141.115 Y104.680 E0.05056
G1 X140.724 Y106.244 E0.05056
G1 X140.180 Y107.762 E0.05056
G1 X139.491 Y109.220 E0.05056
G1 X138.662 Y110.603 E0.05056
G1 X137.701 Y111.898 E0.05056
G1 X136.619 Y113.093 E0.05056
G1 X135.424 Y114.175 E0.05056
G1 X134.129 Y115.136 E0.05056
G1 X132.746 Y115.965 E0.05056
G1 X131.288 Y116.654 E0.05056
G1 X129.770 Y117.198 E0.05056
G1 X128.206 Y117.589 E0.05056
G1 X126.611 Y117.826 E0.05056
G1 X125.060 Y117.902 E0.04868
G1 X125.000 Y117.528 F10800.000
G1 F1200
G1 X123.426 Y117.450 E0.04940
G1 X121.868 Y117.219 E0.04940
G1 X120.340 Y116.836 E0.04940
G1 X118.857 Y116.306 E0.04940
G1 X117.432 Y115.632 E0.04940
G1 X116.081 Y114.822 E0.04940
G1 X114.816 Y113.884 E0.04940
G1 X113.648 Y112.826 E0.04940
G1 X112.590 Y111.658 E0.04940
G1 X111.652 Y110.393 E0.04940
G1 X110.842 Y109.042 E0.04940
G1 X110.168 Y107.617 E0.04940
G1 X109.638 Y106.134 E0.04940
G1 X109.255 Y104.606 E0.04940
G1 X109.024 Y103.047 E0.04940
G1 X108.946 Y101.474 E0.04940
G1 X109.024 Y99.900 E0.04940
G1 X109.255 Y98.342 E0.04940
G1 X109.638 Y96.814 E0.04940
G1 X110.168 Y95.331 E0.04940
G1 X110.842 Y93.906 E0.04940
G1 X111.652 Y92.555 E0.04940
G1 X112.590 Y91.290 E0.04940
G1 X113.648 Y90.122 E0.04940
G1 X114.816 Y89.064 E0.04940
G1 X116.081 Y88.126 E0.04940
G1 X117.432 Y87.316 E0.04940
G1 X118.857 Y86.642 E0.04940
G1 X120.340 Y86.112 E0.04940
G1 X121.868 Y85.729 E0.04940
G1 X123.426 Y85.498 E0.04940
G1 X124.940 Y85.423 E0.04751
G1 X126.573 Y85.498 E0.05126
G1 X128.132 Y85.729 E0.04941
G1 X129.660 Y86.112 E0.04940
G1 X131.143 Y86.642 E0.04940
G1 X132.568 Y87.316 E0.04940
G1 X133.919 Y88.126 E0.04940
G1 X135.184 Y89.064 E0.04940
G1 X136.352 Y90.122 E0.04940
G1 X137.410 Y91.290 E0.04940
G1 X138.348 Y92.555 E0.04940
G1 X139.158 Y93.906 E0.04940
G1 X139.832 Y95.331 E0.04940
G1 X140.362 Y96.814 E0.04940
G1 X140.745 Y98.342 E0.04940
G1 X140.976 Y99.900 E0.04940
G1 X141.054 Y101.474 E0.04940
G1 X140.976 Y103.048 E0.04940
G1 X140.745 Y104.606 E0.04940
G1 X140.362 Y106.134 E0.04940
G1 X139.832 Y107.617 E0.04940
G1 X139.158 Y109.042 E0.04940
G1 X138.348 Y110.393 E0.04940
G1 X137.410 Y111.658 E0.04940
G1 X136.352 Y112.826 E0.04940
G1 X135.184 Y113.884 E0.04940
G1 X133.919 Y114.822 E0.04940
G1 X132.568 Y115.632 E0.04940
G1 X131.143 Y116.306 E0.04940
G1 X129.660 Y116.836 E0.04940
G1 X128.132 Y117.219 E0.04940
G1 X126.574 Y117.450 E0.04940
G1 X125.060 Y117.525 E0.04752
G1 X124.800 Y117.874 F10800.000
G1 E-0.80000 F2100.00000
G1 Z0.800 F10800.000
G1 X125.000 Y128.879
G1 Z0.200
G1 E0.80000 F2100.00000
G1 F1200
G1 X120.262 Y128.879 E0.14854
G1 X120.263 Y118.613 E0.32187
G1 X118.206 Y117.877 E0.06850
G1 X116.630 Y117.132 E0.05463
G1 X115.136 Y116.236 E0.05463
G1 X113.737 Y115.198 E0.05463
G1 X112.446 Y114.028 E0.05463
G1 X111.275 Y112.737 E0.05463
G1 X110.238 Y111.338 E0.05463
G1 X109.342 Y109.843 E0.05463
G1 X108.597 Y108.269 E0.05460
G1 X107.993 Y106.562 E0.05679
G1 X107.587 Y104.938 E0.05249
G1 X107.331 Y103.214 E0.05463
G1 X107.245 Y101.474 E0.05463
G1 X107.331 Y99.734 E0.05463
G1 X107.587 Y98.010 E0.05463
G1 X108.010 Y96.320 E0.05463
G1 X108.597 Y94.680 E0.05463
G1 X109.342 Y93.105 E0.05463
G1 X110.238 Y91.610 E0.05463
G1 X111.275 Y90.211 E0.05463
G1 X112.446 Y88.920 E0.05463
G1 X113.737 Y87.749 E0.05463
G1 X115.136 Y86.712 E0.05463
G1 X116.631 Y85.816 E0.05463
G1 X118.206 Y85.071 E0.05463
G1 X119.795 Y84.502 E0.05294
G1 X121.470 Y84.077 E0.05418
G1 X123.157 Y83.805 E0.05356
G1 X125.024 Y83.791 E0.05854
G1 X126.829 Y83.805 E0.05660
G1 X127.151 Y83.873 E0.01033
G1 X128.534 Y84.078 E0.04384
G1 X130.154 Y84.484 E0.05235
G1 X131.794 Y85.071 E0.05463
G1 X133.369 Y85.816 E0.05463
G1 X134.864 Y86.712 E0.05463
G1 X136.263 Y87.749 E0.05463
G1 X137.554 Y88.920 E0.05463
G1 X138.724 Y90.211 E0.05463
G1 X139.762 Y91.610 E0.05463
G1 X140.658 Y93.105 E0.05463
G1 X141.403 Y94.680 E0.05463
G1 X141.990 Y96.320 E0.05463
G1 X142.413 Y98.010 E0.05463
G1 X142.669 Y99.734 E0.05463
G1 X142.755 Y101.474 E0.05463
M73 P2 R48
G1 X142.669 Y103.214 E0.05463
G1 X142.413 Y104.938 E0.05463
G1 X141.990 Y106.628 E0.05463
G1 X141.403 Y108.268 E0.05463
G1 X140.658 Y109.843 E0.05463
G1 X139.762 Y111.338 E0.05463
G1 X138.725 Y112.737 E0.05463
G1 X137.554 Y114.028 E0.05463
G1 X136.263 Y115.198 E0.05463
G1 X134.864 Y116.236 E0.05463
G1 X133.369 Y117.132 E0.05463
G1 X131.794 Y117.877 E0.05463
G1 X129.737 Y118.613 E0.06850
G1 X129.737 Y128.879 E0.32187
G1 X125.060 Y128.879 E0.14666
G1 X125.000 Y129.256 F10800.000
G1 F1200
G1 X119.885 Y129.256 E0.16036
G1 X119.885 Y118.879 E0.32536
G1 X118.061 Y118.226 E0.06075
G1 X116.453 Y117.465 E0.05579
G1 X114.926 Y116.550 E0.05579
G1 X113.497 Y115.490 E0.05579
G1 X112.179 Y114.295 E0.05579
G1 X110.984 Y112.977 E0.05579
G1 X109.924 Y111.548 E0.05579
G1 X109.009 Y110.021 E0.05579
G1 X108.248 Y108.413 E0.05578
G1 X107.632 Y106.671 E0.05795
G1 X107.216 Y105.011 E0.05363
G1 X106.955 Y103.251 E0.05579
G1 X106.868 Y101.474 E0.05579
G1 X106.955 Y99.697 E0.05579
G1 X107.216 Y97.937 E0.05579
G1 X107.649 Y96.211 E0.05579
G1 X108.248 Y94.535 E0.05579
G1 X109.009 Y92.927 E0.05579
G1 X109.924 Y91.400 E0.05579
G1 X110.984 Y89.971 E0.05579
G1 X112.179 Y88.653 E0.05579
G1 X113.497 Y87.458 E0.05579
G1 X114.926 Y86.398 E0.05579
G1 X116.453 Y85.483 E0.05579
G1 X118.061 Y84.722 E0.05579
G1 X119.685 Y84.141 E0.05409
G1 X121.394 Y83.708 E0.05526
G1 X123.125 Y83.428 E0.05499
G1 X125.024 Y83.414 E0.05953
G1 X126.870 Y83.428 E0.05788
G1 X127.218 Y83.502 E0.01116
G1 X128.608 Y83.708 E0.04406
G1 X130.263 Y84.123 E0.05352
G1 X131.939 Y84.722 E0.05579
G1 X133.547 Y85.483 E0.05579
G1 X135.074 Y86.398 E0.05579
G1 X136.503 Y87.458 E0.05579
G1 X137.821 Y88.653 E0.05579
G1 X139.016 Y89.971 E0.05579
G1 X140.076 Y91.400 E0.05579
G1 X140.991 Y92.927 E0.05579
G1 X141.752 Y94.535 E0.05579
G1 X142.351 Y96.210 E0.05579
G1 X142.784 Y97.937 E0.05579
G1 X143.045 Y99.697 E0.05579
G1 X143.132 Y101.474 E0.05579
G1 X143.045 Y103.251 E0.05579
G1 X142.784 Y105.011 E0.05579
G1 X142.351 Y106.737 E0.05579
G1 X141.752 Y108.413 E0.05579
G1 X140.991 Y110.021 E0.05579
G1 X140.076 Y111.548 E0.05579
G1 X139.016 Y112.977 E0.05579
G1 X137.821 Y114.295 E0.05579
G1 X136.503 Y115.490 E0.05579
G1 X135.074 Y116.550 E0.05579
G1 X133.547 Y117.465 E0.05579
G1 X131.939 Y118.226 E0.05579
G1 X130.115 Y118.879 E0.06075
G1 X130.115 Y129.256 E0.32536
G1 X125.060 Y129.256 E0.15848
G1 X124.688 Y129.005 F10800.000
G1 E-0.80000 F2100.00000
G1 Z0.800 F10800.000
G1 X121.144 Y128.765
G1 Z0.200
G1 E0.80000 F2100.00000
G1 F1200
G1 X120.545 Y128.167 E0.02672
G1 X120.545 Y127.630 E0.01696
G1 X121.511 Y128.596 E0.04312
G1 X122.048 Y128.596 E0.01696
G1 X120.545 Y127.093 E0.06711
G1 X120.545 Y126.556 E0.01696
G1 X122.585 Y128.596 E0.09109
G1 X123.122 Y128.596 E0.01696
G1 X120.545 Y126.019 E0.11507
G1 X120.545 Y125.482 E0.01696
G1 X123.659 Y128.596 E0.13906
G1 X124.196 Y128.596 E0.01696
G1 X120.545 Y124.945 E0.16304
G1 X120.545 Y124.408 E0.01696
G1 X124.733 Y128.596 E0.18702
G1 X125.270 Y128.596 E0.01696
G1 X120.545 Y123.871 E0.21101
G1 X120.545 Y123.334 E0.01696
G1 X125.807 Y128.596 E0.23499
G1 X126.344 Y128.596 E0.01696
G1 X120.545 Y122.797 E0.25897
G1 X120.545 Y122.260 E0.01696
G1 X126.882 Y128.596 E0.28296
G1 X127.419 Y128.596 E0.01696
G1 X120.545 Y121.722 E0.30694
G1 X120.545 Y121.185 E0.01696
G1 X127.956 Y128.596 E0.33093
G1 X128.493 Y128.596 E0.01696
G1 X120.545 Y120.648 E0.35491
G1 X120.545 Y120.111 E0.01696
G1 X129.030 Y128.596 E0.37889
G1 X129.455 Y128.596 E0.01342
G1 X129.455 Y128.484 E0.00354
G1 X120.545 Y119.574 E0.39787
G1 X120.545 Y119.037 E0.01696
G1 X129.624 Y128.116 E0.40544
G1 E-0.80000 F2100.00000
G1 Z0.800 F10800.000
G1 X118.168 Y117.734
G1 Z0.200
G1 E0.80000 F2100.00000
G1 F1200
G1 X115.250 Y114.816 E0.13034
G1 X114.294 Y115.471 F10800.000
G1 F1200
G1 X111.003 Y112.180 E0.14694
G1 X111.658 Y111.224 F10800.000
G1 F1200
G1 X109.096 Y108.662 E0.11443
G1 X108.859 Y108.161 E0.01747
G1 X108.709 Y107.738 E0.01417
G1 X110.201 Y109.230 E0.06662
G1 X109.719 Y108.211 E0.03560
G1 X108.416 Y106.907 E0.05822
G1 X108.264 Y106.480 E0.01431
G1 X108.177 Y106.132 E0.01133
G1 X109.359 Y107.314 E0.05277
G1 X109.060 Y106.477 E0.02805
G1 X107.998 Y105.415 E0.04743
G1 X107.840 Y104.721 E0.02249
G1 X108.859 Y105.739 E0.04547
G1 X108.679 Y105.023 E0.02333
G1 X107.747 Y104.090 E0.04163
G1 X107.653 Y103.460 E0.02013
G1 X108.551 Y104.357 E0.04009
