; generated by PrusaSlicer 2.2.0+win64 on 2021-03-30 at 19:00:23 UTC

; 

; external perimeters extrusion width = 0.45mm
; perimeters extrusion width = 0.45mm
; infill extrusion width = 0.45mm
; solid infill extrusion width = 0.45mm
; top infill extrusion width = 0.40mm
; first layer extrusion width = 0.42mm

M73 P0 R44
M201 X9000 Y9000 Z500 E10000 ; sets maximum accelerations, mm/sec^2
M203 X500 Y500 Z12 E120 ; sets maximum feedrates, mm/sec
M204 P2000 R1500 T2000 ; sets acceleration (P, T) and retract acceleration (R), mm/sec^2
M205 X10.00 Y10.00 Z0.20 E2.50 ; sets the jerk limits, mm/sec
M205 S0 T0 ; sets the minimum extruding and travel feed rate, mm/sec
M107
M862.3 P "MK2.5SMMU2S" ; printer model check
M862.1 P0.4 ; nozzle diameter check
M115 U3.8.0 ; tell printer latest fw version
G90 ; use absolute coordinates
M83 ; extruder relative mode
M104 S215 ; set extruder temp
M140 S60 ; set bed temp
Tx
M190 S60 ; wait for bed temp
M109 S215 ; wait for extruder temp
G28 W ; home all without mesh bed level
G80 ; mesh bed leveling

G21 ; set units to millimeters

;go outside print area
G1 Y-3.0 F1000.0
G1 Z0.4 F1000.0
; select extruder
Tc
; purge line
G1 X55.0 F2000.0
G1 Z0.3 F1000.0
G92 E0.0
G1 X240.0 E25.0 F2200.0
M73 P0 R44
G1 Y-2.0 F1000.0
G1 X55.0 E25 F1400.0
G1 Z0.20 F1000.0
G1 X5.0 E4.0 F1000.0
G92 E0.0
G21 ; set units to millimeters
G90 ; use absolute coordinates
M83 ; use relative distances for extrusion
M900 K0.05 ; Filament gcode LA 1.5
M900 K30 ; Filament gcode LA 1.0
;BEFORE_LAYER_CHANGE
G92 E0.0
;0.2


G1 E-0.80000 F2100.00000
G1 Z0.600 F10800.000
;AFTER_LAYER_CHANGE
;0.2
G1 X131.339 Y131.615
G1 Z0.200
G1 E0.80000 F2100.00000
M204 S1000
G1 F1200.000
G1 X130.466 Y131.838 E0.02825
G1 X119.417 Y131.829 E0.34645
G1 X118.887 Y131.708 E0.01704
G1 X118.398 Y131.470 E0.01704
G1 X117.973 Y131.125 E0.01716
G1 X117.641 Y130.695 E0.01704
G1 X106.745 Y111.274 E0.69824
G1 X105.897 Y109.492 E0.06185
G1 X105.172 Y107.487 E0.06685
G1 X104.659 Y105.406 E0.06721
G1 X104.380 Y103.503 E0.06029
G1 X104.283 Y101.583 E0.06029
G1 X104.383 Y99.419 E0.06792
G1 X104.679 Y97.430 E0.06304
G1 X105.172 Y95.462 E0.06363
G1 X105.855 Y93.551 E0.06363
G1 X106.678 Y91.804 E0.06053
G1 X107.840 Y89.867 E0.07081
G1 X108.992 Y88.320 E0.06050
G1 X110.427 Y86.748 E0.06673
G1 X111.948 Y85.386 E0.06402
G1 X113.490 Y84.246 E0.06014
G1 X115.135 Y83.257 E0.06017
G1 X120.018 Y81.026 E0.16833
G1 X120.906 Y80.826 E0.02855
G1 X122.946 Y80.663 E0.06417
G1 X125.005 Y80.608 E0.06457
G1 X127.087 Y80.665 E0.06532
G1 X129.665 Y80.918 E0.08122
G1 X134.673 Y83.153 E0.17195
G1 X136.503 Y84.241 E0.06673
G1 X138.134 Y85.449 E0.06363
G1 X139.646 Y86.819 E0.06399
G1 X140.945 Y88.247 E0.06053
G1 X142.224 Y89.958 E0.06697
G1 X143.270 Y91.701 E0.06375
G1 X144.143 Y93.546 E0.06399
G1 X144.825 Y95.453 E0.06351
G1 X145.322 Y97.433 E0.06399
G1 X145.620 Y99.445 E0.06375
G1 X145.719 Y101.475 E0.06375
G1 X145.617 Y103.529 E0.06447
G1 X145.321 Y105.518 E0.06304
G1 X144.828 Y107.486 E0.06363
G1 X144.143 Y109.401 E0.06375
G1 X143.311 Y111.168 E0.06125
G1 X132.394 Y130.635 E0.69981
G1 X132.069 Y131.080 E0.01728
G1 X131.388 Y131.580 E0.02649
G1 E-0.80000 F2100.00000
G1 Z0.800 F10800.000
G1 X127.108 Y78.506
G1 Z0.200
G1 E0.80000 F2100.00000
G1 F1200.000
G1 X124.989 Y78.490 E0.06643
G1 X122.707 Y78.522 E0.07155
G1 X120.406 Y78.884 E0.07305
G1 X118.196 Y79.448 E0.07151
G1 X116.091 Y80.209 E0.07017
G1 X114.083 Y81.167 E0.06978
G1 X112.162 Y82.323 E0.07031
G1 X110.376 Y83.650 E0.06975
G1 X108.685 Y85.183 E0.07155
G1 X107.167 Y86.861 E0.07094
G1 X105.832 Y88.662 E0.07029
G1 X104.713 Y90.527 E0.06819
G1 X103.659 Y92.749 E0.07712
G1 X102.905 Y94.887 E0.07108
G1 X102.366 Y97.084 E0.07092
G1 X102.058 Y99.228 E0.06792
G1 X101.945 Y101.380 E0.06758
G1 X102.063 Y103.816 E0.07646
G1 X102.378 Y105.923 E0.06679
G1 X102.891 Y108.000 E0.06709
G1 X103.722 Y110.353 E0.07825
G1 X104.690 Y112.386 E0.07058
G1 X105.847 Y114.309 E0.07037
G1 X107.186 Y116.110 E0.07038
G1 X108.693 Y117.773 E0.07036
G1 X110.354 Y119.280 E0.07032
G1 X111.497 Y120.130 E0.04468
G1 X112.231 Y120.666 F10800.000
G1 F1200.000
G1 X114.108 Y121.795 E0.06868
G1 X114.968 Y122.201 E0.02982
G1 X114.986 Y125.578 E0.10587
G1 X114.990 Y126.356 F10800.000
G1 F1200.000
G1 X115.012 Y130.339 E0.12489
G1 X115.232 Y131.140 E0.02605
G1 X115.612 Y131.923 E0.02729
G1 X116.693 Y133.146 E0.05118
G1 X117.762 Y133.805 E0.03936
G1 X118.837 Y134.134 E0.03524
G1 X130.859 Y134.180 E0.37696
G1 X132.422 Y133.722 E0.05105
G1 X133.371 Y133.086 E0.03584
G1 X134.052 Y132.386 E0.03061
G1 X134.580 Y131.575 E0.03035
G1 X135.023 Y130.087 E0.04868
G1 X135.030 Y126.319 E0.11814
G1 X135.032 Y125.546 F10800.000
G1 F1200.000
G1 X135.038 Y122.199 E0.10493
G1 X135.876 Y121.803 E0.02905
G1 X137.765 Y120.671 E0.06908
G1 X138.499 Y120.134 F10800.000
G1 F1200.000
G1 X139.574 Y119.339 E0.04192
G1 X141.278 Y117.801 E0.07197
G1 X142.827 Y116.095 E0.07225
G1 X144.228 Y114.196 E0.07398
G1 X145.328 Y112.353 E0.06732
G1 X146.252 Y110.415 E0.06731
G1 X147.060 Y108.177 E0.07459
G1 X147.634 Y105.865 E0.07470
G1 X147.955 Y103.624 E0.07098
G1 X148.055 Y101.364 E0.07094
G1 X147.934 Y99.105 E0.07094
G1 X147.591 Y96.868 E0.07094
G1 X147.031 Y94.676 E0.07094
G1 X146.259 Y92.550 E0.07092
G1 X145.308 Y90.559 E0.06917
G1 X144.172 Y88.668 E0.06916
G1 X142.825 Y86.851 E0.07092
G1 X141.293 Y85.161 E0.07154
G1 X139.601 Y83.631 E0.07154
G1 X137.766 Y82.275 E0.07153
G1 X135.806 Y81.107 E0.07153
G1 X133.757 Y80.146 E0.07095
G1 X131.611 Y79.386 E0.07140
G1 X129.557 Y78.877 E0.06634
G1 X127.108 Y78.506 E0.07768
G1 E-0.80000 F2100.00000
G1 Z0.800 F10800.000
G1 X124.992 Y78.867
G1 Z0.200
G1 E0.80000 F2100.00000
G1 F1200.000
G1 X122.753 Y78.897 E0.07023
G1 X120.473 Y79.255 E0.07235
G1 X118.315 Y79.806 E0.06983
G1 X116.245 Y80.553 E0.06902
G1 X114.269 Y81.495 E0.06863
G1 X112.379 Y82.632 E0.06916
G1 X110.608 Y83.947 E0.06917
G1 X108.946 Y85.456 E0.07039
G1 X107.453 Y87.107 E0.06978
G1 X106.141 Y88.879 E0.06914
G1 X105.041 Y90.713 E0.06704
G1 X104.011 Y92.884 E0.07534
G1 X103.269 Y94.986 E0.06990
G1 X102.738 Y97.147 E0.06976
G1 X102.434 Y99.256 E0.06682
G1 X102.322 Y101.390 E0.06702
G1 X102.438 Y103.769 E0.07468
G1 X102.749 Y105.858 E0.06621
G1 X103.255 Y107.900 E0.06597
G1 X104.067 Y110.200 E0.07647
G1 X105.018 Y112.199 E0.06941
G1 X106.155 Y114.091 E0.06921
G1 X107.483 Y115.878 E0.06980
G1 X108.966 Y117.513 E0.06920
G1 X110.600 Y118.994 E0.06917
G1 X111.046 Y119.326 E0.01741
G1 X111.787 Y119.876 F10800.000
G1 F1200.000
G1 X112.386 Y120.321 E0.02339
G1 X114.294 Y121.467 E0.06978
G1 X115.344 Y121.961 E0.03638
G1 X115.367 Y126.256 E0.13467
G1 X115.371 Y127.034 F10800.000
G1 F1200.000
G1 X115.389 Y130.311 E0.10272
G1 X115.590 Y131.021 E0.02316
G1 X115.913 Y131.695 E0.02342
G1 X116.915 Y132.840 E0.04772
G1 X117.940 Y133.471 E0.03772
G1 X118.866 Y133.757 E0.03040
G1 X130.832 Y133.802 E0.37519
G1 X132.285 Y133.370 E0.04754
G1 X133.115 Y132.808 E0.03140
G1 X133.746 Y132.164 E0.02828
G1 X134.249 Y131.393 E0.02887
G1 X134.654 Y130.008 E0.04525
G1 X134.656 Y126.986 E0.09474
G1 X134.657 Y126.214 F10800.000
G1 F1200.000
G1 X134.661 Y121.960 E0.13338
G1 X135.690 Y121.475 E0.03566
G1 X137.600 Y120.330 E0.06981
G1 X138.209 Y119.880 E0.02377
G1 X138.948 Y119.333 F10800.000
G1 F1200.000
G1 X139.343 Y119.041 E0.01540
G1 X141.019 Y117.528 E0.07081
G1 X142.529 Y115.863 E0.07048
G1 X143.909 Y113.995 E0.07282
G1 X144.991 Y112.182 E0.06620
G1 X145.907 Y110.261 E0.06674
G1 X146.702 Y108.059 E0.07341
G1 X147.262 Y105.802 E0.07290
G1 X147.579 Y103.598 E0.06981
G1 X147.678 Y101.375 E0.06978
G1 X147.559 Y99.152 E0.06978
G1 X147.223 Y96.952 E0.06978
G1 X146.673 Y94.796 E0.06978
G1 X145.914 Y92.704 E0.06977
G1 X144.972 Y90.730 E0.06859
G1 X143.854 Y88.871 E0.06803
G1 X142.528 Y87.084 E0.06977
G1 X141.020 Y85.421 E0.07037
G1 X139.369 Y83.928 E0.06979
G1 X137.565 Y82.594 E0.07036
G1 X135.637 Y81.445 E0.07036
G1 X133.623 Y80.499 E0.06978
G1 X131.511 Y79.750 E0.07025
G1 X129.492 Y79.248 E0.06523
G1 X127.091 Y78.883 E0.07613
G1 X124.992 Y78.867 E0.06582
G1 E-0.80000 F2100.00000
G1 Z0.800 F10800.000
G1 X127.075 Y79.260
G1 Z0.200
G1 E0.80000 F2100.00000
G1 F1200.000
G1 X124.995 Y79.244 E0.06522
G1 X122.798 Y79.271 E0.06889
G1 X120.541 Y79.626 E0.07164
G1 X118.435 Y80.163 E0.06814
G1 X116.399 Y80.898 E0.06786
G1 X114.440 Y81.831 E0.06805
G1 X112.581 Y82.950 E0.06801
G1 X110.840 Y84.244 E0.06802
G1 X109.206 Y85.729 E0.06923
G1 X107.739 Y87.353 E0.06861
G1 X106.449 Y89.095 E0.06798
G1 X105.370 Y90.898 E0.06590
G1 X104.363 Y93.018 E0.07357
G1 X103.633 Y95.085 E0.06873
G1 X103.110 Y97.210 E0.06861
G1 X102.810 Y99.284 E0.06573
G1 X102.699 Y101.401 E0.06645
G1 X102.812 Y103.723 E0.07291
G1 X103.117 Y105.776 E0.06508
G1 X103.618 Y107.801 E0.06540
G1 X104.412 Y110.047 E0.07469
G1 X105.346 Y112.013 E0.06824
G1 X106.474 Y113.889 E0.06863
G1 X107.780 Y115.645 E0.06864
G1 X109.239 Y117.252 E0.06805
G1 X110.548 Y118.439 E0.05540
G1 X111.336 Y119.072 F10800.000
G1 F1200.000
G1 X112.603 Y120.013 E0.04948
G1 X114.480 Y121.138 E0.06861
G1 X115.719 Y121.721 E0.04295
G1 X115.748 Y126.935 E0.16347
G1 X115.752 Y127.713 F10800.000
G1 F1200.000
G1 X115.766 Y130.281 E0.08052
G1 X115.948 Y130.901 E0.02024
G1 X116.216 Y131.468 E0.01969
G1 X117.138 Y132.535 E0.04420
G1 X118.117 Y133.138 E0.03606
G1 X118.896 Y133.380 E0.02556
G1 X130.805 Y133.425 E0.37340
G1 X132.147 Y133.018 E0.04399
G1 X132.858 Y132.531 E0.02700
G1 X133.463 Y131.914 E0.02711
G1 X133.917 Y131.213 E0.02619
G1 X134.284 Y129.930 E0.04183
G1 X134.284 Y127.650 E0.07147
G1 X134.284 Y126.880 F10800.000
G1 F1200.000
G1 X134.284 Y121.720 E0.16176
G1 X135.504 Y121.147 E0.04228
G1 X137.398 Y120.012 E0.06922
G1 X138.658 Y119.079 E0.04917
G1 X139.450 Y118.437 F10800.000
G1 F1200.000
G1 X140.746 Y117.267 E0.05473
G1 X142.232 Y115.631 E0.06929
G1 X143.590 Y113.794 E0.07165
G1 X144.663 Y111.997 E0.06563
G1 X145.563 Y110.107 E0.06562
G1 X146.338 Y107.958 E0.07163
G1 X146.890 Y105.739 E0.07171
G1 X147.203 Y103.572 E0.06864
G1 X147.301 Y101.385 E0.06862
G1 X147.185 Y99.200 E0.06862
G1 X146.856 Y97.036 E0.06862
G1 X146.315 Y94.916 E0.06862
G1 X145.570 Y92.858 E0.06861
G1 X144.644 Y90.916 E0.06745
G1 X143.536 Y89.073 E0.06745
G1 X142.231 Y87.316 E0.06861
G1 X140.747 Y85.682 E0.06921
G1 X139.123 Y84.214 E0.06863
G1 X137.348 Y82.903 E0.06920
G1 X135.468 Y81.782 E0.06862
G1 X133.488 Y80.851 E0.06862
G1 X131.411 Y80.114 E0.06910
G1 X129.426 Y79.619 E0.06413
G1 X127.075 Y79.260 E0.07458
G1 E-0.80000 F2100.00000
G1 Z0.800 F10800.000
G1 X124.997 Y79.622
G1 Z0.200
G1 E0.80000 F2100.00000
G1 F1200.000
G1 X122.843 Y79.646 E0.06756
G1 X120.608 Y79.998 E0.07093
G1 X118.554 Y80.521 E0.06646
G1 X116.553 Y81.242 E0.06670
G1 X114.626 Y82.159 E0.06689
G1 X112.784 Y83.268 E0.06743
G1 X111.073 Y84.541 E0.06686
G1 X109.467 Y86.001 E0.06807
G1 X108.025 Y87.598 E0.06745
G1 X106.758 Y89.312 E0.06683
G1 X105.698 Y91.084 E0.06475
G1 X104.716 Y93.153 E0.07181
G1 X103.997 Y95.185 E0.06755
G1 X103.482 Y97.273 E0.06745
G1 X103.186 Y99.313 E0.06463
G1 X103.076 Y101.411 E0.06587
G1 X103.186 Y103.677 E0.07113
G1 X103.489 Y105.712 E0.06451
G1 X103.982 Y107.701 E0.06427
G1 X104.757 Y109.894 E0.07292
G1 X105.674 Y111.827 E0.06706
G1 X106.782 Y113.672 E0.06747
G1 X108.065 Y115.399 E0.06747
G1 X109.512 Y116.992 E0.06747
G1 X109.969 Y117.405 E0.01932
G1 X110.847 Y118.201 F10800.000
G1 F1200.000
G1 X111.093 Y118.423 E0.01038
G1 X112.820 Y119.704 E0.06744
G1 X114.665 Y120.810 E0.06744
G1 X116.096 Y121.481 E0.04954
G1 X116.123 Y127.605 E0.19200
G1 X116.127 Y128.382 F10800.000
G1 F1200.000
G1 X116.135 Y130.202 E0.05707
G1 X116.295 Y130.754 E0.01801
G1 X116.545 Y131.283 E0.01837
G1 X117.402 Y132.264 E0.04082
G1 X118.291 Y132.803 E0.03260
G1 X118.978 Y133.011 E0.02251
G1 X130.777 Y133.048 E0.36994
G1 X132.007 Y132.667 E0.04039
G1 X132.602 Y132.254 E0.02270
G1 X133.157 Y131.693 E0.02475
G1 X133.585 Y131.032 E0.02469
G1 X133.907 Y129.904 E0.03677
G1 X133.907 Y128.323 E0.04957
G1 X133.907 Y127.552 F10800.000
G1 F1200.000
G1 X133.907 Y121.481 E0.19037
G1 X135.319 Y120.818 E0.04890
G1 X137.196 Y119.693 E0.06863
G1 X138.879 Y118.446 E0.06567
G1 X139.150 Y118.201 E0.01146
G1 X140.026 Y117.410 F10800.000
G1 F1200.000
G1 X140.473 Y117.007 E0.01888
G1 X141.934 Y115.399 E0.06811
G1 X143.271 Y113.592 E0.07048
G1 X144.326 Y111.826 E0.06450
G1 X145.218 Y109.953 E0.06505
G1 X145.980 Y107.839 E0.07046
G1 X146.518 Y105.675 E0.06992
G1 X146.826 Y103.545 E0.06748
G1 X146.924 Y101.396 E0.06746
G1 X146.811 Y99.247 E0.06746
G1 X146.488 Y97.120 E0.06746
G1 X145.958 Y95.035 E0.06746
G1 X145.226 Y93.012 E0.06746
G1 X144.316 Y91.103 E0.06630
G1 X143.217 Y89.275 E0.06687
G1 X141.934 Y87.548 E0.06745
G1 X140.474 Y85.942 E0.06804
G1 X138.877 Y84.500 E0.06746
G1 X137.147 Y83.222 E0.06746
G1 X135.299 Y82.119 E0.06746
G1 X133.353 Y81.203 E0.06746
G1 X131.311 Y80.477 E0.06795
G1 X129.360 Y79.991 E0.06303
G1 X127.058 Y79.637 E0.07302
G1 X124.997 Y79.622 E0.06462
G1 E-0.80000 F2100.00000
G1 Z0.800 F10800.000
G1 X127.042 Y80.014
G1 Z0.200
G1 E0.80000 F2100.00000
G1 F1200.000
G1 X124.999 Y79.999 E0.06403
G1 X122.888 Y80.021 E0.06621
G1 X120.675 Y80.369 E0.07022
G1 X118.656 Y80.884 E0.06534
G1 X116.689 Y81.594 E0.06556
G1 X114.797 Y82.495 E0.06573
G1 X112.987 Y83.586 E0.06627
G1 X111.306 Y84.838 E0.06571
G1 X109.727 Y86.274 E0.06691
G1 X108.311 Y87.844 E0.06629
G1 X107.067 Y89.529 E0.06567
G1 X106.026 Y91.270 E0.06360
G1 X105.068 Y93.288 E0.07006
G1 X104.361 Y95.284 E0.06638
G1 X103.854 Y97.337 E0.06629
G1 X103.562 Y99.341 E0.06352
G1 X103.453 Y101.421 E0.06530
G1 X103.561 Y103.631 E0.06936
G1 X103.857 Y105.630 E0.06337
G1 X104.346 Y107.602 E0.06370
G1 X105.102 Y109.742 E0.07115
G1 X106.011 Y111.657 E0.06647
G1 X107.100 Y113.469 E0.06631
G1 X108.362 Y115.166 E0.06631
G1 X109.277 Y116.173 E0.04265
G1 X110.268 Y117.169 F10800.000
G1 F1200.000
G1 X111.339 Y118.137 E0.04526
G1 X113.037 Y119.396 E0.06628
G1 X114.851 Y120.481 E0.06627
G1 X116.472 Y121.241 E0.05613
G1 X116.498 Y128.273 E0.22047
G1 X116.501 Y129.048 F10800.000
G1 F1200.000
G1 X116.505 Y130.124 E0.03372
G1 X116.643 Y130.607 E0.01575
G1 X116.875 Y131.098 E0.01702
G1 X117.664 Y131.991 E0.03739
G1 X118.464 Y132.467 E0.02918
G1 X119.008 Y132.634 E0.01783
G1 X130.748 Y132.671 E0.36811
G1 X131.864 Y132.317 E0.03672
G1 X132.347 Y131.976 E0.01852
G1 X132.852 Y131.471 E0.02240
G1 X133.253 Y130.850 E0.02317
G1 X133.530 Y129.878 E0.03171
G1 X133.530 Y128.995 E0.02766
G1 X133.530 Y128.224 F10800.000
G1 F1200.000
G1 X133.530 Y121.241 E0.21897
G1 X135.133 Y120.490 E0.05551
G1 X136.994 Y119.374 E0.06803
G1 X138.647 Y118.149 E0.06452
G1 X139.726 Y117.174 E0.04559
G1 X140.717 Y116.178 F10800.000
G1 F1200.000
G1 X141.637 Y115.167 E0.04285
G1 X142.952 Y113.391 E0.06930
G1 X143.998 Y111.641 E0.06393
G1 X144.874 Y109.800 E0.06392
G1 X145.616 Y107.739 E0.06869
G1 X146.146 Y105.612 E0.06874
G1 X146.450 Y103.519 E0.06631
G1 X146.547 Y101.406 E0.06630
G1 X146.437 Y99.295 E0.06630
G1 X146.120 Y97.204 E0.06630
M73 P2 R43
G1 X145.600 Y95.154 E0.06630
G1 X144.881 Y93.166 E0.06630
G1 X143.980 Y91.273 E0.06572
G1 X142.899 Y89.477 E0.06572
G1 X141.637 Y87.781 E0.06630
G1 X140.202 Y86.203 E0.06688
G1 X138.632 Y84.787 E0.06630
G1 X136.930 Y83.531 E0.06630
G1 X135.114 Y82.448 E0.06630
G1 X133.201 Y81.548 E0.06630
G1 X131.210 Y80.841 E0.06623
G1 X129.294 Y80.362 E0.06193
G1 X127.042 Y80.014 E0.07146
G1 X128.396 Y80.604 F10800.000
G1 F1200.000
G1 X127.025 Y80.391 E0.04352
G1 X125.001 Y80.376 E0.06345
G1 X122.933 Y80.395 E0.06487
G1 X121.900 Y80.558 E0.03278
G1 E-0.80000 F2100.00000
G1 Z0.800 F10800.000
G1 X119.486 Y81.061
G1 Z0.200
G1 E0.80000 F2100.00000
G1 F1200.000
G1 X118.759 Y81.247 E0.02353
G1 X116.826 Y81.945 E0.06442
G1 X114.968 Y82.832 E0.06457
G1 X113.189 Y83.905 E0.06512
G1 X111.539 Y85.135 E0.06455
G1 X109.988 Y86.547 E0.06575
G1 X108.598 Y88.090 E0.06513
G1 X107.376 Y89.745 E0.06452
G1 X106.355 Y91.456 E0.06246
G1 X105.420 Y93.424 E0.06831
G1 X104.725 Y95.384 E0.06521
G1 X104.225 Y97.400 E0.06513
G1 X103.938 Y99.370 E0.06242
G1 X103.830 Y101.432 E0.06473
G1 X103.935 Y103.585 E0.06759
G1 X104.229 Y105.566 E0.06279
G1 X104.710 Y107.502 E0.06256
