; generated by PrusaSlicer 2.1.1+win64 on 2020-02-04 at 16:12:42 UTC

; 

; external perimeters extrusion width = 0.45mm
; perimeters extrusion width = 0.45mm
; infill extrusion width = 0.45mm
; solid infill extrusion width = 0.45mm
; top infill extrusion width = 0.40mm
; first layer extrusion width = 0.42mm

M73 P0 R33
M201 X9000 Y9000 Z500 E10000 ; sets maximum accelerations, mm/sec^2
M203 X500 Y500 Z12 E120 ; sets maximum feedrates, mm/sec
M204 P2000 R1500 T2000 ; sets acceleration (P, T) and retract acceleration (R), mm/sec^2
M205 X10.00 Y10.00 Z0.20 E4.50 ; sets the jerk limits, mm/sec
M205 S0 T0 ; sets the minimum extruding and travel feed rate, mm/sec
M107
M862.3 P "MK2.5SMMU2S" ; printer model check
M862.1 P0.4 ; nozzle diameter check
M115 U3.8.1 ; tell printer latest fw version
G90 ; use absolute coordinates
M83 ; extruder relative mode
M104 S215 ; set extruder temp
M140 S60 ; set bed temp
Tx
M190 S60 ; wait for bed temp
M109 S215 ; wait for extruder temp
G28 W ; home all without mesh bed level
G80 ; mesh bed leveling

;go outside print area
G1 Y-3.0 F1000.0
G1 Z0.4 F1000.0
; select extruder
Tc
; purge line
G1 X55.0 F2000.0
G1 Z0.3 F1000.0
G92 E0.0
G1 X240.0 E25.0 F2200.0
M73 P0 R33
G1 Y-2.0 F1000.0
G1 X55.0 E25 F1400.0
G1 Z0.20 F1000.0
G1 X5.0 E4.0 F1000.0
G92 E0.0
G21 ; set units to millimeters
G90 ; use absolute coordinates
M83 ; use relative distances for extrusion
M900 K30 ; Filament gcode
;BEFORE_LAYER_CHANGE
G92 E0.0
;0.2


G1 E-0.80000 F2100.00000
G1 Z0.600 F10800.000
;AFTER_LAYER_CHANGE
;0.2
G1 X116.719 Y96.383
G1 Z0.200
G1 E0.80000 F2100.00000
M204 S1000
G1 F1200
G1 X117.606 Y95.444 E0.04050
G1 X118.593 Y94.587 E0.04099
G1 X119.647 Y93.840 E0.04050
G1 X120.771 Y93.197 E0.04062
G1 X121.943 Y92.664 E0.04036
G1 X123.256 Y92.234 E0.04331
G1 X124.495 Y91.949 E0.03985
G1 X125.766 Y91.787 E0.04020
G1 X127.000 Y91.750 E0.03870
G1 X128.322 Y91.841 E0.04155
G1 X129.590 Y92.058 E0.04033
G1 X130.851 Y92.405 E0.04100
G1 X132.099 Y92.877 E0.04184
G1 X133.263 Y93.458 E0.04079
G1 X134.363 Y94.150 E0.04074
G1 X135.390 Y94.946 E0.04074
G1 X136.331 Y95.836 E0.04062
G1 X137.186 Y96.821 E0.04087
G1 X137.937 Y97.881 E0.04074
G1 X138.582 Y99.009 E0.04074
G1 X139.112 Y100.196 E0.04074
G1 X139.523 Y101.428 E0.04074
G1 X139.812 Y102.695 E0.04074
G1 X139.975 Y103.984 E0.04074
G1 X140.011 Y105.275 E0.04050
G1 X139.920 Y106.579 E0.04099
G1 X139.702 Y107.860 E0.04074
G1 X139.359 Y109.114 E0.04074
G1 X138.895 Y110.328 E0.04074
G1 X138.314 Y111.490 E0.04074
G1 X137.623 Y112.590 E0.04074
G1 X136.827 Y113.617 E0.04074
G1 X135.936 Y114.559 E0.04062
G1 X134.952 Y115.413 E0.04087
G1 X133.895 Y116.163 E0.04062
G1 X132.767 Y116.807 E0.04074
G1 X131.601 Y117.330 E0.04007
G1 X130.297 Y117.764 E0.04308
G1 X129.051 Y118.051 E0.04010
G1 X127.775 Y118.214 E0.04032
G1 X126.502 Y118.250 E0.03994
G1 X125.215 Y118.159 E0.04044
G1 X123.951 Y117.942 E0.04021
G1 X122.691 Y117.594 E0.04100
G1 X121.443 Y117.121 E0.04184
G1 X120.282 Y116.542 E0.04067
G1 X119.182 Y115.850 E0.04074
G1 X118.155 Y115.054 E0.04074
G1 X117.211 Y114.161 E0.04074
G1 X116.360 Y113.179 E0.04074
G1 X115.608 Y112.119 E0.04074
G1 X114.964 Y110.991 E0.04074
G1 X114.434 Y109.804 E0.04074
G1 X114.022 Y108.572 E0.04074
G1 X113.733 Y107.305 E0.04074
G1 X113.570 Y106.016 E0.04074
G1 X113.534 Y104.725 E0.04050
G1 X113.626 Y103.421 E0.04099
G1 X113.844 Y102.139 E0.04074
G1 X114.187 Y100.886 E0.04074
G1 X114.650 Y99.672 E0.04074
G1 X115.231 Y98.510 E0.04074
G1 X115.923 Y97.410 E0.04074
G1 X116.682 Y96.430 E0.03886
G1 X116.980 Y96.661 F10800.000
G1 F1200
G1 X117.868 Y95.716 E0.04067
G1 X118.824 Y94.885 E0.03970
G1 X119.851 Y94.157 E0.03947
G1 X120.944 Y93.532 E0.03947
G1 X122.080 Y93.015 E0.03914
G1 X123.355 Y92.598 E0.04208
G1 X124.558 Y92.321 E0.03871
G1 X125.797 Y92.163 E0.03914
G1 X127.000 Y92.127 E0.03776
G1 X128.282 Y92.215 E0.04028
G1 X129.509 Y92.426 E0.03904
G1 X130.734 Y92.764 E0.03984
G1 X131.948 Y93.223 E0.04069
G1 X133.079 Y93.787 E0.03963
G1 X134.148 Y94.459 E0.03958
G1 X135.145 Y95.233 E0.03958
G1 X136.060 Y96.098 E0.03947
G1 X136.890 Y97.054 E0.03970
G1 X137.620 Y98.084 E0.03958
G1 X138.246 Y99.181 E0.03958
G1 X138.759 Y100.330 E0.03947
G1 X139.160 Y101.531 E0.03970
G1 X139.441 Y102.761 E0.03958
G1 X139.599 Y104.010 E0.03947
G1 X139.634 Y105.269 E0.03947
G1 X139.545 Y106.535 E0.03981
G1 X139.333 Y107.780 E0.03958
G1 X139.000 Y108.998 E0.03958
G1 X138.550 Y110.177 E0.03958
G1 X137.985 Y111.306 E0.03958
G1 X137.313 Y112.375 E0.03958
G1 X136.540 Y113.373 E0.03958
G1 X135.675 Y114.287 E0.03947
G1 X134.719 Y115.117 E0.03970
G1 X133.692 Y115.845 E0.03947
G1 X132.595 Y116.471 E0.03958
G1 X131.463 Y116.979 E0.03891
G1 X130.194 Y117.401 E0.04194
G1 X128.984 Y117.680 E0.03894
G1 X127.745 Y117.838 E0.03914
G1 X126.508 Y117.873 E0.03879
G1 X125.260 Y117.784 E0.03925
G1 X124.033 Y117.573 E0.03904
G1 X122.811 Y117.236 E0.03973
G1 X121.594 Y116.776 E0.04080
G1 X120.467 Y116.213 E0.03952
G1 X119.398 Y115.541 E0.03958
G1 X118.400 Y114.767 E0.03958
G1 X117.483 Y113.899 E0.03958
G1 X116.656 Y112.946 E0.03958
G1 X115.926 Y111.916 E0.03958
G1 X115.300 Y110.819 E0.03958
G1 X114.785 Y109.667 E0.03958
G1 X114.385 Y108.469 E0.03958
G1 X114.105 Y107.242 E0.03947
G1 X113.946 Y105.990 E0.03958
G1 X113.911 Y104.731 E0.03947
G1 X114.000 Y103.465 E0.03981
G1 X114.211 Y102.224 E0.03947
G1 X114.545 Y101.002 E0.03970
G1 X114.994 Y99.827 E0.03947
G1 X115.560 Y98.694 E0.03970
G1 X116.230 Y97.628 E0.03947
G1 X116.943 Y96.708 E0.03649
G1 F8640
G1 X117.868 Y95.716 E-0.31332
G1 X118.824 Y94.885 E-0.29235
G1 X119.369 Y94.498 E-0.15433
G1 E-0.04000 F2100.00000
G1 Z0.800 F10800.000
G1 X120.102 Y100.112
G1 Z0.200
G1 E0.80000 F2100.00000
G1 F1200
G1 X120.682 Y99.650 E0.02326
G1 X121.313 Y99.239 E0.02361
G1 X121.989 Y98.883 E0.02394
G1 X122.702 Y98.586 E0.02423
G1 X123.447 Y98.352 E0.02448
G1 X124.215 Y98.183 E0.02467
G1 X125.000 Y98.080 E0.02480
G1 X125.789 Y98.046 E0.02476
G1 X126.585 Y98.080 E0.02497
G1 X127.369 Y98.183 E0.02480
G1 X128.138 Y98.352 E0.02467
G1 X128.882 Y98.586 E0.02448
G1 X129.596 Y98.882 E0.02424
G1 X130.272 Y99.238 E0.02394
G1 X130.903 Y99.649 E0.02362
G1 X131.483 Y100.111 E0.02326
G1 X132.008 Y100.620 E0.02290
G1 X132.471 Y101.169 E0.02253
G1 X132.870 Y101.753 E0.02218
G1 X133.201 Y102.367 E0.02186
G1 X133.461 Y103.005 E0.02159
G1 X133.647 Y103.660 E0.02137
G1 X133.760 Y104.327 E0.02121
G1 X133.798 Y105.000 E0.02113
G1 X133.760 Y105.673 E0.02113
G1 X133.647 Y106.340 E0.02121
G1 X133.461 Y106.995 E0.02137
G1 X133.201 Y107.633 E0.02159
G1 X132.870 Y108.247 E0.02186
G1 X132.471 Y108.831 E0.02218
G1 X132.008 Y109.380 E0.02253
G1 X131.483 Y109.889 E0.02290
G1 X130.903 Y110.351 E0.02326
G1 X130.272 Y110.762 E0.02362
G1 X129.596 Y111.118 E0.02394
G1 X128.882 Y111.414 E0.02424
G1 X128.138 Y111.648 E0.02448
G1 X127.369 Y111.817 E0.02467
G1 X126.585 Y111.920 E0.02480
G1 X125.792 Y111.954 E0.02487
G1 X125.000 Y111.920 E0.02487
G1 X124.215 Y111.817 E0.02480
G1 X123.447 Y111.648 E0.02467
G1 X122.702 Y111.414 E0.02448
G1 X121.989 Y111.117 E0.02423
G1 X121.313 Y110.761 E0.02394
G1 X120.682 Y110.350 E0.02361
G1 X120.102 Y109.888 E0.02326
G1 X119.578 Y109.380 E0.02289
G1 X119.114 Y108.831 E0.02253
G1 X118.716 Y108.246 E0.02218
G1 X118.385 Y107.633 E0.02186
G1 X118.126 Y106.995 E0.02158
G1 X117.939 Y106.340 E0.02136
G1 X117.826 Y105.673 E0.02121
G1 X117.789 Y105.000 E0.02113
G1 X117.826 Y104.327 E0.02113
G1 X117.939 Y103.660 E0.02121
G1 X118.126 Y103.005 E0.02136
G1 X118.385 Y102.367 E0.02158
G1 X118.716 Y101.754 E0.02186
G1 X119.114 Y101.169 E0.02218
G1 X119.578 Y100.620 E0.02253
G1 X120.059 Y100.154 E0.02101
G1 X120.321 Y100.424 F10800.000
G1 F1200
G1 X120.903 Y99.956 E0.02342
G1 X121.504 Y99.564 E0.02250
G1 X122.149 Y99.224 E0.02285
G1 X122.832 Y98.941 E0.02317
G1 X123.544 Y98.717 E0.02343
G1 X124.281 Y98.555 E0.02363
G1 X125.032 Y98.456 E0.02377
G1 X125.789 Y98.424 E0.02374
G1 X126.552 Y98.456 E0.02395
G1 X127.304 Y98.554 E0.02378
G1 X128.040 Y98.716 E0.02364
G1 X128.753 Y98.940 E0.02343
G1 X129.436 Y99.224 E0.02317
G1 X130.081 Y99.564 E0.02286
G1 X130.682 Y99.955 E0.02250
G1 X131.234 Y100.395 E0.02212
G1 X131.732 Y100.877 E0.02173
G1 X132.171 Y101.397 E0.02134
G1 X132.548 Y101.949 E0.02096
G1 X132.859 Y102.528 E0.02061
G1 X133.104 Y103.128 E0.02031
G1 X133.279 Y103.743 E0.02007
G1 X133.385 Y104.369 E0.01990
G1 X133.420 Y105.000 E0.01981
G1 X133.385 Y105.631 E0.01981
G1 X133.279 Y106.257 E0.01990
G1 X133.104 Y106.872 E0.02007
G1 X132.859 Y107.472 E0.02031
G1 X132.548 Y108.051 E0.02061
G1 X132.171 Y108.603 E0.02096
G1 X131.732 Y109.123 E0.02134
G1 X131.234 Y109.605 E0.02173
G1 X130.682 Y110.045 E0.02213
G1 X130.081 Y110.436 E0.02250
G1 X129.436 Y110.776 E0.02286
G1 X128.753 Y111.060 E0.02317
G1 X128.040 Y111.284 E0.02343
G1 X127.304 Y111.446 E0.02364
G1 X126.552 Y111.544 E0.02378
G1 X125.792 Y111.576 E0.02385
G1 X125.032 Y111.544 E0.02385
G1 X124.280 Y111.445 E0.02378
G1 X123.544 Y111.283 E0.02363
G1 X122.832 Y111.059 E0.02343
G1 X122.149 Y110.776 E0.02317
G1 X121.504 Y110.436 E0.02285
G1 X120.903 Y110.044 E0.02250
G1 X120.351 Y109.605 E0.02212
G1 X119.854 Y109.122 E0.02173
G1 X119.415 Y108.602 E0.02133
G1 X119.039 Y108.050 E0.02095
G1 X118.727 Y107.472 E0.02061
G1 X118.483 Y106.872 E0.02030
G1 X118.307 Y106.257 E0.02006
G1 X118.202 Y105.631 E0.01990
G1 X118.166 Y105.000 E0.01981
G1 X118.202 Y104.369 E0.01981
G1 X118.307 Y103.743 E0.01990
G1 X118.483 Y103.128 E0.02006
G1 X118.727 Y102.528 E0.02030
G1 X119.039 Y101.950 E0.02061
G1 X119.415 Y101.398 E0.02095
G1 X119.854 Y100.878 E0.02133
G1 X120.278 Y100.466 E0.01854
G1 X120.241 Y100.032 F10800.000
G1 F8640
G1 X120.903 Y99.956 E-0.18627
G1 X121.504 Y99.564 E-0.16570
G1 X122.149 Y99.224 E-0.16829
G1 X122.832 Y98.941 E-0.17060
G1 X123.117 Y98.851 E-0.06914
G1 E-0.04000 F2100.00000
G1 Z0.800 F10800.000
G1 X118.472 Y99.268
G1 Z0.200
G1 E0.80000 F2100.00000
G1 F1200
G1 X118.800 Y98.818 E0.01743
G1 X119.113 Y98.435 E0.01553
G1 X119.793 Y97.715 E0.03104
G1 X120.541 Y97.066 E0.03104
G1 X121.348 Y96.494 E0.03104
G1 X122.204 Y96.005 E0.03088
G1 X123.094 Y95.600 E0.03069
G1 X124.110 Y95.269 E0.03347
G1 X125.052 Y95.053 E0.03032
G1 X126.014 Y94.930 E0.03042
G1 X126.993 Y94.903 E0.03069
G1 X127.951 Y94.972 E0.03013
G1 X128.908 Y95.136 E0.03043
G1 X129.874 Y95.403 E0.03142
G1 X130.392 Y95.583 E0.01721
G1 X130.832 Y95.764 E0.01490
G1 X131.717 Y96.206 E0.03105
G1 X132.556 Y96.733 E0.03104
G1 X133.338 Y97.340 E0.03104
G1 X134.057 Y98.020 E0.03104
G1 X134.706 Y98.768 E0.03104
G1 X135.279 Y99.576 E0.03104
G1 X135.770 Y100.435 E0.03104
G1 X136.174 Y101.339 E0.03104
G1 X136.487 Y102.278 E0.03104
G1 X136.707 Y103.244 E0.03104
G1 X136.832 Y104.226 E0.03104
G1 X136.859 Y105.216 E0.03104
G1 X136.789 Y106.203 E0.03104
G1 X136.623 Y107.179 E0.03104
G1 X136.362 Y108.134 E0.03104
G1 X136.009 Y109.059 E0.03104
G1 X135.566 Y109.945 E0.03104
G1 X135.039 Y110.783 E0.03104
G1 X134.433 Y111.565 E0.03104
G1 X133.752 Y112.284 E0.03104
G1 X133.005 Y112.934 E0.03104
G1 X132.197 Y113.506 E0.03104
G1 X131.343 Y113.994 E0.03082
G1 X130.453 Y114.393 E0.03060
G1 X129.434 Y114.731 E0.03366
G1 X128.494 Y114.947 E0.03026
G1 X127.531 Y115.070 E0.03042
G1 X126.562 Y115.097 E0.03041
G1 X125.594 Y115.028 E0.03041
G1 X124.637 Y114.864 E0.03043
G1 X123.671 Y114.597 E0.03142
G1 X123.153 Y114.417 E0.01721
G1 X122.714 Y114.236 E0.01490
G1 X121.828 Y113.794 E0.03105
G1 X120.990 Y113.267 E0.03104
G1 X120.207 Y112.660 E0.03104
G1 X119.488 Y111.980 E0.03104
G1 X118.839 Y111.232 E0.03104
G1 X118.267 Y110.424 E0.03104
G1 X117.776 Y109.565 E0.03104
G1 X117.372 Y108.661 E0.03104
G1 X117.058 Y107.722 E0.03104
G1 X116.838 Y106.756 E0.03104
G1 X116.714 Y105.774 E0.03104
G1 X116.686 Y104.784 E0.03104
G1 X116.756 Y103.797 E0.03104
G1 X116.922 Y102.821 E0.03104
G1 X117.183 Y101.866 E0.03104
G1 X117.537 Y100.941 E0.03104
G1 X117.979 Y100.055 E0.03104
G1 X118.439 Y99.318 E0.02726
G1 X118.125 Y99.109 F10800.000
G1 F1200
G1 X118.502 Y98.587 E0.02018
G1 X118.826 Y98.189 E0.01611
G1 X119.170 Y97.808 E0.01611
G1 X119.532 Y97.443 E0.01611
G1 X119.912 Y97.097 E0.01611
G1 X120.308 Y96.770 E0.01611
G1 X120.719 Y96.463 E0.01611
G1 X121.146 Y96.176 E0.01611
G1 X121.585 Y95.910 E0.01611
G1 X122.036 Y95.668 E0.01605
G1 X122.957 Y95.248 E0.03175
G1 X124.004 Y94.907 E0.03452
G1 X124.986 Y94.681 E0.03157
G1 X125.985 Y94.554 E0.03159
G1 X126.488 Y94.527 E0.01579
G1 X127.001 Y94.526 E0.01609
G1 X127.997 Y94.597 E0.03129
G1 X128.990 Y94.768 E0.03160
G1 X129.480 Y94.890 E0.01582
G1 X129.991 Y95.044 E0.01674
G1 X130.526 Y95.231 E0.01778
G1 X130.983 Y95.419 E0.01551
G1 X131.449 Y95.637 E0.01611
G1 X131.902 Y95.878 E0.01611
G1 X132.344 Y96.140 E0.01611
G1 X132.772 Y96.424 E0.01611
G1 X133.185 Y96.729 E0.01611
G1 X133.583 Y97.054 E0.01611
G1 X133.965 Y97.397 E0.01611
G1 X134.330 Y97.759 E0.01611
G1 X134.676 Y98.139 E0.01611
G1 X135.003 Y98.535 E0.01611
G1 X135.310 Y98.947 E0.01611
G1 X135.597 Y99.373 E0.01611
G1 X135.862 Y99.813 E0.01611
G1 X136.106 Y100.265 E0.01611
G1 X136.327 Y100.728 E0.01611
G1 X136.525 Y101.202 E0.01611
G1 X136.700 Y101.686 E0.01611
G1 X136.850 Y102.177 E0.01611
G1 X136.977 Y102.674 E0.01611
G1 X137.079 Y103.178 E0.01611
G1 X137.156 Y103.686 E0.01611
G1 X137.208 Y104.197 E0.01611
G1 X137.234 Y104.710 E0.01611
G1 X137.236 Y105.224 E0.01611
G1 X137.213 Y105.737 E0.01611
G1 X137.164 Y106.248 E0.01611
G1 X137.090 Y106.756 E0.01611
G1 X136.991 Y107.261 E0.01611
G1 X136.868 Y107.759 E0.01611
G1 X136.721 Y108.251 E0.01611
G1 X136.549 Y108.736 E0.01611
G1 X136.354 Y109.211 E0.01611
G1 X136.136 Y109.676 E0.01611
G1 X135.895 Y110.130 E0.01611
G1 X135.633 Y110.571 E0.01611
G1 X135.349 Y110.999 E0.01611
G1 X135.044 Y111.413 E0.01611
G1 X134.719 Y111.811 E0.01611
G1 X134.375 Y112.192 E0.01611
G1 X134.013 Y112.557 E0.01611
G1 X133.634 Y112.903 E0.01611
G1 X133.238 Y113.230 E0.01611
G1 X132.826 Y113.537 E0.01611
G1 X132.400 Y113.824 E0.01611
G1 X131.960 Y114.090 E0.01611
G1 X131.510 Y114.332 E0.01603
G1 X130.590 Y114.744 E0.03162
G1 X129.541 Y115.093 E0.03467
G1 X128.560 Y115.319 E0.03155
G1 X127.560 Y115.446 E0.03159
G1 X126.553 Y115.474 E0.03158
G1 X125.549 Y115.403 E0.03158
G1 X124.555 Y115.232 E0.03160
G1 X124.066 Y115.111 E0.01582
G1 X123.555 Y114.956 E0.01674
G1 X123.019 Y114.769 E0.01778
G1 X122.562 Y114.581 E0.01551
G1 X122.097 Y114.363 E0.01611
G1 X121.643 Y114.123 E0.01611
G1 X121.202 Y113.860 E0.01611
G1 X120.774 Y113.576 E0.01611
G1 X120.360 Y113.271 E0.01611
G1 X119.962 Y112.946 E0.01611
G1 X119.580 Y112.603 E0.01611
G1 X119.216 Y112.241 E0.01611
G1 X118.870 Y111.861 E0.01611
G1 X118.543 Y111.465 E0.01611
G1 X118.235 Y111.053 E0.01611
G1 X117.949 Y110.627 E0.01611
G1 X117.683 Y110.187 E0.01611
G1 X117.439 Y109.735 E0.01611
G1 X117.218 Y109.272 E0.01611
G1 X117.020 Y108.798 E0.01611
G1 X116.846 Y108.314 E0.01611
G1 X116.695 Y107.823 E0.01611
G1 X116.569 Y107.326 E0.01611
G1 X116.467 Y106.822 E0.01611
G1 X116.390 Y106.314 E0.01611
G1 X116.338 Y105.803 E0.01611
G1 X116.311 Y105.290 E0.01611
G1 X116.309 Y104.776 E0.01611
G1 X116.333 Y104.263 E0.01611
G1 X116.382 Y103.752 E0.01611
G1 X116.455 Y103.244 E0.01611
G1 X116.554 Y102.739 E0.01611
G1 X116.677 Y102.241 E0.01611
G1 X116.825 Y101.749 E0.01611
G1 X116.996 Y101.264 E0.01611
G1 X117.191 Y100.789 E0.01611
G1 X117.410 Y100.324 E0.01611
G1 X117.650 Y99.870 E0.01611
G1 X118.092 Y99.159 E0.02625
G1 X118.524 Y99.137 F10800.000
G1 F8640
G1 X118.502 Y98.587 E-0.16244
G1 X118.826 Y98.189 E-0.11861
G1 X119.170 Y97.808 E-0.11861
G1 X119.532 Y97.443 E-0.11861
G1 X119.912 Y97.097 E-0.11861
G1 X120.308 Y96.770 E-0.11861
G1 X120.323 Y96.758 E-0.00450
G1 E-0.04000 F2100.00000
G1 Z0.800 F10800.000
G1 X118.463 Y108.374
G1 Z0.200
G1 E0.80000 F2100.00000
G1 F1200
G1 X117.200 Y107.111 E0.05706
G1 X117.084 Y106.451 E0.02142
G1 X117.953 Y107.320 E0.03927
G1 X117.858 Y107.087 E0.00802
G1 X117.696 Y106.520 E0.01885
G1 X117.015 Y105.838 E0.03080
G1 X116.971 Y105.252 E0.01879
G1 X117.569 Y105.850 E0.02702
G1 X117.520 Y105.257 E0.01901
G1 X116.983 Y104.720 E0.02427
G1 X117.005 Y104.198 E0.01667
G1 X117.521 Y104.715 E0.02334
G1 X117.559 Y104.210 E0.01619
G1 X117.063 Y103.713 E0.02242
