; generated by PrusaSlicer 2.1.1+win64 on 2020-02-03 at 23:18:14 UTC

; 

; external perimeters extrusion width = 0.45mm
; perimeters extrusion width = 0.45mm
; infill extrusion width = 0.45mm
; solid infill extrusion width = 0.45mm
; top infill extrusion width = 0.40mm
; first layer extrusion width = 0.42mm

M73 P0 R23
M201 X9000 Y9000 Z500 E10000 ; sets maximum accelerations, mm/sec^2
M203 X500 Y500 Z12 E120 ; sets maximum feedrates, mm/sec
M204 P2000 R1500 T2000 ; sets acceleration (P, T) and retract acceleration (R), mm/sec^2
M205 X10.00 Y10.00 Z0.20 E4.50 ; sets the jerk limits, mm/sec
M205 S0 T0 ; sets the minimum extruding and travel feed rate, mm/sec
M107
M862.3 P "MK2.5SMMU2S" ; printer model check
M862.1 P0.4 ; nozzle diameter check
M115 U3.8.1 ; tell printer latest fw version
G90 ; use absolute coordinates
M83 ; extruder relative mode
M104 S215 ; set extruder temp
M140 S60 ; set bed temp
Tx
M190 S60 ; wait for bed temp
M109 S215 ; wait for extruder temp
G28 W ; home all without mesh bed level
G80 ; mesh bed leveling

;go outside print area
G1 Y-3.0 F1000.0
G1 Z0.4 F1000.0
; select extruder
Tc
; purge line
G1 X55.0 F2000.0
G1 Z0.3 F1000.0
G92 E0.0
G1 X240.0 E25.0 F2200.0
M73 P0 R23
G1 Y-2.0 F1000.0
G1 X55.0 E25 F1400.0
G1 Z0.20 F1000.0
G1 X5.0 E4.0 F1000.0
G92 E0.0
G21 ; set units to millimeters
G90 ; use absolute coordinates
M83 ; use relative distances for extrusion
M900 K30 ; Filament gcode
;BEFORE_LAYER_CHANGE
G92 E0.0
;0.2


G1 E-0.80000 F2100.00000
G1 Z0.600 F10800.000
;AFTER_LAYER_CHANGE
;0.2
G1 X121.163 Y74.699
G1 Z0.200
G1 E0.80000 F2100.00000
M204 S1000
G1 F1200
G1 X122.762 Y74.036 E0.05426
G1 X124.088 Y73.772 E0.04240
G1 X124.957 Y73.723 E0.02729
G1 X125.823 Y73.773 E0.02717
G1 X127.149 Y74.037 E0.04240
G1 X128.751 Y74.701 E0.05437
G1 X129.872 Y75.451 E0.04229
G1 X130.521 Y76.031 E0.02729
G1 X131.097 Y76.678 E0.02717
G1 X131.864 Y77.831 E0.04343
G1 X141.719 Y98.473 E0.71718
G1 X142.286 Y100.164 E0.05592
G1 X142.677 Y101.878 E0.05512
G1 X142.899 Y103.629 E0.05535
G1 X142.948 Y105.343 E0.05375
G1 X142.824 Y107.144 E0.05661
G1 X142.539 Y108.834 E0.05375
G1 X141.750 Y111.467 E0.08617
G1 X131.941 Y132.183 E0.71868
G1 X131.180 Y133.326 E0.04305
G1 X130.603 Y133.972 E0.02717
G1 X129.956 Y134.550 E0.02717
G1 X128.835 Y135.299 E0.04229
G1 X127.233 Y135.964 E0.05437
G1 X125.907 Y136.228 E0.04240
G1 X125.045 Y136.277 E0.02706
G1 X124.176 Y136.228 E0.02729
G1 X122.846 Y135.963 E0.04252
G1 X121.248 Y135.301 E0.05426
G1 X120.126 Y134.551 E0.04229
G1 X119.475 Y133.969 E0.02740
G1 X118.898 Y133.322 E0.02717
G1 X118.133 Y132.172 E0.04332
G1 X108.281 Y111.546 E0.71670
G1 X107.714 Y109.855 E0.05592
G1 X107.323 Y108.141 E0.05512
G1 X107.101 Y106.389 E0.05535
G1 X107.052 Y104.676 E0.05375
G1 X107.176 Y102.875 E0.05661
G1 X107.461 Y101.184 E0.05375
G1 X108.250 Y98.552 E0.08617
G1 X118.053 Y77.818 E0.71910
G1 X118.814 Y76.677 E0.04297
G1 X119.393 Y76.028 E0.02729
G1 X120.042 Y75.448 E0.02729
G1 X121.114 Y74.732 E0.04041
G1 F8640
G1 X122.762 Y74.036 E-0.41317
G1 X124.088 Y73.772 E-0.31226
G1 X124.238 Y73.764 E-0.03457
G1 E-0.04000 F2100.00000
G1 Z0.800 F10800.000
G1 X124.981 Y125.754
G1 Z0.200
G1 E0.80000 F2100.00000
G1 F1200
G1 X125.543 Y125.805 E0.01770
G1 X126.069 Y125.965 E0.01725
G1 X126.553 Y126.223 E0.01718
G1 X126.976 Y126.571 E0.01718
G1 X127.324 Y126.994 E0.01718
G1 X127.582 Y127.477 E0.01718
G1 X127.741 Y128.001 E0.01718
G1 X127.795 Y128.547 E0.01718
G1 X127.741 Y129.092 E0.01718
G1 X127.582 Y129.616 E0.01718
G1 X127.324 Y130.099 E0.01718
G1 X126.976 Y130.523 E0.01718
G1 X126.553 Y130.870 E0.01718
G1 X126.069 Y131.128 E0.01718
G1 X125.545 Y131.287 E0.01718
G1 X125.000 Y131.341 E0.01718
G1 X124.455 Y131.287 E0.01718
G1 X123.931 Y131.128 E0.01718
G1 X123.447 Y130.870 E0.01718
G1 X123.024 Y130.523 E0.01718
G1 X122.676 Y130.099 E0.01718
G1 X122.418 Y129.616 E0.01718
G1 X122.259 Y129.092 E0.01718
G1 X122.205 Y128.547 E0.01718
G1 X122.259 Y128.001 E0.01718
G1 X122.418 Y127.477 E0.01718
G1 X122.676 Y126.994 E0.01718
G1 X123.024 Y126.571 E0.01718
G1 X123.447 Y126.223 E0.01718
G1 X123.931 Y125.965 E0.01718
G1 X124.455 Y125.806 E0.01718
G1 X124.921 Y125.760 E0.01469
G1 X124.958 Y126.135 F10800.000
G1 F1200
G1 X125.471 Y126.177 E0.01612
G1 X125.924 Y126.315 E0.01487
G1 X126.342 Y126.538 E0.01485
G1 X126.708 Y126.838 E0.01485
G1 X127.009 Y127.205 E0.01485
G1 X127.232 Y127.622 E0.01485
G1 X127.369 Y128.075 E0.01485
G1 X127.416 Y128.547 E0.01485
G1 X127.369 Y129.018 E0.01485
G1 X127.232 Y129.471 E0.01485
G1 X127.009 Y129.889 E0.01485
G1 X126.708 Y130.255 E0.01485
G1 X126.342 Y130.555 E0.01485
G1 X125.924 Y130.778 E0.01485
G1 X125.471 Y130.916 E0.01485
G1 X125.000 Y130.962 E0.01485
G1 X124.529 Y130.916 E0.01485
G1 X124.076 Y130.778 E0.01485
G1 X123.658 Y130.555 E0.01485
G1 X123.292 Y130.255 E0.01485
G1 X122.991 Y129.889 E0.01485
G1 X122.768 Y129.471 E0.01485
G1 X122.631 Y129.018 E0.01485
G1 X122.584 Y128.547 E0.01485
G1 X122.631 Y128.075 E0.01485
G1 X122.768 Y127.622 E0.01485
G1 X122.991 Y127.205 E0.01485
G1 X123.292 Y126.838 E0.01485
G1 X123.658 Y126.538 E0.01485
G1 X124.076 Y126.315 E0.01485
G1 X124.529 Y126.177 E0.01485
G1 X124.898 Y126.141 E0.01164
G1 X125.154 Y125.786 F10800.000
G1 F8640
G1 X125.471 Y126.177 E-0.13240
G1 X125.924 Y126.315 E-0.10953
G1 X126.342 Y126.538 E-0.10935
G1 X126.708 Y126.838 E-0.10935
G1 X127.009 Y127.205 E-0.10934
G1 X127.232 Y127.622 E-0.10935
G1 X127.333 Y127.957 E-0.08069
G1 E-0.04000 F2100.00000
G1 Z0.800 F10800.000
G1 X125.154 Y114.283
G1 Z0.200
G1 E0.80000 F2100.00000
G1 F1200
G1 X124.359 Y114.266 E0.02494
G1 X123.471 Y114.158 E0.02804
G1 X122.598 Y113.964 E0.02804
G1 X121.677 Y113.663 E0.03037
G1 X120.858 Y113.303 E0.02806
G1 X120.065 Y112.857 E0.02852
G1 X119.320 Y112.336 E0.02852
G1 X118.629 Y111.744 E0.02852
G1 X118.000 Y111.087 E0.02852
G1 X117.438 Y110.371 E0.02852
G1 X116.949 Y109.604 E0.02852
G1 X116.537 Y108.793 E0.02852
G1 X116.207 Y107.945 E0.02852
G1 X115.961 Y107.069 E0.02852
G1 X115.803 Y106.173 E0.02852
G1 X115.733 Y105.266 E0.02852
G1 X115.753 Y104.357 E0.02852
G1 X115.861 Y103.454 E0.02852
G1 X116.058 Y102.565 E0.02852
G1 X116.340 Y101.700 E0.02852
G1 X116.706 Y100.868 E0.02852
G1 X117.152 Y100.075 E0.02852
G1 X117.674 Y99.329 E0.02852
G1 X118.266 Y98.638 E0.02852
G1 X118.923 Y98.009 E0.02852
G1 X119.638 Y97.447 E0.02852
G1 X120.405 Y96.958 E0.02853
G1 X121.238 Y96.537 E0.02924
G1 X121.623 Y96.370 E0.01317
G1 X122.070 Y96.217 E0.01480
G1 X122.975 Y95.960 E0.02950
G1 X123.856 Y95.803 E0.02808
G1 X124.765 Y95.734 E0.02856
G1 X125.642 Y95.753 E0.02750
G1 X126.529 Y95.860 E0.02804
G1 X127.402 Y96.055 E0.02804
G1 X128.323 Y96.355 E0.03037
G1 X129.142 Y96.716 E0.02806
G1 X129.935 Y97.162 E0.02852
G1 X130.680 Y97.683 E0.02852
G1 X131.371 Y98.275 E0.02852
G1 X132.000 Y98.932 E0.02852
G1 X132.562 Y99.647 E0.02852
G1 X133.051 Y100.414 E0.02852
G1 X133.463 Y101.226 E0.02852
G1 X133.793 Y102.073 E0.02852
G1 X134.039 Y102.949 E0.02852
G1 X134.197 Y103.845 E0.02852
G1 X134.267 Y104.752 E0.02852
G1 X134.247 Y105.662 E0.02852
G1 X134.139 Y106.565 E0.02852
G1 X133.942 Y107.453 E0.02852
G1 X133.660 Y108.318 E0.02852
G1 X133.294 Y109.151 E0.02852
G1 X132.848 Y109.944 E0.02852
G1 X132.326 Y110.689 E0.02852
G1 X131.734 Y111.380 E0.02852
G1 X131.077 Y112.010 E0.02852
G1 X130.362 Y112.572 E0.02852
G1 X129.595 Y113.061 E0.02852
G1 X128.782 Y113.473 E0.02857
G1 X127.909 Y113.809 E0.02934
G1 X127.025 Y114.059 E0.02880
G1 X126.144 Y114.216 E0.02806
G1 X125.214 Y114.284 E0.02925
G1 X125.222 Y113.907 F10800.000
G1 F1200
G1 X124.385 Y113.889 E0.02623
G1 X123.535 Y113.786 E0.02687
G1 X122.698 Y113.600 E0.02688
G1 X121.812 Y113.311 E0.02921
G1 X121.027 Y112.965 E0.02689
G1 X120.266 Y112.537 E0.02736
G1 X119.551 Y112.037 E0.02736
G1 X118.889 Y111.469 E0.02736
G1 X118.285 Y110.839 E0.02736
G1 X117.746 Y110.153 E0.02736
G1 X117.277 Y109.417 E0.02736
G1 X116.882 Y108.639 E0.02736
G1 X116.565 Y107.826 E0.02736
G1 X116.330 Y106.985 E0.02736
G1 X116.178 Y106.126 E0.02736
G1 X116.111 Y105.256 E0.02736
G1 X116.129 Y104.383 E0.02736
G1 X116.233 Y103.517 E0.02736
G1 X116.422 Y102.665 E0.02736
G1 X116.693 Y101.835 E0.02736
G1 X117.044 Y101.036 E0.02736
G1 X117.472 Y100.276 E0.02736
G1 X117.972 Y99.561 E0.02736
G1 X118.540 Y98.898 E0.02736
G1 X119.170 Y98.294 E0.02736
G1 X119.856 Y97.755 E0.02736
G1 X120.592 Y97.286 E0.02737
G1 X121.397 Y96.878 E0.02829
G1 X121.759 Y96.722 E0.01236
G1 X122.183 Y96.577 E0.01403
G1 X123.059 Y96.328 E0.02858
G1 X123.904 Y96.177 E0.02689
G1 X124.775 Y96.111 E0.02739
G1 X125.615 Y96.129 E0.02633
G1 X126.465 Y96.232 E0.02687
G1 X127.302 Y96.419 E0.02688
G1 X128.188 Y96.708 E0.02921
G1 X128.973 Y97.053 E0.02689
G1 X129.734 Y97.481 E0.02736
G1 X130.449 Y97.981 E0.02736
G1 X131.111 Y98.549 E0.02736
G1 X131.715 Y99.179 E0.02736
G1 X132.254 Y99.866 E0.02736
G1 X132.723 Y100.602 E0.02736
G1 X133.118 Y101.380 E0.02736
G1 X133.435 Y102.193 E0.02736
G1 X133.670 Y103.033 E0.02736
G1 X133.822 Y103.893 E0.02736
G1 X133.889 Y104.763 E0.02736
G1 X133.871 Y105.635 E0.02736
G1 X133.767 Y106.502 E0.02736
G1 X133.578 Y107.354 E0.02736
G1 X133.307 Y108.183 E0.02736
G1 X132.956 Y108.982 E0.02736
G1 X132.528 Y109.743 E0.02736
G1 X132.028 Y110.458 E0.02736
G1 X131.460 Y111.121 E0.02736
G1 X130.830 Y111.724 E0.02736
G1 X130.144 Y112.264 E0.02736
G1 X129.408 Y112.733 E0.02736
G1 X128.629 Y113.128 E0.02738
G1 X127.790 Y113.450 E0.02820
G1 X126.940 Y113.691 E0.02767
G1 X126.096 Y113.841 E0.02689
G1 X125.282 Y113.905 E0.02561
G1 X125.031 Y114.259 F10800.000
G1 F8640
G1 X124.385 Y113.889 E-0.20700
G1 X123.535 Y113.786 E-0.19789
G1 X122.698 Y113.600 E-0.19798
G1 X122.051 Y113.389 E-0.15713
G1 E-0.04000 F2100.00000
G1 Z0.800 F10800.000
G1 X125.000 Y84.267
G1 Z0.200
G1 E0.80000 F2100.00000
G1 F1200
G1 X124.455 Y84.213 E0.01718
G1 X123.931 Y84.054 E0.01718
G1 X123.447 Y83.796 E0.01718
G1 X123.024 Y83.448 E0.01718
G1 X122.676 Y83.025 E0.01718
G1 X122.418 Y82.542 E0.01718
G1 X122.259 Y82.017 E0.01718
G1 X122.205 Y81.472 E0.01718
G1 X122.259 Y80.927 E0.01718
G1 X122.418 Y80.403 E0.01718
G1 X122.676 Y79.920 E0.01718
G1 X123.024 Y79.496 E0.01718
G1 X123.447 Y79.148 E0.01718
G1 X123.933 Y78.889 E0.01725
G1 X124.474 Y78.729 E0.01770
G1 X125.000 Y78.678 E0.01657
G1 X125.545 Y78.731 E0.01718
G1 X126.069 Y78.890 E0.01718
G1 X126.553 Y79.148 E0.01718
G1 X126.976 Y79.496 E0.01718
G1 X127.324 Y79.920 E0.01718
G1 X127.582 Y80.403 E0.01718
G1 X127.741 Y80.927 E0.01718
G1 X127.795 Y81.472 E0.01718
G1 X127.741 Y82.017 E0.01718
G1 X127.582 Y82.542 E0.01718
G1 X127.324 Y83.025 E0.01718
G1 X126.976 Y83.448 E0.01718
G1 X126.553 Y83.796 E0.01718
G1 X126.069 Y84.054 E0.01718
G1 X125.545 Y84.213 E0.01718
G1 X125.060 Y84.261 E0.01530
G1 X125.023 Y83.886 F10800.000
G1 F1200
G1 X124.529 Y83.841 E0.01555
G1 X124.076 Y83.704 E0.01485
G1 X123.658 Y83.481 E0.01485
G1 X123.292 Y83.180 E0.01485
G1 X122.991 Y82.814 E0.01485
G1 X122.768 Y82.397 E0.01485
G1 X122.631 Y81.943 E0.01485
G1 X122.584 Y81.472 E0.01485
G1 X122.631 Y81.001 E0.01485
G1 X122.768 Y80.548 E0.01485
G1 X122.991 Y80.130 E0.01485
G1 X123.292 Y79.764 E0.01485
G1 X123.658 Y79.464 E0.01485
G1 X124.076 Y79.240 E0.01487
G1 X124.547 Y79.101 E0.01538
G1 X125.000 Y79.056 E0.01429
G1 X125.471 Y79.103 E0.01485
G1 X125.924 Y79.240 E0.01485
G1 X126.342 Y79.464 E0.01485
G1 X126.708 Y79.764 E0.01485
G1 X127.009 Y80.130 E0.01485
G1 X127.232 Y80.548 E0.01485
G1 X127.369 Y81.001 E0.01485
G1 X127.416 Y81.472 E0.01485
G1 X127.369 Y81.943 E0.01485
G1 X127.232 Y82.397 E0.01485
G1 X127.009 Y82.814 E0.01485
G1 X126.708 Y83.180 E0.01485
G1 X126.342 Y83.481 E0.01485
G1 X125.924 Y83.704 E0.01485
G1 X125.471 Y83.841 E0.01485
G1 X125.082 Y83.880 E0.01225
G1 X124.825 Y84.233 F10800.000
G1 F8640
G1 X124.529 Y83.841 E-0.12817
G1 X124.076 Y83.704 E-0.10935
G1 X123.658 Y83.481 E-0.10935
G1 X123.292 Y83.180 E-0.10935
G1 X122.991 Y82.814 E-0.10935
G1 X122.768 Y82.397 E-0.10935
G1 X122.661 Y82.044 E-0.08511
G1 E-0.04000 F2100.00000
G1 Z0.800 F10800.000
G1 X130.041 Y90.678
G1 Z0.200
G1 E0.80000 F2100.00000
G1 F1200
G1 X131.106 Y91.116 E0.03610
G1 X131.780 Y91.432 E0.02336
G1 X132.438 Y91.781 E0.02336
G1 X133.078 Y92.162 E0.02336
G1 X133.699 Y92.574 E0.02336
G1 X134.299 Y93.016 E0.02336
G1 X134.876 Y93.486 E0.02336
G1 X135.430 Y93.985 E0.02336
G1 X135.937 Y94.489 E0.02242
G1 X136.460 Y95.061 E0.02431
G1 X136.934 Y95.635 E0.02334
G1 X137.380 Y96.231 E0.02336
G1 X137.796 Y96.849 E0.02336
G1 X138.181 Y97.487 E0.02336
G1 X138.520 Y98.117 E0.02242
G1 X138.855 Y98.816 E0.02431
G1 X139.142 Y99.503 E0.02334
G1 X139.385 Y100.175 E0.02242
G1 X139.614 Y100.916 E0.02431
G1 X139.797 Y101.637 E0.02334
G1 X139.944 Y102.367 E0.02336
G1 X140.056 Y103.104 E0.02336
G1 X140.131 Y103.845 E0.02336
G1 X140.170 Y104.589 E0.02336
G1 X140.173 Y105.334 E0.02336
G1 X140.138 Y106.078 E0.02336
G1 X140.068 Y106.819 E0.02336
G1 X139.961 Y107.556 E0.02336
G1 X139.818 Y108.287 E0.02336
G1 X139.639 Y109.010 E0.02336
G1 X139.425 Y109.724 E0.02336
G1 X139.176 Y110.426 E0.02336
G1 X138.905 Y111.087 E0.02242
G1 X138.577 Y111.790 E0.02431
G1 X138.228 Y112.448 E0.02334
G1 X137.863 Y113.062 E0.02242
G1 X137.435 Y113.709 E0.02431
G1 X136.994 Y114.308 E0.02334
G1 X136.523 Y114.885 E0.02336
G1 X136.024 Y115.439 E0.02336
G1 X135.499 Y115.967 E0.02336
G1 X134.949 Y116.469 E0.02336
G1 X134.375 Y116.944 E0.02336
G1 X133.778 Y117.389 E0.02336
G1 X133.160 Y117.805 E0.02336
G1 X132.522 Y118.190 E0.02336
G1 X131.866 Y118.543 E0.02336
G1 X131.194 Y118.864 E0.02336
G1 X130.135 Y119.307 E0.03600
G1 X130.130 Y128.398 E0.28504
G1 X130.105 Y128.911 E0.01611
G1 X130.031 Y129.405 E0.01566
G1 X129.910 Y129.889 E0.01566
G1 X129.742 Y130.359 E0.01566
G1 X129.528 Y130.811 E0.01566
G1 X129.271 Y131.239 E0.01566
G1 X128.974 Y131.640 E0.01566
G1 X128.639 Y132.010 E0.01566
G1 X128.269 Y132.346 E0.01566
G1 X127.867 Y132.643 E0.01566
G1 X127.439 Y132.900 E0.01566
G1 X126.988 Y133.113 E0.01566
G1 X126.517 Y133.282 E0.01566
G1 X126.033 Y133.403 E0.01566
G1 X125.560 Y133.473 E0.01500
G1 X125.039 Y133.501 E0.01635
G1 X124.541 Y133.476 E0.01562
G1 X124.047 Y133.403 E0.01566
G1 X123.563 Y133.282 E0.01566
G1 X123.093 Y133.113 E0.01566
G1 X122.641 Y132.900 E0.01566
G1 X122.231 Y132.654 E0.01500
G1 X121.811 Y132.345 E0.01635
G1 X121.442 Y132.010 E0.01562
G1 X121.106 Y131.640 E0.01566
G1 X120.809 Y131.239 E0.01566
G1 X120.552 Y130.811 E0.01566
G1 X120.339 Y130.359 E0.01566
G1 X120.170 Y129.889 E0.01566
G1 X120.049 Y129.405 E0.01566
G1 X119.976 Y128.911 E0.01566
G1 X119.951 Y128.398 E0.01610
G1 X119.959 Y119.341 E0.28397
G1 X118.894 Y118.903 E0.03611
G1 X118.220 Y118.587 E0.02336
G1 X117.562 Y118.238 E0.02336
G1 X116.922 Y117.857 E0.02336
G1 X116.301 Y117.445 E0.02336
G1 X115.701 Y117.003 E0.02336
G1 X115.124 Y116.532 E0.02336
G1 X114.570 Y116.034 E0.02336
G1 X114.042 Y115.509 E0.02336
G1 X113.540 Y114.958 E0.02336
G1 X113.066 Y114.384 E0.02336
G1 X112.620 Y113.787 E0.02336
G1 X112.204 Y113.169 E0.02336
G1 X111.819 Y112.532 E0.02336
G1 X111.466 Y111.876 E0.02336
G1 X111.145 Y111.203 E0.02336
G1 X110.858 Y110.516 E0.02336
G1 X110.605 Y109.816 E0.02336
G1 X110.387 Y109.103 E0.02336
G1 X110.203 Y108.381 E0.02336
G1 X110.062 Y107.681 E0.02242
G1 X109.944 Y106.914 E0.02431
G1 X109.869 Y106.174 E0.02334
G1 X109.831 Y105.460 E0.02242
G1 X109.827 Y104.685 E0.02431
G1 X109.862 Y103.941 E0.02334
G1 X109.932 Y103.199 E0.02336
G1 X110.039 Y102.462 E0.02336
G1 X110.182 Y101.731 E0.02336
G1 X110.361 Y101.008 E0.02336
G1 X110.575 Y100.295 E0.02336
G1 X110.824 Y99.593 E0.02336
G1 X111.106 Y98.903 E0.02336
G1 X111.423 Y98.229 E0.02336
G1 X111.772 Y97.571 E0.02336
G1 X112.153 Y96.931 E0.02336
G1 X112.565 Y96.310 E0.02336
G1 X113.006 Y95.711 E0.02336
G1 X113.477 Y95.133 E0.02336
G1 X113.976 Y94.580 E0.02336
G1 X114.501 Y94.051 E0.02336
G1 X115.051 Y93.549 E0.02336
G1 X115.625 Y93.075 E0.02336
G1 X116.222 Y92.629 E0.02336
G1 X116.840 Y92.214 E0.02336
G1 X117.478 Y91.829 E0.02336
G1 X118.134 Y91.475 E0.02336
G1 X118.809 Y91.153 E0.02345
G1 X119.866 Y90.699 E0.03607
G1 X119.866 Y81.602 E0.28521
G1 X119.891 Y81.089 E0.01611
G1 X119.964 Y80.595 E0.01566
G1 X120.085 Y80.111 E0.01566
