; generated by PrusaSlicer 2.2.0+win64 on 2020-11-03 at 17:57:18 UTC

; 

; external perimeters extrusion width = 0.60mm
; perimeters extrusion width = 0.43mm
; infill extrusion width = 0.45mm
; solid infill extrusion width = 0.70mm
; top infill extrusion width = 0.43mm
; support material extrusion width = 0.37mm
; first layer extrusion width = 0.42mm

M73 P0 R46
M201 X9000 Y9000 Z500 E10000 ; sets maximum accelerations, mm/sec^2
M203 X500 Y500 Z12 E120 ; sets maximum feedrates, mm/sec
M204 P2000 R1500 T2000 ; sets acceleration (P, T) and retract acceleration (R), mm/sec^2
M205 X10.00 Y10.00 Z0.20 E2.50 ; sets the jerk limits, mm/sec
M205 S0 T0 ; sets the minimum extruding and travel feed rate, mm/sec
M107
M862.3 P "MK2.5SMMU2S" ; printer model check
M862.1 P0.4 ; nozzle diameter check
M115 U3.8.0 ; tell printer latest fw version
G90 ; use absolute coordinates
M83 ; extruder relative mode
M104 S215 ; set extruder temp
M140 S60 ; set bed temp
Tx
M190 S60 ; wait for bed temp
M109 S215 ; wait for extruder temp
G28 W ; home all without mesh bed level
G80 ; mesh bed leveling

G21 ; set units to millimeters

;go outside print area
G1 Y-3.0 F1000.0
G1 Z0.4 F1000.0
; select extruder
Tc
; purge line
G1 X55.0 F2000.0
G1 Z0.3 F1000.0
G92 E0.0
G1 X240.0 E25.0 F2200.0
M73 P0 R46
G1 Y-2.0 F1000.0
G1 X55.0 E25 F1400.0
G1 Z0.20 F1000.0
G1 X5.0 E4.0 F1000.0
G92 E0.0
G21 ; set units to millimeters
G90 ; use absolute coordinates
M83 ; use relative distances for extrusion
M900 K0.06 ; Filament gcode LA 1.5
M900 K30 ; Filament gcode LA 1.0
;BEFORE_LAYER_CHANGE
G92 E0.0
;0.2


G1 E-0.80000 F2100.00000
G1 Z0.600 F10800.000
;AFTER_LAYER_CHANGE
;0.2
G1 X59.394 Y64.012
G1 Z0.200
G1 E0.80000 F2100.00000
M204 S1000
G1 F1200.000
G1 X60.004 Y63.909 E0.01941
G1 X133.323 Y61.537 E2.30005
G1 X189.913 Y61.537 E1.77435
G1 X190.719 Y61.679 E0.02567
G1 X191.427 Y62.084 E0.02555
G1 X191.955 Y62.704 E0.02555
G1 X192.245 Y63.470 E0.02567
G1 X197.374 Y100.637 E1.17640
G1 X197.379 Y143.772 E1.35247
G1 X197.293 Y144.351 E0.01835
G1 X197.069 Y144.891 E0.01835
G1 X196.719 Y145.360 E0.01835
G1 X196.265 Y145.729 E0.01835
G1 X195.702 Y145.987 E0.01941
G1 X195.092 Y146.090 E0.01941
G1 X121.749 Y148.463 E2.30082
G1 X54.959 Y148.463 E2.09415
G1 X54.376 Y148.381 E0.01846
G1 X53.831 Y148.157 E0.01846
G1 X53.355 Y147.805 E0.01858
G1 X52.983 Y147.348 E0.01846
G1 X52.715 Y146.752 E0.02048
G1 X52.620 Y146.106 E0.02048
G1 X52.626 Y103.018 E1.35101
G1 X57.743 Y65.910 E1.17449
G1 X57.875 Y65.422 E0.01585
G1 X58.108 Y64.973 E0.01585
G1 X58.430 Y64.583 E0.01585
G1 X58.827 Y64.271 E0.01585
G1 X59.339 Y64.036 E0.01765
G1 E-0.80000 F2100.00000
G1 Z0.800 F10800.000
G1 X60.777 Y67.071
G1 Z0.200
G1 E0.80000 F2100.00000
G1 F1200.000
G1 X79.137 Y67.071 E0.57568
G1 X84.013 Y102.398 E1.11815
G1 X55.900 Y102.398 E0.88147
G1 X60.768 Y67.131 E1.11627
G1 X60.448 Y66.694 F10800.000
G1 F1200.000
G1 X79.466 Y66.694 E0.59628
G1 X84.446 Y102.775 E1.14202
G1 X55.467 Y102.775 E0.90861
G1 X60.440 Y66.754 E1.14014
G1 X60.827 Y66.823 F10800.000
G1 E-0.80000 F2100.00000
G1 Z0.800 F10800.000
G1 X56.122 Y101.617
G1 Z0.200
G1 E0.80000 F2100.00000
G1 F1200.000
G1 X56.620 Y102.115 E0.02212
G1 X57.154 Y102.115 E0.01675
G1 X56.337 Y101.298 E0.03626
G1 X56.402 Y100.829 E0.01486
G1 X57.688 Y102.115 E0.05708
G1 X58.222 Y102.115 E0.01675
G1 X56.467 Y100.360 E0.07790
G1 X56.532 Y99.891 E0.01486
G1 X58.756 Y102.115 E0.09872
G1 X59.289 Y102.115 E0.01675
G1 X56.596 Y99.422 E0.11954
G1 X56.661 Y98.953 E0.01486
G1 X59.823 Y102.115 E0.14036
G1 X60.357 Y102.115 E0.01675
G1 X56.726 Y98.484 E0.16118
G1 X56.791 Y98.015 E0.01486
G1 X60.891 Y102.115 E0.18199
G1 X61.425 Y102.115 E0.01675
G1 X56.855 Y97.546 E0.20281
G1 X56.920 Y97.077 E0.01486
G1 X61.959 Y102.115 E0.22363
G1 X62.492 Y102.115 E0.01675
G1 X56.985 Y96.608 E0.24445
G1 X57.050 Y96.139 E0.01486
G1 X63.026 Y102.115 E0.26527
G1 X63.560 Y102.115 E0.01675
G1 X57.114 Y95.670 E0.28609
G1 X57.179 Y95.201 E0.01486
G1 X64.094 Y102.115 E0.30691
G1 X64.628 Y102.115 E0.01675
G1 X57.244 Y94.732 E0.32773
G1 X57.309 Y94.262 E0.01486
G1 X65.161 Y102.115 E0.34855
G1 X65.695 Y102.115 E0.01675
G1 X57.373 Y93.793 E0.36937
G1 X57.438 Y93.324 E0.01486
G1 X66.229 Y102.115 E0.39019
G1 X66.763 Y102.115 E0.01675
G1 X57.503 Y92.855 E0.41101
G1 X57.568 Y92.386 E0.01486
G1 X67.297 Y102.115 E0.43183
G1 X67.830 Y102.115 E0.01675
G1 X57.632 Y91.917 E0.45265
G1 X57.697 Y91.448 E0.01486
G1 X68.364 Y102.115 E0.47347
G1 X68.898 Y102.115 E0.01675
G1 X57.762 Y90.979 E0.49429
G1 X57.827 Y90.510 E0.01486
G1 X69.432 Y102.115 E0.51511
G1 X69.966 Y102.115 E0.01675
G1 X57.891 Y90.041 E0.53593
G1 X57.956 Y89.572 E0.01486
G1 X70.499 Y102.115 E0.55675
M73 P2 R45
G1 X71.033 Y102.115 E0.01675
G1 X58.021 Y89.103 E0.57757
G1 X58.086 Y88.634 E0.01486
G1 X71.567 Y102.115 E0.59839
G1 X72.101 Y102.115 E0.01675
G1 X58.150 Y88.165 E0.61921
G1 X58.215 Y87.696 E0.01486
G1 X72.635 Y102.115 E0.64003
G1 X73.168 Y102.115 E0.01675
G1 X58.280 Y87.227 E0.66085
G1 X58.345 Y86.758 E0.01486
G1 X73.702 Y102.115 E0.68166
G1 X74.236 Y102.115 E0.01675
G1 X58.409 Y86.289 E0.70248
G1 X58.474 Y85.819 E0.01486
G1 X74.770 Y102.115 E0.72330
G1 X75.304 Y102.115 E0.01675
G1 X58.539 Y85.350 E0.74412
G1 X58.604 Y84.881 E0.01486
G1 X75.837 Y102.115 E0.76494
G1 X76.371 Y102.115 E0.01675
G1 X58.668 Y84.412 E0.78576
G1 X58.733 Y83.943 E0.01486
G1 X76.905 Y102.115 E0.80658
G1 X77.439 Y102.115 E0.01675
G1 X58.798 Y83.474 E0.82740
G1 X58.863 Y83.005 E0.01486
G1 X77.973 Y102.115 E0.84822
G1 X78.506 Y102.115 E0.01675
G1 X58.927 Y82.536 E0.86904
G1 X58.992 Y82.067 E0.01486
G1 X79.040 Y102.115 E0.88986
G1 X79.574 Y102.115 E0.01675
G1 X59.057 Y81.598 E0.91068
G1 X59.122 Y81.129 E0.01486
G1 X80.108 Y102.115 E0.93150
G1 X80.642 Y102.115 E0.01675
G1 X59.186 Y80.660 E0.95232
G1 X59.251 Y80.191 E0.01486
G1 X81.175 Y102.115 E0.97314
G1 X81.709 Y102.115 E0.01675
G1 X59.316 Y79.722 E0.99396
G1 X59.381 Y79.253 E0.01486
G1 X82.243 Y102.115 E1.01478
G1 X82.777 Y102.115 E0.01675
G1 X59.445 Y78.784 E1.03560
G1 X59.510 Y78.315 E0.01486
G1 X83.311 Y102.115 E1.05642
G1 X83.689 Y102.115 E0.01187
G1 X83.664 Y101.935 E0.00572
G1 X59.575 Y77.845 E1.06922
G1 X59.640 Y77.376 E0.01486
G1 X83.579 Y101.315 E1.06256
G1 X83.493 Y100.696 E0.01962
G1 X59.704 Y76.907 E1.05589
G1 X59.769 Y76.438 E0.01486
G1 X83.408 Y100.077 E1.04922
G1 X83.322 Y99.458 E0.01962
G1 X59.834 Y75.969 E1.04255
G1 X59.899 Y75.500 E0.01486
G1 X83.237 Y98.838 E1.03588
G1 X83.151 Y98.219 E0.01962
G1 X59.963 Y75.031 E1.02921
G1 X60.028 Y74.562 E0.01486
G1 X83.066 Y97.600 E1.02255
G1 X82.980 Y96.980 E0.01962
G1 X60.093 Y74.093 E1.01588
G1 X60.158 Y73.624 E0.01486
G1 X82.895 Y96.361 E1.00921
G1 X82.809 Y95.742 E0.01962
G1 X60.222 Y73.155 E1.00254
G1 X60.287 Y72.686 E0.01486
G1 X82.724 Y95.122 E0.99587
G1 X82.638 Y94.503 E0.01962
G1 X60.352 Y72.217 E0.98921
G1 X60.417 Y71.748 E0.01486
G1 X82.553 Y93.884 E0.98254
G1 X82.467 Y93.265 E0.01962
G1 X60.481 Y71.279 E0.97587
G1 X60.546 Y70.810 E0.01486
G1 X82.382 Y92.645 E0.96920
G1 X82.296 Y92.026 E0.01962
G1 X60.611 Y70.341 E0.96253
M73 P4 R44
G1 X60.675 Y69.872 E0.01486
G1 X82.211 Y91.407 E0.95586
G1 X82.125 Y90.787 E0.01962
G1 X60.740 Y69.402 E0.94920
G1 X60.805 Y68.933 E0.01486
G1 X82.040 Y90.168 E0.94253
G1 X81.954 Y89.549 E0.01962
G1 X60.870 Y68.464 E0.93586
G1 X60.934 Y67.995 E0.01486
G1 X81.869 Y88.930 E0.92919
G1 X81.783 Y88.310 E0.01962
G1 X60.999 Y67.526 E0.92252
G1 X61.023 Y67.354 E0.00546
G1 X61.361 Y67.354 E0.01060
G1 X81.698 Y87.691 E0.90268
G1 X81.612 Y87.072 E0.01962
G1 X61.895 Y67.354 E0.87519
G1 X62.428 Y67.354 E0.01675
G1 X81.527 Y86.452 E0.84770
G1 X81.441 Y85.833 E0.01962
G1 X62.962 Y67.354 E0.82021
G1 X63.496 Y67.354 E0.01675
G1 X81.356 Y85.214 E0.79273
G1 X81.270 Y84.595 E0.01962
G1 X64.030 Y67.354 E0.76524
G1 X64.564 Y67.354 E0.01675
G1 X81.185 Y83.975 E0.73775
G1 X81.099 Y83.356 E0.01962
G1 X65.097 Y67.354 E0.71026
G1 X65.631 Y67.354 E0.01675
G1 X81.014 Y82.737 E0.68277
G1 X80.928 Y82.117 E0.01962
G1 X66.165 Y67.354 E0.65529
G1 X66.699 Y67.354 E0.01675
G1 X80.843 Y81.498 E0.62780
G1 X80.757 Y80.879 E0.01962
G1 X67.233 Y67.354 E0.60031
G1 X67.767 Y67.354 E0.01675
G1 X80.672 Y80.260 E0.57282
G1 X80.586 Y79.640 E0.01962
G1 X68.300 Y67.354 E0.54534
G1 X68.834 Y67.354 E0.01675
G1 X80.501 Y79.021 E0.51785
G1 X80.416 Y78.402 E0.01962
G1 X69.368 Y67.354 E0.49036
G1 X69.902 Y67.354 E0.01675
G1 X80.330 Y77.782 E0.46287
G1 X80.245 Y77.163 E0.01962
G1 X70.436 Y67.354 E0.43538
G1 X70.969 Y67.354 E0.01675
G1 X80.159 Y76.544 E0.40790
G1 X80.074 Y75.924 E0.01962
G1 X71.503 Y67.354 E0.38041
G1 X72.037 Y67.354 E0.01675
G1 X79.988 Y75.305 E0.35292
G1 X79.903 Y74.686 E0.01962
G1 X72.571 Y67.354 E0.32543
G1 X73.105 Y67.354 E0.01675
G1 X79.817 Y74.067 E0.29794
G1 X79.732 Y73.447 E0.01962
G1 X73.638 Y67.354 E0.27046
G1 X74.172 Y67.354 E0.01675
G1 X79.646 Y72.828 E0.24297
G1 X79.561 Y72.209 E0.01962
G1 X74.706 Y67.354 E0.21548
G1 X75.240 Y67.354 E0.01675
G1 X79.475 Y71.589 E0.18799
G1 X79.390 Y70.970 E0.01962
G1 X75.774 Y67.354 E0.16051
G1 X76.307 Y67.354 E0.01675
G1 X79.304 Y70.351 E0.13302
G1 X79.219 Y69.732 E0.01962
G1 X76.841 Y67.354 E0.10553
G1 X77.375 Y67.354 E0.01675
G1 X79.133 Y69.112 E0.07804
G1 X79.048 Y68.493 E0.01962
G1 X77.909 Y67.354 E0.05055
G1 X78.443 Y67.354 E0.01675
G1 X79.161 Y68.072 E0.03189
G1 E-0.80000 F2100.00000
G1 Z0.800 F10800.000
G1 X97.581 Y67.071
G1 Z0.200
G1 E0.80000 F2100.00000
G1 F1200.000
G1 X115.942 Y67.071 E0.57568
G1 X120.818 Y102.398 E1.11815
G1 X92.705 Y102.398 E0.88147
G1 X97.573 Y67.131 E1.11627
G1 X97.253 Y66.694 F10800.000
G1 F1200.000
G1 X116.270 Y66.694 E0.59628
G1 X121.251 Y102.775 E1.14202
G1 X92.272 Y102.775 E0.90861
G1 X97.245 Y66.754 E1.14014
G1 X97.631 Y66.823 F10800.000
G1 E-0.80000 F2100.00000
G1 Z0.800 F10800.000
G1 X92.927 Y101.617
G1 Z0.200
G1 E0.80000 F2100.00000
G1 F1200.000
G1 X93.425 Y102.115 E0.02212
G1 X93.959 Y102.115 E0.01675
G1 X93.142 Y101.298 E0.03626
G1 X93.207 Y100.829 E0.01486
G1 X94.493 Y102.115 E0.05708
G1 X95.027 Y102.115 E0.01675
G1 X93.272 Y100.360 E0.07790
G1 X93.336 Y99.891 E0.01486
G1 X95.560 Y102.115 E0.09872
G1 X96.094 Y102.115 E0.01675
G1 X93.401 Y99.422 E0.11954
G1 X93.466 Y98.953 E0.01486
G1 X96.628 Y102.115 E0.14036
G1 X97.162 Y102.115 E0.01675
G1 X93.531 Y98.484 E0.16118
G1 X93.595 Y98.015 E0.01486
G1 X97.696 Y102.115 E0.18199
G1 X98.230 Y102.115 E0.01675
G1 X93.660 Y97.546 E0.20281
G1 X93.725 Y97.077 E0.01486
G1 X98.763 Y102.115 E0.22363
G1 X99.297 Y102.115 E0.01675
G1 X93.790 Y96.608 E0.24445
G1 X93.854 Y96.139 E0.01486
G1 X99.831 Y102.115 E0.26527
G1 X100.365 Y102.115 E0.01675
G1 X93.919 Y95.670 E0.28609
G1 X93.984 Y95.201 E0.01486
G1 X100.899 Y102.115 E0.30691
G1 X101.432 Y102.115 E0.01675
G1 X94.049 Y94.732 E0.32773
G1 X94.113 Y94.262 E0.01486
G1 X101.966 Y102.115 E0.34855
G1 X102.500 Y102.115 E0.01675
G1 X94.178 Y93.793 E0.36937
G1 X94.243 Y93.324 E0.01486
G1 X103.034 Y102.115 E0.39019
G1 X103.568 Y102.115 E0.01675
G1 X94.308 Y92.855 E0.41101
G1 X94.372 Y92.386 E0.01486
G1 X104.101 Y102.115 E0.43183
G1 X104.635 Y102.115 E0.01675
G1 X94.437 Y91.917 E0.45265
G1 X94.502 Y91.448 E0.01486
G1 X105.169 Y102.115 E0.47347
G1 X105.703 Y102.115 E0.01675
G1 X94.567 Y90.979 E0.49429
G1 X94.631 Y90.510 E0.01486
G1 X106.237 Y102.115 E0.51511
G1 X106.770 Y102.115 E0.01675
G1 X94.696 Y90.041 E0.53593
M73 P6 R43
G1 X94.761 Y89.572 E0.01486
G1 X107.304 Y102.115 E0.55675
G1 X107.838 Y102.115 E0.01675
G1 X94.826 Y89.103 E0.57757
G1 X94.890 Y88.634 E0.01486
G1 X108.372 Y102.115 E0.59839
G1 X108.906 Y102.115 E0.01675
G1 X94.955 Y88.165 E0.61921
G1 X95.020 Y87.696 E0.01486
G1 X109.439 Y102.115 E0.64003
G1 X109.973 Y102.115 E0.01675
G1 X95.085 Y87.227 E0.66085
G1 X95.149 Y86.758 E0.01486
G1 X110.507 Y102.115 E0.68166
G1 X111.041 Y102.115 E0.01675
G1 X95.214 Y86.289 E0.70248
G1 X95.279 Y85.819 E0.01486
G1 X111.575 Y102.115 E0.72330
G1 X112.108 Y102.115 E0.01675
G1 X95.344 Y85.350 E0.74412
G1 X95.408 Y84.881 E0.01486
G1 X112.642 Y102.115 E0.76494
G1 X113.176 Y102.115 E0.01675
G1 X95.473 Y84.412 E0.78576
G1 X95.538 Y83.943 E0.01486
G1 X113.710 Y102.115 E0.80658
G1 X114.244 Y102.115 E0.01675
G1 X95.603 Y83.474 E0.82740
G1 X95.667 Y83.005 E0.01486
G1 X114.777 Y102.115 E0.84822
G1 X115.311 Y102.115 E0.01675
G1 X95.732 Y82.536 E0.86904
G1 X95.797 Y82.067 E0.01486
G1 X115.845 Y102.115 E0.88986
G1 X116.379 Y102.115 E0.01675
G1 X95.862 Y81.598 E0.91068
G1 X95.926 Y81.129 E0.01486
G1 X116.913 Y102.115 E0.93150
G1 X117.446 Y102.115 E0.01675
G1 X95.991 Y80.660 E0.95232
G1 X96.056 Y80.191 E0.01486
G1 X117.980 Y102.115 E0.97314
G1 X118.514 Y102.115 E0.01675
G1 X96.121 Y79.722 E0.99396
G1 X96.185 Y79.253 E0.01486
G1 X119.048 Y102.115 E1.01478
G1 X119.582 Y102.115 E0.01675
G1 X96.250 Y78.784 E1.03560
G1 X96.315 Y78.315 E0.01486
G1 X120.116 Y102.115 E1.05642
G1 X120.494 Y102.115 E0.01187
G1 X120.469 Y101.935 E0.00572
G1 X96.380 Y77.845 E1.06922
G1 X96.444 Y77.376 E0.01486
G1 X120.383 Y101.315 E1.06256
G1 X120.298 Y100.696 E0.01962
G1 X96.509 Y76.907 E1.05589
G1 X96.574 Y76.438 E0.01486
G1 X120.212 Y100.077 E1.04922
G1 X120.127 Y99.458 E0.01962
G1 X96.639 Y75.969 E1.04255
G1 X96.703 Y75.500 E0.01486
G1 X120.041 Y98.838 E1.03588
G1 X119.956 Y98.219 E0.01962
G1 X96.768 Y75.031 E1.02921
G1 X96.833 Y74.562 E0.01486
G1 X119.870 Y97.600 E1.02255
G1 X119.785 Y96.980 E0.01962
G1 X96.898 Y74.093 E1.01588
G1 X96.962 Y73.624 E0.01486
G1 X119.699 Y96.361 E1.00921
G1 X119.614 Y95.742 E0.01962
G1 X97.027 Y73.155 E1.00254
G1 X97.092 Y72.686 E0.01486
G1 X119.528 Y95.122 E0.99587
G1 X119.443 Y94.503 E0.01962
G1 X97.157 Y72.217 E0.98921
G1 X97.221 Y71.748 E0.01486
G1 X119.357 Y93.884 E0.98254
G1 X119.272 Y93.265 E0.01962
G1 X97.286 Y71.279 E0.97587
G1 X97.351 Y70.810 E0.01486
G1 X119.187 Y92.645 E0.96920
G1 X119.101 Y92.026 E0.01962
G1 X97.416 Y70.341 E0.96253
M73 P9 R42
G1 X97.480 Y69.872 E0.01486
G1 X119.016 Y91.407 E0.95586
G1 X118.930 Y90.787 E0.01962
G1 X97.545 Y69.402 E0.94920
G1 X97.610 Y68.933 E0.01486
G1 X118.845 Y90.168 E0.94253
G1 X118.759 Y89.549 E0.01962
G1 X97.675 Y68.464 E0.93586
G1 X97.739 Y67.995 E0.01486
G1 X118.674 Y88.930 E0.92919
G1 X118.588 Y88.310 E0.01962
G1 X97.804 Y67.526 E0.92252
G1 X97.828 Y67.354 E0.00546
G1 X98.166 Y67.354 E0.01060
G1 X118.503 Y87.691 E0.90268
G1 X118.417 Y87.072 E0.01962
G1 X98.699 Y67.354 E0.87519
G1 X99.233 Y67.354 E0.01675
G1 X118.332 Y86.452 E0.84770
G1 X118.246 Y85.833 E0.01962
G1 X99.767 Y67.354 E0.82021
G1 X100.301 Y67.354 E0.01675
G1 X118.161 Y85.214 E0.79273
G1 X118.075 Y84.595 E0.01962
G1 X100.835 Y67.354 E0.76524
G1 X101.368 Y67.354 E0.01675
G1 X117.990 Y83.975 E0.73775
G1 X117.904 Y83.356 E0.01962
G1 X101.902 Y67.354 E0.71026
G1 X102.436 Y67.354 E0.01675
G1 X117.819 Y82.737 E0.68277
G1 X117.733 Y82.117 E0.01962
G1 X102.970 Y67.354 E0.65529
G1 X103.504 Y67.354 E0.01675
G1 X117.648 Y81.498 E0.62780
G1 X117.562 Y80.879 E0.01962
G1 X104.038 Y67.354 E0.60031
G1 X104.571 Y67.354 E0.01675
G1 X117.477 Y80.260 E0.57282
G1 X117.391 Y79.640 E0.01962
G1 X105.105 Y67.354 E0.54534
G1 X105.639 Y67.354 E0.01675
G1 X117.306 Y79.021 E0.51785
G1 X117.220 Y78.402 E0.01962
G1 X106.173 Y67.354 E0.49036
G1 X106.707 Y67.354 E0.01675
G1 X117.135 Y77.782 E0.46287
G1 X117.049 Y77.163 E0.01962
G1 X107.240 Y67.354 E0.43538
G1 X107.774 Y67.354 E0.01675
G1 X116.964 Y76.544 E0.40790
G1 X116.878 Y75.924 E0.01962
G1 X108.308 Y67.354 E0.38041
G1 X108.842 Y67.354 E0.01675
G1 X116.793 Y75.305 E0.35292
G1 X116.707 Y74.686 E0.01962
G1 X109.376 Y67.354 E0.32543
G1 X109.909 Y67.354 E0.01675
G1 X116.622 Y74.067 E0.29794
G1 X116.536 Y73.447 E0.01962
G1 X110.443 Y67.354 E0.27046
G1 X110.977 Y67.354 E0.01675
G1 X116.451 Y72.828 E0.24297
G1 X116.365 Y72.209 E0.01962
G1 X111.511 Y67.354 E0.21548
G1 X112.045 Y67.354 E0.01675
G1 X116.280 Y71.589 E0.18799
G1 X116.195 Y70.970 E0.01962
G1 X112.578 Y67.354 E0.16051
G1 X113.112 Y67.354 E0.01675
G1 X116.109 Y70.351 E0.13302
G1 X116.024 Y69.732 E0.01962
G1 X113.646 Y67.354 E0.10553
G1 X114.180 Y67.354 E0.01675
G1 X115.938 Y69.112 E0.07804
G1 X115.853 Y68.493 E0.01962
G1 X114.714 Y67.354 E0.05055
G1 X115.247 Y67.354 E0.01675
G1 X115.966 Y68.072 E0.03189
