; generated by PrusaSlicer 2.2.0+win64 on 2020-11-03 at 17:57:31 UTC

; 

; external perimeters extrusion width = 0.60mm
; perimeters extrusion width = 0.43mm
; infill extrusion width = 0.45mm
; solid infill extrusion width = 0.70mm
; top infill extrusion width = 0.43mm
; support material extrusion width = 0.37mm
; first layer extrusion width = 0.42mm

M73 P0 R91
M201 X9000 Y9000 Z500 E10000 ; sets maximum accelerations, mm/sec^2
M203 X500 Y500 Z12 E120 ; sets maximum feedrates, mm/sec
M204 P2000 R1500 T2000 ; sets acceleration (P, T) and retract acceleration (R), mm/sec^2
M205 X10.00 Y10.00 Z0.20 E2.50 ; sets the jerk limits, mm/sec
M205 S0 T0 ; sets the minimum extruding and travel feed rate, mm/sec
M107
M862.3 P "MK2.5SMMU2S" ; printer model check
M862.1 P0.4 ; nozzle diameter check
M115 U3.8.0 ; tell printer latest fw version
G90 ; use absolute coordinates
M83 ; extruder relative mode
M104 S215 ; set extruder temp
M140 S60 ; set bed temp
Tx
M190 S60 ; wait for bed temp
M109 S215 ; wait for extruder temp
G28 W ; home all without mesh bed level
G80 ; mesh bed leveling

G21 ; set units to millimeters

;go outside print area
G1 Y-3.0 F1000.0
G1 Z0.4 F1000.0
; select extruder
Tc
; purge line
G1 X55.0 F2000.0
G1 Z0.3 F1000.0
G92 E0.0
G1 X240.0 E25.0 F2200.0
M73 P0 R90
G1 Y-2.0 F1000.0
G1 X55.0 E25 F1400.0
G1 Z0.20 F1000.0
G1 X5.0 E4.0 F1000.0
G92 E0.0
G21 ; set units to millimeters
G90 ; use absolute coordinates
M83 ; use relative distances for extrusion
M900 K0.06 ; Filament gcode LA 1.5
M900 K30 ; Filament gcode LA 1.0
;BEFORE_LAYER_CHANGE
G92 E0.0
;0.2


G1 E-0.80000 F2100.00000
G1 Z0.600 F10800.000
;AFTER_LAYER_CHANGE
;0.2
G1 X57.876 Y20.997
G1 Z0.200
G1 E0.80000 F2100.00000
M204 S1000
G1 F1200.000
G1 X58.250 Y20.514 E0.01917
G1 X58.732 Y20.143 E0.01906
G1 X59.296 Y19.907 E0.01917
G1 X59.898 Y19.821 E0.01906
G1 X190.180 Y19.825 E4.08491
G1 X190.915 Y19.976 E0.02355
G1 X191.570 Y20.352 E0.02367
G1 X192.071 Y20.912 E0.02355
G1 X192.374 Y21.603 E0.02367
G1 X197.543 Y59.033 E1.18472
G1 X197.544 Y187.809 E4.03769
G1 X197.460 Y188.426 E0.01953
G1 X197.217 Y189.004 E0.01965
G1 X196.842 Y189.487 E0.01917
G1 X196.353 Y189.861 E0.01929
G1 X195.789 Y190.095 E0.01917
G1 X195.179 Y190.178 E0.01929
G1 X54.830 Y190.179 E4.40054
G1 X54.209 Y190.095 E0.01965
G1 X53.631 Y189.852 E0.01965
G1 X53.148 Y189.477 E0.01917
G1 X52.776 Y188.992 E0.01917
G1 X52.541 Y188.428 E0.01917
G1 X52.457 Y187.822 E0.01917
G1 X52.457 Y59.038 E4.03791
G1 X57.574 Y21.862 E1.17663
G1 X57.856 Y21.054 E0.02684
G1 E-0.80000 F2100.00000
G1 Z0.800 F10800.000
G1 X60.613 Y22.985
G1 Z0.200
G1 E0.80000 F2100.00000
G1 F1200.000
G1 X78.973 Y22.985 E0.57568
G1 X83.850 Y58.312 E1.11815
G1 X55.736 Y58.312 E0.88147
G1 X60.605 Y23.045 E1.11627
G1 X60.284 Y22.608 F10800.000
G1 F1200.000
G1 X79.302 Y22.608 E0.59628
G1 X84.282 Y58.689 E1.14202
G1 X55.304 Y58.689 E0.90861
G1 X60.276 Y22.668 E1.14014
G1 X60.663 Y22.737 F10800.000
G1 E-0.80000 F2100.00000
G1 Z0.800 F10800.000
G1 X55.958 Y57.531
G1 Z0.200
G1 E0.80000 F2100.00000
G1 F1200.000
G1 X56.457 Y58.029 E0.02212
G1 X56.990 Y58.029 E0.01675
G1 X56.174 Y57.213 E0.03626
G1 X56.238 Y56.743 E0.01486
G1 X57.524 Y58.029 E0.05708
G1 X58.058 Y58.029 E0.01675
G1 X56.303 Y56.274 E0.07790
G1 X56.368 Y55.805 E0.01486
G1 X58.592 Y58.029 E0.09872
G1 X59.126 Y58.029 E0.01675
G1 X56.433 Y55.336 E0.11954
G1 X56.497 Y54.867 E0.01486
G1 X59.659 Y58.029 E0.14036
G1 X60.193 Y58.029 E0.01675
G1 X56.562 Y54.398 E0.16118
G1 X56.627 Y53.929 E0.01486
G1 X60.727 Y58.029 E0.18199
G1 X61.261 Y58.029 E0.01675
G1 X56.692 Y53.460 E0.20281
G1 X56.756 Y52.991 E0.01486
G1 X61.795 Y58.029 E0.22363
G1 X62.329 Y58.029 E0.01675
G1 X56.821 Y52.522 E0.24445
G1 X56.886 Y52.053 E0.01486
G1 X62.862 Y58.029 E0.26527
G1 X63.396 Y58.029 E0.01675
G1 X56.951 Y51.584 E0.28609
G1 X57.015 Y51.115 E0.01486
G1 X63.930 Y58.029 E0.30691
G1 X64.464 Y58.029 E0.01675
G1 X57.080 Y50.646 E0.32773
M73 P1 R89
G1 X57.145 Y50.177 E0.01486
G1 X64.998 Y58.029 E0.34855
G1 X65.531 Y58.029 E0.01675
G1 X57.210 Y49.708 E0.36937
G1 X57.274 Y49.239 E0.01486
G1 X66.065 Y58.029 E0.39019
G1 X66.599 Y58.029 E0.01675
G1 X57.339 Y48.770 E0.41101
G1 X57.404 Y48.300 E0.01486
G1 X67.133 Y58.029 E0.43183
G1 X67.667 Y58.029 E0.01675
G1 X57.469 Y47.831 E0.45265
G1 X57.533 Y47.362 E0.01486
G1 X68.200 Y58.029 E0.47347
G1 X68.734 Y58.029 E0.01675
G1 X57.598 Y46.893 E0.49429
G1 X57.663 Y46.424 E0.01486
G1 X69.268 Y58.029 E0.51511
G1 X69.802 Y58.029 E0.01675
G1 X57.728 Y45.955 E0.53593
G1 X57.792 Y45.486 E0.01486
G1 X70.336 Y58.029 E0.55675
G1 X70.869 Y58.029 E0.01675
G1 X57.857 Y45.017 E0.57757
G1 X57.922 Y44.548 E0.01486
G1 X71.403 Y58.029 E0.59839
G1 X71.937 Y58.029 E0.01675
G1 X57.987 Y44.079 E0.61921
G1 X58.051 Y43.610 E0.01486
G1 X72.471 Y58.029 E0.64003
G1 X73.005 Y58.029 E0.01675
G1 X58.116 Y43.141 E0.66085
G1 X58.181 Y42.672 E0.01486
G1 X73.538 Y58.029 E0.68166
G1 X74.072 Y58.029 E0.01675
G1 X58.246 Y42.203 E0.70248
G1 X58.310 Y41.734 E0.01486
G1 X74.606 Y58.029 E0.72330
G1 X75.140 Y58.029 E0.01675
G1 X58.375 Y41.265 E0.74412
G1 X58.440 Y40.796 E0.01486
G1 X75.674 Y58.029 E0.76494
G1 X76.207 Y58.029 E0.01675
G1 X58.505 Y40.326 E0.78576
G1 X58.569 Y39.857 E0.01486
G1 X76.741 Y58.029 E0.80658
G1 X77.275 Y58.029 E0.01675
G1 X58.634 Y39.388 E0.82740
G1 X58.699 Y38.919 E0.01486
G1 X77.809 Y58.029 E0.84822
G1 X78.343 Y58.029 E0.01675
G1 X58.764 Y38.450 E0.86904
G1 X58.828 Y37.981 E0.01486
G1 X78.876 Y58.029 E0.88986
G1 X79.410 Y58.029 E0.01675
G1 X58.893 Y37.512 E0.91068
G1 X58.958 Y37.043 E0.01486
G1 X79.944 Y58.029 E0.93150
G1 X80.478 Y58.029 E0.01675
G1 X59.022 Y36.574 E0.95232
G1 X59.087 Y36.105 E0.01486
G1 X81.012 Y58.029 E0.97314
G1 X81.545 Y58.029 E0.01675
G1 X59.152 Y35.636 E0.99396
G1 X59.217 Y35.167 E0.01486
G1 X82.079 Y58.029 E1.01478
G1 X82.613 Y58.029 E0.01675
G1 X59.281 Y34.698 E1.03560
G1 X59.346 Y34.229 E0.01486
G1 X83.147 Y58.029 E1.05642
G1 X83.525 Y58.029 E0.01187
G1 X83.500 Y57.849 E0.00572
G1 X59.411 Y33.760 E1.06922
G1 X59.476 Y33.291 E0.01486
G1 X83.415 Y57.230 E1.06256
G1 X83.329 Y56.610 E0.01962
G1 X59.540 Y32.822 E1.05589
G1 X59.605 Y32.353 E0.01486
G1 X83.244 Y55.991 E1.04922
G1 X83.158 Y55.372 E0.01962
G1 X59.670 Y31.883 E1.04255
G1 X59.735 Y31.414 E0.01486
G1 X83.073 Y54.752 E1.03588
G1 X82.987 Y54.133 E0.01962
G1 X59.799 Y30.945 E1.02921
G1 X59.864 Y30.476 E0.01486
G1 X82.902 Y53.514 E1.02255
G1 X82.816 Y52.895 E0.01962
G1 X59.929 Y30.007 E1.01588
G1 X59.994 Y29.538 E0.01486
G1 X82.731 Y52.275 E1.00921
G1 X82.645 Y51.656 E0.01962
G1 X60.058 Y29.069 E1.00254
G1 X60.123 Y28.600 E0.01486
G1 X82.560 Y51.037 E0.99587
M73 P2 R88
G1 X82.474 Y50.417 E0.01962
G1 X60.188 Y28.131 E0.98921
G1 X60.253 Y27.662 E0.01486
G1 X82.389 Y49.798 E0.98254
G1 X82.303 Y49.179 E0.01962
G1 X60.317 Y27.193 E0.97587
G1 X60.382 Y26.724 E0.01486
G1 X82.218 Y48.560 E0.96920
G1 X82.132 Y47.940 E0.01962
G1 X60.447 Y26.255 E0.96253
G1 X60.512 Y25.786 E0.01486
G1 X82.047 Y47.321 E0.95586
G1 X81.961 Y46.702 E0.01962
G1 X60.576 Y25.317 E0.94920
G1 X60.641 Y24.848 E0.01486
G1 X81.876 Y46.082 E0.94253
G1 X81.790 Y45.463 E0.01962
G1 X60.706 Y24.379 E0.93586
G1 X60.771 Y23.909 E0.01486
G1 X81.705 Y44.844 E0.92919
G1 X81.619 Y44.225 E0.01962
G1 X60.835 Y23.440 E0.92252
G1 X60.859 Y23.268 E0.00546
G1 X61.197 Y23.268 E0.01060
G1 X81.534 Y43.605 E0.90268
G1 X81.449 Y42.986 E0.01962
G1 X61.731 Y23.268 E0.87519
G1 X62.265 Y23.268 E0.01675
G1 X81.363 Y42.367 E0.84770
G1 X81.278 Y41.747 E0.01962
G1 X62.798 Y23.268 E0.82021
G1 X63.332 Y23.268 E0.01675
G1 X81.192 Y41.128 E0.79273
G1 X81.107 Y40.509 E0.01962
G1 X63.866 Y23.268 E0.76524
G1 X64.400 Y23.268 E0.01675
G1 X81.021 Y39.889 E0.73775
G1 X80.936 Y39.270 E0.01962
G1 X64.934 Y23.268 E0.71026
G1 X65.467 Y23.268 E0.01675
G1 X80.850 Y38.651 E0.68277
G1 X80.765 Y38.032 E0.01962
G1 X66.001 Y23.268 E0.65529
G1 X66.535 Y23.268 E0.01675
G1 X80.679 Y37.412 E0.62780
G1 X80.594 Y36.793 E0.01962
G1 X67.069 Y23.268 E0.60031
G1 X67.603 Y23.268 E0.01675
G1 X80.508 Y36.174 E0.57282
G1 X80.423 Y35.554 E0.01962
G1 X68.137 Y23.268 E0.54534
G1 X68.670 Y23.268 E0.01675
G1 X80.337 Y34.935 E0.51785
G1 X80.252 Y34.316 E0.01962
G1 X69.204 Y23.268 E0.49036
G1 X69.738 Y23.268 E0.01675
G1 X80.166 Y33.697 E0.46287
G1 X80.081 Y33.077 E0.01962
G1 X70.272 Y23.268 E0.43538
G1 X70.806 Y23.268 E0.01675
G1 X79.995 Y32.458 E0.40790
G1 X79.910 Y31.839 E0.01962
G1 X71.339 Y23.268 E0.38041
G1 X71.873 Y23.268 E0.01675
G1 X79.824 Y31.219 E0.35292
G1 X79.739 Y30.600 E0.01962
G1 X72.407 Y23.268 E0.32543
G1 X72.941 Y23.268 E0.01675
G1 X79.653 Y29.981 E0.29794
G1 X79.568 Y29.362 E0.01962
G1 X73.475 Y23.268 E0.27046
G1 X74.008 Y23.268 E0.01675
G1 X79.482 Y28.742 E0.24297
G1 X79.397 Y28.123 E0.01962
G1 X74.542 Y23.268 E0.21548
G1 X75.076 Y23.268 E0.01675
G1 X79.311 Y27.504 E0.18799
G1 X79.226 Y26.884 E0.01962
G1 X75.610 Y23.268 E0.16051
G1 X76.144 Y23.268 E0.01675
G1 X79.140 Y26.265 E0.13302
G1 X79.055 Y25.646 E0.01962
G1 X76.677 Y23.268 E0.10553
G1 X77.211 Y23.268 E0.01675
G1 X78.969 Y25.026 E0.07804
G1 X78.884 Y24.407 E0.01962
G1 X77.745 Y23.268 E0.05055
G1 X78.279 Y23.268 E0.01675
G1 X78.997 Y23.987 E0.03189
G1 E-0.80000 F2100.00000
G1 Z0.800 F10800.000
G1 X97.418 Y22.985
G1 Z0.200
G1 E0.80000 F2100.00000
G1 F1200.000
G1 X115.778 Y22.985 E0.57568
G1 X120.654 Y58.312 E1.11815
G1 X92.541 Y58.312 E0.88147
G1 X97.409 Y23.045 E1.11627
G1 X97.089 Y22.608 F10800.000
G1 F1200.000
G1 X116.107 Y22.608 E0.59628
G1 X121.087 Y58.689 E1.14202
G1 X92.108 Y58.689 E0.90861
G1 X97.081 Y22.668 E1.14014
G1 X97.468 Y22.737 F10800.000
G1 E-0.80000 F2100.00000
G1 Z0.800 F10800.000
G1 X92.763 Y57.531
G1 Z0.200
G1 E0.80000 F2100.00000
G1 F1200.000
G1 X93.261 Y58.029 E0.02212
G1 X93.795 Y58.029 E0.01675
G1 X92.978 Y57.213 E0.03626
G1 X93.043 Y56.743 E0.01486
G1 X94.329 Y58.029 E0.05708
G1 X94.863 Y58.029 E0.01675
G1 X93.108 Y56.274 E0.07790
G1 X93.173 Y55.805 E0.01486
G1 X95.397 Y58.029 E0.09872
G1 X95.930 Y58.029 E0.01675
G1 X93.237 Y55.336 E0.11954
G1 X93.302 Y54.867 E0.01486
G1 X96.464 Y58.029 E0.14036
G1 X96.998 Y58.029 E0.01675
G1 X93.367 Y54.398 E0.16118
G1 X93.432 Y53.929 E0.01486
G1 X97.532 Y58.029 E0.18199
G1 X98.066 Y58.029 E0.01675
G1 X93.496 Y53.460 E0.20281
G1 X93.561 Y52.991 E0.01486
G1 X98.600 Y58.029 E0.22363
G1 X99.133 Y58.029 E0.01675
G1 X93.626 Y52.522 E0.24445
G1 X93.691 Y52.053 E0.01486
G1 X99.667 Y58.029 E0.26527
G1 X100.201 Y58.029 E0.01675
G1 X93.755 Y51.584 E0.28609
G1 X93.820 Y51.115 E0.01486
G1 X100.735 Y58.029 E0.30691
M73 P3 R87
G1 X101.269 Y58.029 E0.01675
G1 X93.885 Y50.646 E0.32773
G1 X93.950 Y50.177 E0.01486
G1 X101.802 Y58.029 E0.34855
G1 X102.336 Y58.029 E0.01675
G1 X94.014 Y49.708 E0.36937
G1 X94.079 Y49.239 E0.01486
G1 X102.870 Y58.029 E0.39019
G1 X103.404 Y58.029 E0.01675
G1 X94.144 Y48.770 E0.41101
G1 X94.209 Y48.300 E0.01486
G1 X103.938 Y58.029 E0.43183
G1 X104.471 Y58.029 E0.01675
G1 X94.273 Y47.831 E0.45265
G1 X94.338 Y47.362 E0.01486
G1 X105.005 Y58.029 E0.47347
G1 X105.539 Y58.029 E0.01675
G1 X94.403 Y46.893 E0.49429
G1 X94.468 Y46.424 E0.01486
G1 X106.073 Y58.029 E0.51511
G1 X106.607 Y58.029 E0.01675
G1 X94.532 Y45.955 E0.53593
G1 X94.597 Y45.486 E0.01486
G1 X107.140 Y58.029 E0.55675
G1 X107.674 Y58.029 E0.01675
G1 X94.662 Y45.017 E0.57757
G1 X94.727 Y44.548 E0.01486
G1 X108.208 Y58.029 E0.59839
G1 X108.742 Y58.029 E0.01675
G1 X94.791 Y44.079 E0.61921
G1 X94.856 Y43.610 E0.01486
G1 X109.276 Y58.029 E0.64003
G1 X109.809 Y58.029 E0.01675
G1 X94.921 Y43.141 E0.66085
G1 X94.986 Y42.672 E0.01486
G1 X110.343 Y58.029 E0.68166
G1 X110.877 Y58.029 E0.01675
G1 X95.050 Y42.203 E0.70248
G1 X95.115 Y41.734 E0.01486
G1 X111.411 Y58.029 E0.72330
G1 X111.945 Y58.029 E0.01675
G1 X95.180 Y41.265 E0.74412
G1 X95.245 Y40.796 E0.01486
G1 X112.478 Y58.029 E0.76494
G1 X113.012 Y58.029 E0.01675
G1 X95.309 Y40.326 E0.78576
G1 X95.374 Y39.857 E0.01486
G1 X113.546 Y58.029 E0.80658
G1 X114.080 Y58.029 E0.01675
G1 X95.439 Y39.388 E0.82740
G1 X95.504 Y38.919 E0.01486
G1 X114.614 Y58.029 E0.84822
G1 X115.147 Y58.029 E0.01675
G1 X95.568 Y38.450 E0.86904
G1 X95.633 Y37.981 E0.01486
G1 X115.681 Y58.029 E0.88986
G1 X116.215 Y58.029 E0.01675
G1 X95.698 Y37.512 E0.91068
G1 X95.763 Y37.043 E0.01486
G1 X116.749 Y58.029 E0.93150
G1 X117.283 Y58.029 E0.01675
G1 X95.827 Y36.574 E0.95232
G1 X95.892 Y36.105 E0.01486
G1 X117.816 Y58.029 E0.97314
G1 X118.350 Y58.029 E0.01675
G1 X95.957 Y35.636 E0.99396
G1 X96.022 Y35.167 E0.01486
G1 X118.884 Y58.029 E1.01478
G1 X119.418 Y58.029 E0.01675
G1 X96.086 Y34.698 E1.03560
G1 X96.151 Y34.229 E0.01486
G1 X119.952 Y58.029 E1.05642
G1 X120.330 Y58.029 E0.01187
G1 X120.305 Y57.849 E0.00572
G1 X96.216 Y33.760 E1.06922
G1 X96.281 Y33.291 E0.01486
G1 X120.220 Y57.230 E1.06256
G1 X120.134 Y56.610 E0.01962
G1 X96.345 Y32.822 E1.05589
G1 X96.410 Y32.353 E0.01486
G1 X120.049 Y55.991 E1.04922
G1 X119.963 Y55.372 E0.01962
G1 X96.475 Y31.883 E1.04255
G1 X96.540 Y31.414 E0.01486
G1 X119.878 Y54.752 E1.03588
G1 X119.792 Y54.133 E0.01962
G1 X96.604 Y30.945 E1.02921
G1 X96.669 Y30.476 E0.01486
G1 X119.707 Y53.514 E1.02255
G1 X119.621 Y52.895 E0.01962
G1 X96.734 Y30.007 E1.01588
G1 X96.799 Y29.538 E0.01486
G1 X119.536 Y52.275 E1.00921
G1 X119.450 Y51.656 E0.01962
G1 X96.863 Y29.069 E1.00254
G1 X96.928 Y28.600 E0.01486
G1 X119.365 Y51.037 E0.99587
M73 P4 R86
G1 X119.279 Y50.417 E0.01962
G1 X96.993 Y28.131 E0.98921
G1 X97.058 Y27.662 E0.01486
G1 X119.194 Y49.798 E0.98254
G1 X119.108 Y49.179 E0.01962
G1 X97.122 Y27.193 E0.97587
G1 X97.187 Y26.724 E0.01486
G1 X119.023 Y48.560 E0.96920
G1 X118.937 Y47.940 E0.01962
G1 X97.252 Y26.255 E0.96253
G1 X97.317 Y25.786 E0.01486
G1 X118.852 Y47.321 E0.95586
G1 X118.766 Y46.702 E0.01962
G1 X97.381 Y25.317 E0.94920
G1 X97.446 Y24.848 E0.01486
G1 X118.681 Y46.082 E0.94253
G1 X118.595 Y45.463 E0.01962
G1 X97.511 Y24.379 E0.93586
G1 X97.575 Y23.909 E0.01486
G1 X118.510 Y44.844 E0.92919
G1 X118.424 Y44.225 E0.01962
G1 X97.640 Y23.440 E0.92252
G1 X97.664 Y23.268 E0.00546
G1 X98.002 Y23.268 E0.01060
G1 X118.339 Y43.605 E0.90268
G1 X118.253 Y42.986 E0.01962
G1 X98.536 Y23.268 E0.87519
G1 X99.069 Y23.268 E0.01675
G1 X118.168 Y42.367 E0.84770
G1 X118.082 Y41.747 E0.01962
G1 X99.603 Y23.268 E0.82021
G1 X100.137 Y23.268 E0.01675
G1 X117.997 Y41.128 E0.79273
G1 X117.911 Y40.509 E0.01962
G1 X100.671 Y23.268 E0.76524
G1 X101.205 Y23.268 E0.01675
G1 X117.826 Y39.889 E0.73775
G1 X117.740 Y39.270 E0.01962
G1 X101.738 Y23.268 E0.71026
G1 X102.272 Y23.268 E0.01675
G1 X117.655 Y38.651 E0.68277
G1 X117.569 Y38.032 E0.01962
G1 X102.806 Y23.268 E0.65529
G1 X103.340 Y23.268 E0.01675
G1 X117.484 Y37.412 E0.62780
G1 X117.398 Y36.793 E0.01962
G1 X103.874 Y23.268 E0.60031
G1 X104.408 Y23.268 E0.01675
G1 X117.313 Y36.174 E0.57282
G1 X117.228 Y35.554 E0.01962
G1 X104.941 Y23.268 E0.54534
G1 X105.475 Y23.268 E0.01675
G1 X117.142 Y34.935 E0.51785
G1 X117.057 Y34.316 E0.01962
G1 X106.009 Y23.268 E0.49036
G1 X106.543 Y23.268 E0.01675
G1 X116.971 Y33.697 E0.46287
G1 X116.886 Y33.077 E0.01962
G1 X107.077 Y23.268 E0.43538
G1 X107.610 Y23.268 E0.01675
G1 X116.800 Y32.458 E0.40790
G1 X116.715 Y31.839 E0.01962
G1 X108.144 Y23.268 E0.38041
G1 X108.678 Y23.268 E0.01675
G1 X116.629 Y31.219 E0.35292
G1 X116.544 Y30.600 E0.01962
G1 X109.212 Y23.268 E0.32543
G1 X109.746 Y23.268 E0.01675
G1 X116.458 Y29.981 E0.29794
G1 X116.373 Y29.362 E0.01962
G1 X110.279 Y23.268 E0.27046
G1 X110.813 Y23.268 E0.01675
G1 X116.287 Y28.742 E0.24297
G1 X116.202 Y28.123 E0.01962
G1 X111.347 Y23.268 E0.21548
G1 X111.881 Y23.268 E0.01675
G1 X116.116 Y27.504 E0.18799
G1 X116.031 Y26.884 E0.01962
G1 X112.415 Y23.268 E0.16051
G1 X112.948 Y23.268 E0.01675
G1 X115.945 Y26.265 E0.13302
G1 X115.860 Y25.646 E0.01962
G1 X113.482 Y23.268 E0.10553
G1 X114.016 Y23.268 E0.01675
G1 X115.774 Y25.026 E0.07804
G1 X115.689 Y24.407 E0.01962
G1 X114.550 Y23.268 E0.05055
G1 X115.084 Y23.268 E0.01675
G1 X115.802 Y23.987 E0.03189
G1 E-0.80000 F2100.00000
G1 Z0.800 F10800.000
G1 X134.222 Y22.985
G1 Z0.200
G1 E0.80000 F2100.00000
G1 F1200.000
G1 X152.583 Y22.985 E0.57568
G1 X157.459 Y58.312 E1.11815
G1 X129.346 Y58.312 E0.88147
G1 X134.214 Y23.045 E1.11627
