; generated by PrusaSlicer 2.1.1+win64 on 2020-07-07 at 20:44:51 UTC

; 

; external perimeters extrusion width = 0.45mm
; perimeters extrusion width = 0.45mm
; infill extrusion width = 0.45mm
; solid infill extrusion width = 0.45mm
; top infill extrusion width = 0.40mm
; first layer extrusion width = 0.42mm

M73 P0 R28
M201 X9000 Y9000 Z500 E10000 ; sets maximum accelerations, mm/sec^2
M203 X500 Y500 Z12 E120 ; sets maximum feedrates, mm/sec
M204 P2000 R1500 T2000 ; sets acceleration (P, T) and retract acceleration (R), mm/sec^2
M205 X10.00 Y10.00 Z0.20 E4.50 ; sets the jerk limits, mm/sec
M205 S0 T0 ; sets the minimum extruding and travel feed rate, mm/sec
M107
M862.3 P "MK2.5SMMU2S" ; printer model check
M862.1 P0.4 ; nozzle diameter check
M115 U3.8.1 ; tell printer latest fw version
G90 ; use absolute coordinates
M83 ; extruder relative mode
M104 S215 ; set extruder temp
M140 S60 ; set bed temp
Tx
M190 S60 ; wait for bed temp
M109 S215 ; wait for extruder temp
G28 W ; home all without mesh bed level
G80 ; mesh bed leveling

;go outside print area
G1 Y-3.0 F1000.0
G1 Z0.4 F1000.0
; select extruder
Tc
; purge line
G1 X55.0 F2000.0
G1 Z0.3 F1000.0
G92 E0.0
G1 X240.0 E25.0 F2200.0
M73 P0 R27
G1 Y-2.0 F1000.0
G1 X55.0 E25 F1400.0
G1 Z0.20 F1000.0
G1 X5.0 E4.0 F1000.0
G92 E0.0
G21 ; set units to millimeters
G90 ; use absolute coordinates
M83 ; use relative distances for extrusion
M900 K30 ; Filament gcode
;BEFORE_LAYER_CHANGE
G92 E0.0
;0.2


G1 E-0.80000 F2100.00000
G1 Z0.600 F10800.000
;AFTER_LAYER_CHANGE
;0.2
G1 X107.887 Y89.282
G1 Z0.200
G1 E0.80000 F2100.00000
M204 S1000
G1 F1200
G1 X108.168 Y88.651 E0.02165
G1 X108.552 Y88.170 E0.01931
G1 X109.040 Y87.794 E0.01931
G1 X109.603 Y87.545 E0.01931
G1 X110.210 Y87.438 E0.01931
G1 X130.504 Y87.434 E0.63631
G1 X131.476 Y87.627 E0.03107
G1 X132.302 Y88.174 E0.03107
G1 X141.543 Y98.118 E0.42564
G1 X141.971 Y98.757 E0.02410
G1 X142.148 Y99.264 E0.01684
G1 X142.215 Y99.797 E0.01684
G1 X142.215 Y110.178 E0.32547
G1 X142.114 Y110.865 E0.02177
G1 X141.832 Y111.499 E0.02177
G1 X132.347 Y121.781 E0.43860
G1 X131.860 Y122.176 E0.01968
G1 X131.294 Y122.440 E0.01956
G1 X130.516 Y122.566 E0.02472
G1 X110.322 Y122.565 E0.63316
G1 X109.635 Y122.464 E0.02177
G1 X109.001 Y122.182 E0.02177
G1 X108.509 Y121.787 E0.01980
G1 X108.126 Y121.279 E0.01992
G1 X107.880 Y120.693 E0.01992
G1 X107.785 Y120.065 E0.01992
G1 X107.785 Y89.968 E0.94366
G1 X107.878 Y89.341 E0.01989
G1 X108.248 Y89.396 F10800.000
G1 F1200
G1 X108.495 Y88.839 E0.01911
G1 X108.828 Y88.428 E0.01658
G1 X109.246 Y88.110 E0.01646
G1 X109.728 Y87.902 E0.01646
G1 X110.249 Y87.814 E0.01658
G1 X130.504 Y87.811 E0.63507
G1 X131.340 Y87.979 E0.02676
G1 X132.047 Y88.452 E0.02664
G1 X141.263 Y98.371 E0.42455
G1 X141.632 Y98.922 E0.02078
G1 X141.838 Y99.809 E0.02855
G1 X141.838 Y110.172 E0.32493
G1 X141.751 Y110.763 E0.01873
G1 X141.505 Y111.311 E0.01885
G1 X132.078 Y121.516 E0.43558
G1 X131.663 Y121.854 E0.01680
G1 X131.177 Y122.081 E0.01680
G1 X130.512 Y122.189 E0.02112
G1 X110.328 Y122.188 E0.63286
G1 X109.737 Y122.101 E0.01873
G1 X109.189 Y121.855 E0.01885
G1 X108.767 Y121.512 E0.01703
G1 X108.446 Y121.079 E0.01692
G1 X108.240 Y120.580 E0.01692
G1 X108.162 Y120.046 E0.01692
G1 X108.162 Y89.978 E0.94276
G1 X108.239 Y89.455 E0.01658
G1 F8640
G1 X108.495 Y88.839 E-0.15415
G1 X108.828 Y88.428 E-0.12207
G1 X109.246 Y88.110 E-0.12123
G1 X109.728 Y87.902 E-0.12123
G1 X110.249 Y87.814 E-0.12207
G1 X110.766 Y87.814 E-0.11925
G1 E-0.04000 F2100.00000
G1 Z0.800 F10800.000
G1 X133.825 Y108.737
G1 Z0.200
G1 E0.80000 F2100.00000
G1 F1200
G1 X131.913 Y108.737 E0.05995
G1 X131.913 Y101.263 E0.23435
G1 X138.237 Y101.263 E0.19829
G1 X138.237 Y108.737 E0.23435
G1 X133.885 Y108.737 E0.13646
G1 X133.825 Y108.360 F10800.000
G1 F1200
G1 X132.290 Y108.360 E0.04813
G1 X132.290 Y101.640 E0.21070
G1 X137.860 Y101.640 E0.17464
G1 X137.860 Y108.360 E0.21070
G1 X133.885 Y108.360 E0.12463
G1 X133.753 Y108.754 F10800.000
G1 F8640
G1 X132.290 Y108.360 E-0.36829
G1 X132.290 Y106.664 E-0.39171
G1 E-0.04000 F2100.00000
G1 Z0.800 F10800.000
G1 X129.913 Y119.413
G1 Z0.200
G1 E0.80000 F2100.00000
G1 F1200
G1 X128.587 Y119.413 E0.04157
G1 X128.587 Y90.587 E0.90381
G1 X129.913 Y90.587 E0.04157
G1 X129.913 Y94.873 E0.13438
G1 X129.980 Y95.724 E0.02677
G1 X130.185 Y96.577 E0.02750
G1 X130.520 Y97.387 E0.02750
G1 X130.978 Y98.135 E0.02750
G1 X131.548 Y98.802 E0.02750
G1 X132.215 Y99.372 E0.02750
G1 X132.963 Y99.830 E0.02750
G1 X133.773 Y100.165 E0.02750
G1 X134.626 Y100.370 E0.02750
G1 X135.477 Y100.437 E0.02677
G1 X139.063 Y100.437 E0.11244
G1 X139.063 Y109.563 E0.28613
G1 X135.477 Y109.563 E0.11244
G1 X134.625 Y109.630 E0.02678
G1 X133.767 Y109.837 E0.02770
G1 X132.963 Y110.170 E0.02728
G1 X132.215 Y110.628 E0.02750
G1 X131.548 Y111.198 E0.02750
G1 X130.978 Y111.865 E0.02751
G1 X130.518 Y112.619 E0.02770
G1 X130.185 Y113.423 E0.02728
G1 X129.980 Y114.276 E0.02750
G1 X129.913 Y115.127 E0.02677
G1 X129.913 Y119.353 E0.13250
G1 X130.290 Y119.790 F10800.000
G1 F1200
G1 X128.210 Y119.790 E0.06522
G1 X128.210 Y90.210 E0.92746
G1 X130.290 Y90.210 E0.06522
G1 X130.290 Y94.858 E0.14574
G1 X130.354 Y95.665 E0.02538
G1 X130.544 Y96.460 E0.02564
G1 X130.857 Y97.216 E0.02564
G1 X131.284 Y97.913 E0.02564
G1 X131.816 Y98.534 E0.02564
G1 X132.437 Y99.066 E0.02564
G1 X133.134 Y99.493 E0.02564
G1 X133.890 Y99.806 E0.02564
G1 X134.685 Y99.996 E0.02564
G1 X135.492 Y100.060 E0.02538
G1 X139.440 Y100.060 E0.12379
G1 X139.440 Y109.940 E0.30978
G1 X135.492 Y109.940 E0.12379
G1 X134.685 Y110.004 E0.02538
G1 X133.884 Y110.197 E0.02584
G1 X133.134 Y110.507 E0.02543
G1 X132.437 Y110.934 E0.02564
G1 X131.816 Y111.466 E0.02564
G1 X131.284 Y112.087 E0.02564
G1 X130.855 Y112.791 E0.02584
G1 X130.544 Y113.540 E0.02543
G1 X130.354 Y114.335 E0.02564
G1 X130.290 Y115.142 E0.02538
G1 X130.290 Y119.730 E0.14386
G1 X129.944 Y119.589 F10800.000
G1 F8640
G1 X128.210 Y119.790 E-0.48048
G1 X128.210 Y118.579 E-0.27952
G1 E-0.04000 F2100.00000
G1 Z0.800 F10800.000
G1 X128.700 Y118.525
G1 Z0.200
G1 E0.80000 F2100.00000
G1 F1200
G1 X129.305 Y119.130 E0.02722
G1 X129.630 Y119.130 E0.01035
G1 X129.630 Y118.914 E0.00688
G1 X128.870 Y118.154 E0.03422
G1 X128.870 Y117.612 E0.01723
G1 X129.630 Y118.373 E0.03422
G1 X129.630 Y117.831 E0.01723
G1 X128.870 Y117.071 E0.03422
G1 X128.870 Y116.530 E0.01723
G1 X129.630 Y117.290 E0.03422
G1 X129.630 Y116.749 E0.01723
G1 X128.870 Y115.988 E0.03422
G1 X128.870 Y115.447 E0.01723
G1 X129.630 Y116.207 E0.03422
G1 X129.630 Y115.666 E0.01723
G1 X128.870 Y114.906 E0.03422
G1 X128.870 Y114.364 E0.01723
G1 X129.630 Y115.125 E0.03422
G1 X129.669 Y114.622 E0.01604
G1 X128.870 Y113.823 E0.03597
G1 X128.870 Y113.282 E0.01723
G1 X129.723 Y114.135 E0.03840
G1 X129.828 Y113.698 E0.01429
G1 X128.870 Y112.740 E0.04312
G1 X128.870 Y112.199 E0.01723
G1 X129.942 Y113.271 E0.04824
G1 X130.100 Y112.888 E0.01319
G1 X128.870 Y111.658 E0.05538
G1 X128.870 Y111.116 E0.01723
G1 X130.259 Y112.505 E0.06252
G1 X130.462 Y112.167 E0.01255
G1 X128.870 Y110.575 E0.07168
G1 X128.870 Y110.033 E0.01723
G1 X130.668 Y111.831 E0.08092
G1 X130.749 Y111.699 E0.00495
G1 X130.900 Y111.522 E0.00740
G1 X128.870 Y109.492 E0.09137
G1 X128.870 Y108.951 E0.01723
G1 X131.149 Y111.230 E0.10259
G1 X131.407 Y110.947 E0.01220
G1 X128.870 Y108.409 E0.11421
G1 X128.870 Y107.868 E0.01723
G1 X131.699 Y110.697 E0.12735
G1 X131.991 Y110.448 E0.01222
G1 X128.870 Y107.327 E0.14050
G1 X128.870 Y106.785 E0.01723
G1 X132.442 Y110.357 E0.16077
G1 F8640
G1 X130.114 Y108.030 E-0.76000
G1 E-0.04000 F2100.00000
G1 Z0.800 F10800.000
G1 X132.979 Y101.150
G1 Z0.200
G1 E0.80000 F2100.00000
G1 F1200
G1 X128.870 Y97.041 E0.18496
G1 X128.870 Y97.582 E0.01723
G1 X132.268 Y100.980 E0.15295
G1 X131.726 Y100.980 E0.01723
G1 X128.870 Y98.124 E0.12858
G1 X128.870 Y98.665 E0.01723
G1 X131.630 Y101.425 E0.12425
G1 X131.630 Y101.967 E0.01723
G1 X128.870 Y99.206 E0.12425
G1 X128.870 Y99.748 E0.01723
G1 X131.630 Y102.508 E0.12425
G1 X131.630 Y103.049 E0.01723
G1 X128.870 Y100.289 E0.12425
G1 X128.870 Y100.830 E0.01723
G1 X131.630 Y103.591 E0.12425
G1 X131.630 Y104.132 E0.01723
G1 X128.870 Y101.372 E0.12425
G1 X128.870 Y101.913 E0.01723
G1 X131.630 Y104.673 E0.12425
G1 X131.630 Y105.215 E0.01723
G1 X128.870 Y102.454 E0.12425
G1 X128.870 Y102.996 E0.01723
G1 X131.630 Y105.756 E0.12425
G1 X131.630 Y106.297 E0.01723
G1 X128.870 Y103.537 E0.12425
G1 X128.870 Y104.079 E0.01723
G1 X131.630 Y106.839 E0.12425
G1 X131.630 Y107.380 E0.01723
G1 X128.870 Y104.620 E0.12425
G1 X128.870 Y105.161 E0.01723
G1 X131.630 Y107.922 E0.12425
G1 X131.630 Y108.463 E0.01723
G1 X128.870 Y105.703 E0.12425
G1 X128.870 Y106.244 E0.01723
G1 X132.654 Y110.028 E0.17033
G1 X132.834 Y109.918 E0.00672
G1 X133.011 Y109.844 E0.00611
G1 X132.187 Y109.020 E0.03710
G1 X132.728 Y109.020 E0.01723
G1 X133.394 Y109.685 E0.02996
G1 X133.679 Y109.568 E0.00981
G1 X133.791 Y109.541 E0.00366
G1 X133.270 Y109.020 E0.02344
G1 X133.811 Y109.020 E0.01723
G1 X134.227 Y109.435 E0.01870
G1 X134.675 Y109.342 E0.01458
G1 X134.353 Y109.020 E0.01452
G1 X134.894 Y109.020 E0.01723
G1 X135.177 Y109.303 E0.01274
G1 X135.696 Y109.280 E0.01652
G1 X135.435 Y109.020 E0.01172
G1 X135.977 Y109.020 E0.01723
G1 X136.237 Y109.280 E0.01172
G1 X136.778 Y109.280 E0.01723
G1 X136.518 Y109.020 E0.01172
G1 X137.059 Y109.020 E0.01723
G1 X137.320 Y109.280 E0.01172
G1 X137.861 Y109.280 E0.01723
G1 X137.601 Y109.020 E0.01172
G1 X138.142 Y109.020 E0.01723
G1 X138.402 Y109.280 E0.01172
G1 X138.780 Y109.280 E0.01203
G1 X138.780 Y109.117 E0.00521
G1 X138.520 Y108.856 E0.01172
G1 X138.520 Y108.315 E0.01723
G1 X138.780 Y108.575 E0.01172
G1 X138.780 Y108.034 E0.01723
G1 X138.520 Y107.774 E0.01172
G1 X138.520 Y107.232 E0.01723
G1 X138.780 Y107.493 E0.01172
G1 X138.780 Y106.951 E0.01723
G1 X138.520 Y106.691 E0.01172
G1 X138.520 Y106.150 E0.01723
G1 X138.780 Y106.410 E0.01172
G1 X138.780 Y105.868 E0.01723
G1 X138.520 Y105.608 E0.01172
G1 X138.520 Y105.067 E0.01723
G1 X138.780 Y105.327 E0.01172
G1 X138.780 Y104.786 E0.01723
G1 X138.520 Y104.525 E0.01172
G1 X138.520 Y103.984 E0.01723
G1 X138.780 Y104.244 E0.01172
G1 X138.780 Y103.703 E0.01723
G1 X138.520 Y103.443 E0.01172
G1 X138.520 Y102.901 E0.01723
G1 X138.780 Y103.162 E0.01172
G1 X138.780 Y102.620 E0.01723
G1 X138.520 Y102.360 E0.01172
G1 X138.520 Y101.819 E0.01723
G1 X138.780 Y102.079 E0.01172
G1 X138.780 Y101.538 E0.01723
G1 X137.962 Y100.720 E0.03681
G1 X138.504 Y100.720 E0.01723
G1 X138.950 Y101.166 E0.02008
G1 F8640
G1 X138.504 Y100.720 E-0.14566
G1 X137.962 Y100.720 E-0.12500
G1 X138.780 Y101.538 E-0.26703
G1 X138.780 Y102.079 E-0.12500
G1 X138.520 Y101.819 E-0.08499
G1 X138.520 Y101.872 E-0.01232
G1 E-0.04000 F2100.00000
G1 Z0.800 F10800.000
G1 X137.851 Y101.150
G1 Z0.200
G1 E0.80000 F2100.00000
G1 F1200
G1 X137.421 Y100.720 E0.01935
G1 X136.880 Y100.720 E0.01723
G1 X137.140 Y100.980 E0.01172
G1 X136.599 Y100.980 E0.01723
G1 X136.338 Y100.720 E0.01172
G1 X135.797 Y100.720 E0.01723
G1 X136.057 Y100.980 E0.01172
G1 X135.516 Y100.980 E0.01723
G1 X135.238 Y100.702 E0.01252
G1 X134.650 Y100.656 E0.01876
G1 X134.975 Y100.980 E0.01461
G1 X134.433 Y100.980 E0.01723
G1 X133.952 Y100.499 E0.02165
G1 X133.685 Y100.435 E0.00874
G1 X133.107 Y100.196 E0.01991
G1 X133.892 Y100.980 E0.03531
G1 X133.350 Y100.980 E0.01723
G1 X128.870 Y96.500 E0.20169
G1 X128.870 Y95.958 E0.01723
G1 X130.154 Y97.243 E0.05781
G1 X129.915 Y96.665 E0.01991
G1 X129.851 Y96.398 E0.00874
G1 X128.870 Y95.417 E0.04415
G1 X128.870 Y94.875 E0.01723
G1 X129.694 Y95.700 E0.03711
G1 X129.648 Y95.112 E0.01876
G1 X128.870 Y94.334 E0.03503
G1 X128.870 Y93.793 E0.01723
G1 X129.630 Y94.553 E0.03422
G1 X129.630 Y94.012 E0.01723
G1 X128.870 Y93.251 E0.03422
G1 X128.870 Y92.710 E0.01723
G1 X129.630 Y93.470 E0.03422
G1 X129.630 Y92.929 E0.01723
G1 X128.870 Y92.169 E0.03422
G1 X128.870 Y91.627 E0.01723
G1 X129.630 Y92.388 E0.03422
G1 X129.630 Y91.846 E0.01723
G1 X128.870 Y91.086 E0.03422
G1 X128.870 Y90.870 E0.00688
G1 X129.195 Y90.870 E0.01035
G1 X129.800 Y91.475 E0.02722
G1 F8640
G1 X129.195 Y90.870 E-0.19747
G1 X128.870 Y90.870 E-0.07510
G1 X128.870 Y91.086 E-0.04990
G1 X129.630 Y91.846 E-0.24826
G1 X129.630 Y92.388 E-0.12500
G1 X129.433 Y92.191 E-0.06427
G1 E-0.04000 F2100.00000
G1 Z0.800 F10800.000
G1 X116.175 Y108.737
G1 Z0.200
G1 E0.80000 F2100.00000
G1 F1200
G1 X114.263 Y108.737 E0.05995
G1 X114.263 Y101.263 E0.23435
G1 X120.587 Y101.263 E0.19829
G1 X120.587 Y108.737 E0.23435
G1 X116.235 Y108.737 E0.13646
G1 X116.175 Y108.360 F10800.000
G1 F1200
G1 X114.640 Y108.360 E0.04813
G1 X114.640 Y101.640 E0.21070
G1 X120.210 Y101.640 E0.17464
G1 X120.210 Y108.360 E0.21070
G1 X116.235 Y108.360 E0.12463
G1 X116.103 Y108.754 F10800.000
G1 F8640
G1 X114.640 Y108.360 E-0.36829
G1 X114.640 Y106.664 E-0.39171
G1 E-0.04000 F2100.00000
G1 Z0.800 F10800.000
G1 X112.263 Y119.413
G1 Z0.200
G1 E0.80000 F2100.00000
G1 F1200
G1 X110.937 Y119.413 E0.04157
G1 X110.937 Y90.587 E0.90381
G1 X112.263 Y90.587 E0.04157
G1 X112.263 Y94.873 E0.13438
G1 X112.330 Y95.724 E0.02677
G1 X112.535 Y96.577 E0.02750
G1 X112.870 Y97.387 E0.02750
G1 X113.328 Y98.135 E0.02750
G1 X113.898 Y98.802 E0.02750
G1 X114.565 Y99.372 E0.02750
G1 X115.313 Y99.830 E0.02750
G1 X116.123 Y100.165 E0.02750
G1 X116.976 Y100.370 E0.02750
G1 X117.827 Y100.437 E0.02677
G1 X121.413 Y100.437 E0.11244
G1 X121.413 Y109.563 E0.28613
G1 X117.827 Y109.563 E0.11244
G1 X116.975 Y109.630 E0.02678
G1 X116.117 Y109.837 E0.02770
G1 X115.313 Y110.170 E0.02728
G1 X114.565 Y110.628 E0.02750
G1 X113.898 Y111.198 E0.02750
G1 X113.328 Y111.865 E0.02751
G1 X112.868 Y112.619 E0.02770
G1 X112.535 Y113.423 E0.02728
G1 X112.330 Y114.276 E0.02750
G1 X112.263 Y115.127 E0.02677
G1 X112.263 Y119.353 E0.13250
G1 X112.640 Y119.790 F10800.000
G1 F1200
G1 X110.560 Y119.790 E0.06522
G1 X110.560 Y90.210 E0.92746
G1 X112.640 Y90.210 E0.06522
G1 X112.640 Y94.858 E0.14574
G1 X112.704 Y95.665 E0.02538
G1 X112.894 Y96.460 E0.02564
G1 X113.207 Y97.216 E0.02564
G1 X113.634 Y97.913 E0.02564
G1 X114.166 Y98.534 E0.02564
G1 X114.787 Y99.066 E0.02564
G1 X115.484 Y99.493 E0.02564
G1 X116.240 Y99.806 E0.02564
G1 X117.035 Y99.996 E0.02564
G1 X117.842 Y100.060 E0.02538
G1 X121.790 Y100.060 E0.12379
G1 X121.790 Y109.940 E0.30978
G1 X117.842 Y109.940 E0.12379
G1 X117.035 Y110.004 E0.02538
G1 X116.234 Y110.197 E0.02584
G1 X115.484 Y110.507 E0.02543
G1 X114.787 Y110.934 E0.02564
G1 X114.166 Y111.466 E0.02564
G1 X113.634 Y112.087 E0.02564
G1 X113.205 Y112.791 E0.02584
G1 X112.894 Y113.540 E0.02543
G1 X112.704 Y114.335 E0.02564
G1 X112.640 Y115.142 E0.02538
G1 X112.640 Y119.730 E0.14386
G1 X112.294 Y119.589 F10800.000
G1 F8640
G1 X110.560 Y119.790 E-0.48048
G1 X110.560 Y118.579 E-0.27952
G1 E-0.04000 F2100.00000
G1 Z0.800 F10800.000
G1 X111.050 Y118.525
G1 Z0.200
G1 E0.80000 F2100.00000
G1 F1200
G1 X111.655 Y119.130 E0.02722
G1 X111.980 Y119.130 E0.01035
G1 X111.980 Y118.914 E0.00688
G1 X111.220 Y118.154 E0.03422
G1 X111.220 Y117.612 E0.01723
G1 X111.980 Y118.373 E0.03422
M73 P4 R26
G1 X111.980 Y117.831 E0.01723
G1 X111.220 Y117.071 E0.03422
G1 X111.220 Y116.530 E0.01723
G1 X111.980 Y117.290 E0.03422
G1 X111.980 Y116.749 E0.01723
G1 X111.220 Y115.988 E0.03422
G1 X111.220 Y115.447 E0.01723
G1 X111.980 Y116.207 E0.03422
G1 X111.980 Y115.666 E0.01723
G1 X111.220 Y114.906 E0.03422
G1 X111.220 Y114.364 E0.01723
G1 X111.980 Y115.125 E0.03422
G1 X112.019 Y114.622 E0.01604
G1 X111.220 Y113.823 E0.03597
G1 X111.220 Y113.282 E0.01723
G1 X112.073 Y114.135 E0.03840
G1 X112.178 Y113.698 E0.01429
G1 X111.220 Y112.740 E0.04312
G1 X111.220 Y112.199 E0.01723
G1 X112.292 Y113.271 E0.04824
G1 X112.450 Y112.888 E0.01319
G1 X111.220 Y111.658 E0.05538
G1 X111.220 Y111.116 E0.01723
G1 X112.609 Y112.505 E0.06252
G1 X112.812 Y112.167 E0.01255
G1 X111.220 Y110.575 E0.07168
G1 X111.220 Y110.033 E0.01723
G1 X113.018 Y111.831 E0.08092
G1 X113.099 Y111.699 E0.00495
G1 X113.250 Y111.522 E0.00740
G1 X111.220 Y109.492 E0.09137
G1 X111.220 Y108.951 E0.01723
G1 X113.499 Y111.230 E0.10259
G1 X113.757 Y110.947 E0.01220
G1 X111.220 Y108.409 E0.11421
G1 X111.220 Y107.868 E0.01723
