; generated by PrusaSlicer 2.1.1+win64 on 2020-07-07 at 20:45:24 UTC

; 

; external perimeters extrusion width = 0.45mm
; perimeters extrusion width = 0.45mm
; infill extrusion width = 0.45mm
; solid infill extrusion width = 0.45mm
; top infill extrusion width = 0.40mm
; first layer extrusion width = 0.42mm

M73 P0 R96
M201 X9000 Y9000 Z500 E10000 ; sets maximum accelerations, mm/sec^2
M203 X500 Y500 Z12 E120 ; sets maximum feedrates, mm/sec
M204 P2000 R1500 T2000 ; sets acceleration (P, T) and retract acceleration (R), mm/sec^2
M205 X10.00 Y10.00 Z0.20 E4.50 ; sets the jerk limits, mm/sec
M205 S0 T0 ; sets the minimum extruding and travel feed rate, mm/sec
M107
M862.3 P "MK2.5SMMU2S" ; printer model check
M862.1 P0.4 ; nozzle diameter check
M115 U3.8.1 ; tell printer latest fw version
G90 ; use absolute coordinates
M83 ; extruder relative mode
M104 S215 ; set extruder temp
M140 S60 ; set bed temp
Tx
M190 S60 ; wait for bed temp
M109 S215 ; wait for extruder temp
G28 W ; home all without mesh bed level
G80 ; mesh bed leveling

;go outside print area
G1 Y-3.0 F1000.0
G1 Z0.4 F1000.0
; select extruder
Tc
; purge line
G1 X55.0 F2000.0
G1 Z0.3 F1000.0
G92 E0.0
G1 X240.0 E25.0 F2200.0
M73 P0 R96
G1 Y-2.0 F1000.0
G1 X55.0 E25 F1400.0
G1 Z0.20 F1000.0
G1 X5.0 E4.0 F1000.0
G92 E0.0
G21 ; set units to millimeters
G90 ; use absolute coordinates
M83 ; use relative distances for extrusion
M900 K30 ; Filament gcode
;BEFORE_LAYER_CHANGE
G92 E0.0
;0.2


G1 E-0.80000 F2100.00000
G1 Z0.600 F10800.000
;AFTER_LAYER_CHANGE
;0.2
G1 X90.640 Y71.262
G1 Z0.200
G1 E0.80000 F2100.00000
M204 S1000
G1 F1200
G1 X91.002 Y70.619 E0.02315
G1 X91.340 Y70.285 E0.01487
G1 X91.744 Y70.031 E0.01498
G1 X92.194 Y69.871 E0.01498
G1 X92.669 Y69.812 E0.01498
G1 X148.154 Y69.811 E1.73970
G1 X149.004 Y69.985 E0.02721
G1 X149.720 Y70.475 E0.02721
G1 X158.938 Y80.398 E0.42467
G1 X159.268 Y80.892 E0.01862
G1 X159.454 Y81.460 E0.01873
G1 X159.488 Y128.172 E1.46462
G1 X159.358 Y128.895 E0.02304
G1 X158.998 Y129.531 E0.02293
G1 X149.705 Y139.540 E0.42820
G1 X149.141 Y139.951 E0.02191
G1 X148.475 Y140.164 E0.02191
G1 X92.682 Y140.188 E1.74937
G1 X91.958 Y140.059 E0.02304
G1 X91.319 Y139.698 E0.02304
G1 X90.979 Y139.352 E0.01521
G1 X90.725 Y138.943 E0.01510
G1 X90.567 Y138.488 E0.01510
G1 X90.511 Y138.010 E0.01510
G1 X90.512 Y71.985 E2.07014
G1 X90.629 Y71.321 E0.02116
G1 F8640
G1 X91.002 Y70.619 E-0.18362
G1 X91.340 Y70.285 E-0.10949
G1 X91.744 Y70.031 E-0.11033
G1 X92.194 Y69.871 E-0.11033
G1 X92.669 Y69.812 E-0.11033
G1 X93.257 Y69.812 E-0.13589
G1 E-0.04000 F2100.00000
G1 Z0.800 F10800.000
G1 X116.175 Y90.737
G1 Z0.200
G1 E0.80000 F2100.00000
G1 F1200
G1 X114.263 Y90.737 E0.05995
G1 X114.263 Y83.263 E0.23435
G1 X120.587 Y83.263 E0.19829
G1 X120.587 Y90.737 E0.23435
G1 X116.235 Y90.737 E0.13646
G1 X116.175 Y90.360 F10800.000
G1 F1200
G1 X114.640 Y90.360 E0.04813
G1 X114.640 Y83.640 E0.21070
G1 X120.210 Y83.640 E0.17464
G1 X120.210 Y90.360 E0.21070
G1 X116.235 Y90.360 E0.12463
G1 X116.103 Y90.754 F10800.000
G1 F8640
G1 X114.640 Y90.360 E-0.36829
G1 X114.640 Y88.664 E-0.39171
G1 E-0.04000 F2100.00000
G1 Z0.800 F10800.000
G1 X112.263 Y101.413
G1 Z0.200
G1 E0.80000 F2100.00000
G1 F1200
G1 X110.937 Y101.413 E0.04157
G1 X110.937 Y72.587 E0.90381
G1 X112.263 Y72.587 E0.04157
G1 X112.263 Y76.873 E0.13438
G1 X112.330 Y77.724 E0.02677
G1 X112.535 Y78.577 E0.02750
G1 X112.870 Y79.387 E0.02750
G1 X113.328 Y80.135 E0.02750
G1 X113.898 Y80.802 E0.02750
G1 X114.565 Y81.372 E0.02750
G1 X115.313 Y81.830 E0.02750
G1 X116.123 Y82.165 E0.02750
G1 X116.976 Y82.370 E0.02750
G1 X117.827 Y82.437 E0.02677
G1 X121.413 Y82.437 E0.11244
G1 X121.413 Y91.563 E0.28613
G1 X117.827 Y91.563 E0.11244
G1 X116.975 Y91.630 E0.02678
G1 X116.117 Y91.837 E0.02770
G1 X115.313 Y92.170 E0.02728
G1 X114.565 Y92.628 E0.02750
G1 X113.898 Y93.198 E0.02750
G1 X113.328 Y93.865 E0.02751
G1 X112.868 Y94.619 E0.02770
G1 X112.535 Y95.423 E0.02728
G1 X112.330 Y96.276 E0.02750
G1 X112.263 Y97.127 E0.02677
G1 X112.263 Y101.353 E0.13250
G1 X112.640 Y101.790 F10800.000
G1 F1200
G1 X110.560 Y101.790 E0.06522
G1 X110.560 Y72.210 E0.92746
G1 X112.640 Y72.210 E0.06522
G1 X112.640 Y76.858 E0.14574
G1 X112.704 Y77.665 E0.02538
G1 X112.894 Y78.460 E0.02564
G1 X113.207 Y79.216 E0.02564
G1 X113.634 Y79.913 E0.02564
G1 X114.166 Y80.534 E0.02564
G1 X114.787 Y81.066 E0.02564
G1 X115.484 Y81.493 E0.02564
G1 X116.240 Y81.806 E0.02564
G1 X117.035 Y81.996 E0.02564
G1 X117.842 Y82.060 E0.02538
G1 X121.790 Y82.060 E0.12379
G1 X121.790 Y91.940 E0.30978
G1 X117.842 Y91.940 E0.12379
G1 X117.035 Y92.004 E0.02538
G1 X116.234 Y92.197 E0.02584
G1 X115.484 Y92.507 E0.02543
G1 X114.787 Y92.934 E0.02564
G1 X114.166 Y93.466 E0.02564
G1 X113.634 Y94.087 E0.02564
G1 X113.205 Y94.791 E0.02584
G1 X112.894 Y95.540 E0.02543
G1 X112.704 Y96.335 E0.02564
G1 X112.640 Y97.142 E0.02538
G1 X112.640 Y101.730 E0.14386
G1 X112.294 Y101.589 F10800.000
G1 F8640
G1 X110.560 Y101.790 E-0.48048
G1 X110.560 Y100.579 E-0.27952
G1 E-0.04000 F2100.00000
G1 Z0.800 F10800.000
G1 X111.050 Y100.525
G1 Z0.200
G1 E0.80000 F2100.00000
G1 F1200
G1 X111.655 Y101.130 E0.02722
G1 X111.980 Y101.130 E0.01035
G1 X111.980 Y100.914 E0.00688
G1 X111.220 Y100.154 E0.03422
G1 X111.220 Y99.612 E0.01723
G1 X111.980 Y100.373 E0.03422
G1 X111.980 Y99.831 E0.01723
G1 X111.220 Y99.071 E0.03422
G1 X111.220 Y98.530 E0.01723
G1 X111.980 Y99.290 E0.03422
G1 X111.980 Y98.749 E0.01723
G1 X111.220 Y97.988 E0.03422
G1 X111.220 Y97.447 E0.01723
G1 X111.980 Y98.207 E0.03422
G1 X111.980 Y97.666 E0.01723
G1 X111.220 Y96.906 E0.03422
G1 X111.220 Y96.364 E0.01723
G1 X111.980 Y97.125 E0.03422
G1 X112.019 Y96.622 E0.01604
G1 X111.220 Y95.823 E0.03597
G1 X111.220 Y95.282 E0.01723
G1 X112.073 Y96.135 E0.03840
G1 X112.178 Y95.698 E0.01429
G1 X111.220 Y94.740 E0.04312
G1 X111.220 Y94.199 E0.01723
G1 X112.292 Y95.271 E0.04824
G1 X112.450 Y94.888 E0.01319
G1 X111.220 Y93.658 E0.05538
G1 X111.220 Y93.116 E0.01723
G1 X112.609 Y94.505 E0.06252
G1 X112.812 Y94.167 E0.01255
G1 X111.220 Y92.575 E0.07168
G1 X111.220 Y92.033 E0.01723
G1 X113.018 Y93.831 E0.08092
G1 X113.099 Y93.699 E0.00495
G1 X113.250 Y93.522 E0.00740
G1 X111.220 Y91.492 E0.09137
G1 X111.220 Y90.951 E0.01723
G1 X113.499 Y93.230 E0.10259
G1 X113.757 Y92.947 E0.01220
G1 X111.220 Y90.409 E0.11421
G1 X111.220 Y89.868 E0.01723
G1 X114.049 Y92.697 E0.12735
G1 X114.341 Y92.448 E0.01222
G1 X111.220 Y89.327 E0.14050
G1 X111.220 Y88.785 E0.01723
G1 X114.792 Y92.357 E0.16077
G1 F8640
G1 X112.464 Y90.030 E-0.76000
G1 E-0.04000 F2100.00000
G1 Z0.800 F10800.000
G1 X115.329 Y83.150
G1 Z0.200
G1 E0.80000 F2100.00000
G1 F1200
G1 X111.220 Y79.041 E0.18496
G1 X111.220 Y79.582 E0.01723
G1 X114.618 Y82.980 E0.15295
G1 X114.076 Y82.980 E0.01723
G1 X111.220 Y80.124 E0.12858
G1 X111.220 Y80.665 E0.01723
G1 X113.980 Y83.425 E0.12425
G1 X113.980 Y83.967 E0.01723
G1 X111.220 Y81.206 E0.12425
G1 X111.220 Y81.748 E0.01723
G1 X113.980 Y84.508 E0.12425
G1 X113.980 Y85.049 E0.01723
G1 X111.220 Y82.289 E0.12425
G1 X111.220 Y82.830 E0.01723
G1 X113.980 Y85.591 E0.12425
G1 X113.980 Y86.132 E0.01723
G1 X111.220 Y83.372 E0.12425
G1 X111.220 Y83.913 E0.01723
G1 X113.980 Y86.673 E0.12425
G1 X113.980 Y87.215 E0.01723
G1 X111.220 Y84.454 E0.12425
G1 X111.220 Y84.996 E0.01723
G1 X113.980 Y87.756 E0.12425
G1 X113.980 Y88.297 E0.01723
G1 X111.220 Y85.537 E0.12425
G1 X111.220 Y86.079 E0.01723
G1 X113.980 Y88.839 E0.12425
G1 X113.980 Y89.380 E0.01723
G1 X111.220 Y86.620 E0.12425
G1 X111.220 Y87.161 E0.01723
G1 X113.980 Y89.922 E0.12425
G1 X113.980 Y90.463 E0.01723
G1 X111.220 Y87.703 E0.12425
G1 X111.220 Y88.244 E0.01723
G1 X115.004 Y92.028 E0.17033
G1 X115.184 Y91.918 E0.00672
G1 X115.361 Y91.844 E0.00611
G1 X114.537 Y91.020 E0.03710
G1 X115.078 Y91.020 E0.01723
G1 X115.744 Y91.685 E0.02996
G1 X116.029 Y91.568 E0.00981
G1 X116.141 Y91.541 E0.00366
G1 X115.620 Y91.020 E0.02344
G1 X116.161 Y91.020 E0.01723
G1 X116.577 Y91.435 E0.01870
G1 X117.025 Y91.342 E0.01458
G1 X116.703 Y91.020 E0.01452
G1 X117.244 Y91.020 E0.01723
G1 X117.527 Y91.303 E0.01274
G1 X118.046 Y91.280 E0.01652
G1 X117.785 Y91.020 E0.01172
G1 X118.327 Y91.020 E0.01723
G1 X118.587 Y91.280 E0.01172
G1 X119.128 Y91.280 E0.01723
G1 X118.868 Y91.020 E0.01172
G1 X119.409 Y91.020 E0.01723
G1 X119.670 Y91.280 E0.01172
G1 X120.211 Y91.280 E0.01723
G1 X119.951 Y91.020 E0.01172
G1 X120.492 Y91.020 E0.01723
G1 X120.752 Y91.280 E0.01172
G1 X121.130 Y91.280 E0.01203
G1 X121.130 Y91.117 E0.00521
G1 X120.870 Y90.856 E0.01172
G1 X120.870 Y90.315 E0.01723
G1 X121.130 Y90.575 E0.01172
G1 X121.130 Y90.034 E0.01723
G1 X120.870 Y89.774 E0.01172
G1 X120.870 Y89.232 E0.01723
G1 X121.130 Y89.493 E0.01172
G1 X121.130 Y88.951 E0.01723
G1 X120.870 Y88.691 E0.01172
G1 X120.870 Y88.150 E0.01723
G1 X121.130 Y88.410 E0.01172
G1 X121.130 Y87.868 E0.01723
G1 X120.870 Y87.608 E0.01172
G1 X120.870 Y87.067 E0.01723
G1 X121.130 Y87.327 E0.01172
G1 X121.130 Y86.786 E0.01723
G1 X120.870 Y86.525 E0.01172
G1 X120.870 Y85.984 E0.01723
G1 X121.130 Y86.244 E0.01172
G1 X121.130 Y85.703 E0.01723
G1 X120.870 Y85.443 E0.01172
G1 X120.870 Y84.901 E0.01723
G1 X121.130 Y85.162 E0.01172
G1 X121.130 Y84.620 E0.01723
G1 X120.870 Y84.360 E0.01172
G1 X120.870 Y83.819 E0.01723
G1 X121.130 Y84.079 E0.01172
G1 X121.130 Y83.538 E0.01723
G1 X120.312 Y82.720 E0.03681
G1 X120.854 Y82.720 E0.01723
G1 X121.300 Y83.166 E0.02008
G1 F8640
G1 X120.854 Y82.720 E-0.14566
G1 X120.312 Y82.720 E-0.12500
G1 X121.130 Y83.538 E-0.26703
G1 X121.130 Y84.079 E-0.12500
G1 X120.870 Y83.819 E-0.08499
G1 X120.870 Y83.872 E-0.01232
G1 E-0.04000 F2100.00000
G1 Z0.800 F10800.000
G1 X120.201 Y83.150
G1 Z0.200
G1 E0.80000 F2100.00000
G1 F1200
G1 X119.771 Y82.720 E0.01935
G1 X119.230 Y82.720 E0.01723
G1 X119.490 Y82.980 E0.01172
G1 X118.949 Y82.980 E0.01723
G1 X118.688 Y82.720 E0.01172
G1 X118.147 Y82.720 E0.01723
G1 X118.407 Y82.980 E0.01172
G1 X117.866 Y82.980 E0.01723
G1 X117.588 Y82.702 E0.01252
G1 X117.000 Y82.656 E0.01876
G1 X117.325 Y82.980 E0.01461
G1 X116.783 Y82.980 E0.01723
G1 X116.302 Y82.499 E0.02165
G1 X116.035 Y82.435 E0.00874
G1 X115.457 Y82.196 E0.01991
G1 X116.242 Y82.980 E0.03531
G1 X115.700 Y82.980 E0.01723
G1 X111.220 Y78.500 E0.20169
G1 X111.220 Y77.958 E0.01723
G1 X112.504 Y79.243 E0.05781
G1 X112.265 Y78.665 E0.01991
G1 X112.201 Y78.398 E0.00874
G1 X111.220 Y77.417 E0.04415
G1 X111.220 Y76.875 E0.01723
G1 X112.044 Y77.700 E0.03711
G1 X111.998 Y77.112 E0.01876
G1 X111.220 Y76.334 E0.03503
G1 X111.220 Y75.793 E0.01723
G1 X111.980 Y76.553 E0.03422
G1 X111.980 Y76.012 E0.01723
G1 X111.220 Y75.251 E0.03422
G1 X111.220 Y74.710 E0.01723
G1 X111.980 Y75.470 E0.03422
G1 X111.980 Y74.929 E0.01723
G1 X111.220 Y74.169 E0.03422
G1 X111.220 Y73.627 E0.01723
G1 X111.980 Y74.388 E0.03422
G1 X111.980 Y73.846 E0.01723
G1 X111.220 Y73.086 E0.03422
G1 X111.220 Y72.870 E0.00688
G1 X111.545 Y72.870 E0.01035
G1 X112.150 Y73.475 E0.02722
G1 F8640
G1 X111.545 Y72.870 E-0.19747
G1 X111.220 Y72.870 E-0.07510
G1 X111.220 Y73.086 E-0.04990
G1 X111.980 Y73.846 E-0.24826
G1 X111.980 Y74.388 E-0.12500
G1 X111.783 Y74.191 E-0.06427
G1 E-0.04000 F2100.00000
G1 Z0.800 F10800.000
G1 X133.825 Y90.737
G1 Z0.200
G1 E0.80000 F2100.00000
G1 F1200
G1 X131.913 Y90.737 E0.05995
G1 X131.913 Y83.263 E0.23435
G1 X138.237 Y83.263 E0.19829
G1 X138.237 Y90.737 E0.23435
G1 X133.885 Y90.737 E0.13646
G1 X133.825 Y90.360 F10800.000
G1 F1200
G1 X132.290 Y90.360 E0.04813
G1 X132.290 Y83.640 E0.21070
G1 X137.860 Y83.640 E0.17464
G1 X137.860 Y90.360 E0.21070
G1 X133.885 Y90.360 E0.12463
G1 X133.753 Y90.754 F10800.000
G1 F8640
G1 X132.290 Y90.360 E-0.36829
G1 X132.290 Y88.664 E-0.39171
G1 E-0.04000 F2100.00000
G1 Z0.800 F10800.000
G1 X129.913 Y101.413
G1 Z0.200
G1 E0.80000 F2100.00000
G1 F1200
G1 X128.587 Y101.413 E0.04157
G1 X128.587 Y72.587 E0.90381
G1 X129.913 Y72.587 E0.04157
G1 X129.913 Y76.873 E0.13438
G1 X129.980 Y77.724 E0.02677
G1 X130.185 Y78.577 E0.02750
G1 X130.520 Y79.387 E0.02750
G1 X130.978 Y80.135 E0.02750
G1 X131.548 Y80.802 E0.02750
G1 X132.215 Y81.372 E0.02750
G1 X132.963 Y81.830 E0.02750
G1 X133.773 Y82.165 E0.02750
G1 X134.626 Y82.370 E0.02750
G1 X135.477 Y82.437 E0.02677
G1 X139.063 Y82.437 E0.11244
G1 X139.063 Y91.563 E0.28613
G1 X135.477 Y91.563 E0.11244
G1 X134.625 Y91.630 E0.02678
G1 X133.767 Y91.837 E0.02770
G1 X132.963 Y92.170 E0.02728
G1 X132.215 Y92.628 E0.02750
G1 X131.548 Y93.198 E0.02750
G1 X130.978 Y93.865 E0.02751
G1 X130.518 Y94.619 E0.02770
G1 X130.185 Y95.423 E0.02728
G1 X129.980 Y96.276 E0.02750
G1 X129.913 Y97.127 E0.02677
G1 X129.913 Y101.353 E0.13250
G1 X130.290 Y101.790 F10800.000
G1 F1200
G1 X128.210 Y101.790 E0.06522
G1 X128.210 Y72.210 E0.92746
G1 X130.290 Y72.210 E0.06522
G1 X130.290 Y76.858 E0.14574
G1 X130.354 Y77.665 E0.02538
G1 X130.544 Y78.460 E0.02564
G1 X130.857 Y79.216 E0.02564
G1 X131.284 Y79.913 E0.02564
G1 X131.816 Y80.534 E0.02564
G1 X132.437 Y81.066 E0.02564
G1 X133.134 Y81.493 E0.02564
G1 X133.890 Y81.806 E0.02564
G1 X134.685 Y81.996 E0.02564
G1 X135.492 Y82.060 E0.02538
G1 X139.440 Y82.060 E0.12379
G1 X139.440 Y91.940 E0.30978
G1 X135.492 Y91.940 E0.12379
G1 X134.685 Y92.004 E0.02538
G1 X133.884 Y92.197 E0.02584
G1 X133.134 Y92.507 E0.02543
G1 X132.437 Y92.934 E0.02564
G1 X131.816 Y93.466 E0.02564
G1 X131.284 Y94.087 E0.02564
G1 X130.855 Y94.791 E0.02584
G1 X130.544 Y95.540 E0.02543
G1 X130.354 Y96.335 E0.02564
G1 X130.290 Y97.142 E0.02538
M73 P1 R95
G1 X130.290 Y101.730 E0.14386
G1 X129.944 Y101.589 F10800.000
G1 F8640
G1 X128.210 Y101.790 E-0.48048
G1 X128.210 Y100.579 E-0.27952
G1 E-0.04000 F2100.00000
G1 Z0.800 F10800.000
G1 X128.700 Y100.525
G1 Z0.200
G1 E0.80000 F2100.00000
G1 F1200
G1 X129.305 Y101.130 E0.02722
G1 X129.630 Y101.130 E0.01035
G1 X129.630 Y100.914 E0.00688
G1 X128.870 Y100.154 E0.03422
G1 X128.870 Y99.612 E0.01723
G1 X129.630 Y100.373 E0.03422
G1 X129.630 Y99.831 E0.01723
G1 X128.870 Y99.071 E0.03422
G1 X128.870 Y98.530 E0.01723
G1 X129.630 Y99.290 E0.03422
G1 X129.630 Y98.749 E0.01723
G1 X128.870 Y97.988 E0.03422
G1 X128.870 Y97.447 E0.01723
G1 X129.630 Y98.207 E0.03422
G1 X129.630 Y97.666 E0.01723
G1 X128.870 Y96.906 E0.03422
G1 X128.870 Y96.364 E0.01723
G1 X129.630 Y97.125 E0.03422
G1 X129.669 Y96.622 E0.01604
G1 X128.870 Y95.823 E0.03597
G1 X128.870 Y95.282 E0.01723
G1 X129.723 Y96.135 E0.03840
G1 X129.828 Y95.698 E0.01429
G1 X128.870 Y94.740 E0.04312
G1 X128.870 Y94.199 E0.01723
G1 X129.942 Y95.271 E0.04824
G1 X130.100 Y94.888 E0.01319
G1 X128.870 Y93.658 E0.05538
G1 X128.870 Y93.116 E0.01723
G1 X130.259 Y94.505 E0.06252
G1 X130.462 Y94.167 E0.01255
G1 X128.870 Y92.575 E0.07168
G1 X128.870 Y92.033 E0.01723
G1 X130.668 Y93.831 E0.08092
G1 X130.749 Y93.699 E0.00495
G1 X130.900 Y93.522 E0.00740
G1 X128.870 Y91.492 E0.09137
G1 X128.870 Y90.951 E0.01723
G1 X131.149 Y93.230 E0.10259
G1 X131.407 Y92.947 E0.01220
G1 X128.870 Y90.409 E0.11421
G1 X128.870 Y89.868 E0.01723
G1 X131.699 Y92.697 E0.12735
G1 X131.991 Y92.448 E0.01222
G1 X128.870 Y89.327 E0.14050
G1 X128.870 Y88.785 E0.01723
G1 X132.442 Y92.357 E0.16077
G1 F8640
G1 X130.114 Y90.030 E-0.76000
G1 E-0.04000 F2100.00000
G1 Z0.800 F10800.000
G1 X132.979 Y83.150
G1 Z0.200
G1 E0.80000 F2100.00000
G1 F1200
G1 X128.870 Y79.041 E0.18496
G1 X128.870 Y79.582 E0.01723
G1 X132.268 Y82.980 E0.15295
G1 X131.726 Y82.980 E0.01723
G1 X128.870 Y80.124 E0.12858
G1 X128.870 Y80.665 E0.01723
G1 X131.630 Y83.425 E0.12425
G1 X131.630 Y83.967 E0.01723
G1 X128.870 Y81.206 E0.12425
G1 X128.870 Y81.748 E0.01723
G1 X131.630 Y84.508 E0.12425
G1 X131.630 Y85.049 E0.01723
G1 X128.870 Y82.289 E0.12425
G1 X128.870 Y82.830 E0.01723
G1 X131.630 Y85.591 E0.12425
G1 X131.630 Y86.132 E0.01723
G1 X128.870 Y83.372 E0.12425
G1 X128.870 Y83.913 E0.01723
G1 X131.630 Y86.673 E0.12425
G1 X131.630 Y87.215 E0.01723
G1 X128.870 Y84.454 E0.12425
G1 X128.870 Y84.996 E0.01723
G1 X131.630 Y87.756 E0.12425
G1 X131.630 Y88.297 E0.01723
G1 X128.870 Y85.537 E0.12425
G1 X128.870 Y86.079 E0.01723
G1 X131.630 Y88.839 E0.12425
G1 X131.630 Y89.380 E0.01723
G1 X128.870 Y86.620 E0.12425
G1 X128.870 Y87.161 E0.01723
G1 X131.630 Y89.922 E0.12425
