; generated by PrusaSlicer 2.2.0+win64 on 2020-11-03 at 18:03:52 UTC

; 

; external perimeters extrusion width = 0.60mm
; perimeters extrusion width = 0.43mm
; infill extrusion width = 0.45mm
; solid infill extrusion width = 0.70mm
; top infill extrusion width = 0.43mm
; support material extrusion width = 0.37mm
; first layer extrusion width = 0.42mm

M73 P0 R154
M201 X9000 Y9000 Z500 E10000 ; sets maximum accelerations, mm/sec^2
M203 X500 Y500 Z12 E120 ; sets maximum feedrates, mm/sec
M204 P2000 R1500 T2000 ; sets acceleration (P, T) and retract acceleration (R), mm/sec^2
M205 X10.00 Y10.00 Z0.20 E2.50 ; sets the jerk limits, mm/sec
M205 S0 T0 ; sets the minimum extruding and travel feed rate, mm/sec
M107
M862.3 P "MK2.5SMMU2S" ; printer model check
M862.1 P0.4 ; nozzle diameter check
M115 U3.8.0 ; tell printer latest fw version
G90 ; use absolute coordinates
M83 ; extruder relative mode
M104 S215 ; set extruder temp
M140 S60 ; set bed temp
Tx
M190 S60 ; wait for bed temp
M109 S215 ; wait for extruder temp
G28 W ; home all without mesh bed level
G80 ; mesh bed leveling

G21 ; set units to millimeters

;go outside print area
G1 Y-3.0 F1000.0
G1 Z0.4 F1000.0
; select extruder
Tc
; purge line
G1 X55.0 F2000.0
G1 Z0.3 F1000.0
G92 E0.0
G1 X240.0 E25.0 F2200.0
M73 P0 R154
G1 Y-2.0 F1000.0
G1 X55.0 E25 F1400.0
G1 Z0.20 F1000.0
G1 X5.0 E4.0 F1000.0
G92 E0.0
G21 ; set units to millimeters
G90 ; use absolute coordinates
M83 ; use relative distances for extrusion
M900 K0.06 ; Filament gcode LA 1.5
M900 K30 ; Filament gcode LA 1.0
;BEFORE_LAYER_CHANGE
G92 E0.0
;0.2


G1 E-0.80000 F2100.00000
G1 Z0.600 F10800.000
;AFTER_LAYER_CHANGE
;0.2
G1 X63.940 Y29.314
G1 Z0.200
G1 E0.80000 F2100.00000
M204 S1000
G1 F1200.000
G1 X64.313 Y28.825 E0.01929
G1 X64.797 Y28.450 E0.01917
G1 X65.359 Y28.211 E0.01917
G1 X65.968 Y28.123 E0.01929
G1 X153.004 Y28.123 E2.72893
G1 X153.643 Y28.212 E0.02024
G1 X154.235 Y28.469 E0.02024
G1 X154.736 Y28.876 E0.02024
G1 X155.111 Y29.407 E0.02036
G1 X186.130 Y91.444 E2.17473
G1 X186.311 Y91.944 E0.01668
G1 X186.377 Y92.468 E0.01657
G1 X186.377 Y117.511 E0.78521
G1 X186.240 Y118.296 E0.02496
G1 X155.061 Y180.684 E2.18681
G1 X154.686 Y181.176 E0.01941
G1 X154.199 Y181.553 E0.01929
G1 X153.632 Y181.792 E0.01929
G1 X153.023 Y181.877 E0.01929
G1 X65.992 Y181.877 E2.72877
G1 X65.382 Y181.795 E0.01929
G1 X64.814 Y181.560 E0.01929
G1 X64.322 Y181.184 E0.01941
G1 X63.944 Y180.694 E0.01941
G1 X63.706 Y180.122 E0.01941
G1 X63.623 Y179.513 E0.01929
G1 X63.623 Y30.496 E4.67230
G1 X63.704 Y29.886 E0.01929
G1 X63.917 Y29.369 E0.01753
G1 E-0.80000 F2100.00000
G1 Z0.800 F10800.000
G1 X66.787 Y93.287
G1 Z0.200
G1 E0.80000 F2100.00000
G1 F1200.000
G1 X90.213 Y93.287 E0.73450
G1 X90.213 Y116.713 E0.73450
G1 X66.787 Y116.713 E0.73450
G1 X66.787 Y93.347 E0.73262
G1 X66.410 Y92.910 F10800.000
G1 F1200.000
G1 X90.590 Y92.910 E0.75815
G1 X90.590 Y117.090 E0.75815
G1 X66.410 Y117.090 E0.75815
G1 X66.410 Y92.970 E0.75627
G1 X66.796 Y93.014 F10800.000
G1 E-0.80000 F2100.00000
G1 Z0.800 F10800.000
G1 X90.100 Y94.164
G1 Z0.200
G1 E0.80000 F2100.00000
G1 F1200.000
G1 X89.506 Y93.570 E0.02638
G1 X88.972 Y93.570 E0.01678
G1 X89.930 Y94.528 E0.04257
G1 X89.930 Y95.063 E0.01678
G1 X88.437 Y93.570 E0.06630
G1 X87.903 Y93.570 E0.01678
G1 X89.930 Y95.597 E0.09003
G1 X89.930 Y96.131 E0.01678
G1 X87.369 Y93.570 E0.11376
G1 X86.835 Y93.570 E0.01678
G1 X89.930 Y96.665 E0.13748
G1 X89.930 Y97.199 E0.01678
G1 X86.301 Y93.570 E0.16121
G1 X85.767 Y93.570 E0.01678
G1 X89.930 Y97.733 E0.18494
G1 X89.930 Y98.268 E0.01678
G1 X85.232 Y93.570 E0.20867
G1 X84.698 Y93.570 E0.01678
G1 X89.930 Y98.802 E0.23240
G1 X89.930 Y99.336 E0.01678
G1 X84.164 Y93.570 E0.25612
G1 X83.630 Y93.570 E0.01678
G1 X89.930 Y99.870 E0.27985
G1 X89.930 Y100.404 E0.01678
G1 X83.096 Y93.570 E0.30358
G1 X82.561 Y93.570 E0.01678
G1 X89.930 Y100.939 E0.32731
G1 X89.930 Y101.473 E0.01678
G1 X82.027 Y93.570 E0.35103
G1 X81.493 Y93.570 E0.01678
G1 X89.930 Y102.007 E0.37476
G1 X89.930 Y102.541 E0.01678
G1 X80.959 Y93.570 E0.39849
G1 X80.425 Y93.570 E0.01678
G1 X89.930 Y103.075 E0.42222
G1 X89.930 Y103.610 E0.01678
G1 X79.890 Y93.570 E0.44595
G1 X79.356 Y93.570 E0.01678
G1 X89.930 Y104.144 E0.46967
G1 X89.930 Y104.678 E0.01678
G1 X78.822 Y93.570 E0.49340
G1 X78.288 Y93.570 E0.01678
G1 X89.930 Y105.212 E0.51713
G1 X89.930 Y105.746 E0.01678
G1 X77.754 Y93.570 E0.54086
G1 X77.219 Y93.570 E0.01678
G1 X89.930 Y106.281 E0.56458
G1 X89.930 Y106.815 E0.01678
G1 X76.685 Y93.570 E0.58831
M73 P0 R153
G1 X76.151 Y93.570 E0.01678
G1 X89.930 Y107.349 E0.61204
G1 X89.930 Y107.883 E0.01678
G1 X75.617 Y93.570 E0.63577
G1 X75.083 Y93.570 E0.01678
G1 X89.930 Y108.417 E0.65950
G1 X89.930 Y108.951 E0.01678
G1 X74.548 Y93.570 E0.68322
G1 X74.014 Y93.570 E0.01678
G1 X89.930 Y109.486 E0.70695
G1 X89.930 Y110.020 E0.01678
G1 X73.480 Y93.570 E0.73068
G1 X72.946 Y93.570 E0.01678
G1 X89.930 Y110.554 E0.75441
G1 X89.930 Y111.088 E0.01678
G1 X72.412 Y93.570 E0.77813
G1 X71.878 Y93.570 E0.01678
G1 X89.930 Y111.622 E0.80186
G1 X89.930 Y112.157 E0.01678
G1 X71.343 Y93.570 E0.82559
G1 X70.809 Y93.570 E0.01678
G1 X89.930 Y112.691 E0.84932
G1 X89.930 Y113.225 E0.01678
G1 X70.275 Y93.570 E0.87305
G1 X69.741 Y93.570 E0.01678
G1 X89.930 Y113.759 E0.89677
G1 X89.930 Y114.293 E0.01678
G1 X69.207 Y93.570 E0.92050
G1 X68.672 Y93.570 E0.01678
G1 X89.930 Y114.828 E0.94423
G1 X89.930 Y115.362 E0.01678
G1 X68.138 Y93.570 E0.96796
G1 X67.604 Y93.570 E0.01678
G1 X89.930 Y115.896 E0.99168
G1 X89.930 Y116.430 E0.01678
G1 X67.070 Y93.570 E1.01541
G1 X67.070 Y94.104 E0.01678
G1 X89.396 Y116.430 E0.99168
G1 X88.862 Y116.430 E0.01678
G1 X67.070 Y94.638 E0.96795
G1 X67.070 Y95.172 E0.01678
G1 X88.327 Y116.430 E0.94422
G1 X87.793 Y116.430 E0.01678
G1 X67.070 Y95.707 E0.92050
G1 X67.070 Y96.241 E0.01678
G1 X87.259 Y116.430 E0.89677
G1 X86.725 Y116.430 E0.01678
G1 X67.070 Y96.775 E0.87304
G1 X67.070 Y97.309 E0.01678
G1 X86.191 Y116.430 E0.84931
G1 X85.657 Y116.430 E0.01678
G1 X67.070 Y97.843 E0.82559
G1 X67.070 Y98.378 E0.01678
G1 X85.122 Y116.430 E0.80186
G1 X84.588 Y116.430 E0.01678
G1 X67.070 Y98.912 E0.77813
G1 X67.070 Y99.446 E0.01678
G1 X84.054 Y116.430 E0.75440
G1 X83.520 Y116.430 E0.01678
G1 X67.070 Y99.980 E0.73067
G1 X67.070 Y100.514 E0.01678
G1 X82.986 Y116.430 E0.70695
G1 X82.451 Y116.430 E0.01678
G1 X67.070 Y101.049 E0.68322
G1 X67.070 Y101.583 E0.01678
G1 X81.917 Y116.430 E0.65949
G1 X81.383 Y116.430 E0.01678
G1 X67.070 Y102.117 E0.63576
G1 X67.070 Y102.651 E0.01678
G1 X80.849 Y116.430 E0.61204
G1 X80.315 Y116.430 E0.01678
G1 X67.070 Y103.185 E0.58831
G1 X67.070 Y103.720 E0.01678
G1 X79.780 Y116.430 E0.56458
G1 X79.246 Y116.430 E0.01678
G1 X67.070 Y104.254 E0.54085
G1 X67.070 Y104.788 E0.01678
G1 X78.712 Y116.430 E0.51712
G1 X78.178 Y116.430 E0.01678
G1 X67.070 Y105.322 E0.49340
G1 X67.070 Y105.856 E0.01678
G1 X77.644 Y116.430 E0.46967
G1 X77.109 Y116.430 E0.01678
G1 X67.070 Y106.391 E0.44594
G1 X67.070 Y106.925 E0.01678
G1 X76.575 Y116.430 E0.42221
G1 X76.041 Y116.430 E0.01678
G1 X67.070 Y107.459 E0.39849
G1 X67.070 Y107.993 E0.01678
G1 X75.507 Y116.430 E0.37476
G1 X74.973 Y116.430 E0.01678
G1 X67.070 Y108.527 E0.35103
G1 X67.070 Y109.061 E0.01678
G1 X74.439 Y116.430 E0.32730
G1 X73.904 Y116.430 E0.01678
G1 X67.070 Y109.596 E0.30357
G1 X67.070 Y110.130 E0.01678
G1 X73.370 Y116.430 E0.27985
G1 X72.836 Y116.430 E0.01678
G1 X67.070 Y110.664 E0.25612
G1 X67.070 Y111.198 E0.01678
G1 X72.302 Y116.430 E0.23239
G1 X71.768 Y116.430 E0.01678
G1 X67.070 Y111.732 E0.20866
G1 X67.070 Y112.267 E0.01678
G1 X71.233 Y116.430 E0.18494
G1 X70.699 Y116.430 E0.01678
G1 X67.070 Y112.801 E0.16121
G1 X67.070 Y113.335 E0.01678
G1 X70.165 Y116.430 E0.13748
G1 X69.631 Y116.430 E0.01678
G1 X67.070 Y113.869 E0.11375
G1 X67.070 Y114.403 E0.01678
G1 X69.097 Y116.430 E0.09002
G1 X68.562 Y116.430 E0.01678
G1 X67.070 Y114.938 E0.06630
G1 X67.070 Y115.472 E0.01678
G1 X68.028 Y116.430 E0.04257
G1 X67.494 Y116.430 E0.01678
G1 X66.900 Y115.836 E0.02638
G1 E-0.80000 F2100.00000
G1 Z0.800 F10800.000
G1 X66.900 Y124.287
G1 Z0.200
G1 E0.80000 F2100.00000
G1 F1200.000
G1 X90.213 Y124.287 E0.73095
M73 P1 R152
G1 X90.213 Y147.713 E0.73450
G1 X66.787 Y147.713 E0.73450
G1 X66.787 Y124.287 E0.73450
G1 X66.840 Y124.287 E0.00167
G1 X66.410 Y123.910 F10800.000
G1 F1200.000
G1 X90.590 Y123.910 E0.75815
G1 X90.590 Y148.090 E0.75815
G1 X66.410 Y148.090 E0.75815
G1 X66.410 Y123.970 E0.75627
G1 X66.796 Y124.014 F10800.000
G1 E-0.80000 F2100.00000
G1 Z0.800 F10800.000
G1 X90.100 Y125.164
G1 Z0.200
G1 E0.80000 F2100.00000
G1 F1200.000
G1 X89.506 Y124.570 E0.02638
G1 X88.972 Y124.570 E0.01678
G1 X89.930 Y125.528 E0.04257
G1 X89.930 Y126.063 E0.01678
G1 X88.437 Y124.570 E0.06630
G1 X87.903 Y124.570 E0.01678
G1 X89.930 Y126.597 E0.09003
G1 X89.930 Y127.131 E0.01678
G1 X87.369 Y124.570 E0.11376
G1 X86.835 Y124.570 E0.01678
G1 X89.930 Y127.665 E0.13748
G1 X89.930 Y128.199 E0.01678
G1 X86.301 Y124.570 E0.16121
G1 X85.767 Y124.570 E0.01678
G1 X89.930 Y128.733 E0.18494
G1 X89.930 Y129.268 E0.01678
G1 X85.232 Y124.570 E0.20867
G1 X84.698 Y124.570 E0.01678
G1 X89.930 Y129.802 E0.23240
G1 X89.930 Y130.336 E0.01678
G1 X84.164 Y124.570 E0.25612
G1 X83.630 Y124.570 E0.01678
G1 X89.930 Y130.870 E0.27985
G1 X89.930 Y131.404 E0.01678
G1 X83.096 Y124.570 E0.30358
G1 X82.561 Y124.570 E0.01678
G1 X89.930 Y131.939 E0.32731
G1 X89.930 Y132.473 E0.01678
G1 X82.027 Y124.570 E0.35103
G1 X81.493 Y124.570 E0.01678
G1 X89.930 Y133.007 E0.37476
G1 X89.930 Y133.541 E0.01678
G1 X80.959 Y124.570 E0.39849
G1 X80.425 Y124.570 E0.01678
G1 X89.930 Y134.075 E0.42222
G1 X89.930 Y134.610 E0.01678
G1 X79.890 Y124.570 E0.44595
G1 X79.356 Y124.570 E0.01678
G1 X89.930 Y135.144 E0.46967
G1 X89.930 Y135.678 E0.01678
G1 X78.822 Y124.570 E0.49340
G1 X78.288 Y124.570 E0.01678
G1 X89.930 Y136.212 E0.51713
G1 X89.930 Y136.746 E0.01678
G1 X77.754 Y124.570 E0.54086
G1 X77.219 Y124.570 E0.01678
G1 X89.930 Y137.281 E0.56458
G1 X89.930 Y137.815 E0.01678
G1 X76.685 Y124.570 E0.58831
G1 X76.151 Y124.570 E0.01678
G1 X89.930 Y138.349 E0.61204
G1 X89.930 Y138.883 E0.01678
G1 X75.617 Y124.570 E0.63577
G1 X75.083 Y124.570 E0.01678
G1 X89.930 Y139.417 E0.65950
G1 X89.930 Y139.952 E0.01678
G1 X74.548 Y124.570 E0.68322
G1 X74.014 Y124.570 E0.01678
G1 X89.930 Y140.486 E0.70695
G1 X89.930 Y141.020 E0.01678
G1 X73.480 Y124.570 E0.73068
G1 X72.946 Y124.570 E0.01678
G1 X89.930 Y141.554 E0.75441
G1 X89.930 Y142.088 E0.01678
G1 X72.412 Y124.570 E0.77813
G1 X71.878 Y124.570 E0.01678
G1 X89.930 Y142.622 E0.80186
G1 X89.930 Y143.157 E0.01678
G1 X71.343 Y124.570 E0.82559
G1 X70.809 Y124.570 E0.01678
G1 X89.930 Y143.691 E0.84932
G1 X89.930 Y144.225 E0.01678
G1 X70.275 Y124.570 E0.87305
G1 X69.741 Y124.570 E0.01678
G1 X89.930 Y144.759 E0.89677
G1 X89.930 Y145.293 E0.01678
G1 X69.207 Y124.570 E0.92050
G1 X68.672 Y124.570 E0.01678
G1 X89.930 Y145.828 E0.94423
G1 X89.930 Y146.362 E0.01678
G1 X68.138 Y124.570 E0.96796
G1 X67.604 Y124.570 E0.01678
G1 X89.930 Y146.896 E0.99168
G1 X89.930 Y147.430 E0.01678
G1 X67.070 Y124.570 E1.01541
G1 X67.070 Y125.104 E0.01678
G1 X89.396 Y147.430 E0.99168
G1 X88.862 Y147.430 E0.01678
G1 X67.070 Y125.638 E0.96795
G1 X67.070 Y126.172 E0.01678
G1 X88.327 Y147.430 E0.94422
G1 X87.793 Y147.430 E0.01678
G1 X67.070 Y126.707 E0.92050
G1 X67.070 Y127.241 E0.01678
G1 X87.259 Y147.430 E0.89677
G1 X86.725 Y147.430 E0.01678
G1 X67.070 Y127.775 E0.87304
G1 X67.070 Y128.309 E0.01678
G1 X86.191 Y147.430 E0.84931
G1 X85.657 Y147.430 E0.01678
G1 X67.070 Y128.843 E0.82559
G1 X67.070 Y129.378 E0.01678
G1 X85.122 Y147.430 E0.80186
G1 X84.588 Y147.430 E0.01678
G1 X67.070 Y129.912 E0.77813
M73 P2 R151
G1 X67.070 Y130.446 E0.01678
G1 X84.054 Y147.430 E0.75440
G1 X83.520 Y147.430 E0.01678
G1 X67.070 Y130.980 E0.73067
G1 X67.070 Y131.514 E0.01678
G1 X82.986 Y147.430 E0.70695
G1 X82.451 Y147.430 E0.01678
G1 X67.070 Y132.049 E0.68322
G1 X67.070 Y132.583 E0.01678
G1 X81.917 Y147.430 E0.65949
G1 X81.383 Y147.430 E0.01678
G1 X67.070 Y133.117 E0.63576
G1 X67.070 Y133.651 E0.01678
G1 X80.849 Y147.430 E0.61204
G1 X80.315 Y147.430 E0.01678
G1 X67.070 Y134.185 E0.58831
G1 X67.070 Y134.720 E0.01678
G1 X79.780 Y147.430 E0.56458
G1 X79.246 Y147.430 E0.01678
G1 X67.070 Y135.254 E0.54085
G1 X67.070 Y135.788 E0.01678
G1 X78.712 Y147.430 E0.51712
G1 X78.178 Y147.430 E0.01678
G1 X67.070 Y136.322 E0.49340
G1 X67.070 Y136.856 E0.01678
G1 X77.644 Y147.430 E0.46967
G1 X77.109 Y147.430 E0.01678
G1 X67.070 Y137.391 E0.44594
G1 X67.070 Y137.925 E0.01678
G1 X76.575 Y147.430 E0.42221
G1 X76.041 Y147.430 E0.01678
G1 X67.070 Y138.459 E0.39849
G1 X67.070 Y138.993 E0.01678
G1 X75.507 Y147.430 E0.37476
G1 X74.973 Y147.430 E0.01678
G1 X67.070 Y139.527 E0.35103
G1 X67.070 Y140.061 E0.01678
G1 X74.439 Y147.430 E0.32730
G1 X73.904 Y147.430 E0.01678
G1 X67.070 Y140.596 E0.30357
G1 X67.070 Y141.130 E0.01678
G1 X73.370 Y147.430 E0.27985
G1 X72.836 Y147.430 E0.01678
G1 X67.070 Y141.664 E0.25612
G1 X67.070 Y142.198 E0.01678
G1 X72.302 Y147.430 E0.23239
G1 X71.768 Y147.430 E0.01678
G1 X67.070 Y142.732 E0.20866
G1 X67.070 Y143.267 E0.01678
G1 X71.233 Y147.430 E0.18494
G1 X70.699 Y147.430 E0.01678
G1 X67.070 Y143.801 E0.16121
G1 X67.070 Y144.335 E0.01678
G1 X70.165 Y147.430 E0.13748
G1 X69.631 Y147.430 E0.01678
G1 X67.070 Y144.869 E0.11375
G1 X67.070 Y145.403 E0.01678
G1 X69.097 Y147.430 E0.09002
G1 X68.562 Y147.430 E0.01678
G1 X67.070 Y145.938 E0.06630
G1 X67.070 Y146.472 E0.01678
G1 X68.028 Y147.430 E0.04257
G1 X67.494 Y147.430 E0.01678
G1 X66.900 Y146.836 E0.02638
G1 E-0.80000 F2100.00000
G1 Z0.800 F10800.000
G1 X66.900 Y155.287
G1 Z0.200
G1 E0.80000 F2100.00000
G1 F1200.000
G1 X90.213 Y155.287 E0.73095
G1 X90.213 Y178.713 E0.73450
G1 X66.787 Y178.713 E0.73450
G1 X66.787 Y155.287 E0.73450
G1 X66.840 Y155.287 E0.00167
G1 X66.410 Y154.910 F10800.000
G1 F1200.000
G1 X90.590 Y154.910 E0.75815
G1 X90.590 Y179.090 E0.75815
G1 X66.410 Y179.090 E0.75815
G1 X66.410 Y154.970 E0.75627
G1 X66.796 Y155.014 F10800.000
G1 E-0.80000 F2100.00000
G1 Z0.800 F10800.000
G1 X90.100 Y156.164
G1 Z0.200
G1 E0.80000 F2100.00000
G1 F1200.000
G1 X89.506 Y155.570 E0.02638
G1 X88.972 Y155.570 E0.01678
G1 X89.930 Y156.528 E0.04257
G1 X89.930 Y157.063 E0.01678
G1 X88.437 Y155.570 E0.06630
G1 X87.903 Y155.570 E0.01678
G1 X89.930 Y157.597 E0.09003
G1 X89.930 Y158.131 E0.01678
G1 X87.369 Y155.570 E0.11376
G1 X86.835 Y155.570 E0.01678
G1 X89.930 Y158.665 E0.13748
G1 X89.930 Y159.199 E0.01678
G1 X86.301 Y155.570 E0.16121
G1 X85.767 Y155.570 E0.01678
G1 X89.930 Y159.733 E0.18494
G1 X89.930 Y160.268 E0.01678
G1 X85.232 Y155.570 E0.20867
G1 X84.698 Y155.570 E0.01678
G1 X89.930 Y160.802 E0.23240
G1 X89.930 Y161.336 E0.01678
G1 X84.164 Y155.570 E0.25612
G1 X83.630 Y155.570 E0.01678
G1 X89.930 Y161.870 E0.27985
G1 X89.930 Y162.404 E0.01678
G1 X83.096 Y155.570 E0.30358
G1 X82.561 Y155.570 E0.01678
G1 X89.930 Y162.939 E0.32731
G1 X89.930 Y163.473 E0.01678
G1 X82.027 Y155.570 E0.35103
G1 X81.493 Y155.570 E0.01678
G1 X89.930 Y164.007 E0.37476
G1 X89.930 Y164.541 E0.01678
G1 X80.959 Y155.570 E0.39849
G1 X80.425 Y155.570 E0.01678
G1 X89.930 Y165.075 E0.42222
G1 X89.930 Y165.610 E0.01678
G1 X79.890 Y155.570 E0.44595
G1 X79.356 Y155.570 E0.01678
G1 X89.930 Y166.144 E0.46967
G1 X89.930 Y166.678 E0.01678
G1 X78.822 Y155.570 E0.49340
G1 X78.288 Y155.570 E0.01678
G1 X89.930 Y167.212 E0.51713
G1 X89.930 Y167.746 E0.01678
G1 X77.754 Y155.570 E0.54086
G1 X77.219 Y155.570 E0.01678
G1 X89.930 Y168.281 E0.56458
G1 X89.930 Y168.815 E0.01678
G1 X76.685 Y155.570 E0.58831
G1 X76.151 Y155.570 E0.01678
G1 X89.930 Y169.349 E0.61204
G1 X89.930 Y169.883 E0.01678
G1 X75.617 Y155.570 E0.63577
G1 X75.083 Y155.570 E0.01678
G1 X89.930 Y170.417 E0.65950
G1 X89.930 Y170.952 E0.01678
G1 X74.548 Y155.570 E0.68322
G1 X74.014 Y155.570 E0.01678
G1 X89.930 Y171.486 E0.70695
G1 X89.930 Y172.020 E0.01678
G1 X73.480 Y155.570 E0.73068
G1 X72.946 Y155.570 E0.01678
G1 X89.930 Y172.554 E0.75441
G1 X89.930 Y173.088 E0.01678
G1 X72.412 Y155.570 E0.77813
G1 X71.878 Y155.570 E0.01678
G1 X89.930 Y173.622 E0.80186
G1 X89.930 Y174.157 E0.01678
G1 X71.343 Y155.570 E0.82559
