; generated by PrusaSlicer 2.2.0+win64 on 2020-11-03 at 18:04:01 UTC

; 

; external perimeters extrusion width = 0.60mm
; perimeters extrusion width = 0.43mm
; infill extrusion width = 0.45mm
; solid infill extrusion width = 0.70mm
; top infill extrusion width = 0.43mm
; support material extrusion width = 0.37mm
; first layer extrusion width = 0.42mm

M73 P0 R308
M201 X9000 Y9000 Z500 E10000 ; sets maximum accelerations, mm/sec^2
M203 X500 Y500 Z12 E120 ; sets maximum feedrates, mm/sec
M204 P2000 R1500 T2000 ; sets acceleration (P, T) and retract acceleration (R), mm/sec^2
M205 X10.00 Y10.00 Z0.20 E2.50 ; sets the jerk limits, mm/sec
M205 S0 T0 ; sets the minimum extruding and travel feed rate, mm/sec
M107
M862.3 P "MK2.5SMMU2S" ; printer model check
M862.1 P0.4 ; nozzle diameter check
M115 U3.8.0 ; tell printer latest fw version
G90 ; use absolute coordinates
M83 ; extruder relative mode
M104 S215 ; set extruder temp
M140 S60 ; set bed temp
Tx
M190 S60 ; wait for bed temp
M109 S215 ; wait for extruder temp
G28 W ; home all without mesh bed level
G80 ; mesh bed leveling

G21 ; set units to millimeters

;go outside print area
G1 Y-3.0 F1000.0
G1 Z0.4 F1000.0
; select extruder
Tc
; purge line
G1 X55.0 F2000.0
G1 Z0.3 F1000.0
G92 E0.0
G1 X240.0 E25.0 F2200.0
M73 P0 R308
G1 Y-2.0 F1000.0
G1 X55.0 E25 F1400.0
G1 Z0.20 F1000.0
G1 X5.0 E4.0 F1000.0
G92 E0.0
G21 ; set units to millimeters
G90 ; use absolute coordinates
M83 ; use relative distances for extrusion
M900 K0.06 ; Filament gcode LA 1.5
M900 K30 ; Filament gcode LA 1.0
;BEFORE_LAYER_CHANGE
G92 E0.0
;0.2


G1 E-0.80000 F2100.00000
G1 Z0.600 F10800.000
;AFTER_LAYER_CHANGE
;0.2
G1 X215.906 Y12.802
G1 Z0.200
G1 E0.80000 F2100.00000
M204 S1000
G1 F1200.000
G1 X216.675 Y13.313 E0.02896
G1 X217.190 Y14.076 E0.02884
G1 X217.377 Y14.976 E0.02884
G1 X217.377 Y195.008 E5.64476
G1 X217.237 Y195.803 E0.02532
G1 X216.840 Y196.505 E0.02532
G1 X216.465 Y196.872 E0.01645
G1 X216.018 Y197.148 E0.01645
G1 X215.526 Y197.318 E0.01633
G1 X215.005 Y197.377 E0.01645
G1 X65.992 Y197.377 E4.67218
G1 X65.197 Y197.237 E0.02532
G1 X64.495 Y196.840 E0.02532
G1 X64.147 Y196.489 E0.01550
G1 X63.877 Y196.070 E0.01562
G1 X32.874 Y134.063 E2.17365
G1 X32.687 Y133.549 E0.01716
G1 X32.623 Y133.005 E0.01716
G1 X32.623 Y76.996 E1.75612
G1 X32.702 Y76.394 E0.01906
G1 X63.874 Y13.937 E2.18864
G1 X64.159 Y13.496 E0.01645
G1 X64.530 Y13.132 E0.01633
G1 X64.973 Y12.856 E0.01633
G1 X65.468 Y12.683 E0.01645
G1 X65.985 Y12.623 E0.01633
G1 X215.004 Y12.623 E4.67238
G1 X215.847 Y12.791 E0.02696
G1 E-0.80000 F2100.00000
G1 Z0.800 F10800.000
G1 X90.213 Y170.787
G1 Z0.200
G1 E0.80000 F2100.00000
G1 F1200.000
G1 X90.213 Y194.213 E0.73450
G1 X66.787 Y194.213 E0.73450
G1 X66.787 Y170.787 E0.73450
G1 X90.153 Y170.787 E0.73262
G1 X90.590 Y170.410 F10800.000
G1 F1200.000
G1 X90.590 Y194.590 E0.75815
G1 X66.410 Y194.590 E0.75815
G1 X66.410 Y170.410 E0.75815
G1 X90.530 Y170.410 E0.75627
G1 X90.486 Y170.796 F10800.000
G1 E-0.80000 F2100.00000
G1 Z0.800 F10800.000
G1 X66.900 Y193.336
G1 Z0.200
G1 E0.80000 F2100.00000
G1 F1200.000
G1 X67.494 Y193.930 E0.02638
G1 X68.028 Y193.930 E0.01678
G1 X67.070 Y192.972 E0.04257
G1 X67.070 Y192.438 E0.01678
G1 X68.562 Y193.930 E0.06630
G1 X69.097 Y193.930 E0.01678
G1 X67.070 Y191.903 E0.09002
G1 X67.070 Y191.369 E0.01678
G1 X69.631 Y193.930 E0.11375
G1 X70.165 Y193.930 E0.01678
G1 X67.070 Y190.835 E0.13748
G1 X67.070 Y190.301 E0.01678
G1 X70.699 Y193.930 E0.16121
G1 X71.233 Y193.930 E0.01678
G1 X67.070 Y189.767 E0.18494
M73 P0 R307
G1 X67.070 Y189.232 E0.01678
G1 X71.768 Y193.930 E0.20866
G1 X72.302 Y193.930 E0.01678
G1 X67.070 Y188.698 E0.23239
G1 X67.070 Y188.164 E0.01678
G1 X72.836 Y193.930 E0.25612
G1 X73.370 Y193.930 E0.01678
G1 X67.070 Y187.630 E0.27985
G1 X67.070 Y187.096 E0.01678
G1 X73.904 Y193.930 E0.30357
G1 X74.439 Y193.930 E0.01678
G1 X67.070 Y186.561 E0.32730
G1 X67.070 Y186.027 E0.01678
G1 X74.973 Y193.930 E0.35103
G1 X75.507 Y193.930 E0.01678
G1 X67.070 Y185.493 E0.37476
G1 X67.070 Y184.959 E0.01678
G1 X76.041 Y193.930 E0.39849
G1 X76.575 Y193.930 E0.01678
G1 X67.070 Y184.425 E0.42221
G1 X67.070 Y183.891 E0.01678
G1 X77.109 Y193.930 E0.44594
G1 X77.644 Y193.930 E0.01678
G1 X67.070 Y183.356 E0.46967
G1 X67.070 Y182.822 E0.01678
G1 X78.178 Y193.930 E0.49340
G1 X78.712 Y193.930 E0.01678
G1 X67.070 Y182.288 E0.51712
G1 X67.070 Y181.754 E0.01678
G1 X79.246 Y193.930 E0.54085
G1 X79.780 Y193.930 E0.01678
G1 X67.070 Y181.220 E0.56458
G1 X67.070 Y180.685 E0.01678
G1 X80.315 Y193.930 E0.58831
G1 X80.849 Y193.930 E0.01678
G1 X67.070 Y180.151 E0.61204
G1 X67.070 Y179.617 E0.01678
G1 X81.383 Y193.930 E0.63576
G1 X81.917 Y193.930 E0.01678
G1 X67.070 Y179.083 E0.65949
G1 X67.070 Y178.549 E0.01678
G1 X82.451 Y193.930 E0.68322
G1 X82.986 Y193.930 E0.01678
G1 X67.070 Y178.014 E0.70695
G1 X67.070 Y177.480 E0.01678
G1 X83.520 Y193.930 E0.73067
G1 X84.054 Y193.930 E0.01678
G1 X67.070 Y176.946 E0.75440
G1 X67.070 Y176.412 E0.01678
G1 X84.588 Y193.930 E0.77813
G1 X85.122 Y193.930 E0.01678
G1 X67.070 Y175.878 E0.80186
G1 X67.070 Y175.343 E0.01678
G1 X85.657 Y193.930 E0.82559
G1 X86.191 Y193.930 E0.01678
G1 X67.070 Y174.809 E0.84931
G1 X67.070 Y174.275 E0.01678
G1 X86.725 Y193.930 E0.87304
G1 X87.259 Y193.930 E0.01678
G1 X67.070 Y173.741 E0.89677
G1 X67.070 Y173.207 E0.01678
G1 X87.793 Y193.930 E0.92050
G1 X88.327 Y193.930 E0.01678
G1 X67.070 Y172.672 E0.94422
G1 X67.070 Y172.138 E0.01678
G1 X88.862 Y193.930 E0.96795
G1 X89.396 Y193.930 E0.01678
G1 X67.070 Y171.604 E0.99168
G1 X67.070 Y171.070 E0.01678
G1 X89.930 Y193.930 E1.01541
G1 X89.930 Y193.396 E0.01678
G1 X67.604 Y171.070 E0.99168
G1 X68.138 Y171.070 E0.01678
G1 X89.930 Y192.862 E0.96796
G1 X89.930 Y192.328 E0.01678
G1 X68.672 Y171.070 E0.94423
G1 X69.207 Y171.070 E0.01678
G1 X89.930 Y191.793 E0.92050
G1 X89.930 Y191.259 E0.01678
G1 X69.741 Y171.070 E0.89677
G1 X70.275 Y171.070 E0.01678
G1 X89.930 Y190.725 E0.87305
G1 X89.930 Y190.191 E0.01678
G1 X70.809 Y171.070 E0.84932
G1 X71.343 Y171.070 E0.01678
G1 X89.930 Y189.657 E0.82559
G1 X89.930 Y189.122 E0.01678
G1 X71.878 Y171.070 E0.80186
G1 X72.412 Y171.070 E0.01678
G1 X89.930 Y188.588 E0.77813
G1 X89.930 Y188.054 E0.01678
G1 X72.946 Y171.070 E0.75441
G1 X73.480 Y171.070 E0.01678
G1 X89.930 Y187.520 E0.73068
G1 X89.930 Y186.986 E0.01678
G1 X74.014 Y171.070 E0.70695
G1 X74.548 Y171.070 E0.01678
G1 X89.930 Y186.452 E0.68322
G1 X89.930 Y185.917 E0.01678
G1 X75.083 Y171.070 E0.65950
G1 X75.617 Y171.070 E0.01678
G1 X89.930 Y185.383 E0.63577
G1 X89.930 Y184.849 E0.01678
G1 X76.151 Y171.070 E0.61204
G1 X76.685 Y171.070 E0.01678
G1 X89.930 Y184.315 E0.58831
G1 X89.930 Y183.781 E0.01678
G1 X77.219 Y171.070 E0.56458
G1 X77.754 Y171.070 E0.01678
G1 X89.930 Y183.246 E0.54086
M73 P0 R306
G1 X89.930 Y182.712 E0.01678
G1 X78.288 Y171.070 E0.51713
G1 X78.822 Y171.070 E0.01678
G1 X89.930 Y182.178 E0.49340
G1 X89.930 Y181.644 E0.01678
G1 X79.356 Y171.070 E0.46967
G1 X79.890 Y171.070 E0.01678
G1 X89.930 Y181.110 E0.44595
G1 X89.930 Y180.575 E0.01678
G1 X80.425 Y171.070 E0.42222
G1 X80.959 Y171.070 E0.01678
G1 X89.930 Y180.041 E0.39849
G1 X89.930 Y179.507 E0.01678
G1 X81.493 Y171.070 E0.37476
G1 X82.027 Y171.070 E0.01678
G1 X89.930 Y178.973 E0.35103
G1 X89.930 Y178.439 E0.01678
G1 X82.561 Y171.070 E0.32731
G1 X83.096 Y171.070 E0.01678
G1 X89.930 Y177.904 E0.30358
G1 X89.930 Y177.370 E0.01678
G1 X83.630 Y171.070 E0.27985
G1 X84.164 Y171.070 E0.01678
G1 X89.930 Y176.836 E0.25612
G1 X89.930 Y176.302 E0.01678
G1 X84.698 Y171.070 E0.23240
G1 X85.232 Y171.070 E0.01678
G1 X89.930 Y175.768 E0.20867
G1 X89.930 Y175.233 E0.01678
G1 X85.767 Y171.070 E0.18494
G1 X86.301 Y171.070 E0.01678
G1 X89.930 Y174.699 E0.16121
G1 X89.930 Y174.165 E0.01678
G1 X86.835 Y171.070 E0.13748
G1 X87.369 Y171.070 E0.01678
G1 X89.930 Y173.631 E0.11376
G1 X89.930 Y173.097 E0.01678
G1 X87.903 Y171.070 E0.09003
G1 X88.437 Y171.070 E0.01678
G1 X89.930 Y172.563 E0.06630
G1 X89.930 Y172.028 E0.01678
G1 X88.972 Y171.070 E0.04257
G1 X89.506 Y171.070 E0.01678
G1 X90.100 Y171.664 E0.02638
G1 E-0.80000 F2100.00000
G1 Z0.800 F10800.000
G1 X90.100 Y163.213
G1 Z0.200
G1 E0.80000 F2100.00000
G1 F1200.000
G1 X66.787 Y163.213 E0.73095
G1 X66.787 Y139.787 E0.73450
G1 X90.213 Y139.787 E0.73450
G1 X90.213 Y163.213 E0.73450
G1 X90.160 Y163.213 E0.00167
G1 X90.590 Y163.590 F10800.000
G1 F1200.000
G1 X66.410 Y163.590 E0.75815
G1 X66.410 Y139.410 E0.75815
G1 X90.590 Y139.410 E0.75815
G1 X90.590 Y163.530 E0.75627
G1 X90.204 Y163.486 F10800.000
G1 E-0.80000 F2100.00000
G1 Z0.800 F10800.000
G1 X66.900 Y162.336
G1 Z0.200
G1 E0.80000 F2100.00000
G1 F1200.000
G1 X67.494 Y162.930 E0.02638
G1 X68.028 Y162.930 E0.01678
G1 X67.070 Y161.972 E0.04257
G1 X67.070 Y161.438 E0.01678
G1 X68.562 Y162.930 E0.06630
G1 X69.097 Y162.930 E0.01678
G1 X67.070 Y160.903 E0.09002
G1 X67.070 Y160.369 E0.01678
G1 X69.631 Y162.930 E0.11375
G1 X70.165 Y162.930 E0.01678
G1 X67.070 Y159.835 E0.13748
G1 X67.070 Y159.301 E0.01678
G1 X70.699 Y162.930 E0.16121
G1 X71.233 Y162.930 E0.01678
G1 X67.070 Y158.767 E0.18494
G1 X67.070 Y158.232 E0.01678
G1 X71.768 Y162.930 E0.20866
G1 X72.302 Y162.930 E0.01678
G1 X67.070 Y157.698 E0.23239
G1 X67.070 Y157.164 E0.01678
G1 X72.836 Y162.930 E0.25612
G1 X73.370 Y162.930 E0.01678
G1 X67.070 Y156.630 E0.27985
G1 X67.070 Y156.096 E0.01678
G1 X73.904 Y162.930 E0.30357
G1 X74.439 Y162.930 E0.01678
G1 X67.070 Y155.561 E0.32730
G1 X67.070 Y155.027 E0.01678
G1 X74.973 Y162.930 E0.35103
G1 X75.507 Y162.930 E0.01678
G1 X67.070 Y154.493 E0.37476
G1 X67.070 Y153.959 E0.01678
G1 X76.041 Y162.930 E0.39849
G1 X76.575 Y162.930 E0.01678
G1 X67.070 Y153.425 E0.42221
G1 X67.070 Y152.891 E0.01678
G1 X77.109 Y162.930 E0.44594
G1 X77.644 Y162.930 E0.01678
G1 X67.070 Y152.356 E0.46967
G1 X67.070 Y151.822 E0.01678
G1 X78.178 Y162.930 E0.49340
G1 X78.712 Y162.930 E0.01678
G1 X67.070 Y151.288 E0.51712
G1 X67.070 Y150.754 E0.01678
G1 X79.246 Y162.930 E0.54085
G1 X79.780 Y162.930 E0.01678
G1 X67.070 Y150.220 E0.56458
G1 X67.070 Y149.685 E0.01678
G1 X80.315 Y162.930 E0.58831
G1 X80.849 Y162.930 E0.01678
G1 X67.070 Y149.151 E0.61204
G1 X67.070 Y148.617 E0.01678
G1 X81.383 Y162.930 E0.63576
G1 X81.917 Y162.930 E0.01678
G1 X67.070 Y148.083 E0.65949
G1 X67.070 Y147.549 E0.01678
G1 X82.451 Y162.930 E0.68322
G1 X82.986 Y162.930 E0.01678
G1 X67.070 Y147.014 E0.70695
G1 X67.070 Y146.480 E0.01678
G1 X83.520 Y162.930 E0.73067
G1 X84.054 Y162.930 E0.01678
G1 X67.070 Y145.946 E0.75440
G1 X67.070 Y145.412 E0.01678
G1 X84.588 Y162.930 E0.77813
G1 X85.122 Y162.930 E0.01678
G1 X67.070 Y144.878 E0.80186
G1 X67.070 Y144.343 E0.01678
G1 X85.657 Y162.930 E0.82559
G1 X86.191 Y162.930 E0.01678
G1 X67.070 Y143.809 E0.84931
G1 X67.070 Y143.275 E0.01678
G1 X86.725 Y162.930 E0.87304
G1 X87.259 Y162.930 E0.01678
G1 X67.070 Y142.741 E0.89677
G1 X67.070 Y142.207 E0.01678
G1 X87.793 Y162.930 E0.92050
G1 X88.327 Y162.930 E0.01678
G1 X67.070 Y141.672 E0.94422
G1 X67.070 Y141.138 E0.01678
G1 X88.862 Y162.930 E0.96795
G1 X89.396 Y162.930 E0.01678
G1 X67.070 Y140.604 E0.99168
G1 X67.070 Y140.070 E0.01678
G1 X89.930 Y162.930 E1.01541
G1 X89.930 Y162.396 E0.01678
G1 X67.604 Y140.070 E0.99168
G1 X68.138 Y140.070 E0.01678
G1 X89.930 Y161.862 E0.96796
M73 P1 R305
G1 X89.930 Y161.328 E0.01678
G1 X68.672 Y140.070 E0.94423
G1 X69.207 Y140.070 E0.01678
G1 X89.930 Y160.793 E0.92050
G1 X89.930 Y160.259 E0.01678
G1 X69.741 Y140.070 E0.89677
G1 X70.275 Y140.070 E0.01678
G1 X89.930 Y159.725 E0.87305
G1 X89.930 Y159.191 E0.01678
G1 X70.809 Y140.070 E0.84932
G1 X71.343 Y140.070 E0.01678
G1 X89.930 Y158.657 E0.82559
G1 X89.930 Y158.122 E0.01678
G1 X71.878 Y140.070 E0.80186
G1 X72.412 Y140.070 E0.01678
G1 X89.930 Y157.588 E0.77813
G1 X89.930 Y157.054 E0.01678
G1 X72.946 Y140.070 E0.75441
G1 X73.480 Y140.070 E0.01678
G1 X89.930 Y156.520 E0.73068
G1 X89.930 Y155.986 E0.01678
G1 X74.014 Y140.070 E0.70695
G1 X74.548 Y140.070 E0.01678
G1 X89.930 Y155.452 E0.68322
G1 X89.930 Y154.917 E0.01678
G1 X75.083 Y140.070 E0.65950
G1 X75.617 Y140.070 E0.01678
G1 X89.930 Y154.383 E0.63577
G1 X89.930 Y153.849 E0.01678
G1 X76.151 Y140.070 E0.61204
G1 X76.685 Y140.070 E0.01678
G1 X89.930 Y153.315 E0.58831
G1 X89.930 Y152.781 E0.01678
G1 X77.219 Y140.070 E0.56458
G1 X77.754 Y140.070 E0.01678
G1 X89.930 Y152.246 E0.54086
G1 X89.930 Y151.712 E0.01678
G1 X78.288 Y140.070 E0.51713
G1 X78.822 Y140.070 E0.01678
G1 X89.930 Y151.178 E0.49340
G1 X89.930 Y150.644 E0.01678
G1 X79.356 Y140.070 E0.46967
G1 X79.890 Y140.070 E0.01678
G1 X89.930 Y150.110 E0.44595
G1 X89.930 Y149.575 E0.01678
G1 X80.425 Y140.070 E0.42222
G1 X80.959 Y140.070 E0.01678
G1 X89.930 Y149.041 E0.39849
G1 X89.930 Y148.507 E0.01678
G1 X81.493 Y140.070 E0.37476
G1 X82.027 Y140.070 E0.01678
G1 X89.930 Y147.973 E0.35103
G1 X89.930 Y147.439 E0.01678
G1 X82.561 Y140.070 E0.32731
G1 X83.096 Y140.070 E0.01678
G1 X89.930 Y146.904 E0.30358
G1 X89.930 Y146.370 E0.01678
G1 X83.630 Y140.070 E0.27985
G1 X84.164 Y140.070 E0.01678
G1 X89.930 Y145.836 E0.25612
G1 X89.930 Y145.302 E0.01678
G1 X84.698 Y140.070 E0.23240
G1 X85.232 Y140.070 E0.01678
G1 X89.930 Y144.768 E0.20867
G1 X89.930 Y144.233 E0.01678
G1 X85.767 Y140.070 E0.18494
G1 X86.301 Y140.070 E0.01678
G1 X89.930 Y143.699 E0.16121
G1 X89.930 Y143.165 E0.01678
G1 X86.835 Y140.070 E0.13748
G1 X87.369 Y140.070 E0.01678
G1 X89.930 Y142.631 E0.11376
G1 X89.930 Y142.097 E0.01678
G1 X87.903 Y140.070 E0.09003
G1 X88.437 Y140.070 E0.01678
G1 X89.930 Y141.563 E0.06630
G1 X89.930 Y141.028 E0.01678
G1 X88.972 Y140.070 E0.04257
G1 X89.506 Y140.070 E0.01678
G1 X90.100 Y140.664 E0.02638
G1 E-0.80000 F2100.00000
G1 Z0.800 F10800.000
G1 X97.787 Y139.787
G1 Z0.200
G1 E0.80000 F2100.00000
G1 F1200.000
G1 X121.213 Y139.787 E0.73450
G1 X121.213 Y163.213 E0.73450
G1 X97.787 Y163.213 E0.73450
G1 X97.787 Y139.847 E0.73262
G1 X97.410 Y139.410 F10800.000
G1 F1200.000
G1 X121.590 Y139.410 E0.75815
G1 X121.590 Y163.590 E0.75815
G1 X97.410 Y163.590 E0.75815
G1 X97.410 Y139.470 E0.75627
G1 X97.796 Y139.514 F10800.000
G1 E-0.80000 F2100.00000
G1 Z0.800 F10800.000
G1 X121.100 Y140.664
G1 Z0.200
G1 E0.80000 F2100.00000
G1 F1200.000
G1 X120.506 Y140.070 E0.02638
G1 X119.972 Y140.070 E0.01678
G1 X120.930 Y141.028 E0.04257
G1 X120.930 Y141.563 E0.01678
G1 X119.437 Y140.070 E0.06630
G1 X118.903 Y140.070 E0.01678
G1 X120.930 Y142.097 E0.09003
G1 X120.930 Y142.631 E0.01678
G1 X118.369 Y140.070 E0.11376
G1 X117.835 Y140.070 E0.01678
G1 X120.930 Y143.165 E0.13748
G1 X120.930 Y143.699 E0.01678
G1 X117.301 Y140.070 E0.16121
G1 X116.767 Y140.070 E0.01678
G1 X120.930 Y144.233 E0.18494
G1 X120.930 Y144.768 E0.01678
G1 X116.232 Y140.070 E0.20867
G1 X115.698 Y140.070 E0.01678
G1 X120.930 Y145.302 E0.23240
G1 X120.930 Y145.836 E0.01678
G1 X115.164 Y140.070 E0.25612
G1 X114.630 Y140.070 E0.01678
G1 X120.930 Y146.370 E0.27985
G1 X120.930 Y146.904 E0.01678
G1 X114.096 Y140.070 E0.30358
G1 X113.561 Y140.070 E0.01678
G1 X120.930 Y147.439 E0.32731
G1 X120.930 Y147.973 E0.01678
G1 X113.027 Y140.070 E0.35103
G1 X112.493 Y140.070 E0.01678
G1 X120.930 Y148.507 E0.37476
G1 X120.930 Y149.041 E0.01678
G1 X111.959 Y140.070 E0.39849
G1 X111.425 Y140.070 E0.01678
G1 X120.930 Y149.575 E0.42222
G1 X120.930 Y150.110 E0.01678
G1 X110.890 Y140.070 E0.44595
G1 X110.356 Y140.070 E0.01678
G1 X120.930 Y150.644 E0.46967
G1 X120.930 Y151.178 E0.01678
G1 X109.822 Y140.070 E0.49340
G1 X109.288 Y140.070 E0.01678
G1 X120.930 Y151.712 E0.51713
G1 X120.930 Y152.246 E0.01678
G1 X108.754 Y140.070 E0.54086
G1 X108.219 Y140.070 E0.01678
G1 X120.930 Y152.781 E0.56458
G1 X120.930 Y153.315 E0.01678
G1 X107.685 Y140.070 E0.58831
G1 X107.151 Y140.070 E0.01678
G1 X120.930 Y153.849 E0.61204
G1 X120.930 Y154.383 E0.01678
G1 X106.617 Y140.070 E0.63577
G1 X106.083 Y140.070 E0.01678
G1 X120.930 Y154.917 E0.65950
G1 X120.930 Y155.452 E0.01678
G1 X105.548 Y140.070 E0.68322
G1 X105.014 Y140.070 E0.01678
G1 X120.930 Y155.986 E0.70695
M73 P1 R304
G1 X120.930 Y156.520 E0.01678
G1 X104.480 Y140.070 E0.73068
G1 X103.946 Y140.070 E0.01678
G1 X120.930 Y157.054 E0.75441
G1 X120.930 Y157.588 E0.01678
G1 X103.412 Y140.070 E0.77813
