; generated by PrusaSlicer 2.1.1+win64 on 2020-04-24 at 22:19:50 UTC

; 

; external perimeters extrusion width = 0.45mm
; perimeters extrusion width = 0.45mm
; infill extrusion width = 0.45mm
; solid infill extrusion width = 0.45mm
; top infill extrusion width = 0.40mm
; first layer extrusion width = 0.42mm

M73 P0 R27
M201 X9000 Y9000 Z500 E10000 ; sets maximum accelerations, mm/sec^2
M203 X500 Y500 Z12 E120 ; sets maximum feedrates, mm/sec
M204 P2000 R1500 T2000 ; sets acceleration (P, T) and retract acceleration (R), mm/sec^2
M205 X10.00 Y10.00 Z0.20 E2.50 ; sets the jerk limits, mm/sec
M205 S0 T0 ; sets the minimum extruding and travel feed rate, mm/sec
M107
M862.3 P "MK2.5SMMU2S" ; printer model check
M862.1 P0.4 ; nozzle diameter check
M115 U3.8.0 ; tell printer latest fw version
G90 ; use absolute coordinates
M83 ; extruder relative mode
M104 S215 ; set extruder temp
M140 S60 ; set bed temp
Tx
M190 S60 ; wait for bed temp
M109 S215 ; wait for extruder temp
G28 W ; home all without mesh bed level
G80 ; mesh bed leveling

G21 ; set units to millimeters

;go outside print area
G1 Y-3.0 F1000.0
G1 Z0.4 F1000.0
; select extruder
Tc
; purge line
G1 X55.0 F2000.0
G1 Z0.3 F1000.0
G92 E0.0
G1 X240.0 E25.0 F2200.0
M73 P0 R27
G1 Y-2.0 F1000.0
G1 X55.0 E25 F1400.0
G1 Z0.20 F1000.0
G1 X5.0 E4.0 F1000.0
G92 E0.0
G21 ; set units to millimeters
G90 ; use absolute coordinates
M83 ; use relative distances for extrusion
M900 K30 ; Filament gcode
;BEFORE_LAYER_CHANGE
G92 E0.0
;0.2


G1 E-0.80000 F2100.00000
G1 Z0.600 F10800.000
;AFTER_LAYER_CHANGE
;0.2
G1 X163.006 Y86.639
G1 Z0.200
G1 E0.80000 F2100.00000
M204 S1000
G1 F1200
G1 X163.208 Y87.490 E0.02743
G1 X163.207 Y113.981 E0.83060
G1 X163.105 Y114.555 E0.01828
G1 X162.856 Y115.079 E0.01817
G1 X162.438 Y115.561 E0.02002
G1 X161.968 Y115.888 E0.01794
G1 X137.208 Y124.572 E0.82269
G1 X136.710 Y124.682 E0.01601
G1 X88.979 Y124.693 E1.49656
G1 X88.393 Y124.597 E0.01862
G1 X87.857 Y124.350 E0.01851
G1 X87.367 Y123.930 E0.02022
G1 X87.036 Y123.455 E0.01817
G1 X86.855 Y122.974 E0.01612
G1 X86.792 Y122.467 E0.01601
G1 X86.786 Y87.503 E1.09628
G1 X86.881 Y86.920 E0.01851
G1 X87.130 Y86.381 E0.01862
G1 X87.555 Y85.888 E0.02040
G1 X88.030 Y85.556 E0.01817
G1 X88.511 Y85.376 E0.01612
G1 X89.025 Y85.313 E0.01623
G1 X160.964 Y85.312 E2.25560
G1 X161.784 Y85.473 E0.02620
G1 X162.484 Y85.929 E0.02620
G1 X162.970 Y86.591 E0.02575
G1 E-0.80000 F2100.00000
G1 Z0.800 F10800.000
G1 X93.854 Y100.763
G1 Z0.200
G1 E0.80000 F2100.00000
G1 F1200
G1 X93.254 Y100.822 E0.01891
G1 X92.653 Y100.763 E0.01891
G1 X92.076 Y100.588 E0.01891
G1 X91.544 Y100.304 E0.01891
G1 X91.078 Y99.921 E0.01891
G1 X90.695 Y99.455 E0.01891
G1 X90.411 Y98.923 E0.01891
G1 X90.236 Y98.346 E0.01891
G1 X90.177 Y97.745 E0.01891
G1 X90.236 Y97.145 E0.01891
G1 X90.411 Y96.568 E0.01891
G1 X90.695 Y96.036 E0.01891
G1 X91.078 Y95.570 E0.01891
G1 X91.544 Y95.187 E0.01891
G1 X92.076 Y94.903 E0.01891
G1 X92.653 Y94.728 E0.01891
G1 X93.253 Y94.669 E0.01890
G1 X93.854 Y94.728 E0.01892
G1 X94.431 Y94.903 E0.01891
G1 X94.963 Y95.187 E0.01891
G1 X95.429 Y95.570 E0.01891
G1 X95.812 Y96.036 E0.01891
G1 X96.096 Y96.568 E0.01891
G1 X96.271 Y97.145 E0.01891
G1 X96.330 Y97.745 E0.01891
G1 X96.271 Y98.346 E0.01891
G1 X96.096 Y98.923 E0.01891
G1 X95.812 Y99.455 E0.01891
G1 X95.429 Y99.921 E0.01891
G1 X94.963 Y100.304 E0.01891
G1 X94.431 Y100.588 E0.01891
G1 X93.911 Y100.746 E0.01703
G1 X93.780 Y100.391 F10800.000
G1 F1200
G1 X93.254 Y100.443 E0.01658
G1 X92.727 Y100.391 E0.01658
G1 X92.221 Y100.238 E0.01658
G1 X91.755 Y99.989 E0.01658
G1 X91.346 Y99.653 E0.01658
G1 X91.010 Y99.244 E0.01658
G1 X90.761 Y98.778 E0.01658
G1 X90.608 Y98.272 E0.01658
G1 X90.556 Y97.745 E0.01658
G1 X90.608 Y97.219 E0.01658
G1 X90.761 Y96.713 E0.01658
G1 X91.010 Y96.247 E0.01658
G1 X91.346 Y95.838 E0.01658
G1 X91.755 Y95.502 E0.01658
G1 X92.221 Y95.253 E0.01658
G1 X92.727 Y95.099 E0.01658
G1 X93.253 Y95.048 E0.01658
G1 X93.780 Y95.099 E0.01659
G1 X94.286 Y95.253 E0.01658
G1 X94.752 Y95.502 E0.01658
G1 X95.161 Y95.838 E0.01658
G1 X95.497 Y96.247 E0.01658
G1 X95.746 Y96.713 E0.01658
G1 X95.900 Y97.219 E0.01658
G1 X95.951 Y97.745 E0.01658
G1 X95.900 Y98.272 E0.01658
G1 X95.746 Y98.778 E0.01658
G1 X95.497 Y99.244 E0.01658
G1 X95.161 Y99.653 E0.01658
G1 X94.752 Y99.989 E0.01658
G1 X94.286 Y100.238 E0.01658
G1 X93.837 Y100.374 E0.01470
G1 X93.651 Y100.770 F10800.000
G1 E-0.80000 F2100.00000
G1 Z0.800 F10800.000
G1 X96.946 Y101.438
G1 Z0.200
G1 E0.80000 F2100.00000
G1 F1200
G1 X89.561 Y101.438 E0.23156
G1 X89.561 Y88.088 E0.41857
G1 X121.418 Y88.088 E0.99885
G1 X121.418 Y92.879 E0.15024
G1 X97.350 Y92.879 E0.75462
G1 X96.946 Y93.283 E0.01792
G1 X96.946 Y101.378 E0.25379
G1 X97.323 Y101.815 F10800.000
G1 F1200
G1 X89.184 Y101.815 E0.25521
G1 X89.184 Y87.711 E0.44222
G1 X121.795 Y87.711 E1.02250
G1 X121.795 Y93.256 E0.17388
G1 X97.507 Y93.256 E0.76154
G1 X97.323 Y93.440 E0.00813
G1 X97.323 Y101.755 E0.26071
G1 X96.978 Y101.612 F10800.000
G1 E-0.80000 F2100.00000
G1 Z0.800 F10800.000
G1 X96.833 Y99.392
G1 Z0.200
G1 E0.80000 F2100.00000
G1 F1200
G1 X96.385 Y98.944 E0.02056
G1 X96.359 Y99.032 E0.00296
G1 X96.206 Y99.317 E0.01050
G1 X96.664 Y99.774 E0.02099
G1 X96.664 Y100.326 E0.01790
G1 X96.004 Y99.667 E0.03027
G1 X95.755 Y99.970 E0.01272
G1 X96.664 Y100.878 E0.04168
G1 X96.664 Y101.155 E0.00897
G1 X96.388 Y101.155 E0.00893
G1 X95.479 Y100.246 E0.04171
G1 X95.176 Y100.495 E0.01272
G1 X95.836 Y101.155 E0.03030
G1 X95.285 Y101.155 E0.01791
G1 X94.827 Y100.697 E0.02100
G1 X94.540 Y100.851 E0.01056
G1 X94.454 Y100.876 E0.00289
G1 X94.902 Y101.324 E0.02056
G1 X93.987 Y101.095 F10800.000
G1 F1200
G1 X93.626 Y101.112 E0.00884
G1 X93.265 Y101.130 E0.00799
G1 X92.520 Y101.095 E0.01476
G1 X92.136 Y101.324 F10800.000
G1 F1200
G1 X89.844 Y99.032 E0.10589
G1 X89.844 Y99.588 E0.01814
G1 X91.411 Y101.155 E0.07239
G1 X90.855 Y101.155 E0.01814
G1 X89.844 Y100.143 E0.04673
G1 X89.844 Y100.699 E0.01814
G1 X90.470 Y101.324 E0.02891
G1 E-0.80000 F2100.00000
G1 Z0.800 F10800.000
G1 X89.904 Y98.477
G1 Z0.200
G1 E0.80000 F2100.00000
G1 F1200
G1 X89.869 Y97.734 E0.01475
G1 X89.886 Y97.374 E0.00799
G1 X89.904 Y97.014 E0.00883
G1 X89.674 Y96.119 F10800.000
G1 F1200
G1 X90.117 Y96.562 E0.01986
G1 X90.149 Y96.459 E0.00340
G1 X90.290 Y96.196 E0.00947
G1 X89.844 Y95.750 E0.01997
G1 X89.844 Y95.211 E0.01706
G1 X90.482 Y95.850 E0.02861
G1 X90.725 Y95.554 E0.01212
G1 X89.844 Y94.673 E0.03948
G1 X89.844 Y94.134 E0.01706
G1 X90.988 Y95.278 E0.05124
G1 X91.284 Y95.035 E0.01212
G1 X89.844 Y93.595 E0.06449
G1 X89.844 Y93.057 E0.01706
G1 X91.616 Y94.829 E0.07935
G1 X91.966 Y94.641 E0.01260
G1 X89.844 Y92.518 E0.09507
G1 X89.844 Y91.980 E0.01706
G1 X92.380 Y94.515 E0.11356
G1 X92.598 Y94.449 E0.00723
G1 X92.829 Y94.426 E0.00736
G1 X89.844 Y91.441 E0.13370
G1 X89.844 Y90.902 E0.01706
G1 X93.334 Y94.393 E0.15630
G1 X93.938 Y94.458 E0.01923
G1 X89.844 Y90.364 E0.18334
G1 X89.844 Y89.825 E0.01706
G1 X94.796 Y94.777 E0.22177
G1 E-0.80000 F2100.00000
G1 Z0.800 F10800.000
G1 X96.222 Y96.203
G1 Z0.200
G1 E0.80000 F2100.00000
G1 F1200
G1 X96.664 Y96.645 E0.01978
G1 X96.664 Y96.106 E0.01706
G1 X89.844 Y89.287 E0.30542
G1 X89.844 Y88.748 E0.01706
G1 X96.664 Y95.568 E0.30542
G1 X96.664 Y95.029 E0.01706
G1 X90.005 Y88.371 E0.29820
G1 X90.543 Y88.371 E0.01706
G1 X96.664 Y94.491 E0.27408
G1 X96.664 Y93.952 E0.01706
G1 X91.082 Y88.371 E0.24996
G1 X91.621 Y88.371 E0.01706
G1 X96.664 Y93.414 E0.22584
G1 X96.664 Y93.166 E0.00783
G1 X96.809 Y93.021 E0.00652
G1 X92.159 Y88.371 E0.20825
G1 X92.698 Y88.371 E0.01706
G1 X97.079 Y92.751 E0.19619
G1 X97.233 Y92.596 E0.00693
G1 X97.462 Y92.596 E0.00725
G1 X93.236 Y88.371 E0.18925
G1 X93.775 Y88.371 E0.01706
G1 X98.001 Y92.596 E0.18925
G1 X98.539 Y92.596 E0.01706
G1 X94.313 Y88.371 E0.18925
G1 X94.852 Y88.371 E0.01706
G1 X99.078 Y92.596 E0.18925
G1 X99.617 Y92.596 E0.01706
G1 X95.391 Y88.371 E0.18925
G1 X95.929 Y88.371 E0.01706
G1 X100.155 Y92.596 E0.18925
G1 X100.694 Y92.596 E0.01706
G1 X96.468 Y88.371 E0.18925
G1 X97.006 Y88.371 E0.01706
G1 X101.232 Y92.596 E0.18925
G1 X101.771 Y92.596 E0.01706
G1 X97.545 Y88.371 E0.18925
G1 X98.084 Y88.371 E0.01706
G1 X102.310 Y92.596 E0.18925
G1 X102.848 Y92.596 E0.01706
G1 X98.622 Y88.371 E0.18925
G1 X99.161 Y88.371 E0.01706
G1 X103.387 Y92.596 E0.18925
G1 X103.925 Y92.596 E0.01706
G1 X99.699 Y88.371 E0.18925
G1 X100.238 Y88.371 E0.01706
G1 X104.464 Y92.596 E0.18925
G1 X105.002 Y92.596 E0.01706
G1 X100.777 Y88.371 E0.18925
G1 X101.315 Y88.371 E0.01706
G1 X105.541 Y92.596 E0.18925
G1 X106.080 Y92.596 E0.01706
G1 X101.854 Y88.371 E0.18925
G1 X102.392 Y88.371 E0.01706
G1 X106.618 Y92.596 E0.18925
G1 X107.157 Y92.596 E0.01706
G1 X102.931 Y88.371 E0.18925
G1 X103.469 Y88.371 E0.01706
G1 X107.695 Y92.596 E0.18925
G1 X108.234 Y92.596 E0.01706
G1 X104.008 Y88.371 E0.18925
G1 X104.547 Y88.371 E0.01706
G1 X108.773 Y92.596 E0.18925
G1 X109.311 Y92.596 E0.01706
G1 X105.085 Y88.371 E0.18925
G1 X105.624 Y88.371 E0.01706
G1 X109.850 Y92.596 E0.18925
G1 X110.388 Y92.596 E0.01706
G1 X106.162 Y88.371 E0.18925
G1 X106.701 Y88.371 E0.01706
G1 X110.927 Y92.596 E0.18925
G1 X111.466 Y92.596 E0.01706
G1 X107.240 Y88.371 E0.18925
G1 X107.778 Y88.371 E0.01706
G1 X112.004 Y92.596 E0.18925
G1 X112.543 Y92.596 E0.01706
G1 X108.317 Y88.371 E0.18925
G1 X108.855 Y88.371 E0.01706
G1 X113.081 Y92.596 E0.18925
G1 X113.620 Y92.596 E0.01706
G1 X109.394 Y88.371 E0.18925
G1 X109.933 Y88.371 E0.01706
G1 X114.158 Y92.596 E0.18925
G1 X114.697 Y92.596 E0.01706
G1 X110.471 Y88.371 E0.18925
G1 X111.010 Y88.371 E0.01706
G1 X115.236 Y92.596 E0.18925
G1 X115.774 Y92.596 E0.01706
G1 X111.548 Y88.371 E0.18925
G1 X112.087 Y88.371 E0.01706
G1 X116.313 Y92.596 E0.18925
G1 X116.851 Y92.596 E0.01706
G1 X112.625 Y88.371 E0.18925
G1 X113.164 Y88.371 E0.01706
G1 X117.390 Y92.596 E0.18925
G1 X117.929 Y92.596 E0.01706
G1 X113.703 Y88.371 E0.18925
G1 X114.241 Y88.371 E0.01706
G1 X118.467 Y92.596 E0.18925
G1 X119.006 Y92.596 E0.01706
G1 X114.780 Y88.371 E0.18925
G1 X115.318 Y88.371 E0.01706
G1 X119.544 Y92.596 E0.18925
G1 X120.083 Y92.596 E0.01706
G1 X115.857 Y88.371 E0.18925
G1 X116.396 Y88.371 E0.01706
G1 X120.622 Y92.596 E0.18925
G1 X121.135 Y92.596 E0.01626
G1 X121.135 Y92.572 E0.00079
G1 X116.934 Y88.371 E0.18814
G1 X117.473 Y88.371 E0.01706
G1 X121.135 Y92.033 E0.16402
G1 X121.135 Y91.494 E0.01706
G1 X118.011 Y88.371 E0.13990
G1 X118.550 Y88.371 E0.01706
G1 X121.135 Y90.956 E0.11578
G1 X121.135 Y90.417 E0.01706
G1 X119.089 Y88.371 E0.09166
G1 X119.627 Y88.371 E0.01706
G1 X121.135 Y89.879 E0.06754
G1 X121.135 Y89.340 E0.01706
G1 X120.166 Y88.371 E0.04342
G1 X120.704 Y88.371 E0.01706
G1 X121.305 Y88.971 E0.02690
M73 P4 R26
G1 E-0.80000 F2100.00000
G1 Z0.800 F10800.000
G1 X96.603 Y97.014
G1 Z0.200
G1 E0.80000 F2100.00000
G1 F1200
G1 X96.639 Y97.757 E0.01475
G1 X96.621 Y98.117 E0.00799
G1 X96.603 Y98.477 E0.00883
G1 E-0.80000 F2100.00000
G1 Z0.800 F10800.000
G1 X93.854 Y121.243
G1 Z0.200
G1 E0.80000 F2100.00000
G1 F1200
G1 X93.254 Y121.302 E0.01891
G1 X92.653 Y121.243 E0.01891
G1 X92.076 Y121.068 E0.01891
G1 X91.544 Y120.784 E0.01891
G1 X91.078 Y120.401 E0.01891
G1 X90.695 Y119.935 E0.01891
G1 X90.411 Y119.403 E0.01891
G1 X90.236 Y118.826 E0.01891
G1 X90.177 Y118.226 E0.01891
G1 X90.236 Y117.625 E0.01891
G1 X90.411 Y117.048 E0.01891
G1 X90.695 Y116.516 E0.01891
G1 X91.078 Y116.050 E0.01891
G1 X91.544 Y115.667 E0.01891
G1 X92.076 Y115.383 E0.01891
G1 X92.653 Y115.208 E0.01891
G1 X93.253 Y115.149 E0.01890
G1 X93.854 Y115.208 E0.01892
G1 X94.431 Y115.383 E0.01891
G1 X94.963 Y115.667 E0.01891
G1 X95.429 Y116.050 E0.01891
G1 X95.812 Y116.516 E0.01891
G1 X96.096 Y117.048 E0.01891
G1 X96.271 Y117.625 E0.01891
G1 X96.330 Y118.226 E0.01891
G1 X96.271 Y118.826 E0.01891
G1 X96.096 Y119.403 E0.01891
G1 X95.812 Y119.935 E0.01891
G1 X95.429 Y120.401 E0.01891
G1 X94.963 Y120.784 E0.01891
G1 X94.431 Y121.068 E0.01891
G1 X93.911 Y121.226 E0.01703
G1 X93.780 Y120.872 F10800.000
G1 F1200
G1 X93.254 Y120.923 E0.01658
G1 X92.727 Y120.872 E0.01658
G1 X92.221 Y120.718 E0.01658
G1 X91.755 Y120.469 E0.01658
G1 X91.346 Y120.133 E0.01658
G1 X91.010 Y119.724 E0.01658
G1 X90.761 Y119.258 E0.01658
G1 X90.608 Y118.752 E0.01658
G1 X90.556 Y118.226 E0.01658
G1 X90.608 Y117.699 E0.01658
G1 X90.761 Y117.193 E0.01658
G1 X91.010 Y116.727 E0.01658
G1 X91.346 Y116.318 E0.01658
G1 X91.755 Y115.982 E0.01658
G1 X92.221 Y115.733 E0.01658
G1 X92.727 Y115.580 E0.01658
G1 X93.253 Y115.528 E0.01658
G1 X93.780 Y115.580 E0.01659
G1 X94.286 Y115.733 E0.01658
G1 X94.752 Y115.982 E0.01658
G1 X95.161 Y116.318 E0.01658
G1 X95.497 Y116.727 E0.01658
G1 X95.746 Y117.193 E0.01658
G1 X95.900 Y117.699 E0.01658
G1 X95.951 Y118.226 E0.01658
G1 X95.900 Y118.752 E0.01658
G1 X95.746 Y119.258 E0.01658
G1 X95.497 Y119.724 E0.01658
G1 X95.161 Y120.133 E0.01658
G1 X94.752 Y120.469 E0.01658
G1 X94.286 Y120.718 E0.01658
G1 X93.837 Y120.854 E0.01470
G1 X93.651 Y121.250 F10800.000
G1 E-0.80000 F2100.00000
G1 Z0.800 F10800.000
G1 X96.946 Y121.918
G1 Z0.200
G1 E0.80000 F2100.00000
G1 F1200
G1 X89.561 Y121.918 E0.23156
G1 X89.561 Y108.568 E0.41857
G1 X121.418 Y108.568 E0.99885
G1 X121.418 Y113.359 E0.15024
G1 X97.350 Y113.359 E0.75462
G1 X96.946 Y113.764 E0.01792
G1 X96.946 Y121.858 E0.25379
G1 X97.323 Y122.295 F10800.000
G1 F1200
G1 X89.184 Y122.295 E0.25521
G1 X89.184 Y108.191 E0.44222
G1 X121.795 Y108.191 E1.02250
G1 X121.795 Y113.737 E0.17388
G1 X97.507 Y113.737 E0.76154
G1 X97.323 Y113.920 E0.00813
G1 X97.323 Y122.235 E0.26071
G1 X96.978 Y122.092 F10800.000
G1 E-0.80000 F2100.00000
G1 Z0.800 F10800.000
G1 X96.833 Y119.872
G1 Z0.200
G1 E0.80000 F2100.00000
G1 F1200
G1 X96.385 Y119.424 E0.02056
G1 X96.359 Y119.512 E0.00296
G1 X96.206 Y119.797 E0.01050
G1 X96.664 Y120.255 E0.02099
G1 X96.664 Y120.806 E0.01790
G1 X96.004 Y120.147 E0.03027
G1 X95.755 Y120.450 E0.01272
G1 X96.664 Y121.358 E0.04168
G1 X96.664 Y121.635 E0.00897
G1 X96.388 Y121.635 E0.00893
G1 X95.479 Y120.726 E0.04171
G1 X95.176 Y120.975 E0.01272
G1 X95.836 Y121.635 E0.03030
G1 X95.285 Y121.635 E0.01791
G1 X94.827 Y121.177 E0.02100
G1 X94.540 Y121.331 E0.01056
G1 X94.454 Y121.357 E0.00289
G1 X94.902 Y121.805 E0.02056
G1 X93.987 Y121.575 F10800.000
G1 F1200
G1 X93.626 Y121.592 E0.00884
G1 X93.265 Y121.610 E0.00799
G1 X92.520 Y121.575 E0.01476
G1 X92.136 Y121.805 F10800.000
G1 F1200
G1 X89.844 Y119.512 E0.10589
G1 X89.844 Y120.068 E0.01814
G1 X91.411 Y121.635 E0.07239
G1 X90.855 Y121.635 E0.01814
G1 X89.844 Y120.623 E0.04673
G1 X89.844 Y121.179 E0.01814
G1 X90.470 Y121.805 E0.02891
G1 E-0.80000 F2100.00000
G1 Z0.800 F10800.000
G1 X89.904 Y118.957
G1 Z0.200
G1 E0.80000 F2100.00000
G1 F1200
G1 X89.869 Y118.214 E0.01475
G1 X89.886 Y117.854 E0.00799
G1 X89.904 Y117.494 E0.00883
G1 X89.674 Y116.599 F10800.000
G1 F1200
G1 X90.117 Y117.042 E0.01986
G1 X90.149 Y116.940 E0.00340
G1 X90.290 Y116.676 E0.00947
G1 X89.844 Y116.230 E0.01997
G1 X89.844 Y115.691 E0.01706
G1 X90.482 Y116.330 E0.02861
G1 X90.725 Y116.034 E0.01212
G1 X89.844 Y115.153 E0.03948
G1 X89.844 Y114.614 E0.01706
G1 X90.988 Y115.758 E0.05124
G1 X91.284 Y115.515 E0.01212
G1 X89.844 Y114.076 E0.06449
G1 X89.844 Y113.537 E0.01706
G1 X91.616 Y115.309 E0.07935
G1 X91.966 Y115.121 E0.01260
G1 X89.844 Y112.998 E0.09507
G1 X89.844 Y112.460 E0.01706
G1 X92.380 Y114.996 E0.11356
G1 X92.598 Y114.929 E0.00723
G1 X92.829 Y114.907 E0.00736
G1 X89.844 Y111.921 E0.13370
G1 X89.844 Y111.383 E0.01706
G1 X93.334 Y114.873 E0.15630
G1 X93.938 Y114.938 E0.01923
G1 X89.844 Y110.844 E0.18334
G1 X89.844 Y110.305 E0.01706
G1 X94.796 Y115.257 E0.22177
G1 E-0.80000 F2100.00000
G1 Z0.800 F10800.000
G1 X96.222 Y116.684
G1 Z0.200
G1 E0.80000 F2100.00000
G1 F1200
G1 X96.664 Y117.125 E0.01978
G1 X96.664 Y116.587 E0.01706
G1 X89.844 Y109.767 E0.30542
G1 X89.844 Y109.228 E0.01706
G1 X96.664 Y116.048 E0.30542
G1 X96.664 Y115.509 E0.01706
G1 X90.005 Y108.851 E0.29820
G1 X90.543 Y108.851 E0.01706
G1 X96.664 Y114.971 E0.27408
G1 X96.664 Y114.432 E0.01706
G1 X91.082 Y108.851 E0.24996
G1 X91.621 Y108.851 E0.01706
G1 X96.664 Y113.894 E0.22584
G1 X96.664 Y113.646 E0.00783
G1 X96.809 Y113.501 E0.00652
