; generated by PrusaSlicer 2.1.1+win64 on 2020-04-24 at 22:20:03 UTC

; 

; external perimeters extrusion width = 0.45mm
; perimeters extrusion width = 0.45mm
; infill extrusion width = 0.45mm
; solid infill extrusion width = 0.45mm
; top infill extrusion width = 0.40mm
; first layer extrusion width = 0.42mm

M73 P0 R52
M201 X9000 Y9000 Z500 E10000 ; sets maximum accelerations, mm/sec^2
M203 X500 Y500 Z12 E120 ; sets maximum feedrates, mm/sec
M204 P2000 R1500 T2000 ; sets acceleration (P, T) and retract acceleration (R), mm/sec^2
M205 X10.00 Y10.00 Z0.20 E2.50 ; sets the jerk limits, mm/sec
M205 S0 T0 ; sets the minimum extruding and travel feed rate, mm/sec
M107
M862.3 P "MK2.5SMMU2S" ; printer model check
M862.1 P0.4 ; nozzle diameter check
M115 U3.8.0 ; tell printer latest fw version
G90 ; use absolute coordinates
M83 ; extruder relative mode
M104 S215 ; set extruder temp
M140 S60 ; set bed temp
Tx
M190 S60 ; wait for bed temp
M109 S215 ; wait for extruder temp
G28 W ; home all without mesh bed level
G80 ; mesh bed leveling

G21 ; set units to millimeters

;go outside print area
G1 Y-3.0 F1000.0
G1 Z0.4 F1000.0
; select extruder
Tc
; purge line
G1 X55.0 F2000.0
G1 Z0.3 F1000.0
G92 E0.0
G1 X240.0 E25.0 F2200.0
M73 P0 R51
G1 Y-2.0 F1000.0
G1 X55.0 E25 F1400.0
G1 Z0.20 F1000.0
G1 X5.0 E4.0 F1000.0
G92 E0.0
G21 ; set units to millimeters
G90 ; use absolute coordinates
M83 ; use relative distances for extrusion
M900 K30 ; Filament gcode
;BEFORE_LAYER_CHANGE
G92 E0.0
;0.2


G1 E-0.80000 F2100.00000
G1 Z0.600 F10800.000
;AFTER_LAYER_CHANGE
;0.2
G1 X88.108 Y65.038
G1 Z0.200
G1 E0.80000 F2100.00000
M204 S1000
G1 F1200
G1 X89.010 Y64.833 E0.02900
G1 X160.964 Y64.832 E2.25606
G1 X161.791 Y64.996 E0.02642
G1 X162.492 Y65.457 E0.02631
G1 X163.012 Y66.172 E0.02774
G1 X163.209 Y67.028 E0.02754
G1 X163.209 Y134.385 E2.11191
G1 X163.057 Y135.170 E0.02507
G1 X162.632 Y135.847 E0.02507
G1 X162.200 Y136.229 E0.01809
G1 X161.703 Y136.483 E0.01749
G1 X137.208 Y145.052 E0.81367
G1 X136.742 Y145.159 E0.01498
G1 X89.009 Y145.173 E1.49666
G1 X88.228 Y145.019 E0.02496
G1 X87.553 Y144.596 E0.02496
G1 X86.991 Y143.843 E0.02947
G1 X86.792 Y142.936 E0.02911
G1 X86.785 Y67.066 E2.37885
G1 X86.938 Y66.278 E0.02518
G1 X87.362 Y65.600 E0.02507
G1 X88.061 Y65.074 E0.02742
G1 E-0.80000 F2100.00000
G1 Z0.800 F10800.000
G1 X132.870 Y100.763
G1 Z0.200
G1 E0.80000 F2100.00000
G1 F1200
G1 X132.269 Y100.822 E0.01891
G1 X131.669 Y100.763 E0.01891
G1 X131.092 Y100.588 E0.01891
G1 X130.560 Y100.304 E0.01891
G1 X130.094 Y99.921 E0.01891
G1 X129.711 Y99.455 E0.01891
G1 X129.427 Y98.923 E0.01891
G1 X129.252 Y98.346 E0.01891
G1 X129.193 Y97.745 E0.01891
G1 X129.252 Y97.145 E0.01891
G1 X129.427 Y96.568 E0.01891
G1 X129.711 Y96.036 E0.01891
G1 X130.094 Y95.570 E0.01891
G1 X130.560 Y95.187 E0.01891
G1 X131.092 Y94.903 E0.01891
G1 X131.669 Y94.728 E0.01891
G1 X132.269 Y94.669 E0.01890
G1 X132.870 Y94.728 E0.01892
G1 X133.447 Y94.903 E0.01891
G1 X133.979 Y95.187 E0.01891
G1 X134.445 Y95.570 E0.01891
G1 X134.828 Y96.036 E0.01891
G1 X135.112 Y96.568 E0.01891
G1 X135.287 Y97.145 E0.01891
G1 X135.346 Y97.745 E0.01891
G1 X135.287 Y98.346 E0.01891
G1 X135.112 Y98.923 E0.01891
G1 X134.828 Y99.455 E0.01891
G1 X134.445 Y99.921 E0.01891
G1 X133.979 Y100.304 E0.01891
G1 X133.447 Y100.588 E0.01891
G1 X132.927 Y100.746 E0.01703
G1 X132.796 Y100.391 F10800.000
G1 F1200
G1 X132.269 Y100.443 E0.01658
G1 X131.743 Y100.391 E0.01658
G1 X131.237 Y100.238 E0.01658
G1 X130.771 Y99.989 E0.01658
G1 X130.362 Y99.653 E0.01658
G1 X130.026 Y99.244 E0.01658
G1 X129.777 Y98.778 E0.01658
G1 X129.623 Y98.272 E0.01658
G1 X129.572 Y97.745 E0.01658
G1 X129.623 Y97.219 E0.01658
G1 X129.777 Y96.713 E0.01658
G1 X130.026 Y96.247 E0.01658
G1 X130.362 Y95.838 E0.01658
G1 X130.771 Y95.502 E0.01658
G1 X131.237 Y95.253 E0.01658
G1 X131.743 Y95.099 E0.01658
G1 X132.269 Y95.048 E0.01658
G1 X132.796 Y95.099 E0.01659
G1 X133.302 Y95.253 E0.01658
G1 X133.768 Y95.502 E0.01658
G1 X134.177 Y95.838 E0.01658
G1 X134.513 Y96.247 E0.01658
G1 X134.762 Y96.713 E0.01658
G1 X134.915 Y97.219 E0.01658
G1 X134.967 Y97.745 E0.01658
G1 X134.915 Y98.272 E0.01658
G1 X134.762 Y98.778 E0.01658
G1 X134.513 Y99.244 E0.01658
G1 X134.177 Y99.653 E0.01658
G1 X133.768 Y99.989 E0.01658
G1 X133.302 Y100.238 E0.01658
G1 X132.853 Y100.374 E0.01470
G1 X132.667 Y100.770 F10800.000
G1 E-0.80000 F2100.00000
G1 Z0.800 F10800.000
G1 X135.962 Y101.438
G1 Z0.200
G1 E0.80000 F2100.00000
G1 F1200
G1 X128.577 Y101.438 E0.23156
G1 X128.577 Y88.088 E0.41857
G1 X160.434 Y88.088 E0.99885
G1 X160.434 Y92.879 E0.15024
G1 X136.366 Y92.879 E0.75462
G1 X135.962 Y93.283 E0.01792
G1 X135.962 Y101.378 E0.25379
G1 X136.339 Y101.815 F10800.000
G1 F1200
G1 X128.200 Y101.815 E0.25521
G1 X128.200 Y87.711 E0.44222
G1 X160.811 Y87.711 E1.02250
G1 X160.811 Y93.256 E0.17388
G1 X136.522 Y93.256 E0.76154
G1 X136.339 Y93.440 E0.00813
G1 X136.339 Y101.755 E0.26071
G1 X135.994 Y101.612 F10800.000
G1 E-0.80000 F2100.00000
G1 Z0.800 F10800.000
G1 X135.849 Y99.392
G1 Z0.200
G1 E0.80000 F2100.00000
G1 F1200
G1 X135.401 Y98.944 E0.02056
G1 X135.375 Y99.032 E0.00296
G1 X135.222 Y99.317 E0.01050
G1 X135.679 Y99.774 E0.02099
G1 X135.679 Y100.326 E0.01790
G1 X135.020 Y99.667 E0.03027
G1 X134.771 Y99.970 E0.01272
G1 X135.679 Y100.878 E0.04168
G1 X135.679 Y101.155 E0.00897
G1 X135.404 Y101.155 E0.00893
G1 X134.495 Y100.246 E0.04171
G1 X134.192 Y100.495 E0.01272
G1 X134.852 Y101.155 E0.03030
G1 X134.300 Y101.155 E0.01791
G1 X133.843 Y100.697 E0.02100
G1 X133.556 Y100.851 E0.01056
G1 X133.470 Y100.876 E0.00289
G1 X133.918 Y101.324 E0.02056
G1 X133.003 Y101.095 F10800.000
G1 F1200
G1 X132.642 Y101.112 E0.00884
G1 X132.281 Y101.130 E0.00799
G1 X131.536 Y101.095 E0.01476
G1 X131.152 Y101.324 F10800.000
G1 F1200
G1 X128.860 Y99.032 E0.10589
G1 X128.860 Y99.588 E0.01814
G1 X130.427 Y101.155 E0.07239
G1 X129.871 Y101.155 E0.01814
G1 X128.860 Y100.143 E0.04673
G1 X128.860 Y100.699 E0.01814
G1 X129.485 Y101.324 E0.02891
G1 E-0.80000 F2100.00000
G1 Z0.800 F10800.000
G1 X128.920 Y98.477
G1 Z0.200
G1 E0.80000 F2100.00000
G1 F1200
G1 X128.885 Y97.734 E0.01475
G1 X128.902 Y97.374 E0.00799
G1 X128.920 Y97.014 E0.00883
G1 X128.690 Y96.119 F10800.000
G1 F1200
G1 X129.133 Y96.562 E0.01986
G1 X129.164 Y96.459 E0.00340
G1 X129.305 Y96.196 E0.00947
G1 X128.860 Y95.750 E0.01997
G1 X128.860 Y95.211 E0.01706
G1 X129.498 Y95.850 E0.02861
G1 X129.741 Y95.554 E0.01212
G1 X128.860 Y94.673 E0.03948
G1 X128.860 Y94.134 E0.01706
G1 X130.004 Y95.278 E0.05124
G1 X130.300 Y95.035 E0.01212
G1 X128.860 Y93.595 E0.06449
G1 X128.860 Y93.057 E0.01706
G1 X130.631 Y94.829 E0.07935
G1 X130.982 Y94.641 E0.01260
G1 X128.860 Y92.518 E0.09507
G1 X128.860 Y91.980 E0.01706
G1 X131.395 Y94.515 E0.11356
G1 X131.614 Y94.449 E0.00723
G1 X131.845 Y94.426 E0.00736
G1 X128.860 Y91.441 E0.13370
G1 X128.860 Y90.902 E0.01706
G1 X132.350 Y94.393 E0.15630
G1 X132.954 Y94.458 E0.01923
G1 X128.860 Y90.364 E0.18334
G1 X128.860 Y89.825 E0.01706
G1 X133.812 Y94.777 E0.22177
G1 E-0.80000 F2100.00000
G1 Z0.800 F10800.000
G1 X135.238 Y96.203
G1 Z0.200
G1 E0.80000 F2100.00000
G1 F1200
G1 X135.679 Y96.645 E0.01978
G1 X135.679 Y96.106 E0.01706
G1 X128.860 Y89.287 E0.30542
G1 X128.860 Y88.748 E0.01706
G1 X135.679 Y95.568 E0.30542
G1 X135.679 Y95.029 E0.01706
G1 X129.021 Y88.371 E0.29820
G1 X129.559 Y88.371 E0.01706
G1 X135.679 Y94.491 E0.27408
G1 X135.679 Y93.952 E0.01706
G1 X130.098 Y88.371 E0.24996
G1 X130.636 Y88.371 E0.01706
G1 X135.679 Y93.414 E0.22584
G1 X135.679 Y93.166 E0.00783
G1 X135.825 Y93.021 E0.00652
G1 X131.175 Y88.371 E0.20825
G1 X131.714 Y88.371 E0.01706
G1 X136.094 Y92.751 E0.19619
G1 X136.249 Y92.596 E0.00693
G1 X136.478 Y92.596 E0.00725
G1 X132.252 Y88.371 E0.18925
G1 X132.791 Y88.371 E0.01706
G1 X137.017 Y92.596 E0.18925
G1 X137.555 Y92.596 E0.01706
G1 X133.329 Y88.371 E0.18925
G1 X133.868 Y88.371 E0.01706
G1 X138.094 Y92.596 E0.18925
G1 X138.632 Y92.596 E0.01706
G1 X134.406 Y88.371 E0.18925
G1 X134.945 Y88.371 E0.01706
G1 X139.171 Y92.596 E0.18925
G1 X139.710 Y92.596 E0.01706
G1 X135.484 Y88.371 E0.18925
G1 X136.022 Y88.371 E0.01706
G1 X140.248 Y92.596 E0.18925
G1 X140.787 Y92.596 E0.01706
G1 X136.561 Y88.371 E0.18925
G1 X137.099 Y88.371 E0.01706
G1 X141.325 Y92.596 E0.18925
G1 X141.864 Y92.596 E0.01706
G1 X137.638 Y88.371 E0.18925
G1 X138.177 Y88.371 E0.01706
G1 X142.403 Y92.596 E0.18925
G1 X142.941 Y92.596 E0.01706
G1 X138.715 Y88.371 E0.18925
G1 X139.254 Y88.371 E0.01706
G1 X143.480 Y92.596 E0.18925
G1 X144.018 Y92.596 E0.01706
G1 X139.792 Y88.371 E0.18925
G1 X140.331 Y88.371 E0.01706
G1 X144.557 Y92.596 E0.18925
G1 X145.095 Y92.596 E0.01706
G1 X140.870 Y88.371 E0.18925
G1 X141.408 Y88.371 E0.01706
G1 X145.634 Y92.596 E0.18925
G1 X146.173 Y92.596 E0.01706
G1 X141.947 Y88.371 E0.18925
G1 X142.485 Y88.371 E0.01706
G1 X146.711 Y92.596 E0.18925
G1 X147.250 Y92.596 E0.01706
G1 X143.024 Y88.371 E0.18925
G1 X143.562 Y88.371 E0.01706
G1 X147.788 Y92.596 E0.18925
G1 X148.327 Y92.596 E0.01706
G1 X144.101 Y88.371 E0.18925
G1 X144.640 Y88.371 E0.01706
G1 X148.866 Y92.596 E0.18925
G1 X149.404 Y92.596 E0.01706
G1 X145.178 Y88.371 E0.18925
G1 X145.717 Y88.371 E0.01706
G1 X149.943 Y92.596 E0.18925
G1 X150.481 Y92.596 E0.01706
G1 X146.255 Y88.371 E0.18925
G1 X146.794 Y88.371 E0.01706
G1 X151.020 Y92.596 E0.18925
G1 X151.559 Y92.596 E0.01706
G1 X147.333 Y88.371 E0.18925
G1 X147.871 Y88.371 E0.01706
G1 X152.097 Y92.596 E0.18925
G1 X152.636 Y92.596 E0.01706
G1 X148.410 Y88.371 E0.18925
G1 X148.948 Y88.371 E0.01706
G1 X153.174 Y92.596 E0.18925
G1 X153.713 Y92.596 E0.01706
G1 X149.487 Y88.371 E0.18925
G1 X150.026 Y88.371 E0.01706
G1 X154.251 Y92.596 E0.18925
G1 X154.790 Y92.596 E0.01706
G1 X150.564 Y88.371 E0.18925
G1 X151.103 Y88.371 E0.01706
G1 X155.329 Y92.596 E0.18925
G1 X155.867 Y92.596 E0.01706
G1 X151.641 Y88.371 E0.18925
G1 X152.180 Y88.371 E0.01706
G1 X156.406 Y92.596 E0.18925
M73 P2 R50
G1 X156.944 Y92.596 E0.01706
G1 X152.718 Y88.371 E0.18925
G1 X153.257 Y88.371 E0.01706
G1 X157.483 Y92.596 E0.18925
G1 X158.022 Y92.596 E0.01706
G1 X153.796 Y88.371 E0.18925
G1 X154.334 Y88.371 E0.01706
G1 X158.560 Y92.596 E0.18925
G1 X159.099 Y92.596 E0.01706
G1 X154.873 Y88.371 E0.18925
G1 X155.411 Y88.371 E0.01706
G1 X159.637 Y92.596 E0.18925
G1 X160.151 Y92.596 E0.01626
G1 X160.151 Y92.572 E0.00079
G1 X155.950 Y88.371 E0.18814
G1 X156.489 Y88.371 E0.01706
G1 X160.151 Y92.033 E0.16402
G1 X160.151 Y91.494 E0.01706
G1 X157.027 Y88.371 E0.13990
G1 X157.566 Y88.371 E0.01706
G1 X160.151 Y90.956 E0.11578
G1 X160.151 Y90.417 E0.01706
G1 X158.104 Y88.371 E0.09166
G1 X158.643 Y88.371 E0.01706
G1 X160.151 Y89.879 E0.06754
G1 X160.151 Y89.340 E0.01706
G1 X159.182 Y88.371 E0.04342
G1 X159.720 Y88.371 E0.01706
G1 X160.321 Y88.971 E0.02690
G1 E-0.80000 F2100.00000
G1 Z0.800 F10800.000
G1 X135.619 Y97.014
G1 Z0.200
G1 E0.80000 F2100.00000
G1 F1200
G1 X135.654 Y97.757 E0.01475
G1 X135.637 Y98.117 E0.00799
G1 X135.619 Y98.477 E0.00883
G1 E-0.80000 F2100.00000
G1 Z0.800 F10800.000
G1 X132.870 Y121.243
G1 Z0.200
G1 E0.80000 F2100.00000
G1 F1200
G1 X132.269 Y121.302 E0.01891
G1 X131.669 Y121.243 E0.01891
G1 X131.092 Y121.068 E0.01891
G1 X130.560 Y120.784 E0.01891
G1 X130.094 Y120.401 E0.01891
G1 X129.711 Y119.935 E0.01891
G1 X129.427 Y119.403 E0.01891
G1 X129.252 Y118.826 E0.01891
G1 X129.193 Y118.226 E0.01891
G1 X129.252 Y117.625 E0.01891
G1 X129.427 Y117.048 E0.01891
G1 X129.711 Y116.516 E0.01891
G1 X130.094 Y116.050 E0.01891
G1 X130.560 Y115.667 E0.01891
G1 X131.092 Y115.383 E0.01891
G1 X131.669 Y115.208 E0.01891
G1 X132.269 Y115.149 E0.01890
G1 X132.870 Y115.208 E0.01892
G1 X133.447 Y115.383 E0.01891
G1 X133.979 Y115.667 E0.01891
G1 X134.445 Y116.050 E0.01891
G1 X134.828 Y116.516 E0.01891
G1 X135.112 Y117.048 E0.01891
G1 X135.287 Y117.625 E0.01891
G1 X135.346 Y118.226 E0.01891
G1 X135.287 Y118.826 E0.01891
G1 X135.112 Y119.403 E0.01891
G1 X134.828 Y119.935 E0.01891
G1 X134.445 Y120.401 E0.01891
G1 X133.979 Y120.784 E0.01891
G1 X133.447 Y121.068 E0.01891
G1 X132.927 Y121.226 E0.01703
G1 X132.796 Y120.872 F10800.000
G1 F1200
G1 X132.269 Y120.923 E0.01658
G1 X131.743 Y120.872 E0.01658
G1 X131.237 Y120.718 E0.01658
G1 X130.771 Y120.469 E0.01658
G1 X130.362 Y120.133 E0.01658
G1 X130.026 Y119.724 E0.01658
G1 X129.777 Y119.258 E0.01658
G1 X129.623 Y118.752 E0.01658
G1 X129.572 Y118.226 E0.01658
G1 X129.623 Y117.699 E0.01658
G1 X129.777 Y117.193 E0.01658
G1 X130.026 Y116.727 E0.01658
G1 X130.362 Y116.318 E0.01658
G1 X130.771 Y115.982 E0.01658
G1 X131.237 Y115.733 E0.01658
G1 X131.743 Y115.580 E0.01658
G1 X132.269 Y115.528 E0.01658
G1 X132.796 Y115.580 E0.01659
G1 X133.302 Y115.733 E0.01658
G1 X133.768 Y115.982 E0.01658
G1 X134.177 Y116.318 E0.01658
G1 X134.513 Y116.727 E0.01658
G1 X134.762 Y117.193 E0.01658
G1 X134.915 Y117.699 E0.01658
G1 X134.967 Y118.226 E0.01658
G1 X134.915 Y118.752 E0.01658
G1 X134.762 Y119.258 E0.01658
G1 X134.513 Y119.724 E0.01658
G1 X134.177 Y120.133 E0.01658
G1 X133.768 Y120.469 E0.01658
G1 X133.302 Y120.718 E0.01658
G1 X132.853 Y120.854 E0.01470
G1 X132.667 Y121.250 F10800.000
G1 E-0.80000 F2100.00000
G1 Z0.800 F10800.000
G1 X135.962 Y121.918
G1 Z0.200
G1 E0.80000 F2100.00000
G1 F1200
G1 X128.577 Y121.918 E0.23156
G1 X128.577 Y108.568 E0.41857
G1 X160.434 Y108.568 E0.99885
G1 X160.434 Y113.359 E0.15024
G1 X136.366 Y113.359 E0.75462
G1 X135.962 Y113.764 E0.01792
G1 X135.962 Y121.858 E0.25379
G1 X136.339 Y122.295 F10800.000
G1 F1200
G1 X128.200 Y122.295 E0.25521
G1 X128.200 Y108.191 E0.44222
G1 X160.811 Y108.191 E1.02250
G1 X160.811 Y113.737 E0.17388
G1 X136.522 Y113.737 E0.76154
G1 X136.339 Y113.920 E0.00813
G1 X136.339 Y122.235 E0.26071
G1 X135.994 Y122.092 F10800.000
G1 E-0.80000 F2100.00000
G1 Z0.800 F10800.000
G1 X135.849 Y119.872
G1 Z0.200
G1 E0.80000 F2100.00000
G1 F1200
G1 X135.401 Y119.424 E0.02056
G1 X135.375 Y119.512 E0.00296
G1 X135.222 Y119.797 E0.01050
G1 X135.679 Y120.255 E0.02099
G1 X135.679 Y120.806 E0.01790
G1 X135.020 Y120.147 E0.03027
G1 X134.771 Y120.450 E0.01272
G1 X135.679 Y121.358 E0.04168
G1 X135.679 Y121.635 E0.00897
G1 X135.404 Y121.635 E0.00893
G1 X134.495 Y120.726 E0.04171
G1 X134.192 Y120.975 E0.01272
G1 X134.852 Y121.635 E0.03030
G1 X134.300 Y121.635 E0.01791
G1 X133.843 Y121.177 E0.02100
G1 X133.556 Y121.331 E0.01056
G1 X133.470 Y121.357 E0.00289
G1 X133.918 Y121.805 E0.02056
G1 X133.003 Y121.575 F10800.000
G1 F1200
G1 X132.642 Y121.592 E0.00884
G1 X132.281 Y121.610 E0.00799
G1 X131.536 Y121.575 E0.01476
G1 X131.152 Y121.805 F10800.000
G1 F1200
G1 X128.860 Y119.512 E0.10589
G1 X128.860 Y120.068 E0.01814
G1 X130.427 Y121.635 E0.07239
G1 X129.871 Y121.635 E0.01814
G1 X128.860 Y120.623 E0.04673
G1 X128.860 Y121.179 E0.01814
G1 X129.485 Y121.805 E0.02891
G1 E-0.80000 F2100.00000
G1 Z0.800 F10800.000
G1 X128.920 Y118.957
G1 Z0.200
G1 E0.80000 F2100.00000
G1 F1200
G1 X128.885 Y118.214 E0.01475
G1 X128.902 Y117.854 E0.00799
G1 X128.920 Y117.494 E0.00883
G1 X128.690 Y116.599 F10800.000
G1 F1200
G1 X129.133 Y117.042 E0.01986
G1 X129.164 Y116.940 E0.00340
G1 X129.305 Y116.676 E0.00947
G1 X128.860 Y116.230 E0.01997
G1 X128.860 Y115.691 E0.01706
G1 X129.498 Y116.330 E0.02861
G1 X129.741 Y116.034 E0.01212
G1 X128.860 Y115.153 E0.03948
G1 X128.860 Y114.614 E0.01706
G1 X130.004 Y115.758 E0.05124
G1 X130.300 Y115.515 E0.01212
G1 X128.860 Y114.076 E0.06449
G1 X128.860 Y113.537 E0.01706
G1 X130.631 Y115.309 E0.07935
G1 X130.982 Y115.121 E0.01260
G1 X128.860 Y112.998 E0.09507
G1 X128.860 Y112.460 E0.01706
G1 X131.395 Y114.996 E0.11356
G1 X131.614 Y114.929 E0.00723
G1 X131.845 Y114.907 E0.00736
G1 X128.860 Y111.921 E0.13370
G1 X128.860 Y111.383 E0.01706
G1 X132.350 Y114.873 E0.15630
G1 X132.954 Y114.938 E0.01923
G1 X128.860 Y110.844 E0.18334
G1 X128.860 Y110.305 E0.01706
G1 X133.812 Y115.257 E0.22177
G1 E-0.80000 F2100.00000
G1 Z0.800 F10800.000
G1 X135.238 Y116.684
G1 Z0.200
G1 E0.80000 F2100.00000
G1 F1200
G1 X135.679 Y117.125 E0.01978
G1 X135.679 Y116.587 E0.01706
G1 X128.860 Y109.767 E0.30542
G1 X128.860 Y109.228 E0.01706
G1 X135.679 Y116.048 E0.30542
G1 X135.679 Y115.509 E0.01706
G1 X129.021 Y108.851 E0.29820
