; generated by PrusaSlicer 2.1.1+win64 on 2020-04-24 at 22:19:25 UTC

; 

; external perimeters extrusion width = 0.45mm
; perimeters extrusion width = 0.45mm
; infill extrusion width = 0.45mm
; solid infill extrusion width = 0.45mm
; top infill extrusion width = 0.40mm
; first layer extrusion width = 0.42mm

M73 P0 R14
M201 X9000 Y9000 Z500 E10000 ; sets maximum accelerations, mm/sec^2
M203 X500 Y500 Z12 E120 ; sets maximum feedrates, mm/sec
M204 P2000 R1500 T2000 ; sets acceleration (P, T) and retract acceleration (R), mm/sec^2
M205 X10.00 Y10.00 Z0.20 E2.50 ; sets the jerk limits, mm/sec
M205 S0 T0 ; sets the minimum extruding and travel feed rate, mm/sec
M107
M862.3 P "MK2.5SMMU2S" ; printer model check
M862.1 P0.4 ; nozzle diameter check
M115 U3.8.0 ; tell printer latest fw version
G90 ; use absolute coordinates
M83 ; extruder relative mode
M104 S215 ; set extruder temp
M140 S60 ; set bed temp
Tx
M190 S60 ; wait for bed temp
M109 S215 ; wait for extruder temp
G28 W ; home all without mesh bed level
G80 ; mesh bed leveling

G21 ; set units to millimeters

;go outside print area
G1 Y-3.0 F1000.0
G1 Z0.4 F1000.0
; select extruder
Tc
; purge line
G1 X55.0 F2000.0
G1 Z0.3 F1000.0
G92 E0.0
G1 X240.0 E25.0 F2200.0
M73 P0 R14
G1 Y-2.0 F1000.0
G1 X55.0 E25 F1400.0
G1 Z0.20 F1000.0
G1 X5.0 E4.0 F1000.0
G92 E0.0
G21 ; set units to millimeters
G90 ; use absolute coordinates
M83 ; use relative distances for extrusion
M900 K30 ; Filament gcode
;BEFORE_LAYER_CHANGE
G92 E0.0
;0.2


G1 E-0.80000 F2100.00000
G1 Z0.600 F10800.000
;AFTER_LAYER_CHANGE
;0.2
G1 X107.568 Y85.532
G1 Z0.200
G1 E0.80000 F2100.00000
M204 S1000
G1 F1200
G1 X108.470 Y85.313 E0.02911
G1 X141.437 Y85.312 E1.03366
G1 X142.247 Y85.469 E0.02586
G1 X142.938 Y85.912 E0.02574
G1 X143.462 Y86.603 E0.02718
G1 X143.679 Y87.436 E0.02698
G1 X143.720 Y113.926 E0.83060
G1 X143.572 Y114.679 E0.02405
G1 X143.173 Y115.334 E0.02405
G1 X142.729 Y115.737 E0.01877
G1 X142.222 Y116.000 E0.01794
G1 X117.520 Y124.631 E0.82042
G1 X117.017 Y124.693 E0.01589
G1 X108.459 Y124.691 E0.26833
G1 X107.741 Y124.534 E0.02304
G1 X107.113 Y124.146 E0.02315
G1 X106.772 Y123.785 E0.01556
G1 X106.529 Y123.386 E0.01464
G1 X106.374 Y122.938 E0.01487
G1 X106.319 Y122.467 E0.01487
G1 X106.274 Y87.532 E1.09538
G1 X106.420 Y86.775 E0.02417
G1 X106.822 Y86.113 E0.02428
G1 X107.520 Y85.569 E0.02776
G1 E-0.80000 F2100.00000
G1 Z0.800 F10800.000
G1 X113.343 Y100.763
G1 Z0.200
G1 E0.80000 F2100.00000
G1 F1200
G1 X112.742 Y100.822 E0.01891
G1 X112.142 Y100.763 E0.01891
G1 X111.565 Y100.588 E0.01891
G1 X111.033 Y100.304 E0.01891
G1 X110.567 Y99.921 E0.01891
G1 X110.184 Y99.455 E0.01891
G1 X109.900 Y98.923 E0.01891
G1 X109.725 Y98.346 E0.01891
G1 X109.666 Y97.746 E0.01891
G1 X109.725 Y97.145 E0.01891
G1 X109.900 Y96.568 E0.01891
G1 X110.184 Y96.036 E0.01891
G1 X110.567 Y95.570 E0.01891
G1 X111.033 Y95.187 E0.01891
G1 X111.565 Y94.903 E0.01891
G1 X112.142 Y94.728 E0.01891
G1 X112.742 Y94.669 E0.01890
G1 X113.343 Y94.728 E0.01892
G1 X113.920 Y94.903 E0.01891
G1 X114.452 Y95.187 E0.01891
G1 X114.918 Y95.570 E0.01891
G1 X115.301 Y96.036 E0.01891
G1 X115.585 Y96.568 E0.01891
G1 X115.760 Y97.145 E0.01891
G1 X115.819 Y97.746 E0.01891
G1 X115.760 Y98.346 E0.01891
G1 X115.585 Y98.923 E0.01891
G1 X115.301 Y99.455 E0.01891
G1 X114.918 Y99.921 E0.01891
G1 X114.452 Y100.304 E0.01891
G1 X113.920 Y100.588 E0.01891
G1 X113.400 Y100.746 E0.01703
G1 X113.269 Y100.392 F10800.000
G1 F1200
G1 X112.742 Y100.443 E0.01658
G1 X112.216 Y100.392 E0.01658
G1 X111.710 Y100.238 E0.01658
G1 X111.244 Y99.989 E0.01658
G1 X110.835 Y99.653 E0.01658
G1 X110.499 Y99.244 E0.01658
G1 X110.250 Y98.778 E0.01658
G1 X110.096 Y98.272 E0.01658
G1 X110.045 Y97.746 E0.01658
G1 X110.096 Y97.219 E0.01658
G1 X110.250 Y96.713 E0.01658
G1 X110.499 Y96.247 E0.01658
G1 X110.835 Y95.838 E0.01658
G1 X111.244 Y95.502 E0.01658
G1 X111.710 Y95.253 E0.01658
G1 X112.216 Y95.100 E0.01658
G1 X112.742 Y95.048 E0.01658
G1 X113.269 Y95.100 E0.01659
G1 X113.775 Y95.253 E0.01658
G1 X114.241 Y95.502 E0.01658
G1 X114.650 Y95.838 E0.01658
G1 X114.986 Y96.247 E0.01658
G1 X115.235 Y96.713 E0.01658
G1 X115.388 Y97.219 E0.01658
G1 X115.440 Y97.746 E0.01658
G1 X115.388 Y98.272 E0.01658
G1 X115.235 Y98.778 E0.01658
G1 X114.986 Y99.244 E0.01658
G1 X114.650 Y99.653 E0.01658
G1 X114.241 Y99.989 E0.01658
G1 X113.775 Y100.238 E0.01658
G1 X113.326 Y100.374 E0.01470
G1 X113.140 Y100.770 F10800.000
G1 E-0.80000 F2100.00000
G1 Z0.800 F10800.000
G1 X116.435 Y101.438
G1 Z0.200
G1 E0.80000 F2100.00000
G1 F1200
G1 X109.050 Y101.438 E0.23156
G1 X109.050 Y88.088 E0.41857
G1 X140.907 Y88.088 E0.99885
G1 X140.907 Y92.879 E0.15024
G1 X116.839 Y92.879 E0.75462
G1 X116.435 Y93.283 E0.01792
G1 X116.435 Y101.378 E0.25379
G1 X116.812 Y101.815 F10800.000
G1 F1200
G1 X108.673 Y101.815 E0.25521
G1 X108.673 Y87.711 E0.44222
G1 X141.284 Y87.711 E1.02250
G1 X141.284 Y93.256 E0.17388
G1 X116.995 Y93.256 E0.76154
G1 X116.812 Y93.440 E0.00813
G1 X116.812 Y101.755 E0.26071
G1 X116.467 Y101.612 F10800.000
G1 E-0.80000 F2100.00000
G1 Z0.800 F10800.000
G1 X116.322 Y99.392
G1 Z0.200
G1 E0.80000 F2100.00000
G1 F1200
G1 X115.874 Y98.944 E0.02056
G1 X115.847 Y99.032 E0.00296
G1 X115.695 Y99.317 E0.01050
G1 X116.152 Y99.774 E0.02099
G1 X116.152 Y100.326 E0.01790
G1 X115.493 Y99.667 E0.03027
G1 X115.244 Y99.970 E0.01272
G1 X116.152 Y100.878 E0.04168
G1 X116.152 Y101.155 E0.00897
G1 X115.877 Y101.155 E0.00893
G1 X114.968 Y100.246 E0.04171
G1 X114.665 Y100.495 E0.01272
G1 X115.325 Y101.155 E0.03030
G1 X114.773 Y101.155 E0.01791
G1 X114.316 Y100.697 E0.02100
G1 X114.029 Y100.851 E0.01056
G1 X113.943 Y100.876 E0.00289
G1 X114.391 Y101.324 E0.02056
G1 X113.476 Y101.095 F10800.000
G1 F1200
G1 X113.115 Y101.112 E0.00884
G1 X112.754 Y101.130 E0.00799
G1 X112.009 Y101.095 E0.01476
G1 X111.625 Y101.324 F10800.000
G1 F1200
G1 X109.333 Y99.032 E0.10589
G1 X109.333 Y99.588 E0.01814
G1 X110.900 Y101.155 E0.07239
G1 X110.344 Y101.155 E0.01814
G1 X109.333 Y100.143 E0.04673
G1 X109.333 Y100.699 E0.01814
G1 X109.958 Y101.324 E0.02891
G1 E-0.80000 F2100.00000
G1 Z0.800 F10800.000
G1 X109.393 Y98.477
G1 Z0.200
G1 E0.80000 F2100.00000
G1 F1200
G1 X109.358 Y97.734 E0.01475
G1 X109.375 Y97.374 E0.00799
G1 X109.393 Y97.014 E0.00883
G1 X109.163 Y96.119 F10800.000
G1 F1200
G1 X109.606 Y96.562 E0.01986
G1 X109.637 Y96.459 E0.00340
G1 X109.778 Y96.196 E0.00947
G1 X109.333 Y95.750 E0.01997
G1 X109.333 Y95.211 E0.01706
G1 X109.971 Y95.850 E0.02861
G1 X110.214 Y95.554 E0.01212
G1 X109.333 Y94.673 E0.03948
G1 X109.333 Y94.134 E0.01706
G1 X110.477 Y95.278 E0.05124
G1 X110.772 Y95.035 E0.01212
G1 X109.333 Y93.595 E0.06449
G1 X109.333 Y93.057 E0.01706
G1 X111.104 Y94.829 E0.07935
G1 X111.455 Y94.641 E0.01260
G1 X109.333 Y92.518 E0.09507
G1 X109.333 Y91.980 E0.01706
G1 X111.868 Y94.515 E0.11356
G1 X112.087 Y94.449 E0.00723
G1 X112.318 Y94.426 E0.00736
G1 X109.333 Y91.441 E0.13370
G1 X109.333 Y90.902 E0.01706
G1 X112.823 Y94.393 E0.15630
G1 X113.426 Y94.458 E0.01923
G1 X109.333 Y90.364 E0.18334
G1 X109.333 Y89.825 E0.01706
G1 X114.285 Y94.777 E0.22177
G1 E-0.80000 F2100.00000
G1 Z0.800 F10800.000
G1 X115.711 Y96.203
G1 Z0.200
G1 E0.80000 F2100.00000
G1 F1200
G1 X116.152 Y96.645 E0.01978
G1 X116.152 Y96.106 E0.01706
G1 X109.333 Y89.287 E0.30542
G1 X109.333 Y88.748 E0.01706
G1 X116.152 Y95.568 E0.30542
G1 X116.152 Y95.029 E0.01706
G1 X109.494 Y88.371 E0.29820
G1 X110.032 Y88.371 E0.01706
G1 X116.152 Y94.491 E0.27408
G1 X116.152 Y93.952 E0.01706
G1 X110.571 Y88.371 E0.24996
G1 X111.109 Y88.371 E0.01706
G1 X116.152 Y93.414 E0.22584
G1 X116.152 Y93.166 E0.00783
G1 X116.298 Y93.021 E0.00652
G1 X111.648 Y88.371 E0.20825
G1 X112.187 Y88.371 E0.01706
G1 X116.567 Y92.751 E0.19619
G1 X116.722 Y92.597 E0.00693
G1 X116.951 Y92.597 E0.00725
G1 X112.725 Y88.371 E0.18925
G1 X113.264 Y88.371 E0.01706
G1 X117.490 Y92.597 E0.18925
G1 X118.028 Y92.597 E0.01706
G1 X113.802 Y88.371 E0.18925
G1 X114.341 Y88.371 E0.01706
G1 X118.567 Y92.597 E0.18925
G1 X119.105 Y92.597 E0.01706
G1 X114.879 Y88.371 E0.18925
G1 X115.418 Y88.371 E0.01706
G1 X119.644 Y92.597 E0.18925
G1 X120.183 Y92.597 E0.01706
G1 X115.957 Y88.371 E0.18925
G1 X116.495 Y88.371 E0.01706
G1 X120.721 Y92.597 E0.18925
G1 X121.260 Y92.597 E0.01706
G1 X117.034 Y88.371 E0.18925
G1 X117.572 Y88.371 E0.01706
G1 X121.798 Y92.597 E0.18925
G1 X122.337 Y92.597 E0.01706
G1 X118.111 Y88.371 E0.18925
G1 X118.650 Y88.371 E0.01706
G1 X122.876 Y92.597 E0.18925
G1 X123.414 Y92.597 E0.01706
G1 X119.188 Y88.371 E0.18925
G1 X119.727 Y88.371 E0.01706
G1 X123.953 Y92.597 E0.18925
G1 X124.491 Y92.597 E0.01706
G1 X120.265 Y88.371 E0.18925
G1 X120.804 Y88.371 E0.01706
G1 X125.030 Y92.597 E0.18925
G1 X125.568 Y92.597 E0.01706
G1 X121.342 Y88.371 E0.18925
G1 X121.881 Y88.371 E0.01706
G1 X126.107 Y92.597 E0.18925
G1 X126.646 Y92.597 E0.01706
G1 X122.420 Y88.371 E0.18925
G1 X122.958 Y88.371 E0.01706
G1 X127.184 Y92.597 E0.18925
G1 X127.723 Y92.597 E0.01706
G1 X123.497 Y88.371 E0.18925
G1 X124.035 Y88.371 E0.01706
G1 X128.261 Y92.597 E0.18925
G1 X128.800 Y92.597 E0.01706
G1 X124.574 Y88.371 E0.18925
G1 X125.113 Y88.371 E0.01706
G1 X129.339 Y92.597 E0.18925
G1 X129.877 Y92.597 E0.01706
G1 X125.651 Y88.371 E0.18925
G1 X126.190 Y88.371 E0.01706
G1 X130.416 Y92.597 E0.18925
G1 X130.954 Y92.597 E0.01706
G1 X126.728 Y88.371 E0.18925
G1 X127.267 Y88.371 E0.01706
G1 X131.493 Y92.597 E0.18925
G1 X132.032 Y92.597 E0.01706
G1 X127.806 Y88.371 E0.18925
G1 X128.344 Y88.371 E0.01706
G1 X132.570 Y92.597 E0.18925
G1 X133.109 Y92.597 E0.01706
G1 X128.883 Y88.371 E0.18925
G1 X129.421 Y88.371 E0.01706
G1 X133.647 Y92.597 E0.18925
G1 X134.186 Y92.597 E0.01706
G1 X129.960 Y88.371 E0.18925
G1 X130.498 Y88.371 E0.01706
G1 X134.724 Y92.597 E0.18925
G1 X135.263 Y92.597 E0.01706
G1 X131.037 Y88.371 E0.18925
G1 X131.576 Y88.371 E0.01706
G1 X135.802 Y92.597 E0.18925
G1 X136.340 Y92.597 E0.01706
G1 X132.114 Y88.371 E0.18925
G1 X132.653 Y88.371 E0.01706
G1 X136.879 Y92.597 E0.18925
G1 X137.417 Y92.597 E0.01706
G1 X133.191 Y88.371 E0.18925
G1 X133.730 Y88.371 E0.01706
G1 X137.956 Y92.597 E0.18925
G1 X138.495 Y92.597 E0.01706
G1 X134.269 Y88.371 E0.18925
G1 X134.807 Y88.371 E0.01706
G1 X139.033 Y92.597 E0.18925
G1 X139.572 Y92.597 E0.01706
G1 X135.346 Y88.371 E0.18925
G1 X135.884 Y88.371 E0.01706
G1 X140.110 Y92.597 E0.18925
G1 X140.624 Y92.597 E0.01626
G1 X140.624 Y92.572 E0.00079
G1 X136.423 Y88.371 E0.18814
G1 X136.962 Y88.371 E0.01706
G1 X140.624 Y92.033 E0.16402
G1 X140.624 Y91.494 E0.01706
G1 X137.500 Y88.371 E0.13990
G1 X138.039 Y88.371 E0.01706
G1 X140.624 Y90.956 E0.11578
G1 X140.624 Y90.417 E0.01706
G1 X138.577 Y88.371 E0.09166
G1 X139.116 Y88.371 E0.01706
G1 X140.624 Y89.879 E0.06754
G1 X140.624 Y89.340 E0.01706
G1 X139.654 Y88.371 E0.04342
G1 X140.193 Y88.371 E0.01706
G1 X140.794 Y88.971 E0.02690
G1 E-0.80000 F2100.00000
G1 Z0.800 F10800.000
G1 X116.092 Y97.014
G1 Z0.200
G1 E0.80000 F2100.00000
G1 F1200
G1 X116.127 Y97.757 E0.01475
G1 X116.110 Y98.117 E0.00799
G1 X116.092 Y98.477 E0.00883
G1 E-0.80000 F2100.00000
G1 Z0.800 F10800.000
G1 X113.381 Y121.243
G1 Z0.200
G1 E0.80000 F2100.00000
G1 F1200
G1 X112.781 Y121.302 E0.01891
G1 X112.180 Y121.243 E0.01891
G1 X111.603 Y121.068 E0.01891
G1 X111.071 Y120.784 E0.01891
G1 X110.605 Y120.401 E0.01891
G1 X110.222 Y119.935 E0.01891
G1 X109.938 Y119.403 E0.01891
G1 X109.763 Y118.826 E0.01891
G1 X109.704 Y118.226 E0.01891
G1 X109.763 Y117.625 E0.01891
G1 X109.938 Y117.048 E0.01891
G1 X110.222 Y116.516 E0.01891
G1 X110.605 Y116.050 E0.01891
G1 X111.071 Y115.667 E0.01891
G1 X111.603 Y115.383 E0.01891
G1 X112.180 Y115.208 E0.01891
G1 X112.780 Y115.149 E0.01890
G1 X113.381 Y115.208 E0.01892
G1 X113.958 Y115.383 E0.01891
G1 X114.490 Y115.667 E0.01891
G1 X114.956 Y116.050 E0.01891
G1 X115.339 Y116.516 E0.01891
G1 X115.623 Y117.048 E0.01891
G1 X115.798 Y117.625 E0.01891
G1 X115.857 Y118.226 E0.01891
G1 X115.798 Y118.826 E0.01891
G1 X115.623 Y119.403 E0.01891
G1 X115.339 Y119.935 E0.01891
G1 X114.956 Y120.401 E0.01891
G1 X114.490 Y120.784 E0.01891
G1 X113.958 Y121.068 E0.01891
G1 X113.438 Y121.226 E0.01703
G1 X113.307 Y120.872 F10800.000
G1 F1200
G1 X112.781 Y120.923 E0.01658
G1 X112.254 Y120.872 E0.01658
G1 X111.748 Y120.718 E0.01658
G1 X111.282 Y120.469 E0.01658
G1 X110.873 Y120.133 E0.01658
G1 X110.537 Y119.724 E0.01658
G1 X110.288 Y119.258 E0.01658
G1 X110.135 Y118.752 E0.01658
G1 X110.083 Y118.226 E0.01658
G1 X110.135 Y117.699 E0.01658
G1 X110.288 Y117.193 E0.01658
G1 X110.537 Y116.727 E0.01658
G1 X110.873 Y116.318 E0.01658
G1 X111.282 Y115.982 E0.01658
G1 X111.748 Y115.733 E0.01658
G1 X112.254 Y115.580 E0.01658
G1 X112.780 Y115.528 E0.01658
G1 X113.307 Y115.580 E0.01659
G1 X113.813 Y115.733 E0.01658
G1 X114.279 Y115.982 E0.01658
G1 X114.688 Y116.318 E0.01658
G1 X115.024 Y116.727 E0.01658
G1 X115.273 Y117.193 E0.01658
G1 X115.427 Y117.699 E0.01658
G1 X115.478 Y118.226 E0.01658
G1 X115.427 Y118.752 E0.01658
G1 X115.273 Y119.258 E0.01658
G1 X115.024 Y119.724 E0.01658
G1 X114.688 Y120.133 E0.01658
G1 X114.279 Y120.469 E0.01658
G1 X113.813 Y120.718 E0.01658
G1 X113.364 Y120.854 E0.01470
G1 X113.178 Y121.250 F10800.000
G1 E-0.80000 F2100.00000
G1 Z0.800 F10800.000
G1 X116.473 Y121.918
G1 Z0.200
G1 E0.80000 F2100.00000
G1 F1200
G1 X109.088 Y121.918 E0.23156
G1 X109.088 Y108.568 E0.41857
G1 X140.945 Y108.568 E0.99885
M73 P8 R13
G1 X140.945 Y113.359 E0.15024
G1 X116.878 Y113.359 E0.75462
G1 X116.473 Y113.764 E0.01792
G1 X116.473 Y121.858 E0.25379
G1 X116.850 Y122.295 F10800.000
G1 F1200
G1 X108.711 Y122.295 E0.25521
G1 X108.711 Y108.191 E0.44222
G1 X141.322 Y108.191 E1.02250
G1 X141.322 Y113.736 E0.17388
G1 X117.034 Y113.736 E0.76154
G1 X116.850 Y113.920 E0.00813
G1 X116.850 Y122.235 E0.26071
G1 X116.505 Y122.092 F10800.000
G1 E-0.80000 F2100.00000
G1 Z0.800 F10800.000
G1 X116.360 Y119.872
G1 Z0.200
G1 E0.80000 F2100.00000
G1 F1200
G1 X115.912 Y119.424 E0.02056
G1 X115.886 Y119.512 E0.00296
G1 X115.733 Y119.797 E0.01050
G1 X116.191 Y120.255 E0.02099
G1 X116.191 Y120.806 E0.01790
G1 X115.531 Y120.147 E0.03027
G1 X115.282 Y120.450 E0.01272
G1 X116.191 Y121.358 E0.04168
G1 X116.191 Y121.635 E0.00897
G1 X115.915 Y121.635 E0.00893
G1 X115.006 Y120.726 E0.04171
G1 X114.703 Y120.975 E0.01272
G1 X115.364 Y121.635 E0.03030
G1 X114.812 Y121.635 E0.01791
G1 X114.354 Y121.177 E0.02100
G1 X114.067 Y121.331 E0.01056
G1 X113.981 Y121.357 E0.00289
G1 X114.430 Y121.805 E0.02056
G1 X113.514 Y121.575 F10800.000
G1 F1200
G1 X113.153 Y121.592 E0.00884
G1 X112.792 Y121.610 E0.00799
G1 X112.047 Y121.575 E0.01476
G1 X111.663 Y121.805 F10800.000
G1 F1200
G1 X109.371 Y119.512 E0.10589
G1 X109.371 Y120.068 E0.01814
G1 X110.938 Y121.635 E0.07239
G1 X110.382 Y121.635 E0.01814
G1 X109.371 Y120.623 E0.04673
G1 X109.371 Y121.179 E0.01814
G1 X109.997 Y121.805 E0.02891
G1 E-0.80000 F2100.00000
G1 Z0.800 F10800.000
G1 X109.431 Y118.957
G1 Z0.200
G1 E0.80000 F2100.00000
G1 F1200
G1 X109.396 Y118.214 E0.01475
G1 X109.413 Y117.854 E0.00799
G1 X109.431 Y117.494 E0.00883
G1 X109.201 Y116.599 F10800.000
G1 F1200
G1 X109.644 Y117.042 E0.01986
G1 X109.676 Y116.939 E0.00340
G1 X109.817 Y116.676 E0.00947
G1 X109.371 Y116.230 E0.01997
G1 X109.371 Y115.691 E0.01706
G1 X110.010 Y116.330 E0.02861
G1 X110.252 Y116.034 E0.01212
G1 X109.371 Y115.153 E0.03948
G1 X109.371 Y114.614 E0.01706
G1 X110.515 Y115.758 E0.05124
G1 X110.811 Y115.515 E0.01212
G1 X109.371 Y114.075 E0.06449
G1 X109.371 Y113.537 E0.01706
G1 X111.143 Y115.309 E0.07935
G1 X111.494 Y115.121 E0.01260
G1 X109.371 Y112.998 E0.09507
G1 X109.371 Y112.460 E0.01706
G1 X111.907 Y114.996 E0.11356
G1 X112.125 Y114.929 E0.00723
G1 X112.356 Y114.907 E0.00736
G1 X109.371 Y111.921 E0.13370
G1 X109.371 Y111.383 E0.01706
G1 X112.861 Y114.873 E0.15630
G1 X113.465 Y114.938 E0.01923
G1 X109.371 Y110.844 E0.18334
G1 X109.371 Y110.305 E0.01706
G1 X114.323 Y115.257 E0.22177
G1 E-0.80000 F2100.00000
G1 Z0.800 F10800.000
G1 X115.749 Y116.684
G1 Z0.200
G1 E0.80000 F2100.00000
G1 F1200
G1 X116.191 Y117.125 E0.01978
G1 X116.191 Y116.587 E0.01706
G1 X109.371 Y109.767 E0.30542
G1 X109.371 Y109.228 E0.01706
G1 X116.191 Y116.048 E0.30542
