; generated by PrusaSlicer 2.1.0+win64 on 2019-12-07 at 20:21:38 UTC

; 

; external perimeters extrusion width = 0.45mm
; perimeters extrusion width = 0.45mm
; infill extrusion width = 0.45mm
; solid infill extrusion width = 0.45mm
; top infill extrusion width = 0.40mm
; support material extrusion width = 0.35mm
; first layer extrusion width = 0.42mm

M73 P0 R88
M201 X9000 Y9000 Z500 E10000 ; sets maximum accelerations, mm/sec^2
M203 X500 Y500 Z12 E120 ; sets maximum feedrates, mm/sec
M204 P2000 R1500 T2000 ; sets acceleration (P, T) and retract acceleration (R), mm/sec^2
M205 X10.00 Y10.00 Z0.20 E2.50 ; sets the jerk limits, mm/sec
M205 S0 T0 ; sets the minimum extruding and travel feed rate, mm/sec
M107
M862.3 P "MK2.5SMMU2S" ; printer model check
M862.1 P0.4 ; nozzle diameter check
M115 U3.8.1 ; tell printer latest fw version
G90 ; use absolute coordinates
M83 ; extruder relative mode
M104 S215 ; set extruder temp
M140 S60 ; set bed temp
Tx
M190 S60 ; wait for bed temp
M109 S215 ; wait for extruder temp
G28 W ; home all without mesh bed level
G80 ; mesh bed leveling

G21 ; set units to millimeters

;go outside print area
G1 Y-3.0 F1000.0
G1 Z0.4 F1000.0
; select extruder
Tc
; purge line
G1 X55.0 F2000.0
G1 Z0.3 F1000.0
G92 E0.0
G1 X240.0 E25.0 F2200.0
M73 P0 R88
G1 Y-2.0 F1000.0
G1 X55.0 E25 F1400.0
G1 Z0.20 F1000.0
G1 X5.0 E4.0 F1000.0
G92 E0.0
G21 ; set units to millimeters
G90 ; use absolute coordinates
M83 ; use relative distances for extrusion
M900 K30 ; Filament gcode
;BEFORE_LAYER_CHANGE
G92 E0.0
;0.2


G1 E-0.80000 F2100.00000
G1 Z0.600 F10800.000
;AFTER_LAYER_CHANGE
;0.2
G1 X125.000 Y101.413
G1 Z0.200
G1 E0.80000 F2100.00000
M204 S1000
G1 F1200
G1 X117.587 Y101.413 E0.23243
G1 X117.587 Y86.587 E0.46485
G1 X132.413 Y86.587 E0.46485
G1 X132.413 Y101.413 E0.46485
G1 X125.060 Y101.413 E0.23055
G1 X125.000 Y101.790 F10800.000
G1 F1200
G1 X117.210 Y101.790 E0.24425
G1 X117.210 Y86.210 E0.48850
G1 X132.790 Y86.210 E0.48850
G1 X132.790 Y101.790 E0.48850
G1 X125.060 Y101.790 E0.24237
G1 X124.689 Y101.539 F10800.000
G1 F8640
G1 X121.769 Y101.790 E-0.76000
G1 E-0.04000 F2100.00000
G1 Z0.800 F10800.000
G1 X118.476 Y101.300
G1 Z0.200
G1 E0.80000 F2100.00000
G1 F1200
G1 X117.870 Y100.694 E0.02731
G1 X117.870 Y100.152 E0.01728
G1 X118.848 Y101.130 E0.04409
G1 X119.390 Y101.130 E0.01728
G1 X117.870 Y99.610 E0.06853
G1 X117.870 Y99.068 E0.01728
G1 X119.932 Y101.130 E0.09297
G1 X120.474 Y101.130 E0.01728
G1 X117.870 Y98.526 E0.11741
G1 X117.870 Y97.983 E0.01728
G1 X121.017 Y101.130 E0.14185
G1 X121.559 Y101.130 E0.01728
G1 X117.870 Y97.441 E0.16628
G1 X117.870 Y96.899 E0.01728
G1 X122.101 Y101.130 E0.19072
G1 X122.643 Y101.130 E0.01728
G1 X117.870 Y96.357 E0.21516
G1 X117.870 Y95.815 E0.01728
G1 X123.185 Y101.130 E0.23960
G1 X123.727 Y101.130 E0.01728
G1 X117.870 Y95.273 E0.26403
G1 X117.870 Y94.731 E0.01728
G1 X124.269 Y101.130 E0.28847
G1 X124.811 Y101.130 E0.01728
G1 X117.870 Y94.189 E0.31291
G1 X117.870 Y93.646 E0.01728
G1 X125.354 Y101.130 E0.33735
G1 X125.896 Y101.130 E0.01728
G1 X117.870 Y93.104 E0.36178
G1 X117.870 Y92.562 E0.01728
G1 X126.438 Y101.130 E0.38622
G1 X126.980 Y101.130 E0.01728
G1 X117.870 Y92.020 E0.41066
G1 X117.870 Y91.478 E0.01728
G1 X127.522 Y101.130 E0.43510
G1 X128.064 Y101.130 E0.01728
G1 X117.870 Y90.936 E0.45954
G1 X117.870 Y90.394 E0.01728
G1 X128.606 Y101.130 E0.48397
G1 X129.148 Y101.130 E0.01728
G1 X117.870 Y89.852 E0.50841
G1 X117.870 Y89.309 E0.01728
G1 X129.691 Y101.130 E0.53285
G1 X130.233 Y101.130 E0.01728
G1 X117.870 Y88.767 E0.55729
G1 X117.870 Y88.225 E0.01728
G1 X130.775 Y101.130 E0.58172
G1 X131.317 Y101.130 E0.01728
G1 X117.870 Y87.683 E0.60616
G1 X117.870 Y87.141 E0.01728
G1 X131.859 Y101.130 E0.63060
G1 X132.130 Y101.130 E0.00864
G1 X132.130 Y100.859 E0.00864
G1 X118.141 Y86.870 E0.63060
G1 X118.683 Y86.870 E0.01728
G1 X132.130 Y100.317 E0.60617
G1 X132.130 Y99.775 E0.01728
G1 X119.225 Y86.870 E0.58173
G1 X119.767 Y86.870 E0.01728
G1 X132.130 Y99.233 E0.55729
G1 X132.130 Y98.691 E0.01728
G1 X120.309 Y86.870 E0.53285
G1 X120.851 Y86.870 E0.01728
G1 X132.130 Y98.149 E0.50842
G1 X132.130 Y97.606 E0.01728
G1 X121.394 Y86.870 E0.48398
G1 X121.936 Y86.870 E0.01728
G1 X132.130 Y97.064 E0.45954
G1 X132.130 Y96.522 E0.01728
G1 X122.478 Y86.870 E0.43510
G1 X123.020 Y86.870 E0.01728
G1 X132.130 Y95.980 E0.41066
G1 X132.130 Y95.438 E0.01728
G1 X123.562 Y86.870 E0.38623
G1 X124.104 Y86.870 E0.01728
G1 X132.130 Y94.896 E0.36179
G1 X132.130 Y94.354 E0.01728
G1 X124.646 Y86.870 E0.33735
G1 X125.188 Y86.870 E0.01728
G1 X132.130 Y93.812 E0.31291
G1 X132.130 Y93.269 E0.01728
G1 X125.731 Y86.870 E0.28848
G1 X126.273 Y86.870 E0.01728
G1 X132.130 Y92.727 E0.26404
G1 X132.130 Y92.185 E0.01728
G1 X126.815 Y86.870 E0.23960
G1 X127.357 Y86.870 E0.01728
G1 X132.130 Y91.643 E0.21516
G1 X132.130 Y91.101 E0.01728
G1 X127.899 Y86.870 E0.19073
G1 X128.441 Y86.870 E0.01728
G1 X132.130 Y90.559 E0.16629
G1 X132.130 Y90.017 E0.01728
G1 X128.983 Y86.870 E0.14185
G1 X129.525 Y86.870 E0.01728
G1 X132.130 Y89.475 E0.11741
G1 X132.130 Y88.932 E0.01728
G1 X130.068 Y86.870 E0.09298
G1 X130.610 Y86.870 E0.01728
G1 X132.130 Y88.390 E0.06854
G1 X132.130 Y87.848 E0.01728
G1 X131.152 Y86.870 E0.04410
G1 X131.694 Y86.870 E0.01728
G1 X132.300 Y87.476 E0.02731
G1 F8640
G1 X131.694 Y86.870 E-0.19784
G1 X131.152 Y86.870 E-0.12518
G1 X132.130 Y87.848 E-0.31946
G1 X132.130 Y88.357 E-0.11752
G1 E-0.04000 F2100.00000
G1 Z0.800 F10800.000
G1 X147.000 Y101.413
G1 Z0.200
G1 E0.80000 F2100.00000
G1 F1200
G1 X139.587 Y101.413 E0.23243
G1 X139.587 Y86.587 E0.46485
G1 X154.413 Y86.587 E0.46485
G1 X154.413 Y101.413 E0.46485
G1 X147.060 Y101.413 E0.23055
G1 X147.000 Y101.790 F10800.000
G1 F1200
G1 X139.210 Y101.790 E0.24425
G1 X139.210 Y86.210 E0.48850
G1 X154.790 Y86.210 E0.48850
G1 X154.790 Y101.790 E0.48850
G1 X147.060 Y101.790 E0.24237
G1 X146.689 Y101.539 F10800.000
G1 F8640
G1 X143.769 Y101.790 E-0.76000
G1 E-0.04000 F2100.00000
G1 Z0.800 F10800.000
G1 X140.476 Y101.300
G1 Z0.200
G1 E0.80000 F2100.00000
G1 F1200
G1 X139.870 Y100.694 E0.02731
G1 X139.870 Y100.152 E0.01728
G1 X140.848 Y101.130 E0.04409
G1 X141.390 Y101.130 E0.01728
G1 X139.870 Y99.610 E0.06853
G1 X139.870 Y99.068 E0.01728
G1 X141.932 Y101.130 E0.09297
G1 X142.474 Y101.130 E0.01728
G1 X139.870 Y98.526 E0.11741
G1 X139.870 Y97.983 E0.01728
G1 X143.017 Y101.130 E0.14185
G1 X143.559 Y101.130 E0.01728
G1 X139.870 Y97.441 E0.16628
G1 X139.870 Y96.899 E0.01728
G1 X144.101 Y101.130 E0.19072
G1 X144.643 Y101.130 E0.01728
G1 X139.870 Y96.357 E0.21516
G1 X139.870 Y95.815 E0.01728
G1 X145.185 Y101.130 E0.23960
G1 X145.727 Y101.130 E0.01728
G1 X139.870 Y95.273 E0.26403
G1 X139.870 Y94.731 E0.01728
G1 X146.269 Y101.130 E0.28847
G1 X146.811 Y101.130 E0.01728
G1 X139.870 Y94.189 E0.31291
G1 X139.870 Y93.646 E0.01728
G1 X147.354 Y101.130 E0.33735
G1 X147.896 Y101.130 E0.01728
G1 X139.870 Y93.104 E0.36178
G1 X139.870 Y92.562 E0.01728
G1 X148.438 Y101.130 E0.38622
G1 X148.980 Y101.130 E0.01728
G1 X139.870 Y92.020 E0.41066
M73 P1 R87
G1 X139.870 Y91.478 E0.01728
G1 X149.522 Y101.130 E0.43510
G1 X150.064 Y101.130 E0.01728
G1 X139.870 Y90.936 E0.45954
G1 X139.870 Y90.394 E0.01728
G1 X150.606 Y101.130 E0.48397
G1 X151.148 Y101.130 E0.01728
G1 X139.870 Y89.852 E0.50841
G1 X139.870 Y89.309 E0.01728
G1 X151.691 Y101.130 E0.53285
G1 X152.233 Y101.130 E0.01728
G1 X139.870 Y88.767 E0.55729
G1 X139.870 Y88.225 E0.01728
G1 X152.775 Y101.130 E0.58172
G1 X153.317 Y101.130 E0.01728
G1 X139.870 Y87.683 E0.60616
G1 X139.870 Y87.141 E0.01728
G1 X153.859 Y101.130 E0.63060
G1 X154.130 Y101.130 E0.00864
G1 X154.130 Y100.859 E0.00864
G1 X140.141 Y86.870 E0.63060
G1 X140.683 Y86.870 E0.01728
G1 X154.130 Y100.317 E0.60617
G1 X154.130 Y99.775 E0.01728
G1 X141.225 Y86.870 E0.58173
G1 X141.767 Y86.870 E0.01728
G1 X154.130 Y99.233 E0.55729
G1 X154.130 Y98.691 E0.01728
G1 X142.309 Y86.870 E0.53285
G1 X142.851 Y86.870 E0.01728
G1 X154.130 Y98.149 E0.50842
G1 X154.130 Y97.606 E0.01728
G1 X143.394 Y86.870 E0.48398
G1 X143.936 Y86.870 E0.01728
G1 X154.130 Y97.064 E0.45954
G1 X154.130 Y96.522 E0.01728
G1 X144.478 Y86.870 E0.43510
G1 X145.020 Y86.870 E0.01728
G1 X154.130 Y95.980 E0.41066
G1 X154.130 Y95.438 E0.01728
G1 X145.562 Y86.870 E0.38623
G1 X146.104 Y86.870 E0.01728
G1 X154.130 Y94.896 E0.36179
G1 X154.130 Y94.354 E0.01728
G1 X146.646 Y86.870 E0.33735
G1 X147.188 Y86.870 E0.01728
G1 X154.130 Y93.812 E0.31291
G1 X154.130 Y93.269 E0.01728
G1 X147.731 Y86.870 E0.28848
G1 X148.273 Y86.870 E0.01728
G1 X154.130 Y92.727 E0.26404
G1 X154.130 Y92.185 E0.01728
G1 X148.815 Y86.870 E0.23960
G1 X149.357 Y86.870 E0.01728
G1 X154.130 Y91.643 E0.21516
G1 X154.130 Y91.101 E0.01728
G1 X149.899 Y86.870 E0.19073
G1 X150.441 Y86.870 E0.01728
G1 X154.130 Y90.559 E0.16629
G1 X154.130 Y90.017 E0.01728
G1 X150.983 Y86.870 E0.14185
G1 X151.525 Y86.870 E0.01728
G1 X154.130 Y89.475 E0.11741
G1 X154.130 Y88.932 E0.01728
G1 X152.068 Y86.870 E0.09298
G1 X152.610 Y86.870 E0.01728
G1 X154.130 Y88.390 E0.06854
G1 X154.130 Y87.848 E0.01728
G1 X153.152 Y86.870 E0.04410
G1 X153.694 Y86.870 E0.01728
G1 X154.300 Y87.476 E0.02731
G1 F8640
G1 X153.694 Y86.870 E-0.19784
G1 X153.152 Y86.870 E-0.12518
G1 X154.130 Y87.848 E-0.31946
G1 X154.130 Y88.357 E-0.11752
G1 E-0.04000 F2100.00000
G1 Z0.800 F10800.000
G1 X147.000 Y123.413
G1 Z0.200
G1 E0.80000 F2100.00000
G1 F1200
G1 X139.587 Y123.413 E0.23243
G1 X139.587 Y108.587 E0.46485
G1 X154.413 Y108.587 E0.46485
G1 X154.413 Y123.413 E0.46485
G1 X147.060 Y123.413 E0.23055
G1 X147.000 Y123.790 F10800.000
G1 F1200
G1 X139.210 Y123.790 E0.24425
G1 X139.210 Y108.210 E0.48850
G1 X154.790 Y108.210 E0.48850
G1 X154.790 Y123.790 E0.48850
G1 X147.060 Y123.790 E0.24237
G1 X146.689 Y123.539 F10800.000
G1 F8640
G1 X143.769 Y123.790 E-0.76000
G1 E-0.04000 F2100.00000
G1 Z0.800 F10800.000
G1 X140.476 Y123.300
G1 Z0.200
G1 E0.80000 F2100.00000
G1 F1200
G1 X139.870 Y122.694 E0.02731
G1 X139.870 Y122.152 E0.01728
G1 X140.848 Y123.130 E0.04409
G1 X141.390 Y123.130 E0.01728
G1 X139.870 Y121.610 E0.06853
G1 X139.870 Y121.068 E0.01728
G1 X141.932 Y123.130 E0.09297
G1 X142.474 Y123.130 E0.01728
G1 X139.870 Y120.526 E0.11741
G1 X139.870 Y119.983 E0.01728
G1 X143.017 Y123.130 E0.14185
G1 X143.559 Y123.130 E0.01728
G1 X139.870 Y119.441 E0.16628
G1 X139.870 Y118.899 E0.01728
G1 X144.101 Y123.130 E0.19072
G1 X144.643 Y123.130 E0.01728
G1 X139.870 Y118.357 E0.21516
G1 X139.870 Y117.815 E0.01728
G1 X145.185 Y123.130 E0.23960
G1 X145.727 Y123.130 E0.01728
G1 X139.870 Y117.273 E0.26403
G1 X139.870 Y116.731 E0.01728
G1 X146.269 Y123.130 E0.28847
G1 X146.811 Y123.130 E0.01728
G1 X139.870 Y116.189 E0.31291
G1 X139.870 Y115.646 E0.01728
G1 X147.354 Y123.130 E0.33735
G1 X147.896 Y123.130 E0.01728
G1 X139.870 Y115.104 E0.36178
G1 X139.870 Y114.562 E0.01728
G1 X148.438 Y123.130 E0.38622
G1 X148.980 Y123.130 E0.01728
G1 X139.870 Y114.020 E0.41066
G1 X139.870 Y113.478 E0.01728
G1 X149.522 Y123.130 E0.43510
G1 X150.064 Y123.130 E0.01728
G1 X139.870 Y112.936 E0.45954
G1 X139.870 Y112.394 E0.01728
G1 X150.606 Y123.130 E0.48397
G1 X151.148 Y123.130 E0.01728
G1 X139.870 Y111.852 E0.50841
G1 X139.870 Y111.309 E0.01728
G1 X151.691 Y123.130 E0.53285
G1 X152.233 Y123.130 E0.01728
G1 X139.870 Y110.767 E0.55729
G1 X139.870 Y110.225 E0.01728
G1 X152.775 Y123.130 E0.58172
G1 X153.317 Y123.130 E0.01728
G1 X139.870 Y109.683 E0.60616
G1 X139.870 Y109.141 E0.01728
G1 X153.859 Y123.130 E0.63060
G1 X154.130 Y123.130 E0.00864
G1 X154.130 Y122.859 E0.00864
G1 X140.141 Y108.870 E0.63060
G1 X140.683 Y108.870 E0.01728
G1 X154.130 Y122.317 E0.60617
G1 X154.130 Y121.775 E0.01728
G1 X141.225 Y108.870 E0.58173
G1 X141.767 Y108.870 E0.01728
G1 X154.130 Y121.233 E0.55729
G1 X154.130 Y120.691 E0.01728
G1 X142.309 Y108.870 E0.53285
G1 X142.851 Y108.870 E0.01728
G1 X154.130 Y120.149 E0.50842
G1 X154.130 Y119.606 E0.01728
G1 X143.394 Y108.870 E0.48398
G1 X143.936 Y108.870 E0.01728
G1 X154.130 Y119.064 E0.45954
G1 X154.130 Y118.522 E0.01728
G1 X144.478 Y108.870 E0.43510
G1 X145.020 Y108.870 E0.01728
G1 X154.130 Y117.980 E0.41066
G1 X154.130 Y117.438 E0.01728
G1 X145.562 Y108.870 E0.38623
G1 X146.104 Y108.870 E0.01728
G1 X154.130 Y116.896 E0.36179
G1 X154.130 Y116.354 E0.01728
G1 X146.646 Y108.870 E0.33735
G1 X147.188 Y108.870 E0.01728
G1 X154.130 Y115.812 E0.31291
G1 X154.130 Y115.269 E0.01728
G1 X147.731 Y108.870 E0.28848
G1 X148.273 Y108.870 E0.01728
G1 X154.130 Y114.727 E0.26404
G1 X154.130 Y114.185 E0.01728
G1 X148.815 Y108.870 E0.23960
G1 X149.357 Y108.870 E0.01728
G1 X154.130 Y113.643 E0.21516
G1 X154.130 Y113.101 E0.01728
G1 X149.899 Y108.870 E0.19073
G1 X150.441 Y108.870 E0.01728
G1 X154.130 Y112.559 E0.16629
G1 X154.130 Y112.017 E0.01728
G1 X150.983 Y108.870 E0.14185
G1 X151.525 Y108.870 E0.01728
G1 X154.130 Y111.475 E0.11741
G1 X154.130 Y110.932 E0.01728
G1 X152.068 Y108.870 E0.09298
G1 X152.610 Y108.870 E0.01728
G1 X154.130 Y110.390 E0.06854
G1 X154.130 Y109.848 E0.01728
G1 X153.152 Y108.870 E0.04410
G1 X153.694 Y108.870 E0.01728
G1 X154.300 Y109.476 E0.02731
G1 F8640
G1 X153.694 Y108.870 E-0.19784
G1 X153.152 Y108.870 E-0.12518
G1 X154.130 Y109.848 E-0.31946
G1 X154.130 Y110.357 E-0.11752
G1 E-0.04000 F2100.00000
G1 Z0.800 F10800.000
G1 X125.000 Y123.413
G1 Z0.200
G1 E0.80000 F2100.00000
G1 F1200
G1 X117.587 Y123.413 E0.23243
G1 X117.587 Y108.587 E0.46485
G1 X132.413 Y108.587 E0.46485
M73 P2 R86
G1 X132.413 Y123.413 E0.46485
G1 X125.060 Y123.413 E0.23055
G1 X125.000 Y123.790 F10800.000
G1 F1200
G1 X117.210 Y123.790 E0.24425
G1 X117.210 Y108.210 E0.48850
G1 X132.790 Y108.210 E0.48850
G1 X132.790 Y123.790 E0.48850
G1 X125.060 Y123.790 E0.24237
G1 X124.689 Y123.539 F10800.000
G1 F8640
G1 X121.769 Y123.790 E-0.76000
G1 E-0.04000 F2100.00000
G1 Z0.800 F10800.000
G1 X118.476 Y123.300
G1 Z0.200
G1 E0.80000 F2100.00000
G1 F1200
G1 X117.870 Y122.694 E0.02731
G1 X117.870 Y122.152 E0.01728
G1 X118.848 Y123.130 E0.04409
G1 X119.390 Y123.130 E0.01728
G1 X117.870 Y121.610 E0.06853
G1 X117.870 Y121.068 E0.01728
G1 X119.932 Y123.130 E0.09297
G1 X120.474 Y123.130 E0.01728
G1 X117.870 Y120.526 E0.11741
G1 X117.870 Y119.983 E0.01728
G1 X121.017 Y123.130 E0.14185
G1 X121.559 Y123.130 E0.01728
G1 X117.870 Y119.441 E0.16628
G1 X117.870 Y118.899 E0.01728
G1 X122.101 Y123.130 E0.19072
G1 X122.643 Y123.130 E0.01728
G1 X117.870 Y118.357 E0.21516
G1 X117.870 Y117.815 E0.01728
G1 X123.185 Y123.130 E0.23960
G1 X123.727 Y123.130 E0.01728
G1 X117.870 Y117.273 E0.26403
G1 X117.870 Y116.731 E0.01728
G1 X124.269 Y123.130 E0.28847
G1 X124.811 Y123.130 E0.01728
G1 X117.870 Y116.189 E0.31291
G1 X117.870 Y115.646 E0.01728
G1 X125.354 Y123.130 E0.33735
G1 X125.896 Y123.130 E0.01728
G1 X117.870 Y115.104 E0.36178
G1 X117.870 Y114.562 E0.01728
G1 X126.438 Y123.130 E0.38622
G1 X126.980 Y123.130 E0.01728
G1 X117.870 Y114.020 E0.41066
G1 X117.870 Y113.478 E0.01728
G1 X127.522 Y123.130 E0.43510
G1 X128.064 Y123.130 E0.01728
G1 X117.870 Y112.936 E0.45954
G1 X117.870 Y112.394 E0.01728
G1 X128.606 Y123.130 E0.48397
G1 X129.148 Y123.130 E0.01728
G1 X117.870 Y111.852 E0.50841
G1 X117.870 Y111.309 E0.01728
G1 X129.691 Y123.130 E0.53285
G1 X130.233 Y123.130 E0.01728
G1 X117.870 Y110.767 E0.55729
G1 X117.870 Y110.225 E0.01728
G1 X130.775 Y123.130 E0.58172
G1 X131.317 Y123.130 E0.01728
G1 X117.870 Y109.683 E0.60616
G1 X117.870 Y109.141 E0.01728
G1 X131.859 Y123.130 E0.63060
G1 X132.130 Y123.130 E0.00864
G1 X132.130 Y122.859 E0.00864
G1 X118.141 Y108.870 E0.63060
G1 X118.683 Y108.870 E0.01728
G1 X132.130 Y122.317 E0.60617
G1 X132.130 Y121.775 E0.01728
G1 X119.225 Y108.870 E0.58173
G1 X119.767 Y108.870 E0.01728
G1 X132.130 Y121.233 E0.55729
G1 X132.130 Y120.691 E0.01728
G1 X120.309 Y108.870 E0.53285
G1 X120.851 Y108.870 E0.01728
G1 X132.130 Y120.149 E0.50842
G1 X132.130 Y119.606 E0.01728
G1 X121.394 Y108.870 E0.48398
G1 X121.936 Y108.870 E0.01728
G1 X132.130 Y119.064 E0.45954
G1 X132.130 Y118.522 E0.01728
G1 X122.478 Y108.870 E0.43510
G1 X123.020 Y108.870 E0.01728
G1 X132.130 Y117.980 E0.41066
G1 X132.130 Y117.438 E0.01728
G1 X123.562 Y108.870 E0.38623
G1 X124.104 Y108.870 E0.01728
