; generated by PrusaSlicer 2.0.0+ on 2019-09-03 at 11:23:42

; 

; external perimeters extrusion width = 0.45mm
; perimeters extrusion width = 0.45mm
; infill extrusion width = 0.45mm
; solid infill extrusion width = 0.45mm
; top infill extrusion width = 0.40mm
; first layer extrusion width = 0.42mm

M73 P0 R22
M201 X9000 Y9000 Z500 E10000 ; sets maximum accelerations, mm/sec^2
M203 X500 Y500 Z12 E120 ; sets maximum feedrates, mm/sec
M204 P2000 R1500 T2000 ; sets acceleration (P, T) and retract acceleration (R), mm/sec^2
M205 X10.00 Y10.00 Z0.20 E2.50 ; sets the jerk limits, mm/sec
M205 S0 T0 ; sets the minimum extruding and travel feed rate, mm/sec
M107
M115 U3.7.2 ; tell printer latest fw version
G90 ; use absolute coordinates
M83 ; extruder relative mode
M104 S215 ; set extruder temp
M140 S60 ; set bed temp
Tx
M190 S60 ; wait for bed temp
M109 S215 ; wait for extruder temp
G28 W ; home all without mesh bed level
G80 ; mesh bed leveling

G21 ; set units to millimeters

;go outside print area
G1 Y-3.0 F1000.0
G1 Z0.4 F1000.0
; select extruder
Tc
; purge line
G1 X55.0 F2000.0
G1 Z0.3 F1000.0
G92 E0.0
G1 X240.0 E25.0 F2200.0
M73 P0 R22
G1 Y-2.0 F1000.0
G1 X55.0 E25 F1400.0
G1 Z0.20 F1000.0
G1 X5.0 E4.0 F1000.0
G92 E0.0
M900 K30 ; Filament gcode
G21 ; set units to millimeters
G90 ; use absolute coordinates
M83 ; use relative distances for extrusion
;BEFORE_LAYER_CHANGE
G92 E0.0
;0.2


G1 E-0.80000 F2100.00000
G1 Z0.600 F10800.000
;AFTER_LAYER_CHANGE
;0.2
G1 X89.614 Y97.046
G1 Z0.200
G1 E0.80000 F2100.00000
M204 S1000
G1 F1200
G1 X90.137 Y96.616 E0.02123
G1 X90.769 Y96.365 E0.02134
G1 X91.248 Y96.311 E0.01510
G1 X158.754 Y96.311 E2.11660
G1 X159.577 Y96.474 E0.02631
G1 X160.279 Y96.934 E0.02631
G1 X160.756 Y97.624 E0.02631
G1 X160.938 Y98.439 E0.02620
G1 X160.925 Y111.744 E0.41717
G1 X160.746 Y112.397 E0.02123
G1 X160.379 Y112.962 E0.02112
G1 X159.857 Y113.388 E0.02112
G1 X159.231 Y113.635 E0.02112
G1 X158.752 Y113.689 E0.01510
G1 X91.199 Y113.688 E2.11809
G1 X90.488 Y113.552 E0.02270
G1 X89.863 Y113.193 E0.02259
G1 X89.389 Y112.651 E0.02259
G1 X89.115 Y111.981 E0.02270
G1 X89.061 Y111.506 E0.01498
G1 X89.074 Y98.270 E0.41500
G1 X89.248 Y97.616 E0.02123
G1 X89.582 Y97.097 E0.01935
G1 F8640
G1 X90.137 Y96.616 E-0.16958
G1 X90.769 Y96.365 E-0.15717
G1 X91.248 Y96.311 E-0.11117
G1 X92.643 Y96.311 E-0.32208
G1 E-0.04000 F2100.00000
G1 Z0.800 F10800.000
G1 X91.837 Y99.087
G1 Z0.200
G1 E0.80000 F2100.00000
G1 F1200
G1 X158.163 Y99.087 E2.07960
G1 X158.163 Y110.913 E0.37079
G1 X91.837 Y110.913 E2.07960
G1 X91.837 Y99.147 E0.36891
G1 X91.460 Y98.710 F10800.000
G1 F1200
G1 X158.540 Y98.710 E2.10325
G1 X158.540 Y111.290 E0.39444
G1 X91.460 Y111.290 E2.10325
G1 X91.460 Y98.770 E0.39256
G1 X91.859 Y98.735 F10800.000
G1 F8640
G1 X94.751 Y98.767 E-0.76000
G1 E-0.04000 F2100.00000
G1 Z0.800 F10800.000
G1 X91.950 Y110.033
G1 Z0.200
G1 E0.80000 F2100.00000
G1 F1200
G1 X92.547 Y110.630 E0.02664
G1 X93.084 Y110.630 E0.01692
G1 X92.120 Y109.666 E0.04299
G1 X92.120 Y109.130 E0.01692
G1 X93.620 Y110.630 E0.06692
G1 X94.157 Y110.630 E0.01692
G1 X92.120 Y108.593 E0.09084
G1 X92.120 Y108.057 E0.01692
G1 X94.693 Y110.630 E0.11476
G1 X95.229 Y110.630 E0.01692
G1 X92.120 Y107.521 E0.13868
G1 X92.120 Y106.984 E0.01692
G1 X95.766 Y110.630 E0.16260
G1 X96.302 Y110.630 E0.01692
G1 X92.120 Y106.448 E0.18653
G1 X92.120 Y105.912 E0.01692
G1 X96.838 Y110.630 E0.21045
G1 X97.375 Y110.630 E0.01692
G1 X92.120 Y105.375 E0.23437
G1 X92.120 Y104.839 E0.01692
G1 X97.911 Y110.630 E0.25829
G1 X98.448 Y110.630 E0.01692
G1 X92.120 Y104.302 E0.28222
G1 X92.120 Y103.766 E0.01692
G1 X98.984 Y110.630 E0.30614
G1 X99.520 Y110.630 E0.01692
G1 X92.120 Y103.230 E0.33006
G1 X92.120 Y102.693 E0.01692
G1 X100.057 Y110.630 E0.35398
G1 X100.593 Y110.630 E0.01692
G1 X92.120 Y102.157 E0.37791
G1 X92.120 Y101.621 E0.01692
G1 X101.129 Y110.630 E0.40183
G1 X101.666 Y110.630 E0.01692
G1 X92.120 Y101.084 E0.42575
G1 X92.120 Y100.548 E0.01692
G1 X102.202 Y110.630 E0.44967
G1 X102.739 Y110.630 E0.01692
G1 X92.120 Y100.011 E0.47359
G1 X92.120 Y99.475 E0.01692
G1 X103.275 Y110.630 E0.49752
G1 X103.811 Y110.630 E0.01692
G1 X92.551 Y99.370 E0.50221
G1 X93.087 Y99.370 E0.01692
G1 X104.348 Y110.630 E0.50221
G1 X104.884 Y110.630 E0.01692
G1 X93.624 Y99.370 E0.50221
G1 X94.160 Y99.370 E0.01692
G1 X105.420 Y110.630 E0.50221
G1 X105.957 Y110.630 E0.01692
G1 X94.697 Y99.370 E0.50221
G1 X95.233 Y99.370 E0.01692
G1 X106.493 Y110.630 E0.50221
G1 X107.030 Y110.630 E0.01692
G1 X95.769 Y99.370 E0.50221
G1 X96.306 Y99.370 E0.01692
G1 X107.566 Y110.630 E0.50221
G1 X108.102 Y110.630 E0.01692
G1 X96.842 Y99.370 E0.50221
G1 X97.378 Y99.370 E0.01692
G1 X108.639 Y110.630 E0.50221
G1 X109.175 Y110.630 E0.01692
G1 X97.915 Y99.370 E0.50221
G1 X98.451 Y99.370 E0.01692
G1 X109.712 Y110.630 E0.50221
G1 X110.248 Y110.630 E0.01692
G1 X98.988 Y99.370 E0.50221
G1 X99.524 Y99.370 E0.01692
G1 X110.784 Y110.630 E0.50221
G1 X111.321 Y110.630 E0.01692
G1 X100.060 Y99.370 E0.50221
G1 X100.597 Y99.370 E0.01692
G1 X111.857 Y110.630 E0.50221
M73 P5 R21
G1 X112.393 Y110.630 E0.01692
G1 X101.133 Y99.370 E0.50221
G1 X101.669 Y99.370 E0.01692
G1 X112.930 Y110.630 E0.50221
G1 X113.466 Y110.630 E0.01692
G1 X102.206 Y99.370 E0.50221
G1 X102.742 Y99.370 E0.01692
G1 X114.003 Y110.630 E0.50221
G1 X114.539 Y110.630 E0.01692
G1 X103.279 Y99.370 E0.50221
G1 X103.815 Y99.370 E0.01692
G1 X115.075 Y110.630 E0.50221
G1 X115.612 Y110.630 E0.01692
G1 X104.351 Y99.370 E0.50221
G1 X104.888 Y99.370 E0.01692
G1 X116.148 Y110.630 E0.50221
G1 X116.684 Y110.630 E0.01692
G1 X105.424 Y99.370 E0.50221
G1 X105.960 Y99.370 E0.01692
G1 X117.221 Y110.630 E0.50221
G1 X117.757 Y110.630 E0.01692
G1 X106.497 Y99.370 E0.50221
G1 X107.033 Y99.370 E0.01692
G1 X118.294 Y110.630 E0.50221
G1 X118.830 Y110.630 E0.01692
G1 X107.570 Y99.370 E0.50221
G1 X108.106 Y99.370 E0.01692
G1 X119.366 Y110.630 E0.50221
G1 X119.903 Y110.630 E0.01692
G1 X108.642 Y99.370 E0.50221
G1 X109.179 Y99.370 E0.01692
G1 X120.439 Y110.630 E0.50221
G1 X120.975 Y110.630 E0.01692
G1 X109.715 Y99.370 E0.50221
G1 X110.252 Y99.370 E0.01692
G1 X121.512 Y110.630 E0.50221
G1 X122.048 Y110.630 E0.01692
G1 X110.788 Y99.370 E0.50221
G1 X111.324 Y99.370 E0.01692
G1 X122.585 Y110.630 E0.50221
G1 X123.121 Y110.630 E0.01692
G1 X111.861 Y99.370 E0.50221
G1 X112.397 Y99.370 E0.01692
G1 X123.657 Y110.630 E0.50221
G1 X124.194 Y110.630 E0.01692
G1 X112.933 Y99.370 E0.50221
G1 X113.470 Y99.370 E0.01692
G1 X124.730 Y110.630 E0.50221
G1 X125.266 Y110.630 E0.01692
G1 X114.006 Y99.370 E0.50221
G1 X114.543 Y99.370 E0.01692
G1 X125.803 Y110.630 E0.50221
G1 X126.339 Y110.630 E0.01692
G1 X115.079 Y99.370 E0.50221
G1 X115.615 Y99.370 E0.01692
G1 X126.876 Y110.630 E0.50221
G1 X127.412 Y110.630 E0.01692
G1 X116.152 Y99.370 E0.50221
G1 X116.688 Y99.370 E0.01692
G1 X127.948 Y110.630 E0.50221
G1 X128.485 Y110.630 E0.01692
G1 X117.224 Y99.370 E0.50221
G1 X117.761 Y99.370 E0.01692
G1 X129.021 Y110.630 E0.50221
G1 X129.557 Y110.630 E0.01692
G1 X118.297 Y99.370 E0.50221
G1 X118.834 Y99.370 E0.01692
G1 X130.094 Y110.630 E0.50221
G1 X130.630 Y110.630 E0.01692
G1 X119.370 Y99.370 E0.50221
G1 X119.906 Y99.370 E0.01692
G1 X131.167 Y110.630 E0.50221
G1 X131.703 Y110.630 E0.01692
G1 X120.443 Y99.370 E0.50221
G1 X120.979 Y99.370 E0.01692
G1 X132.239 Y110.630 E0.50221
G1 X132.776 Y110.630 E0.01692
G1 X121.515 Y99.370 E0.50221
G1 X122.052 Y99.370 E0.01692
G1 X133.312 Y110.630 E0.50221
G1 X133.848 Y110.630 E0.01692
G1 X122.588 Y99.370 E0.50221
G1 X123.125 Y99.370 E0.01692
G1 X134.385 Y110.630 E0.50221
G1 X134.921 Y110.630 E0.01692
G1 X123.661 Y99.370 E0.50221
G1 X124.197 Y99.370 E0.01692
G1 X135.458 Y110.630 E0.50221
G1 X135.994 Y110.630 E0.01692
G1 X124.734 Y99.370 E0.50221
G1 X125.270 Y99.370 E0.01692
G1 X136.530 Y110.630 E0.50221
G1 X137.067 Y110.630 E0.01692
G1 X125.806 Y99.370 E0.50221
G1 X126.343 Y99.370 E0.01692
G1 X137.603 Y110.630 E0.50221
G1 X138.139 Y110.630 E0.01692
G1 X126.879 Y99.370 E0.50221
G1 X127.416 Y99.370 E0.01692
G1 X138.676 Y110.630 E0.50221
G1 X139.212 Y110.630 E0.01692
G1 X127.952 Y99.370 E0.50221
G1 X128.488 Y99.370 E0.01692
G1 X139.749 Y110.630 E0.50221
G1 X140.285 Y110.630 E0.01692
G1 X129.025 Y99.370 E0.50221
G1 X129.561 Y99.370 E0.01692
G1 X140.821 Y110.630 E0.50221
G1 X141.358 Y110.630 E0.01692
G1 X130.097 Y99.370 E0.50221
G1 X130.634 Y99.370 E0.01692
G1 X141.894 Y110.630 E0.50221
G1 X142.430 Y110.630 E0.01692
G1 X131.170 Y99.370 E0.50221
G1 X131.707 Y99.370 E0.01692
G1 X142.967 Y110.630 E0.50221
G1 X143.503 Y110.630 E0.01692
G1 X132.243 Y99.370 E0.50221
G1 X132.779 Y99.370 E0.01692
G1 X144.040 Y110.630 E0.50221
G1 X144.576 Y110.630 E0.01692
G1 X133.316 Y99.370 E0.50221
G1 X133.852 Y99.370 E0.01692
G1 X145.112 Y110.630 E0.50221
G1 X145.649 Y110.630 E0.01692
G1 X134.388 Y99.370 E0.50221
G1 X134.925 Y99.370 E0.01692
G1 X146.185 Y110.630 E0.50221
G1 X146.721 Y110.630 E0.01692
G1 X135.461 Y99.370 E0.50221
G1 X135.998 Y99.370 E0.01692
G1 X147.258 Y110.630 E0.50221
G1 X147.794 Y110.630 E0.01692
G1 X136.534 Y99.370 E0.50221
G1 X137.070 Y99.370 E0.01692
G1 X148.331 Y110.630 E0.50221
G1 X148.867 Y110.630 E0.01692
G1 X137.607 Y99.370 E0.50221
G1 X138.143 Y99.370 E0.01692
G1 X149.403 Y110.630 E0.50221
G1 X149.940 Y110.630 E0.01692
G1 X138.679 Y99.370 E0.50221
G1 X139.216 Y99.370 E0.01692
G1 X150.476 Y110.630 E0.50221
G1 X151.012 Y110.630 E0.01692
G1 X139.752 Y99.370 E0.50221
M73 P9 R20
G1 X140.289 Y99.370 E0.01692
G1 X151.549 Y110.630 E0.50221
G1 X152.085 Y110.630 E0.01692
G1 X140.825 Y99.370 E0.50221
G1 X141.361 Y99.370 E0.01692
G1 X152.622 Y110.630 E0.50221
G1 X153.158 Y110.630 E0.01692
G1 X141.898 Y99.370 E0.50221
G1 X142.434 Y99.370 E0.01692
G1 X153.694 Y110.630 E0.50221
G1 X154.231 Y110.630 E0.01692
G1 X142.970 Y99.370 E0.50221
G1 X143.507 Y99.370 E0.01692
G1 X154.767 Y110.630 E0.50221
G1 X155.303 Y110.630 E0.01692
G1 X144.043 Y99.370 E0.50221
G1 X144.580 Y99.370 E0.01692
G1 X155.840 Y110.630 E0.50221
G1 X156.376 Y110.630 E0.01692
G1 X145.116 Y99.370 E0.50221
G1 X145.652 Y99.370 E0.01692
G1 X156.913 Y110.630 E0.50221
G1 X157.449 Y110.630 E0.01692
G1 X146.189 Y99.370 E0.50221
G1 X146.725 Y99.370 E0.01692
G1 X157.880 Y110.525 E0.49751
G1 X157.880 Y109.989 E0.01692
G1 X147.261 Y99.370 E0.47359
G1 X147.798 Y99.370 E0.01692
G1 X157.880 Y109.452 E0.44967
G1 X157.880 Y108.916 E0.01692
G1 X148.334 Y99.370 E0.42575
G1 X148.871 Y99.370 E0.01692
G1 X157.880 Y108.379 E0.40183
G1 X157.880 Y107.843 E0.01692
G1 X149.407 Y99.370 E0.37790
G1 X149.943 Y99.370 E0.01692
G1 X157.880 Y107.307 E0.35398
G1 X157.880 Y106.770 E0.01692
G1 X150.480 Y99.370 E0.33006
G1 X151.016 Y99.370 E0.01692
G1 X157.880 Y106.234 E0.30614
G1 X157.880 Y105.698 E0.01692
G1 X151.552 Y99.370 E0.28221
G1 X152.089 Y99.370 E0.01692
G1 X157.880 Y105.161 E0.25829
G1 X157.880 Y104.625 E0.01692
G1 X152.625 Y99.370 E0.23437
G1 X153.162 Y99.370 E0.01692
G1 X157.880 Y104.088 E0.21045
G1 X157.880 Y103.552 E0.01692
G1 X153.698 Y99.370 E0.18652
G1 X154.234 Y99.370 E0.01692
G1 X157.880 Y103.016 E0.16260
G1 X157.880 Y102.479 E0.01692
G1 X154.771 Y99.370 E0.13868
G1 X155.307 Y99.370 E0.01692
G1 X157.880 Y101.943 E0.11476
G1 X157.880 Y101.407 E0.01692
G1 X155.843 Y99.370 E0.09084
G1 X156.380 Y99.370 E0.01692
G1 X157.880 Y100.870 E0.06691
G1 X157.880 Y100.334 E0.01692
G1 X156.916 Y99.370 E0.04299
G1 X157.453 Y99.370 E0.01692
G1 X158.050 Y99.967 E0.02664
M106 S255
;BEFORE_LAYER_CHANGE
G92 E0.0
;0.4


G1 F8640
G1 X157.453 Y99.370 E-0.19503
G1 X156.916 Y99.370 E-0.12385
G1 X157.880 Y100.334 E-0.31477
G1 X157.880 Y100.870 E-0.12385
G1 X157.872 Y100.863 E-0.00250
G1 E-0.04000 F2100.00000
G1 Z0.800 F10800.000
;AFTER_LAYER_CHANGE
;0.4
G1 X160.756 Y97.624
G1 Z0.400
G1 E0.80000 F2100.00000
G1 F3000
G1 X160.938 Y98.439 E0.02620
G1 X160.925 Y111.744 E0.41717
G1 X160.746 Y112.397 E0.02123
G1 X160.379 Y112.962 E0.02112
G1 X159.857 Y113.388 E0.02112
G1 X159.231 Y113.635 E0.02112
G1 X158.752 Y113.689 E0.01510
G1 X91.199 Y113.688 E2.11809
G1 X90.488 Y113.552 E0.02270
G1 X89.863 Y113.193 E0.02259
G1 X89.389 Y112.651 E0.02259
G1 X89.115 Y111.981 E0.02270
G1 X89.061 Y111.506 E0.01498
G1 X89.074 Y98.270 E0.41500
G1 X89.248 Y97.616 E0.02123
G1 X89.614 Y97.046 E0.02123
G1 X90.137 Y96.616 E0.02123
G1 X90.769 Y96.365 E0.02134
G1 X91.248 Y96.311 E0.01510
G1 X158.754 Y96.311 E2.11660
G1 X159.577 Y96.474 E0.02631
G1 X160.279 Y96.934 E0.02631
G1 X160.721 Y97.575 E0.02443
G1 F8640
G1 X160.938 Y98.439 E-0.20581
G1 X160.935 Y100.839 E-0.55419
G1 E-0.04000 F2100.00000
G1 Z1.000 F10800.000
G1 X158.118 Y99.132
G1 Z0.400
G1 E0.80000 F2100.00000
M204 S800
G1 F3000
G1 X158.118 Y110.868 E0.39724
G1 X91.882 Y110.868 E2.24200
G1 X91.882 Y99.132 E0.39724
G1 X158.058 Y99.132 E2.23997
M204 S1000
G1 X158.525 Y98.725 F10800.000
M204 S800
G1 F2400
G1 X158.525 Y111.275 E0.42480
G1 X91.475 Y111.275 E2.26956
G1 X91.475 Y98.725 E0.42480
G1 X158.465 Y98.725 E2.26753
M204 S1000
G1 X158.347 Y99.083 F10800.000
G1 F8640
G1 X158.481 Y102.016 E-0.76000
G1 E-0.04000 F2100.00000
G1 Z1.000 F10800.000
G1 X157.168 Y110.746
G1 Z0.400
G1 E0.80000 F2100.00000
M204 S2000
G1 F3000
G1 X157.813 Y110.101 E0.03102
G1 X157.813 Y109.523 E0.01970
G1 X156.773 Y110.563 E0.05006
G1 X156.194 Y110.563 E0.01970
G1 X157.813 Y108.944 E0.07792
G1 X157.813 Y108.365 E0.01970
G1 X155.615 Y110.563 E0.10578
G1 X155.036 Y110.563 E0.01970
G1 X157.813 Y107.786 E0.13364
G1 X157.813 Y107.207 E0.01970
G1 X154.457 Y110.563 E0.16150
G1 X153.878 Y110.563 E0.01970
G1 X157.813 Y106.628 E0.18936
G1 X157.813 Y106.049 E0.01970
G1 X153.299 Y110.563 E0.21722
G1 X152.721 Y110.563 E0.01970
G1 X157.813 Y105.471 E0.24508
G1 X157.813 Y104.892 E0.01970
G1 X152.142 Y110.563 E0.27294
G1 X151.563 Y110.563 E0.01970
G1 X157.813 Y104.313 E0.30080
G1 X157.813 Y103.734 E0.01970
G1 X150.984 Y110.563 E0.32866
G1 X150.405 Y110.563 E0.01970
G1 X157.813 Y103.155 E0.35652
G1 X157.813 Y102.576 E0.01970
G1 X149.826 Y110.563 E0.38438
G1 X149.248 Y110.563 E0.01970
G1 X157.813 Y101.998 E0.41224
G1 X157.813 Y101.419 E0.01970
G1 X148.669 Y110.563 E0.44010
G1 X148.090 Y110.563 E0.01970
G1 X157.813 Y100.840 E0.46796
G1 X157.813 Y100.261 E0.01970
G1 X147.511 Y110.563 E0.49582
G1 X146.932 Y110.563 E0.01970
G1 X157.813 Y99.682 E0.52368
G1 X157.813 Y99.437 E0.00833
G1 X157.479 Y99.437 E0.01137
G1 X146.353 Y110.563 E0.53547
G1 X145.775 Y110.563 E0.01970
G1 X156.900 Y99.437 E0.53547
G1 X156.321 Y99.437 E0.01970
G1 X145.196 Y110.563 E0.53547
G1 X144.617 Y110.563 E0.01970
G1 X155.742 Y99.437 E0.53547
G1 X155.163 Y99.437 E0.01970
G1 X144.038 Y110.563 E0.53547
G1 X143.459 Y110.563 E0.01970
G1 X154.584 Y99.437 E0.53547
G1 X154.006 Y99.437 E0.01970
G1 X142.880 Y110.563 E0.53547
G1 X142.302 Y110.563 E0.01970
G1 X153.427 Y99.437 E0.53547
G1 X152.848 Y99.437 E0.01970
G1 X141.723 Y110.563 E0.53547
G1 X141.144 Y110.563 E0.01970
G1 X152.269 Y99.437 E0.53547
G1 X151.690 Y99.437 E0.01970
G1 X140.565 Y110.563 E0.53547
G1 X139.986 Y110.563 E0.01970
G1 X151.111 Y99.437 E0.53547
G1 X150.533 Y99.437 E0.01970
G1 X139.407 Y110.563 E0.53547
G1 X138.828 Y110.563 E0.01970
G1 X149.954 Y99.437 E0.53547
G1 X149.375 Y99.437 E0.01970
G1 X138.250 Y110.563 E0.53547
G1 X137.671 Y110.563 E0.01970
G1 X148.796 Y99.437 E0.53547
G1 X148.217 Y99.437 E0.01970
G1 X137.092 Y110.563 E0.53547
G1 X136.513 Y110.563 E0.01970
G1 X147.638 Y99.437 E0.53547
G1 X147.060 Y99.437 E0.01970
G1 X135.934 Y110.563 E0.53547
G1 X135.355 Y110.563 E0.01970
G1 X146.481 Y99.437 E0.53547
G1 X145.902 Y99.437 E0.01970
G1 X134.777 Y110.563 E0.53547
G1 X134.198 Y110.563 E0.01970
G1 X145.323 Y99.437 E0.53547
G1 X144.744 Y99.437 E0.01970
G1 X133.619 Y110.563 E0.53547
G1 X133.040 Y110.563 E0.01970
G1 X144.165 Y99.437 E0.53547
G1 X143.586 Y99.437 E0.01970
G1 X132.461 Y110.563 E0.53547
G1 X131.882 Y110.563 E0.01970
G1 X143.008 Y99.437 E0.53547
G1 X142.429 Y99.437 E0.01970
G1 X131.304 Y110.563 E0.53547
G1 X130.725 Y110.563 E0.01970
G1 X141.850 Y99.437 E0.53547
G1 X141.271 Y99.437 E0.01970
G1 X130.146 Y110.563 E0.53547
G1 X129.567 Y110.563 E0.01970
G1 X140.692 Y99.437 E0.53547
G1 X140.113 Y99.437 E0.01970
G1 X128.988 Y110.563 E0.53547
G1 X128.409 Y110.563 E0.01970
