; generated by PrusaSlicer 2.2.0+win64 on 2020-11-23 at 22:30:00 UTC

; 

; external perimeters extrusion width = 0.45mm
; perimeters extrusion width = 0.45mm
; infill extrusion width = 0.45mm
; solid infill extrusion width = 0.45mm
; top infill extrusion width = 0.40mm
; first layer extrusion width = 0.42mm

M73 P0 R125
M201 X9000 Y9000 Z500 E10000 ; sets maximum accelerations, mm/sec^2
M203 X500 Y500 Z12 E120 ; sets maximum feedrates, mm/sec
M204 P2000 R1500 T2000 ; sets acceleration (P, T) and retract acceleration (R), mm/sec^2
M205 X10.00 Y10.00 Z0.20 E2.50 ; sets the jerk limits, mm/sec
M205 S0 T0 ; sets the minimum extruding and travel feed rate, mm/sec
M107
M862.3 P "MK2.5SMMU2S" ; printer model check
M862.1 P0.4 ; nozzle diameter check
M115 U3.8.0 ; tell printer latest fw version
G90 ; use absolute coordinates
M83 ; extruder relative mode
M104 S215 ; set extruder temp
M140 S60 ; set bed temp
Tx
M190 S60 ; wait for bed temp
M109 S215 ; wait for extruder temp
G28 W ; home all without mesh bed level
G80 ; mesh bed leveling

G21 ; set units to millimeters

;go outside print area
G1 Y-3.0 F1000.0
G1 Z0.4 F1000.0
; select extruder
Tc
; purge line
G1 X55.0 F2000.0
G1 Z0.3 F1000.0
G92 E0.0
G1 X240.0 E25.0 F2200.0
M73 P0 R125
G1 Y-2.0 F1000.0
G1 X55.0 E25 F1400.0
G1 Z0.20 F1000.0
G1 X5.0 E4.0 F1000.0
G92 E0.0
G21 ; set units to millimeters
G90 ; use absolute coordinates
M83 ; use relative distances for extrusion
M900 K0.06 ; Filament gcode LA 1.5
M900 K30 ; Filament gcode LA 1.0
;BEFORE_LAYER_CHANGE
G92 E0.0
;0.2


G1 E-0.80000 F2100.00000
G1 Z0.600 F10800.000
;AFTER_LAYER_CHANGE
;0.2
G1 X96.986 Y33.835
G1 Z0.200
G1 E0.80000 F2100.00000
M204 S1000
G1 F1200.000
G1 X97.316 Y33.199 E0.02249
G1 X97.821 Y32.689 E0.02249
G1 X98.459 Y32.353 E0.02260
G1 X99.164 Y32.223 E0.02249
G1 X147.873 Y32.222 E1.52723
G1 X150.884 Y32.225 E0.09443
G1 X151.711 Y32.419 E0.02661
G1 X152.277 Y32.766 E0.02083
G1 X152.727 Y33.260 E0.02095
G1 X153.021 Y33.856 E0.02083
G1 X153.138 Y34.514 E0.02095
G1 X153.140 Y175.405 E4.41755
G1 X153.014 Y176.165 E0.02414
G1 X152.681 Y176.804 E0.02260
G1 X152.173 Y177.315 E0.02260
G1 X151.534 Y177.650 E0.02260
G1 X150.828 Y177.777 E0.02249
G1 X99.230 Y177.778 E1.61784
G1 X98.474 Y177.653 E0.02402
G1 X97.828 Y177.316 E0.02284
G1 X97.312 Y176.796 E0.02296
G1 X96.980 Y176.148 E0.02284
G1 X96.860 Y175.425 E0.02296
G1 X96.860 Y34.595 E4.41564
G1 X96.976 Y33.895 E0.02226
G1 E-0.80000 F2100.00000
G1 Z0.800 F10800.000
G1 X125.000 Y174.485
G1 Z0.200
G1 E0.80000 F2100.00000
G1 F1200.000
G1 X100.150 Y174.485 E0.77916
G1 X100.150 Y35.515 E4.35728
G1 X148.340 Y35.515 E1.51097
G1 X148.340 Y174.485 E4.35728
G1 X125.060 Y174.485 E0.72993
G1 X125.000 Y174.107 F10800.000
G1 F1200.000
G1 X100.527 Y174.107 E0.76734
G1 X100.527 Y35.893 E4.33363
G1 X147.963 Y35.893 E1.48733
M73 P0 R124
G1 X147.963 Y174.107 E4.33363
G1 X125.060 Y174.107 E0.71811
G1 X124.978 Y174.507 F10800.000
G1 X125.000 Y174.814
G1 F1200.000
G1 X99.824 Y174.814 E0.78936
G1 X99.824 Y35.186 E4.37795
G1 X150.176 Y35.186 E1.57872
G1 X150.176 Y174.814 E4.37795
G1 X125.060 Y174.814 E0.78748
G1 X125.000 Y175.191 F10800.000
G1 F1200.000
G1 X99.447 Y175.191 E0.80118
G1 X99.447 Y34.809 E4.40160
G1 X150.553 Y34.809 E1.60237
G1 X150.553 Y175.191 E4.40160
G1 X125.060 Y175.191 E0.79930
G1 X124.666 Y174.971 F10800.000
G1 E-0.80000 F2100.00000
G1 Z0.800 F10800.000
G1 X150.062 Y36.063
G1 Z0.200
G1 E0.80000 F2100.00000
G1 F1200.000
G1 X149.468 Y35.469 E0.02641
G1 X148.934 Y35.469 E0.01679
G1 X149.893 Y36.428 E0.04262
G1 X149.893 Y36.962 E0.01679
G1 X148.623 Y35.692 E0.05643
G1 X148.623 Y36.227 E0.01679
G1 X149.893 Y37.496 E0.05643
G1 X149.893 Y38.031 E0.01679
G1 X148.623 Y36.761 E0.05643
G1 X148.623 Y37.295 E0.01679
G1 X149.893 Y38.565 E0.05643
G1 X149.893 Y39.100 E0.01679
G1 X148.623 Y37.830 E0.05643
G1 X148.623 Y38.364 E0.01679
G1 X149.893 Y39.634 E0.05643
G1 X149.893 Y40.169 E0.01679
G1 X148.623 Y38.899 E0.05643
G1 X148.623 Y39.433 E0.01679
G1 X149.893 Y40.703 E0.05643
G1 X149.893 Y41.237 E0.01679
G1 X148.623 Y39.968 E0.05643
G1 X148.623 Y40.502 E0.01679
G1 X149.893 Y41.772 E0.05643
G1 X149.893 Y42.306 E0.01679
G1 X148.623 Y41.036 E0.05643
G1 X148.623 Y41.571 E0.01679
G1 X149.893 Y42.841 E0.05643
G1 X149.893 Y43.375 E0.01679
G1 X148.623 Y42.105 E0.05643
G1 X148.623 Y42.640 E0.01679
G1 X149.893 Y43.909 E0.05643
G1 X149.893 Y44.444 E0.01679
G1 X148.623 Y43.174 E0.05643
G1 X148.623 Y43.708 E0.01679
G1 X149.893 Y44.978 E0.05643
G1 X149.893 Y45.513 E0.01679
G1 X148.623 Y44.243 E0.05643
G1 X148.623 Y44.777 E0.01679
G1 X149.893 Y46.047 E0.05643
G1 X149.893 Y46.582 E0.01679
G1 X148.623 Y45.312 E0.05643
G1 X148.623 Y45.846 E0.01679
G1 X149.893 Y47.116 E0.05643
G1 X149.893 Y47.650 E0.01679
G1 X148.623 Y46.381 E0.05643
G1 X148.623 Y46.915 E0.01679
G1 X149.893 Y48.185 E0.05643
G1 X149.893 Y48.719 E0.01679
G1 X148.623 Y47.449 E0.05643
G1 X148.623 Y47.984 E0.01679
G1 X149.893 Y49.254 E0.05643
G1 X149.893 Y49.788 E0.01679
G1 X148.623 Y48.518 E0.05643
G1 X148.623 Y49.053 E0.01679
G1 X149.893 Y50.323 E0.05643
G1 X149.893 Y50.857 E0.01679
G1 X148.623 Y49.587 E0.05643
G1 X148.623 Y50.122 E0.01679
G1 X149.893 Y51.391 E0.05643
G1 X149.893 Y51.926 E0.01679
G1 X148.623 Y50.656 E0.05643
G1 X148.623 Y51.190 E0.01679
G1 X149.893 Y52.460 E0.05643
G1 X149.893 Y52.995 E0.01679
G1 X148.623 Y51.725 E0.05643
G1 X148.623 Y52.259 E0.01679
G1 X149.893 Y53.529 E0.05643
G1 X149.893 Y54.063 E0.01679
G1 X148.623 Y52.794 E0.05643
G1 X148.623 Y53.328 E0.01679
G1 X149.893 Y54.598 E0.05643
G1 X149.893 Y55.132 E0.01679
G1 X148.623 Y53.862 E0.05643
G1 X148.623 Y54.397 E0.01679
G1 X149.893 Y55.667 E0.05643
G1 X149.893 Y56.201 E0.01679
G1 X148.623 Y54.931 E0.05643
G1 X148.623 Y55.466 E0.01679
G1 X149.893 Y56.736 E0.05643
G1 X149.893 Y57.270 E0.01679
G1 X148.623 Y56.000 E0.05643
G1 X148.623 Y56.535 E0.01679
G1 X149.893 Y57.804 E0.05643
G1 X149.893 Y58.339 E0.01679
G1 X148.623 Y57.069 E0.05643
G1 X148.623 Y57.603 E0.01679
G1 X149.893 Y58.873 E0.05643
G1 X149.893 Y59.408 E0.01679
G1 X148.623 Y58.138 E0.05643
G1 X148.623 Y58.672 E0.01679
G1 X149.893 Y59.942 E0.05643
G1 X149.893 Y60.476 E0.01679
G1 X148.623 Y59.207 E0.05643
G1 X148.623 Y59.741 E0.01679
G1 X149.893 Y61.011 E0.05643
G1 X149.893 Y61.545 E0.01679
G1 X148.623 Y60.275 E0.05643
G1 X148.623 Y60.810 E0.01679
G1 X149.893 Y62.080 E0.05643
G1 X149.893 Y62.614 E0.01679
G1 X148.623 Y61.344 E0.05643
G1 X148.623 Y61.879 E0.01679
G1 X149.893 Y63.149 E0.05643
G1 X149.893 Y63.683 E0.01679
G1 X148.623 Y62.413 E0.05643
G1 X148.623 Y62.948 E0.01679
G1 X149.893 Y64.217 E0.05643
G1 X149.893 Y64.752 E0.01679
G1 X148.623 Y63.482 E0.05643
G1 X148.623 Y64.016 E0.01679
G1 X149.893 Y65.286 E0.05643
G1 X149.893 Y65.821 E0.01679
G1 X148.623 Y64.551 E0.05643
G1 X148.623 Y65.085 E0.01679
G1 X149.893 Y66.355 E0.05643
G1 X149.893 Y66.890 E0.01679
G1 X148.623 Y65.620 E0.05643
G1 X148.623 Y66.154 E0.01679
G1 X149.893 Y67.424 E0.05643
G1 X149.893 Y67.958 E0.01679
G1 X148.623 Y66.689 E0.05643
G1 X148.623 Y67.223 E0.01679
G1 X149.893 Y68.493 E0.05643
G1 X149.893 Y69.027 E0.01679
G1 X148.623 Y67.757 E0.05643
G1 X148.623 Y68.292 E0.01679
G1 X149.893 Y69.562 E0.05643
G1 X149.893 Y70.096 E0.01679
G1 X148.623 Y68.826 E0.05643
G1 X148.623 Y69.361 E0.01679
G1 X149.893 Y70.630 E0.05643
G1 X149.893 Y71.165 E0.01679
G1 X148.623 Y69.895 E0.05643
G1 X148.623 Y70.429 E0.01679
G1 X149.893 Y71.699 E0.05643
G1 X149.893 Y72.234 E0.01679
G1 X148.623 Y70.964 E0.05643
G1 X148.623 Y71.498 E0.01679
G1 X149.893 Y72.768 E0.05643
G1 X149.893 Y73.303 E0.01679
G1 X148.623 Y72.033 E0.05643
G1 X148.623 Y72.567 E0.01679
G1 X149.893 Y73.837 E0.05643
G1 X149.893 Y74.371 E0.01679
G1 X148.623 Y73.102 E0.05643
G1 X148.623 Y73.636 E0.01679
G1 X149.893 Y74.906 E0.05643
G1 X149.893 Y75.440 E0.01679
G1 X148.623 Y74.170 E0.05643
G1 X148.623 Y74.705 E0.01679
G1 X149.893 Y75.975 E0.05643
G1 X149.893 Y76.509 E0.01679
G1 X148.623 Y75.239 E0.05643
G1 X148.623 Y75.774 E0.01679
G1 X149.893 Y77.044 E0.05643
G1 X149.893 Y77.578 E0.01679
G1 X148.623 Y76.308 E0.05643
G1 X148.623 Y76.843 E0.01679
G1 X149.893 Y78.112 E0.05643
G1 X149.893 Y78.647 E0.01679
G1 X148.623 Y77.377 E0.05643
G1 X148.623 Y77.911 E0.01679
G1 X149.893 Y79.181 E0.05643
G1 X149.893 Y79.716 E0.01679
G1 X148.623 Y78.446 E0.05643
G1 X148.623 Y78.980 E0.01679
G1 X149.893 Y80.250 E0.05643
G1 X149.893 Y80.784 E0.01679
G1 X148.623 Y79.515 E0.05643
G1 X148.623 Y80.049 E0.01679
G1 X149.893 Y81.319 E0.05643
G1 X149.893 Y81.853 E0.01679
G1 X148.623 Y80.583 E0.05643
G1 X148.623 Y81.118 E0.01679
G1 X149.893 Y82.388 E0.05643
G1 X149.893 Y82.922 E0.01679
G1 X148.623 Y81.652 E0.05643
G1 X148.623 Y82.187 E0.01679
G1 X149.893 Y83.457 E0.05643
G1 X149.893 Y83.991 E0.01679
G1 X148.623 Y82.721 E0.05643
G1 X148.623 Y83.256 E0.01679
G1 X149.893 Y84.525 E0.05643
G1 X149.893 Y85.060 E0.01679
G1 X148.623 Y83.790 E0.05643
G1 X148.623 Y84.324 E0.01679
G1 X149.893 Y85.594 E0.05643
G1 X149.893 Y86.129 E0.01679
G1 X148.623 Y84.859 E0.05643
G1 X148.623 Y85.393 E0.01679
G1 X149.893 Y86.663 E0.05643
G1 X149.893 Y87.197 E0.01679
G1 X148.623 Y85.928 E0.05643
G1 X148.623 Y86.462 E0.01679
G1 X149.893 Y87.732 E0.05643
G1 X149.893 Y88.266 E0.01679
G1 X148.623 Y86.996 E0.05643
G1 X148.623 Y87.531 E0.01679
G1 X149.893 Y88.801 E0.05643
G1 X149.893 Y89.335 E0.01679
G1 X148.623 Y88.065 E0.05643
G1 X148.623 Y88.600 E0.01679
G1 X149.893 Y89.870 E0.05643
M73 P1 R123
G1 X149.893 Y90.404 E0.01679
G1 X148.623 Y89.134 E0.05643
G1 X148.623 Y89.669 E0.01679
G1 X149.893 Y90.938 E0.05643
G1 X149.893 Y91.473 E0.01679
G1 X148.623 Y90.203 E0.05643
G1 X148.623 Y90.737 E0.01679
G1 X149.893 Y92.007 E0.05643
G1 X149.893 Y92.542 E0.01679
G1 X148.623 Y91.272 E0.05643
G1 X148.623 Y91.806 E0.01679
G1 X149.893 Y93.076 E0.05643
G1 X149.893 Y93.611 E0.01679
G1 X148.623 Y92.341 E0.05643
G1 X148.623 Y92.875 E0.01679
G1 X149.893 Y94.145 E0.05643
G1 X149.893 Y94.679 E0.01679
G1 X148.623 Y93.410 E0.05643
G1 X148.623 Y93.944 E0.01679
G1 X149.893 Y95.214 E0.05643
G1 X149.893 Y95.748 E0.01679
G1 X148.623 Y94.478 E0.05643
G1 X148.623 Y95.013 E0.01679
G1 X149.893 Y96.283 E0.05643
G1 X149.893 Y96.817 E0.01679
G1 X148.623 Y95.547 E0.05643
G1 X148.623 Y96.082 E0.01679
G1 X149.893 Y97.351 E0.05643
G1 X149.893 Y97.886 E0.01679
G1 X148.623 Y96.616 E0.05643
G1 X148.623 Y97.150 E0.01679
G1 X149.893 Y98.420 E0.05643
G1 X149.893 Y98.955 E0.01679
G1 X148.623 Y97.685 E0.05643
G1 X148.623 Y98.219 E0.01679
G1 X149.893 Y99.489 E0.05643
G1 X149.893 Y100.024 E0.01679
G1 X148.623 Y98.754 E0.05643
G1 X148.623 Y99.288 E0.01679
G1 X149.893 Y100.558 E0.05643
G1 X149.893 Y101.092 E0.01679
G1 X148.623 Y99.823 E0.05643
G1 X148.623 Y100.357 E0.01679
G1 X149.893 Y101.627 E0.05643
G1 X149.893 Y102.161 E0.01679
G1 X148.623 Y100.891 E0.05643
G1 X148.623 Y101.426 E0.01679
G1 X149.893 Y102.696 E0.05643
G1 X149.893 Y103.230 E0.01679
G1 X148.623 Y101.960 E0.05643
G1 X148.623 Y102.495 E0.01679
G1 X149.893 Y103.765 E0.05643
G1 X149.893 Y104.299 E0.01679
G1 X148.623 Y103.029 E0.05643
G1 X148.623 Y103.564 E0.01679
G1 X149.893 Y104.833 E0.05643
G1 X149.893 Y105.368 E0.01679
G1 X148.623 Y104.098 E0.05643
G1 X148.623 Y104.632 E0.01679
G1 X149.893 Y105.902 E0.05643
G1 X149.893 Y106.437 E0.01679
G1 X148.623 Y105.167 E0.05643
G1 X148.623 Y105.701 E0.01679
G1 X149.893 Y106.971 E0.05643
G1 X149.893 Y107.505 E0.01679
G1 X148.623 Y106.236 E0.05643
G1 X148.623 Y106.770 E0.01679
G1 X149.893 Y108.040 E0.05643
G1 X149.893 Y108.574 E0.01679
G1 X148.623 Y107.304 E0.05643
G1 X148.623 Y107.839 E0.01679
G1 X149.893 Y109.109 E0.05643
G1 X149.893 Y109.643 E0.01679
G1 X148.623 Y108.373 E0.05643
G1 X148.623 Y108.908 E0.01679
G1 X149.893 Y110.178 E0.05643
G1 X149.893 Y110.712 E0.01679
G1 X148.623 Y109.442 E0.05643
G1 X148.623 Y109.977 E0.01679
G1 X149.893 Y111.246 E0.05643
G1 X149.893 Y111.781 E0.01679
G1 X148.623 Y110.511 E0.05643
G1 X148.623 Y111.045 E0.01679
G1 X149.893 Y112.315 E0.05643
G1 X149.893 Y112.850 E0.01679
G1 X148.623 Y111.580 E0.05643
G1 X148.623 Y112.114 E0.01679
G1 X149.893 Y113.384 E0.05643
G1 X149.893 Y113.918 E0.01679
G1 X148.623 Y112.649 E0.05643
G1 X148.623 Y113.183 E0.01679
G1 X149.893 Y114.453 E0.05643
G1 X149.893 Y114.987 E0.01679
G1 X148.623 Y113.717 E0.05643
G1 X148.623 Y114.252 E0.01679
G1 X149.893 Y115.522 E0.05643
G1 X149.893 Y116.056 E0.01679
G1 X148.623 Y114.786 E0.05643
G1 X148.623 Y115.321 E0.01679
G1 X149.893 Y116.591 E0.05643
G1 X149.893 Y117.125 E0.01679
G1 X148.623 Y115.855 E0.05643
G1 X148.623 Y116.390 E0.01679
G1 X149.893 Y117.659 E0.05643
G1 X149.893 Y118.194 E0.01679
G1 X148.623 Y116.924 E0.05643
G1 X148.623 Y117.458 E0.01679
G1 X149.893 Y118.728 E0.05643
G1 X149.893 Y119.263 E0.01679
G1 X148.623 Y117.993 E0.05643
G1 X148.623 Y118.527 E0.01679
G1 X149.893 Y119.797 E0.05643
G1 X149.893 Y120.332 E0.01679
G1 X148.623 Y119.062 E0.05643
G1 X148.623 Y119.596 E0.01679
G1 X149.893 Y120.866 E0.05643
G1 X149.893 Y121.400 E0.01679
G1 X148.623 Y120.131 E0.05643
G1 X148.623 Y120.665 E0.01679
G1 X149.893 Y121.935 E0.05643
G1 X149.893 Y122.469 E0.01679
G1 X148.623 Y121.199 E0.05643
G1 X148.623 Y121.734 E0.01679
G1 X149.893 Y123.004 E0.05643
G1 X149.893 Y123.538 E0.01679
G1 X148.623 Y122.268 E0.05643
G1 X148.623 Y122.803 E0.01679
G1 X149.893 Y124.072 E0.05643
G1 X149.893 Y124.607 E0.01679
G1 X148.623 Y123.337 E0.05643
G1 X148.623 Y123.871 E0.01679
G1 X149.893 Y125.141 E0.05643
G1 X149.893 Y125.676 E0.01679
G1 X148.623 Y124.406 E0.05643
G1 X148.623 Y124.940 E0.01679
G1 X149.893 Y126.210 E0.05643
G1 X149.893 Y126.745 E0.01679
G1 X148.623 Y125.475 E0.05643
G1 X148.623 Y126.009 E0.01679
G1 X149.893 Y127.279 E0.05643
G1 X149.893 Y127.813 E0.01679
G1 X148.623 Y126.544 E0.05643
G1 X148.623 Y127.078 E0.01679
G1 X149.893 Y128.348 E0.05643
G1 X149.893 Y128.882 E0.01679
G1 X148.623 Y127.612 E0.05643
G1 X148.623 Y128.147 E0.01679
G1 X149.893 Y129.417 E0.05643
G1 X149.893 Y129.951 E0.01679
G1 X148.623 Y128.681 E0.05643
G1 X148.623 Y129.216 E0.01679
G1 X149.893 Y130.486 E0.05643
G1 X149.893 Y131.020 E0.01679
G1 X148.623 Y129.750 E0.05643
G1 X148.623 Y130.285 E0.01679
G1 X149.893 Y131.554 E0.05643
G1 X149.893 Y132.089 E0.01679
G1 X148.623 Y130.819 E0.05643
G1 X148.623 Y131.353 E0.01679
G1 X149.893 Y132.623 E0.05643
G1 X149.893 Y133.158 E0.01679
G1 X148.623 Y131.888 E0.05643
G1 X148.623 Y132.422 E0.01679
G1 X149.893 Y133.692 E0.05643
G1 X149.893 Y134.226 E0.01679
G1 X148.623 Y132.957 E0.05643
G1 X148.623 Y133.491 E0.01679
G1 X149.893 Y134.761 E0.05643
G1 X149.893 Y135.295 E0.01679
G1 X148.623 Y134.025 E0.05643
G1 X148.623 Y134.560 E0.01679
G1 X149.893 Y135.830 E0.05643
G1 X149.893 Y136.364 E0.01679
G1 X148.623 Y135.094 E0.05643
G1 X148.623 Y135.629 E0.01679
G1 X149.893 Y136.899 E0.05643
G1 X149.893 Y137.433 E0.01679
G1 X148.623 Y136.163 E0.05643
G1 X148.623 Y136.698 E0.01679
G1 X149.893 Y137.967 E0.05643
G1 X149.893 Y138.502 E0.01679
G1 X148.623 Y137.232 E0.05643
G1 X148.623 Y137.766 E0.01679
G1 X149.893 Y139.036 E0.05643
G1 X149.893 Y139.571 E0.01679
G1 X148.623 Y138.301 E0.05643
G1 X148.623 Y138.835 E0.01679
G1 X149.893 Y140.105 E0.05643
G1 X149.893 Y140.639 E0.01679
G1 X148.623 Y139.370 E0.05643
G1 X148.623 Y139.904 E0.01679
G1 X149.893 Y141.174 E0.05643
G1 X149.893 Y141.708 E0.01679
G1 X148.623 Y140.438 E0.05643
G1 X148.623 Y140.973 E0.01679
G1 X149.893 Y142.243 E0.05643
G1 X149.893 Y142.777 E0.01679
G1 X148.623 Y141.507 E0.05643
G1 X148.623 Y142.042 E0.01679
G1 X149.893 Y143.312 E0.05643
G1 X149.893 Y143.846 E0.01679
G1 X148.623 Y142.576 E0.05643
G1 X148.623 Y143.111 E0.01679
G1 X149.893 Y144.380 E0.05643
G1 X149.893 Y144.915 E0.01679
G1 X148.623 Y143.645 E0.05643
G1 X148.623 Y144.179 E0.01679
G1 X149.893 Y145.449 E0.05643
G1 X149.893 Y145.984 E0.01679
G1 X148.623 Y144.714 E0.05643
G1 X148.623 Y145.248 E0.01679
G1 X149.893 Y146.518 E0.05643
G1 X149.893 Y147.053 E0.01679
G1 X148.623 Y145.783 E0.05643
G1 X148.623 Y146.317 E0.01679
G1 X149.893 Y147.587 E0.05643
G1 X149.893 Y148.121 E0.01679
G1 X148.623 Y146.852 E0.05643
G1 X148.623 Y147.386 E0.01679
G1 X149.893 Y148.656 E0.05643
G1 X149.893 Y149.190 E0.01679
G1 X148.623 Y147.920 E0.05643
G1 X148.623 Y148.455 E0.01679
