; generated by PrusaSlicer 2.0.0+ on 2019-09-09 at 09:54:51

; 

; external perimeters extrusion width = 0.45mm
; perimeters extrusion width = 0.45mm
; infill extrusion width = 0.45mm
; solid infill extrusion width = 0.45mm
; top infill extrusion width = 0.40mm
; support material extrusion width = 0.35mm
; first layer extrusion width = 0.42mm

M73 P0 R74
M201 X9000 Y9000 Z500 E10000 ; sets maximum accelerations, mm/sec^2
M203 X500 Y500 Z12 E120 ; sets maximum feedrates, mm/sec
M204 P2000 R1500 T2000 ; sets acceleration (P, T) and retract acceleration (R), mm/sec^2
M205 X10.00 Y10.00 Z0.20 E2.50 ; sets the jerk limits, mm/sec
M205 S0 T0 ; sets the minimum extruding and travel feed rate, mm/sec
M107
M115 U3.7.2 ; tell printer latest fw version
G90 ; use absolute coordinates
M83 ; extruder relative mode
M104 S230 ; set extruder temp
M140 S60 ; set bed temp
Tx
M190 S60 ; wait for bed temp
M109 S230 ; wait for extruder temp
G28 W ; home all without mesh bed level
G80 ; mesh bed leveling

G21 ; set units to millimeters

;go outside print area
G1 Y-3.0 F1000.0
G1 Z0.4 F1000.0
; select extruder
Tc
; purge line
G1 X55.0 F2000.0
G1 Z0.3 F1000.0
G92 E0.0
G1 X240.0 E25.0 F2200.0
M73 P0 R73
G1 Y-2.0 F1000.0
G1 X55.0 E25 F1400.0
G1 Z0.20 F1000.0
G1 X5.0 E4.0 F1000.0
G92 E0.0
M900 K30 ; Filament gcode
G21 ; set units to millimeters
G90 ; use absolute coordinates
M83 ; use relative distances for extrusion
;BEFORE_LAYER_CHANGE
G92 E0.0
;0.2


G1 E-0.80000 F2100.00000
G1 Z0.600 F10800.000
;AFTER_LAYER_CHANGE
;0.2
G1 X178.029 Y96.223
G1 Z0.200
G1 E0.80000 F2100.00000
M204 S1000
G1 F1200
G1 X177.612 Y96.862 E0.02394
G1 X141.410 Y134.543 E1.63837
G1 X139.889 Y135.855 E0.06299
G1 X138.379 Y136.910 E0.05775
G1 X136.495 Y137.956 E0.06758
G1 X134.811 Y138.676 E0.05740
G1 X133.065 Y139.226 E0.05740
G1 X131.164 Y139.629 E0.06095
G1 X129.136 Y139.843 E0.06392
G1 X127.185 Y139.844 E0.06118
G1 X125.247 Y139.646 E0.06107
G1 X123.252 Y139.227 E0.06392
G1 X121.506 Y138.676 E0.05740
G1 X119.819 Y137.956 E0.05752
G1 X118.055 Y136.987 E0.06312
G1 X116.439 Y135.865 E0.06168
G1 X80.765 Y108.378 E1.41203
G1 X79.186 Y106.806 E0.06986
G1 X77.825 Y105.126 E0.06781
G1 X76.647 Y103.312 E0.06781
G1 X75.657 Y101.365 E0.06849
G1 X74.894 Y99.372 E0.06689
G1 X74.335 Y97.287 E0.06769
G1 X73.998 Y95.158 E0.06758
G1 X73.885 Y93.006 E0.06758
G1 X73.998 Y90.846 E0.06781
G1 X74.334 Y88.717 E0.06758
G1 X74.893 Y86.632 E0.06769
G1 X75.625 Y84.714 E0.06437
G1 X76.708 Y82.590 E0.07474
G1 X77.832 Y80.866 E0.06452
G1 X79.257 Y79.121 E0.07066
G1 X80.714 Y77.669 E0.06449
G1 X82.392 Y76.311 E0.06769
G1 X84.200 Y75.137 E0.06758
G1 X86.147 Y74.147 E0.06849
G1 X88.132 Y73.386 E0.06666
G1 X90.118 Y72.850 E0.06449
G1 X92.445 Y72.480 E0.07386
G1 X148.078 Y70.182 E1.74585
G1 X151.727 Y70.573 E0.11506
G1 X154.844 Y71.530 E0.10223
G1 X157.791 Y73.095 E0.10463
G1 X176.666 Y87.050 E0.73599
G1 X177.027 Y87.431 E0.01646
G1 X177.773 Y88.545 E0.04202
G1 X178.065 Y89.277 E0.02473
G1 X178.335 Y90.767 E0.04746
G1 X178.306 Y95.240 E0.14027
G1 X178.046 Y96.165 E0.03011
G1 F8640
G1 X177.612 Y96.862 E-0.18957
G1 X175.900 Y98.643 E-0.57043
G1 E-0.04000 F2100.00000
G1 Z0.800 F10800.000
G1 X104.776 Y96.605
G1 Z0.200
G1 E0.80000 F2100.00000
G1 F1200
G1 X104.776 Y89.883 E0.21075
G1 X104.276 Y88.541 E0.04490
G1 X104.022 Y88.076 E0.01660
G1 X104.022 Y97.925 E0.30880
G1 X103.542 Y98.805 E0.03142
G1 X103.268 Y99.171 E0.01433
G1 X103.268 Y86.831 E0.38690
G1 X102.624 Y85.971 E0.03370
G1 X102.514 Y85.861 E0.00488
G1 X102.514 Y100.141 E0.44776
G1 X101.760 Y100.895 E0.03344
G1 X101.760 Y85.106 E0.49505
G1 X101.541 Y84.888 E0.00970
G1 X101.006 Y84.487 E0.02097
G1 X101.006 Y101.515 E0.53390
G1 X100.252 Y102.067 E0.02930
G1 X100.252 Y83.935 E0.56850
G1 X99.497 Y83.523 E0.02694
G1 X99.497 Y102.478 E0.59432
G1 X98.970 Y102.766 E0.01882
G1 X98.743 Y102.851 E0.00761
G1 X98.743 Y83.151 E0.61768
G1 X97.989 Y82.870 E0.02524
G1 X97.989 Y91.460 E0.26936
G1 X97.235 Y91.460 E0.02365
G1 X97.235 Y82.635 E0.27672
G1 X96.481 Y82.471 E0.02420
G1 X96.481 Y91.460 E0.28186
G1 X96.269 Y91.460 E0.00664
G1 X96.269 Y89.153 E0.07234
G1 X95.727 Y89.153 E0.01700
G1 X95.727 Y82.352 E0.21324
G1 X94.972 Y82.298 E0.02371
G1 X94.972 Y89.153 E0.21493
G1 X94.218 Y89.153 E0.02365
G1 X94.218 Y82.286 E0.21531
G1 X93.464 Y82.340 E0.02371
G1 X93.464 Y89.153 E0.21362
G1 X92.710 Y89.153 E0.02365
G1 X92.710 Y82.434 E0.21068
G1 X91.956 Y82.598 E0.02420
G1 X91.956 Y89.153 E0.20553
G1 X91.202 Y89.153 E0.02365
G1 X91.202 Y82.807 E0.19900
G1 X90.447 Y83.088 E0.02524
G1 X90.447 Y102.914 E0.62164
G1 X91.202 Y103.195 E0.02524
G1 X91.202 Y94.759 E0.26451
G1 X91.956 Y94.759 E0.02365
G1 X91.956 Y103.404 E0.27105
G1 X92.710 Y103.568 E0.02420
G1 X92.710 Y94.759 E0.27619
G1 X92.970 Y94.759 E0.00817
G1 X92.970 Y97.066 E0.07234
G1 X93.464 Y97.066 E0.01548
G1 X93.464 Y103.661 E0.20679
G1 X94.218 Y103.715 E0.02371
G1 X94.218 Y97.066 E0.20849
G1 X94.972 Y97.066 E0.02365
G1 X94.972 Y103.703 E0.20811
G1 X95.727 Y103.649 E0.02371
G1 X95.727 Y97.066 E0.20642
G1 X96.269 Y97.066 E0.01700
G1 X96.269 Y94.759 E0.07234
G1 X96.481 Y94.759 E0.00664
G1 X96.481 Y103.531 E0.27504
G1 X97.235 Y103.367 E0.02420
G1 X97.235 Y94.759 E0.26989
G1 X97.989 Y94.759 E0.02365
G1 X97.989 Y103.313 E0.26822
G1 X89.693 Y102.764 F10800.000
G1 F1200
G1 X89.693 Y83.431 E0.60617
G1 X88.939 Y83.843 E0.02694
G1 X88.939 Y102.159 E0.57429
G1 X88.707 Y102.032 E0.00830
G1 X88.185 Y101.641 E0.02044
G1 X88.185 Y84.360 E0.54184
G1 X87.431 Y84.937 E0.02977
G1 X87.431 Y101.064 E0.50565
G1 X86.677 Y100.310 E0.03344
G1 X86.677 Y85.692 E0.45836
G1 X86.398 Y85.971 E0.01238
G1 X85.923 Y86.605 E0.02485
G1 X85.923 Y99.396 E0.40106
G1 X85.480 Y98.805 E0.02317
G1 X85.168 Y98.235 E0.02037
G1 X85.168 Y87.767 E0.32821
G1 X84.746 Y88.541 E0.02766
G1 X84.414 Y89.430 E0.02973
G1 X84.414 Y97.058 E0.23917
G1 F8640
G1 X84.414 Y93.766 E-0.76000
G1 E-0.04000 F2100.00000
G1 Z0.800 F10800.000
G1 X83.833 Y97.877
G1 Z0.200
G1 E0.80000 F2100.00000
G1 F1200
G1 X83.248 Y96.308 E0.05251
G1 X82.900 Y94.710 E0.05128
G1 X82.772 Y93.002 E0.05370
G1 X82.892 Y91.330 E0.05254
G1 X83.248 Y89.694 E0.05251
G1 X83.819 Y88.161 E0.05128
G1 X84.635 Y86.655 E0.05370
G1 X85.639 Y85.314 E0.05254
G1 X86.824 Y84.129 E0.05251
G1 X88.164 Y83.126 E0.05251
G1 X89.634 Y82.323 E0.05251
G1 X91.204 Y81.738 E0.05251
G1 X92.840 Y81.382 E0.05251
G1 X94.472 Y81.265 E0.05128
G1 X96.180 Y81.382 E0.05370
G1 X97.818 Y81.738 E0.05254
G1 X99.387 Y82.323 E0.05251
G1 X100.857 Y83.126 E0.05251
G1 X102.198 Y84.129 E0.05251
G1 X103.382 Y85.314 E0.05251
G1 X104.386 Y86.655 E0.05251
G1 X105.189 Y88.124 E0.05251
G1 X105.774 Y89.694 E0.05251
G1 X106.130 Y91.330 E0.05251
G1 X106.249 Y93.001 E0.05251
G1 X106.130 Y94.671 E0.05251
G1 X105.774 Y96.308 E0.05251
G1 X105.189 Y97.877 E0.05251
G1 X104.386 Y99.347 E0.05251
G1 X103.406 Y100.656 E0.05128
G1 X102.199 Y101.872 E0.05371
G1 X100.857 Y102.876 E0.05254
G1 X99.387 Y103.679 E0.05251
G1 X97.818 Y104.264 E0.05251
G1 X96.220 Y104.612 E0.05128
G1 X94.512 Y104.740 E0.05371
G1 X92.840 Y104.620 E0.05254
G1 X91.204 Y104.264 E0.05251
G1 X89.634 Y103.679 E0.05251
G1 X88.164 Y102.876 E0.05251
G1 X86.824 Y101.872 E0.05251
G1 X85.667 Y100.716 E0.05128
G1 X84.636 Y99.348 E0.05371
G1 X83.862 Y97.930 E0.05066
G1 X84.193 Y97.749 F10800.000
G1 F1200
G1 X83.610 Y96.202 E0.05185
G1 X83.274 Y94.655 E0.04961
G1 X83.150 Y93.001 E0.05201
G1 X83.266 Y91.384 E0.05083
G1 X83.610 Y89.800 E0.05082
G1 X84.163 Y88.318 E0.04961
G1 X84.954 Y86.859 E0.05201
G1 X85.925 Y85.561 E0.05083
G1 X87.071 Y84.415 E0.05082
G1 X88.369 Y83.444 E0.05082
G1 X89.791 Y82.667 E0.05082
G1 X91.310 Y82.101 E0.05082
G1 X92.894 Y81.756 E0.05082
G1 X94.472 Y81.643 E0.04961
G1 X96.127 Y81.756 E0.05201
G1 X97.711 Y82.101 E0.05083
G1 X99.230 Y82.667 E0.05082
G1 X100.653 Y83.444 E0.05082
G1 X101.950 Y84.415 E0.05082
G1 X103.097 Y85.561 E0.05082
G1 X104.068 Y86.859 E0.05082
G1 X104.845 Y88.282 E0.05082
G1 X105.411 Y89.800 E0.05082
G1 X105.756 Y91.384 E0.05082
G1 X105.871 Y93.001 E0.05082
G1 X105.756 Y94.618 E0.05082
G1 X105.411 Y96.202 E0.05082
G1 X104.845 Y97.720 E0.05082
G1 X104.068 Y99.143 E0.05082
G1 X103.120 Y100.409 E0.04961
G1 X101.951 Y101.586 E0.05201
G1 X100.653 Y102.558 E0.05083
G1 X99.230 Y103.335 E0.05082
G1 X97.711 Y103.901 E0.05082
G1 X96.165 Y104.238 E0.04961
G1 X94.511 Y104.361 E0.05201
G1 X92.894 Y104.246 E0.05083
G1 X91.310 Y103.901 E0.05082
G1 X89.791 Y103.335 E0.05082
G1 X88.369 Y102.558 E0.05082
G1 X87.071 Y101.587 E0.05082
G1 X85.952 Y100.468 E0.04961
G1 X84.954 Y99.143 E0.05201
G1 X84.222 Y97.802 E0.04792
G1 X83.794 Y97.712 F10800.000
G1 F8640
G1 X83.610 Y96.202 E-0.39554
G1 X83.275 Y94.659 E-0.36446
G1 E-0.04000 F2100.00000
G1 Z0.800 F10800.000
G1 X78.407 Y100.171
G1 Z0.200
G1 E0.80000 F2100.00000
G1 F1200
G1 X77.746 Y98.448 E0.05785
G1 X77.268 Y96.666 E0.05785
G1 X76.979 Y94.844 E0.05785
G1 X76.883 Y93.001 E0.05785
G1 X76.979 Y91.158 E0.05785
G1 X77.268 Y89.336 E0.05785
G1 X77.746 Y87.554 E0.05785
G1 X78.407 Y85.831 E0.05785
G1 X79.245 Y84.187 E0.05785
G1 X80.250 Y82.639 E0.05785
G1 X81.411 Y81.206 E0.05785
G1 X82.715 Y79.901 E0.05785
G1 X84.149 Y78.740 E0.05785
G1 X85.697 Y77.735 E0.05785
G1 X87.341 Y76.897 E0.05785
M73 P1 R72
G1 X89.064 Y76.236 E0.05785
G1 X90.846 Y75.758 E0.05785
G1 X92.668 Y75.470 E0.05785
G1 X94.511 Y75.373 E0.05785
G1 X96.306 Y75.467 E0.05637
G1 X98.177 Y75.758 E0.05935
G1 X99.958 Y76.236 E0.05783
G1 X101.681 Y76.897 E0.05785
G1 X103.325 Y77.735 E0.05785
G1 X104.872 Y78.740 E0.05785
G1 X106.306 Y79.901 E0.05785
G1 X107.611 Y81.205 E0.05785
G1 X108.772 Y82.639 E0.05785
G1 X109.777 Y84.187 E0.05785
G1 X110.615 Y85.831 E0.05785
G1 X111.276 Y87.554 E0.05785
G1 X111.754 Y89.336 E0.05785
G1 X112.042 Y91.158 E0.05785
G1 X112.139 Y93.001 E0.05785
G1 X112.042 Y94.844 E0.05785
G1 X111.754 Y96.666 E0.05785
G1 X111.276 Y98.448 E0.05785
G1 X110.615 Y100.171 E0.05785
G1 X109.777 Y101.815 E0.05785
G1 X108.772 Y103.362 E0.05785
G1 X107.611 Y104.796 E0.05785
G1 X106.306 Y106.101 E0.05785
G1 X104.872 Y107.262 E0.05785
G1 X103.325 Y108.267 E0.05785
G1 X101.681 Y109.105 E0.05785
G1 X99.958 Y109.766 E0.05785
G1 X98.176 Y110.244 E0.05785
G1 X96.353 Y110.532 E0.05785
G1 X94.511 Y110.629 E0.05785
G1 X92.668 Y110.532 E0.05785
G1 X90.846 Y110.244 E0.05785
G1 X89.063 Y109.766 E0.05785
G1 X87.341 Y109.105 E0.05785
G1 X85.697 Y108.267 E0.05785
G1 X84.149 Y107.262 E0.05785
G1 X82.715 Y106.101 E0.05785
G1 X81.411 Y104.796 E0.05785
G1 X80.250 Y103.362 E0.05785
G1 X79.245 Y101.815 E0.05785
G1 X78.434 Y100.224 E0.05597
G1 X78.098 Y100.395 F10800.000
G1 F1200
G1 X77.387 Y98.565 E0.06158
G1 X76.899 Y96.744 E0.05909
G1 X76.604 Y94.883 E0.05909
G1 X76.505 Y93.001 E0.05909
G1 X76.604 Y91.119 E0.05909
G1 X76.899 Y89.257 E0.05909
G1 X77.387 Y87.437 E0.05909
G1 X78.062 Y85.677 E0.05909
G1 X78.918 Y83.998 E0.05909
G1 X79.944 Y82.418 E0.05909
G1 X81.130 Y80.953 E0.05909
G1 X82.463 Y79.620 E0.05909
G1 X83.927 Y78.434 E0.05909
G1 X85.508 Y77.408 E0.05909
G1 X87.187 Y76.552 E0.05909
G1 X88.947 Y75.877 E0.05909
G1 X90.767 Y75.389 E0.05909
G1 X92.629 Y75.094 E0.05909
G1 X94.511 Y74.995 E0.05909
G1 X96.345 Y75.091 E0.05760
G1 X98.255 Y75.389 E0.06059
G1 X100.075 Y75.877 E0.05908
G1 X101.834 Y76.552 E0.05909
G1 X103.514 Y77.408 E0.05909
G1 X105.094 Y78.434 E0.05909
G1 X106.559 Y79.620 E0.05909
G1 X107.892 Y80.953 E0.05909
G1 X109.078 Y82.417 E0.05909
G1 X110.104 Y83.998 E0.05909
G1 X110.960 Y85.677 E0.05909
G1 X111.635 Y87.437 E0.05909
G1 X112.123 Y89.257 E0.05909
G1 X112.418 Y91.119 E0.05909
G1 X112.516 Y93.001 E0.05909
G1 X112.418 Y94.883 E0.05909
G1 X112.123 Y96.744 E0.05909
G1 X111.635 Y98.565 E0.05909
G1 X110.960 Y100.324 E0.05909
G1 X110.104 Y102.004 E0.05909
G1 X109.078 Y103.584 E0.05909
G1 X107.892 Y105.049 E0.05909
G1 X106.559 Y106.382 E0.05909
G1 X105.094 Y107.568 E0.05909
G1 X103.514 Y108.594 E0.05909
G1 X101.834 Y109.450 E0.05909
G1 X100.075 Y110.125 E0.05909
G1 X98.254 Y110.613 E0.05909
G1 X96.393 Y110.908 E0.05909
G1 X94.511 Y111.006 E0.05909
G1 X92.629 Y110.908 E0.05909
G1 X90.767 Y110.613 E0.05909
G1 X88.947 Y110.125 E0.05909
G1 X87.187 Y109.450 E0.05909
G1 X85.508 Y108.594 E0.05909
G1 X83.927 Y107.568 E0.05909
G1 X82.463 Y106.382 E0.05909
G1 X81.130 Y105.049 E0.05909
G1 X79.944 Y103.584 E0.05909
G1 X78.918 Y102.004 E0.05909
G1 X78.125 Y100.449 E0.05471
G1 X78.332 Y100.071 F10800.000
G1 X78.814 Y100.720
G1 F1200
G1 X86.791 Y108.698 E0.35708
G1 F8640
G1 X84.464 Y106.371 E-0.76000
G1 E-0.04000 F2100.00000
G1 Z0.800 F10800.000
G1 X87.787 Y109.155
G1 Z0.200
G1 E0.80000 F2100.00000
G1 F1200
G1 X78.652 Y100.020 E0.40887
G1 X78.317 Y99.147 E0.02962
G1 X88.365 Y109.195 E0.44978
G1 X89.225 Y109.517 E0.02905
G1 X77.995 Y98.287 E0.50266
G1 X77.798 Y97.551 E0.02409
G1 X89.960 Y109.714 E0.54439
G1 X90.696 Y109.911 E0.02410
G1 X77.601 Y96.816 E0.58612
G1 X77.545 Y96.607 E0.00685
G1 X77.473 Y96.149 E0.01467
G1 X91.363 Y110.039 E0.62172
G1 X92.002 Y110.141 E0.02050
G1 X77.371 Y95.510 E0.65489
G1 X77.270 Y94.870 E0.02050
G1 X92.642 Y110.242 E0.68805
G1 X93.216 Y110.278 E0.01821
G1 X77.234 Y94.296 E0.71537
G1 X77.204 Y93.728 E0.01800
G1 X93.784 Y110.308 E0.74213
G1 X94.352 Y110.337 E0.01800
G1 X77.174 Y93.160 E0.76889
G1 X77.185 Y92.632 E0.01669
G1 X95.041 Y110.488 E0.79923
G1 F8640
G1 X92.714 Y108.160 E-0.76000
G1 E-0.04000 F2100.00000
G1 Z0.800 F10800.000
G1 X85.670 Y108.115
G1 Z0.200
G1 E0.80000 F2100.00000
G1 F1200
G1 X79.397 Y101.842 E0.28080
G1 F8640
G1 X81.724 Y104.169 E-0.76000
G1 E-0.04000 F2100.00000
G1 Z0.800 F10800.000
G1 X80.462 Y103.446
G1 Z0.200
G1 E0.80000 F2100.00000
G1 F1200
G1 X84.066 Y107.049 E0.16131
G1 F8640
G1 X81.739 Y104.722 E-0.76000
G1 E-0.04000 F2100.00000
G1 Z0.800 F10800.000
G1 X87.943 Y102.852
G1 Z0.200
G1 E0.80000 F2100.00000
G1 F1200
G1 X95.391 Y110.300 E0.33338
G1 X95.903 Y110.273 E0.01621
G1 X89.596 Y103.966 E0.28229
G1 X90.454 Y104.286 E0.02900
G1 X96.406 Y110.238 E0.26639
G1 X96.871 Y110.164 E0.01489
G1 X91.275 Y104.569 E0.25044
G1 X91.963 Y104.719 E0.02228
G1 X97.335 Y110.091 E0.24045
G1 X97.800 Y110.017 E0.01489
G1 X92.651 Y104.868 E0.23046
G1 X92.800 Y104.901 E0.00481
G1 X93.254 Y104.933 E0.01442
G1 X98.252 Y109.931 E0.22369
G1 X98.676 Y109.817 E0.01391
G1 X93.834 Y104.975 E0.21674
G1 X94.414 Y105.016 E0.01840
G1 X99.101 Y109.703 E0.20979
G1 X99.526 Y109.589 E0.01391
G1 X94.928 Y104.992 E0.20578
G1 X95.429 Y104.954 E0.01590
G1 X99.943 Y109.469 E0.20207
G1 X100.332 Y109.320 E0.01319
G1 X95.930 Y104.917 E0.19706
G1 X96.261 Y104.892 E0.01050
G1 X96.411 Y104.859 E0.00486
G1 X100.721 Y109.170 E0.19295
G1 X101.110 Y109.021 E0.01319
G1 X96.853 Y104.763 E0.19057
G1 X97.295 Y104.667 E0.01432
G1 X101.499 Y108.872 E0.18819
G1 X101.566 Y108.846 E0.00224
G1 X101.862 Y108.695 E0.01051
G1 X97.737 Y104.571 E0.18461
G1 X97.898 Y104.536 E0.00521
G1 X98.147 Y104.443 E0.00843
G1 X102.218 Y108.514 E0.18221
G1 X102.575 Y108.332 E0.01267
G1 X98.539 Y104.297 E0.18062
G1 X98.932 Y104.150 E0.01324
G1 X102.931 Y108.150 E0.17904
G1 X103.279 Y107.960 E0.01255
G1 X99.324 Y104.004 E0.17705
G1 X99.505 Y103.937 E0.00613
G1 X99.692 Y103.834 E0.00675
G1 X103.605 Y107.748 E0.17517
G1 X103.932 Y107.536 E0.01232
G1 X100.040 Y103.644 E0.17419
G1 X100.388 Y103.454 E0.01256
G1 X104.258 Y107.324 E0.17321
G1 X104.585 Y107.112 E0.01232
G1 X100.737 Y103.264 E0.17224
G1 X101.076 Y103.065 E0.01245
G1 X104.893 Y106.882 E0.17083
G1 X105.190 Y106.641 E0.01211
G1 X101.384 Y102.835 E0.17037
G1 X101.692 Y102.604 E0.01217
G1 X105.488 Y106.400 E0.16990
G1 X105.785 Y106.159 E0.01211
G1 X102.000 Y102.374 E0.16943
G1 X102.308 Y102.143 E0.01217
G1 X106.083 Y105.918 E0.16897
G1 X106.355 Y105.652 E0.01205
G1 X102.586 Y101.883 E0.16871
G1 X102.854 Y101.613 E0.01205
G1 X106.624 Y105.383 E0.16875
G1 X106.893 Y105.114 E0.01205
G1 X103.122 Y101.343 E0.16879
G1 X103.391 Y101.073 E0.01205
G1 X107.162 Y104.845 E0.16883
G1 X107.428 Y104.573 E0.01205
G1 X103.653 Y100.798 E0.16897
G1 X103.884 Y100.490 E0.01217
G1 X107.669 Y104.275 E0.16943
G1 X107.910 Y103.978 E0.01211
G1 X104.114 Y100.182 E0.16990
G1 X104.345 Y99.874 E0.01217
G1 X108.151 Y103.680 E0.17037
G1 X108.392 Y103.383 E0.01211
G1 X104.575 Y99.566 E0.17083
