; generated by PrusaSlicer 2.2.0+win64 on 2020-08-20 at 17:07:29 UTC

; 

; external perimeters extrusion width = 0.45mm
; perimeters extrusion width = 0.45mm
; infill extrusion width = 0.45mm
; solid infill extrusion width = 0.45mm
; top infill extrusion width = 0.40mm
; support material extrusion width = 0.35mm
; first layer extrusion width = 0.42mm

M73 P0 R70
M201 X9000 Y9000 Z500 E10000 ; sets maximum accelerations, mm/sec^2
M203 X500 Y500 Z12 E120 ; sets maximum feedrates, mm/sec
M204 P2000 R1500 T2000 ; sets acceleration (P, T) and retract acceleration (R), mm/sec^2
M205 X10.00 Y10.00 Z0.20 E4.50 ; sets the jerk limits, mm/sec
M205 S0 T0 ; sets the minimum extruding and travel feed rate, mm/sec
M107
M862.3 P "MK2.5SMMU2S" ; printer model check
M862.1 P0.4 ; nozzle diameter check
M115 U3.9.0 ; tell printer latest fw version
G90 ; use absolute coordinates
M83 ; extruder relative mode
M104 S215 ; set extruder temp
M140 S60 ; set bed temp
Tx
M190 S60 ; wait for bed temp
M109 S215 ; wait for extruder temp
G28 W ; home all without mesh bed level
G80 ; mesh bed leveling

;go outside print area
G1 Y-3.0 F1000.0
G1 Z0.4 F1000.0
; select extruder
Tc
; purge line
G1 X55.0 F2000.0
G1 Z0.3 F1000.0
G92 E0.0
G1 X240.0 E25.0 F2200.0
M73 P0 R70
G1 Y-2.0 F1000.0
G1 X55.0 E25 F1400.0
G1 Z0.20 F1000.0
G1 X5.0 E4.0 F1000.0
G92 E0.0
G21 ; set units to millimeters
G90 ; use absolute coordinates
M83 ; use relative distances for extrusion
M900 K0.06 ; Filament gcode LA 1.5
M900 K30 ; Filament gcode LA 1.0
;BEFORE_LAYER_CHANGE
G92 E0.0
;0.2


G1 E-0.80000 F2100.00000
G1 Z0.600 F10800.000
;AFTER_LAYER_CHANGE
;0.2
G1 X178.201 Y96.295
G1 Z0.200
G1 E0.80000 F2100.00000
M204 S1000
G1 F1200.000
G1 X177.753 Y96.980 E0.02567
G1 X141.559 Y134.669 E1.63839
G1 X140.019 Y135.999 E0.06380
G1 X138.503 Y137.058 E0.05798
G1 X136.588 Y138.122 E0.06870
G1 X134.775 Y138.887 E0.06170
G1 X133.018 Y139.435 E0.05771
G1 X131.211 Y139.809 E0.05786
G1 X129.157 Y140.027 E0.06477
G1 X127.186 Y140.027 E0.06180
G1 X125.233 Y139.828 E0.06156
G1 X123.206 Y139.402 E0.06492
G1 X121.451 Y138.848 E0.05771
G1 X119.758 Y138.124 E0.05774
G1 X117.973 Y137.146 E0.06382
G1 X116.337 Y136.010 E0.06244
G1 X80.645 Y108.516 E1.41261
G1 X79.047 Y106.926 E0.07069
G1 X77.673 Y105.231 E0.06843
G1 X76.484 Y103.400 E0.06843
G1 X75.486 Y101.438 E0.06903
G1 X74.715 Y99.425 E0.06760
G1 X74.151 Y97.320 E0.06831
G1 X73.810 Y95.168 E0.06831
G1 X73.696 Y93.000 E0.06807
G1 X73.810 Y90.821 E0.06843
G1 X74.150 Y88.673 E0.06819
G1 X74.713 Y86.568 E0.06831
G1 X75.450 Y84.639 E0.06473
G1 X76.550 Y82.481 E0.07597
G1 X77.679 Y80.749 E0.06481
G1 X79.125 Y78.980 E0.07165
G1 X80.587 Y77.522 E0.06473
G1 X82.284 Y76.149 E0.06843
G1 X84.105 Y74.967 E0.06807
G1 X86.067 Y73.969 E0.06903
G1 X88.076 Y73.199 E0.06748
G1 X90.070 Y72.661 E0.06473
G1 X92.431 Y72.285 E0.07498
G1 X148.082 Y69.987 E1.74639
G1 X151.778 Y70.384 E0.11656
G1 X154.915 Y71.348 E0.10288
G1 X157.887 Y72.926 E0.10550
G1 X176.788 Y86.900 E0.73701
G1 X177.175 Y87.308 E0.01763
G1 X177.934 Y88.438 E0.04269
G1 X178.249 Y89.226 E0.02661
G1 X178.523 Y90.752 E0.04861
G1 X178.492 Y95.260 E0.14135
G1 X178.217 Y96.237 E0.03181
G1 F8640.000
G1 X177.753 Y96.980 E-0.20229
G1 X176.080 Y98.722 E-0.55771
G1 E-0.04000 F2100.00000
G1 Z0.800 F10800.000
G1 X100.414 Y102.022
G1 Z0.200
G1 E0.80000 F2100.00000
G1 F1200.000
G1 X102.696 Y99.741 E0.10117
G1 X103.447 Y98.737 E0.03930
G1 X104.173 Y97.407 E0.04752
G1 X104.299 Y97.071 E0.01123
G1 X98.588 Y102.782 E0.25322
G1 X97.504 Y103.186 E0.03629
G1 X97.010 Y103.294 E0.01585
G1 X104.811 Y95.493 E0.34591
G1 X105.025 Y94.506 E0.03167
G1 X105.048 Y94.189 E0.00996
G1 X95.706 Y103.531 E0.41425
G1 X94.557 Y103.613 E0.03611
G1 X105.130 Y93.040 E0.46883
G1 X105.065 Y92.039 E0.03147
G1 X93.555 Y103.548 E0.51036
G1 X92.999 Y103.508 E0.01749
G1 X92.613 Y103.424 E0.01240
G1 X104.941 Y91.096 E0.54667
G1 X104.751 Y90.220 E0.02811
G1 X91.737 Y103.234 E0.57706
G1 X91.518 Y103.186 E0.00702
G1 X90.935 Y102.969 E0.01951
G1 X104.486 Y89.418 E0.60085
G1 X104.196 Y88.642 E0.02600
G1 X98.343 Y94.494 E0.25951
G1 X97.810 Y93.961 E0.02365
G1 X103.826 Y87.945 E0.26676
G1 X103.449 Y87.255 E0.02464
G1 X97.277 Y93.428 E0.27370
G1 X96.843 Y92.994 E0.01923
G1 X98.475 Y91.363 E0.07234
G1 X98.375 Y91.263 E0.00442
G1 X102.993 Y86.645 E0.20478
G1 X102.536 Y86.035 E0.02389
G1 X97.842 Y90.730 E0.20817
G1 X97.308 Y90.196 E0.02365
G1 X102.003 Y85.502 E0.20817
G1 X101.470 Y84.969 E0.02365
G1 X96.775 Y89.663 E0.20817
G1 X96.242 Y89.130 E0.02365
G1 X100.860 Y84.512 E0.20478
G1 X100.250 Y84.055 E0.02389
G1 X94.077 Y90.228 E0.27370
G1 X93.544 Y89.695 E0.02365
G1 X99.560 Y83.679 E0.26676
G1 X98.863 Y83.309 E0.02473
G1 X93.011 Y89.161 E0.25952
G1 X92.880 Y89.030 E0.00582
G1 X90.547 Y91.363 E0.10342
G1 X90.678 Y91.494 E0.00582
G1 X84.826 Y97.346 E0.25952
G1 X85.196 Y98.043 E0.02473
G1 X91.212 Y92.027 E0.26676
G1 X91.745 Y92.560 E0.02365
G1 X85.572 Y98.733 E0.27370
G1 X86.028 Y99.343 E0.02389
G1 X90.647 Y94.725 E0.20479
G1 X91.180 Y95.258 E0.02365
G1 X86.485 Y99.953 E0.20817
G1 X87.019 Y100.486 E0.02365
G1 X91.713 Y95.792 E0.20817
G1 X92.247 Y96.325 E0.02365
G1 X87.552 Y101.019 E0.20817
G1 X88.162 Y101.476 E0.02389
G1 X92.780 Y96.858 E0.20479
G1 X92.880 Y96.958 E0.00442
G1 X94.511 Y95.326 E0.07234
G1 X94.944 Y95.760 E0.01923
G1 X88.772 Y101.933 E0.27370
G1 X89.462 Y102.309 E0.02464
G1 X95.478 Y96.293 E0.26676
G1 X96.011 Y96.827 E0.02365
G1 X90.027 Y102.811 E0.26536
G1 X84.404 Y96.702 F10800.000
G1 F1200.000
G1 X98.087 Y83.019 E0.60670
G1 X97.504 Y82.802 E0.01951
G1 X97.285 Y82.754 E0.00701
G1 X84.271 Y95.768 E0.57706
G1 X84.080 Y94.892 E0.02811
G1 X96.409 Y82.564 E0.54667
G1 X96.023 Y82.479 E0.01240
G1 X95.466 Y82.440 E0.01749
G1 X83.957 Y93.949 E0.51036
G1 X83.892 Y92.948 E0.03147
G1 X94.465 Y82.375 E0.46884
G1 X93.316 Y82.457 E0.03611
G1 X83.974 Y91.799 E0.41426
G1 X83.996 Y91.482 E0.00996
G1 X84.211 Y90.495 E0.03167
G1 X92.012 Y82.694 E0.34592
G1 X91.518 Y82.802 E0.01585
G1 X90.434 Y83.206 E0.03629
G1 X84.723 Y88.917 E0.25322
G1 X84.848 Y88.581 E0.01123
G1 X85.575 Y87.251 E0.04752
G1 X86.325 Y86.248 E0.03929
G1 X88.608 Y83.966 E0.10120
G1 F8640.000
G1 X86.325 Y86.248 E-0.74527
G1 X86.287 Y86.299 E-0.01473
G1 E-0.04000 F2100.00000
G1 Z0.800 F10800.000
G1 X94.512 Y104.733
G1 Z0.200
G1 E0.80000 F2100.00000
G1 F1200.000
G1 X92.840 Y104.613 E0.05254
G1 X91.204 Y104.257 E0.05251
G1 X89.634 Y103.672 E0.05251
G1 X88.164 Y102.869 E0.05251
G1 X86.824 Y101.865 E0.05251
G1 X85.667 Y100.709 E0.05128
G1 X84.636 Y99.341 E0.05370
G1 X83.833 Y97.870 E0.05254
G1 X83.248 Y96.301 E0.05251
G1 X82.900 Y94.703 E0.05128
G1 X82.772 Y92.995 E0.05370
G1 X82.892 Y91.323 E0.05254
G1 X83.248 Y89.687 E0.05251
G1 X83.819 Y88.154 E0.05128
G1 X84.635 Y86.648 E0.05370
G1 X85.639 Y85.307 E0.05254
G1 X86.824 Y84.123 E0.05251
G1 X88.164 Y83.119 E0.05251
G1 X89.634 Y82.316 E0.05251
G1 X91.204 Y81.731 E0.05251
G1 X92.840 Y81.375 E0.05251
G1 X94.472 Y81.258 E0.05128
G1 X96.180 Y81.375 E0.05370
G1 X97.818 Y81.731 E0.05254
G1 X99.387 Y82.316 E0.05251
G1 X100.857 Y83.119 E0.05251
G1 X102.198 Y84.123 E0.05251
G1 X103.382 Y85.307 E0.05251
G1 X104.386 Y86.648 E0.05251
G1 X105.189 Y88.118 E0.05251
G1 X105.774 Y89.687 E0.05251
G1 X106.130 Y91.323 E0.05251
G1 X106.249 Y92.994 E0.05251
G1 X106.130 Y94.665 E0.05251
G1 X105.782 Y96.263 E0.05128
G1 X105.189 Y97.870 E0.05371
G1 X104.386 Y99.340 E0.05254
G1 X103.406 Y100.650 E0.05128
G1 X102.199 Y101.865 E0.05371
G1 X100.857 Y102.869 E0.05254
G1 X99.387 Y103.672 E0.05251
G1 X97.818 Y104.257 E0.05251
G1 X96.220 Y104.605 E0.05128
G1 X94.572 Y104.728 E0.05182
G1 X94.511 Y104.355 F10800.000
G1 F1200.000
G1 X92.894 Y104.239 E0.05083
G1 X91.310 Y103.894 E0.05082
G1 X89.791 Y103.328 E0.05082
G1 X88.369 Y102.551 E0.05082
G1 X87.071 Y101.580 E0.05082
G1 X85.952 Y100.461 E0.04961
G1 X84.954 Y99.136 E0.05201
G1 X84.177 Y97.713 E0.05083
G1 X83.610 Y96.195 E0.05082
G1 X83.274 Y94.649 E0.04961
G1 X83.150 Y92.994 E0.05201
G1 X83.266 Y91.377 E0.05083
G1 X83.610 Y89.793 E0.05082
G1 X84.163 Y88.311 E0.04961
G1 X84.954 Y86.852 E0.05201
G1 X85.925 Y85.554 E0.05083
G1 X87.071 Y84.408 E0.05082
G1 X88.369 Y83.437 E0.05082
G1 X89.791 Y82.660 E0.05082
G1 X91.310 Y82.094 E0.05082
G1 X92.894 Y81.749 E0.05082
G1 X94.472 Y81.636 E0.04961
G1 X96.127 Y81.749 E0.05201
G1 X97.711 Y82.094 E0.05083
G1 X99.230 Y82.660 E0.05082
G1 X100.653 Y83.437 E0.05082
G1 X101.950 Y84.408 E0.05082
G1 X103.097 Y85.554 E0.05082
G1 X104.068 Y86.852 E0.05082
G1 X104.845 Y88.275 E0.05082
G1 X105.411 Y89.793 E0.05082
G1 X105.756 Y91.377 E0.05082
G1 X105.871 Y92.994 E0.05082
G1 X105.756 Y94.611 E0.05082
G1 X105.419 Y96.157 E0.04961
G1 X104.845 Y97.713 E0.05201
G1 X104.068 Y99.136 E0.05083
G1 X103.120 Y100.403 E0.04961
G1 X101.951 Y101.579 E0.05201
G1 X100.653 Y102.551 E0.05083
G1 X99.230 Y103.328 E0.05082
G1 X97.711 Y103.894 E0.05082
G1 X96.165 Y104.231 E0.04961
G1 X94.571 Y104.350 E0.05013
G1 X94.311 Y104.701 F10800.000
G1 F8640.000
G1 X92.894 Y104.239 E-0.38806
G1 X91.320 Y103.896 E-0.37194
G1 E-0.04000 F2100.00000
G1 Z0.800 F10800.000
G1 X94.511 Y110.622
G1 Z0.200
G1 E0.80000 F2100.00000
G1 F1200.000
G1 X92.668 Y110.525 E0.05785
G1 X90.846 Y110.237 E0.05785
G1 X89.063 Y109.759 E0.05785
G1 X87.341 Y109.098 E0.05785
G1 X85.697 Y108.260 E0.05785
G1 X84.149 Y107.255 E0.05785
G1 X82.715 Y106.094 E0.05785
G1 X81.411 Y104.789 E0.05785
G1 X80.250 Y103.355 E0.05785
G1 X79.245 Y101.808 E0.05785
G1 X78.407 Y100.164 E0.05785
G1 X77.746 Y98.441 E0.05785
G1 X77.268 Y96.659 E0.05785
G1 X76.979 Y94.837 E0.05785
G1 X76.883 Y92.994 E0.05785
G1 X76.979 Y91.151 E0.05785
M73 P1 R69
G1 X77.268 Y89.329 E0.05785
G1 X77.746 Y87.547 E0.05785
G1 X78.407 Y85.824 E0.05785
G1 X79.245 Y84.180 E0.05785
G1 X80.250 Y82.633 E0.05785
G1 X81.411 Y81.199 E0.05785
G1 X82.715 Y79.894 E0.05785
G1 X84.149 Y78.733 E0.05785
G1 X85.697 Y77.728 E0.05785
G1 X87.341 Y76.890 E0.05785
G1 X89.064 Y76.229 E0.05785
G1 X90.846 Y75.751 E0.05785
G1 X92.668 Y75.463 E0.05785
G1 X94.511 Y75.366 E0.05785
G1 X96.306 Y75.460 E0.05637
G1 X98.177 Y75.751 E0.05935
G1 X99.958 Y76.229 E0.05783
G1 X101.681 Y76.890 E0.05785
G1 X103.325 Y77.728 E0.05785
G1 X104.872 Y78.733 E0.05785
G1 X106.306 Y79.894 E0.05785
G1 X107.611 Y81.199 E0.05785
G1 X108.772 Y82.633 E0.05785
G1 X109.777 Y84.180 E0.05785
G1 X110.615 Y85.824 E0.05785
G1 X111.276 Y87.547 E0.05785
G1 X111.754 Y89.329 E0.05785
G1 X112.042 Y91.151 E0.05785
G1 X112.139 Y92.994 E0.05785
G1 X112.042 Y94.837 E0.05785
G1 X111.754 Y96.659 E0.05785
G1 X111.276 Y98.441 E0.05785
G1 X110.615 Y100.164 E0.05785
G1 X109.777 Y101.808 E0.05785
G1 X108.772 Y103.355 E0.05785
G1 X107.611 Y104.789 E0.05785
G1 X106.306 Y106.094 E0.05785
G1 X104.872 Y107.255 E0.05785
G1 X103.325 Y108.260 E0.05785
G1 X101.681 Y109.098 E0.05785
G1 X99.958 Y109.759 E0.05785
G1 X98.176 Y110.237 E0.05785
G1 X96.353 Y110.525 E0.05785
G1 X94.571 Y110.619 E0.05597
G1 X94.511 Y111.000 F10800.000
G1 F1200.000
G1 X92.629 Y110.901 E0.05909
G1 X90.767 Y110.606 E0.05909
G1 X88.947 Y110.118 E0.05909
G1 X87.187 Y109.443 E0.05909
G1 X85.508 Y108.587 E0.05909
G1 X83.927 Y107.561 E0.05909
G1 X82.463 Y106.375 E0.05909
G1 X81.130 Y105.042 E0.05909
G1 X79.944 Y103.577 E0.05909
G1 X78.918 Y101.997 E0.05909
G1 X78.062 Y100.317 E0.05909
G1 X77.387 Y98.558 E0.05909
G1 X76.899 Y96.738 E0.05909
G1 X76.604 Y94.876 E0.05909
G1 X76.505 Y92.994 E0.05909
G1 X76.604 Y91.112 E0.05909
G1 X76.899 Y89.250 E0.05909
G1 X77.387 Y87.430 E0.05909
G1 X78.062 Y85.670 E0.05909
G1 X78.918 Y83.991 E0.05909
G1 X79.944 Y82.411 E0.05909
G1 X81.130 Y80.946 E0.05909
G1 X82.463 Y79.613 E0.05909
G1 X83.927 Y78.427 E0.05909
G1 X85.508 Y77.401 E0.05909
G1 X87.187 Y76.545 E0.05909
G1 X88.947 Y75.870 E0.05909
G1 X90.767 Y75.382 E0.05909
G1 X92.629 Y75.087 E0.05909
G1 X94.511 Y74.988 E0.05909
G1 X96.345 Y75.085 E0.05760
G1 X98.255 Y75.382 E0.06059
G1 X100.075 Y75.870 E0.05908
G1 X101.834 Y76.545 E0.05909
G1 X103.514 Y77.401 E0.05909
G1 X105.094 Y78.427 E0.05909
G1 X106.559 Y79.613 E0.05909
G1 X107.892 Y80.946 E0.05909
G1 X109.078 Y82.411 E0.05909
G1 X110.104 Y83.991 E0.05909
G1 X110.960 Y85.670 E0.05909
G1 X111.635 Y87.430 E0.05909
G1 X112.123 Y89.250 E0.05909
G1 X112.418 Y91.112 E0.05909
G1 X112.516 Y92.994 E0.05909
G1 X112.418 Y94.876 E0.05909
G1 X112.123 Y96.738 E0.05909
G1 X111.635 Y98.558 E0.05909
G1 X110.960 Y100.318 E0.05909
G1 X110.104 Y101.997 E0.05909
G1 X109.078 Y103.577 E0.05909
G1 X107.892 Y105.042 E0.05909
G1 X106.559 Y106.375 E0.05909
G1 X105.094 Y107.561 E0.05909
G1 X103.514 Y108.587 E0.05909
G1 X101.834 Y109.443 E0.05909
G1 X100.075 Y110.118 E0.05909
G1 X98.254 Y110.606 E0.05909
G1 X96.393 Y110.901 E0.05909
G1 X94.571 Y110.996 E0.05721
G1 X94.311 Y110.653 F10800.000
G1 X94.530 Y110.508
G1 F1200.000
G1 X77.174 Y93.153 E0.77682
G1 X77.204 Y93.721 E0.01800
G1 X93.784 Y110.301 E0.74213
G1 X93.216 Y110.271 E0.01800
G1 X77.234 Y94.289 E0.71537
G1 X77.270 Y94.863 E0.01821
G1 X92.642 Y110.235 E0.68805
G1 X92.002 Y110.134 E0.02050
G1 X77.371 Y95.503 E0.65488
G1 X77.473 Y96.142 E0.02050
G1 X91.363 Y110.032 E0.62172
G1 X90.905 Y109.960 E0.01467
G1 X90.696 Y109.904 E0.00685
G1 X77.601 Y96.809 E0.58612
G1 X77.798 Y97.545 E0.02410
G1 X89.960 Y109.707 E0.54439
G1 X89.225 Y109.510 E0.02410
G1 X77.995 Y98.280 E0.50265
G1 X78.317 Y99.140 E0.02905
G1 X88.365 Y109.188 E0.44978
G1 X87.492 Y108.853 E0.02962
G1 X78.652 Y100.013 E0.39566
G1 X79.202 Y101.102 E0.03860
G1 X86.403 Y108.303 E0.32232
G1 X85.838 Y108.015 E0.02006
G1 X85.093 Y107.531 E0.02813
G1 X79.974 Y102.412 E0.22913
G1 X80.479 Y103.189 E0.02932
G1 X81.610 Y104.587 E0.05692
G1 X84.066 Y107.042 E0.10991
G1 F8640.000
G1 X81.739 Y104.715 E-0.76000
G1 E-0.04000 F2100.00000
G1 Z0.800 F10800.000
G1 X111.971 Y94.036
G1 Z0.200
G1 E0.80000 F2100.00000
G1 F1200.000
G1 X104.859 Y86.924 E0.31834
G1 X105.476 Y88.079 E0.04147
G1 X111.783 Y94.386 E0.28229
G1 X111.748 Y94.889 E0.01597
G1 X105.796 Y88.938 E0.26639
G1 X106.046 Y89.607 E0.02261
G1 X106.079 Y89.759 E0.00491
G1 X111.674 Y95.354 E0.25044
G1 X111.600 Y95.818 E0.01489
G1 X106.229 Y90.447 E0.24045
G1 X106.378 Y91.135 E0.02228
G1 X111.527 Y96.283 E0.23046
G1 X111.441 Y96.735 E0.01456
G1 X106.443 Y91.738 E0.22369
G1 X106.485 Y92.317 E0.01840
G1 X111.327 Y97.160 E0.21674
G1 X111.213 Y97.584 E0.01391
G1 X106.526 Y92.897 E0.20979
G1 X106.503 Y93.413 E0.01633
G1 X111.099 Y98.009 E0.20573
G1 X110.979 Y98.427 E0.01376
G1 X106.467 Y93.915 E0.20195
G1 X106.431 Y94.417 E0.01594
G1 X110.830 Y98.816 E0.19687
G1 X110.680 Y99.205 E0.01319
G1 X106.369 Y94.894 E0.19295
G1 X106.273 Y95.336 E0.01432
G1 X110.531 Y99.594 E0.19057
G1 X110.382 Y99.983 E0.01319
G1 X106.177 Y95.778 E0.18819
G1 X106.081 Y96.220 E0.01432
G1 X110.205 Y100.345 E0.18461
G1 X110.024 Y100.701 E0.01267
G1 X105.949 Y96.627 E0.18237
G1 X105.804 Y97.020 E0.01326
G1 X109.842 Y101.058 E0.18074
G1 X109.660 Y101.415 E0.01267
G1 X105.659 Y97.413 E0.17910
G1 X105.514 Y97.806 E0.01326
G1 X109.470 Y101.762 E0.17707
G1 X109.258 Y102.089 E0.01232
G1 X105.344 Y98.175 E0.17516
G1 X105.154 Y98.523 E0.01256
G1 X109.046 Y102.415 E0.17419
G1 X108.834 Y102.741 E0.01232
G1 X104.964 Y98.872 E0.17321
G1 X104.774 Y99.220 E0.01256
G1 X108.622 Y103.068 E0.17223
G1 X108.392 Y103.376 E0.01217
G1 X104.575 Y99.559 E0.17083
G1 X104.345 Y99.867 E0.01217
G1 X108.151 Y103.673 E0.17036
G1 X107.910 Y103.971 E0.01211
G1 X104.114 Y100.175 E0.16990
G1 X103.884 Y100.483 E0.01217
G1 X107.669 Y104.268 E0.16943
G1 X107.428 Y104.566 E0.01211
G1 X103.653 Y100.791 E0.16897
G1 X103.391 Y101.066 E0.01205
G1 X107.162 Y104.838 E0.16883
G1 X106.893 Y105.107 E0.01205
G1 X103.122 Y101.336 E0.16879
G1 X102.854 Y101.606 E0.01205
G1 X106.624 Y105.376 E0.16875
G1 X106.355 Y105.646 E0.01205
G1 X102.586 Y101.876 E0.16871
G1 X102.308 Y102.137 E0.01205
G1 X106.083 Y105.911 E0.16897
G1 X105.785 Y106.152 E0.01211
G1 X102.000 Y102.367 E0.16943
G1 X101.692 Y102.597 E0.01217
G1 X105.488 Y106.393 E0.16990
G1 X105.190 Y106.634 E0.01211
G1 X101.384 Y102.828 E0.17036
G1 X101.076 Y103.058 E0.01217
G1 X104.893 Y106.875 E0.17083
G1 X104.585 Y107.105 E0.01217
G1 X100.737 Y103.257 E0.17223
G1 X100.388 Y103.447 E0.01256
