; generated by PrusaSlicer 2.2.0+win64 on 2020-08-18 at 18:24:57 UTC

; 

; external perimeters extrusion width = 0.45mm
; perimeters extrusion width = 0.45mm
; infill extrusion width = 0.45mm
; solid infill extrusion width = 0.45mm
; top infill extrusion width = 0.40mm
; support material extrusion width = 0.35mm
; first layer extrusion width = 0.42mm

; external perimeters extrusion width = 0.45mm
; perimeters extrusion width = 0.45mm
; infill extrusion width = 0.45mm
; solid infill extrusion width = 0.45mm
; top infill extrusion width = 0.40mm
; support material extrusion width = 0.35mm
; first layer extrusion width = 0.42mm

M73 P0 R67
M201 X9000 Y9000 Z500 E10000 ; sets maximum accelerations, mm/sec^2
M203 X500 Y500 Z12 E120 ; sets maximum feedrates, mm/sec
M204 P2000 R1500 T2000 ; sets acceleration (P, T) and retract acceleration (R), mm/sec^2
M205 X10.00 Y10.00 Z0.20 E4.50 ; sets the jerk limits, mm/sec
M205 S0 T0 ; sets the minimum extruding and travel feed rate, mm/sec
M107
M862.3 P "MK2.5SMMU2S" ; printer model check
M862.1 P0.4 ; nozzle diameter check
M115 U3.9.0 ; tell printer latest fw version
G90 ; use absolute coordinates
M83 ; extruder relative mode
M104 S215 ; set extruder temp
M140 S60 ; set bed temp
M190 S60 ; wait for bed temp
M109 S215 ; wait for extruder temp
G28 W ; home all without mesh bed level
G80 ; mesh bed leveling

; Send the filament type to the MMU2.0 unit.
; E stands for extruder number, F stands for filament type (0: default; 1:flex; 2: PVA)
M403 E0 F0
M403 E1 F0
M403 E2 F0
M403 E3 F0
M403 E4 F0


;go outside print area
G1 Y-3.0 F1000.0
G1 Z0.4 F1000.0
; select extruder
T0
; initial load
G1 X55.0 E29.0 F1073.0
M73 P0 R67
G1 X5.0 E29.0 F1800.0
G1 X55.0 E8.0 F2000.0
G1 Z0.3 F1000.0
G92 E0.0
G1 X240.0 E25.0 F2200.0
G1 Y-2.0 F1000.0
G1 X55.0 E25 F1400.0
G1 Z0.20 F1000.0
G1 X5.0 E4.0 F1000.0
G92 E0.0

G92 E0.0
G21 ; set units to millimeters
G90 ; use absolute coordinates
M83 ; use relative distances for extrusion
T0
M900 K0.06 ; Filament gcode LA 1.5
M900 K30 ; Filament gcode LA 1.0
G1 Z0.200 F10800.000
;BEFORE_LAYER_CHANGE
G92 E0.0
;0.2


G1 E-0.80000 F2100.00000
G1 Z0.800 F10800.000
G1 Z0.200
;AFTER_LAYER_CHANGE
;0.2
G1 E-2.20000 F2100.00000
G1 Z0.800 F10800.000
G1 X155.943 Y144.181
G1 Z0.200
G1 E3.00000 F2100.00000
;-------------------------------------
; CP WIPE TOWER FIRST LAYER BRIM START
G1  X155.943 Y158.241  E0.8016 F2400
G1  X153.400 Y158.698   F7000
G1  Y143.724  E0.6260 F2100
G1  X92.486  E2.5466
G1  Y158.698  E0.6260
G1  X153.400  E2.5466
G1  X153.857 Y159.155   F7000
G1  Y143.267  E0.6642 F2100
G1  X92.029  E2.5849
G1  Y159.155  E0.6642
G1  X153.857  E2.5849
G1  X154.314 Y159.612   F7000
G1  Y142.810  E0.7025 F2100
G1  X91.572  E2.6231
G1  Y159.612  E0.7025
G1  X154.314  E2.6231
G1  X154.771 Y160.069   F7000
G1  Y142.353  E0.7407 F2100
G1  X91.115  E2.6613
G1  Y160.069  E0.7407
G1  X154.771  E2.6613
G1  X152.943 Y158.241   F7000
G1  X92.943 
G1  X152.943 
; CP WIPE TOWER FIRST LAYER BRIM END
;-----------------------------------
G1  X152.443 Y144.681   F7200
;--------------------
; CP EMPTY GRID START
; layer #1
G1  X152.943 
G1  Y144.181 
G1  Y158.241  E0.5344 F1450
G1  X92.943  E2.2804
G1  Y144.181  E0.5344
G1  X152.943  E2.2804
G1  X152.443 
G1  Y144.681 
G1  Y157.741  E0.4964
G1  X93.443  E2.2424
G1  Y144.681  E0.4964
G1  X152.443  E2.2424
G1  Y157.741 
G1  X151.943 Y157.218   E0.0275
G1  X93.943  E2.2044
G1  Y156.694  E0.0199
G1  X151.943  E2.2044
G1  Y156.171  E0.0199
G1  X93.943  E2.2044
M73 P1 R66
G1  Y155.648  E0.0199
G1  X151.943  E2.2044
G1  Y155.124  E0.0199
G1  X93.943  E2.2044
G1  Y154.601  E0.0199
G1  X151.943  E2.2044
G1  Y154.078  E0.0199
G1  X93.943  E2.2044
G1  Y153.554  E0.0199
G1  X151.943  E2.2044
G1  Y153.031  E0.0199
G1  X93.943  E2.2044
G1  Y152.508  E0.0199
G1  X151.943  E2.2044
G1  Y151.984  E0.0199
G1  X93.943  E2.2044
G1  Y151.461  E0.0199
G1  X151.943  E2.2044
G1  Y150.938  E0.0199
G1  X93.943  E2.2044
G1  Y150.414  E0.0199
G1  X151.943  E2.2044
G1  Y149.891  E0.0199
G1  X93.943  E2.2044
G1  Y149.368  E0.0199
G1  X151.943  E2.2044
G1  Y148.844  E0.0199
G1  X93.943  E2.2044
G1  Y148.321  E0.0199
G1  X151.943  E2.2044
G1  Y147.798  E0.0199
G1  X93.943  E2.2044
G1  Y147.274  E0.0199
G1  X151.943  E2.2044
G1  Y146.751  E0.0199
G1  X93.943  E2.2044
G1  Y146.228  E0.0199
G1  X151.943  E2.2044
G1  Y145.704  E0.0199
G1  X93.943  E2.2044
G1  Y145.181  E0.0199
G1  X151.943  E2.2044
G1  X93.943 
; CP EMPTY GRID END
;------------------







G1 F8640.000
G1 X90.652 Y145.181 E-0.76000
G1 E-0.04000 F2100.00000
G1 Z0.800 F10800.000
G1 X89.323 Y162.088
G1 Z0.200
G1 E0.80000 F2100.00000
M204 S1000
G1 F1200.000
G1 X88.757 Y161.353 E0.02907
G1 X77.174 Y136.621 E0.85630
G1 X77.004 Y136.117 E0.01668
G1 X76.835 Y135.016 E0.03490
G1 X76.092 Y99.338 E1.11891
G1 X76.282 Y98.049 E0.04087
G1 X76.683 Y97.175 E0.03013
G1 X104.351 Y49.086 E1.73955
M73 P3 R65
G1 X105.075 Y48.211 E0.03562
G1 X106.187 Y47.482 E0.04170
G1 X107.367 Y47.168 E0.03830
G1 X129.693 Y45.278 E0.70252
G1 X130.943 Y45.391 E0.03934
G1 X132.041 Y45.811 E0.03685
G1 X132.570 Y46.133 E0.01941
G1 X133.444 Y46.938 E0.03728
G1 X171.376 Y95.073 E1.92153
G1 X172.007 Y96.134 E0.03869
G1 X172.181 Y96.628 E0.01645
G1 X172.384 Y97.760 E0.03605
G1 X173.908 Y134.761 E1.16111
G1 X173.659 Y136.686 E0.06086
G1 X172.929 Y138.193 E0.05253
G1 X156.954 Y161.651 E0.88985
G1 X156.407 Y162.214 E0.02461
G1 X155.702 Y162.568 E0.02473
G1 X155.004 Y162.674 E0.02213
G1 X90.886 Y162.674 E2.01038
G1 X90.127 Y162.550 E0.02414
G1 X89.375 Y162.118 E0.02719
G1 F8640.000
G1 X88.757 Y161.353 E-0.22696
G1 X87.778 Y159.263 E-0.53304
G1 E-0.04000 F2100.00000
G1 Z0.800 F10800.000
G1 X128.350 Y89.392
G1 Z0.200
G1 E0.80000 F2100.00000
G1 F1200.000
G1 X125.982 Y89.257 E0.07437
G1 X119.696 Y88.580 E0.19823
G1 X114.360 Y88.756 E0.16741
G1 X109.110 Y88.510 E0.16477
G1 X108.586 Y88.402 E0.01679
G1 X108.143 Y88.159 E0.01583
G1 X107.787 Y87.793 E0.01603
G1 X107.555 Y87.344 E0.01583
G1 X107.467 Y86.850 E0.01574
G1 X107.826 Y82.937 E0.12319
G1 X107.874 Y76.490 E0.20216
G1 X107.606 Y74.930 E0.04962
G1 X107.846 Y62.392 E0.39319
G1 X108.342 Y61.252 E0.03899
G1 X107.089 Y60.776 E0.04202
G1 X106.984 Y60.702 E0.00403
G1 X106.918 Y60.587 E0.00415
G1 X106.908 Y60.519 E0.00216
G1 X106.721 Y51.246 E0.29078
G1 X106.768 Y50.894 E0.01115
G1 X106.904 Y50.603 E0.01007
G1 X107.122 Y50.360 E0.01023
G1 X107.398 Y50.194 E0.01007
G1 X107.743 Y50.110 E0.01115
G1 X129.693 Y48.244 E0.69070
G1 X130.246 Y48.285 E0.01739
G1 X130.768 Y48.493 E0.01763
G1 X131.157 Y48.836 E0.01626
G1 X131.420 Y49.294 E0.01655
G1 X131.535 Y49.863 E0.01822
G1 X131.752 Y58.940 E0.28466
G1 X131.321 Y59.084 E0.01425
G1 X131.189 Y60.006 E0.02921
G1 X131.433 Y60.535 E0.01825
G1 X131.437 Y60.729 E0.00608
G1 X131.255 Y61.038 E0.01125
G1 X131.355 Y61.593 E0.01769
G1 X131.997 Y62.488 E0.03453
G1 X132.448 Y75.295 E0.40179
G1 X132.443 Y75.663 E0.01155
G1 X132.350 Y75.983 E0.01044
G1 X132.174 Y76.342 E0.01253
G1 X131.650 Y76.916 E0.02436
G1 X132.166 Y78.673 E0.05740
G1 X132.424 Y81.113 E0.07693
G1 X132.907 Y83.970 E0.09085
G1 X133.055 Y86.758 E0.08755
G1 X132.946 Y87.678 E0.02904
G1 X132.579 Y88.445 E0.02667
G1 X131.985 Y89.035 E0.02627
G1 X131.216 Y89.399 E0.02667
G1 X130.295 Y89.502 E0.02905
G1 X128.410 Y89.395 E0.05920
G1 F8640.000
G1 X125.982 Y89.257 E-0.56151
G1 X125.127 Y89.165 E-0.19849
G1 E-0.04000 F2100.00000
G1 Z0.800 F10800.000
G1 X125.951 Y89.633
G1 Z0.200
G1 E0.80000 F2100.00000
G1 F1200.000
G1 X119.682 Y88.957 E0.19770
G1 X114.357 Y89.133 E0.16705
G1 X109.063 Y88.885 E0.16616
G1 X108.454 Y88.760 E0.01950
G1 X107.912 Y88.462 E0.01938
G1 X107.478 Y88.016 E0.01954
G1 X107.193 Y87.467 E0.01938
G1 X107.087 Y86.866 E0.01913
G1 X107.449 Y82.919 E0.12429
G1 X107.497 Y76.521 E0.20061
G1 X107.228 Y74.959 E0.04968
G1 X107.470 Y62.310 E0.39665
G1 X107.838 Y61.464 E0.02894
G1 X106.931 Y61.119 E0.03045
G1 X106.807 Y61.052 E0.00440
G1 X106.699 Y60.953 E0.00460
G1 X106.610 Y60.826 E0.00485
G1 X106.553 Y60.691 E0.00460
G1 X106.531 Y60.552 E0.00440
G1 X106.343 Y51.225 E0.29251
G1 X106.402 Y50.786 E0.01387
G1 X106.586 Y50.392 E0.01364
G1 X106.880 Y50.066 E0.01375
G1 X107.252 Y49.842 E0.01364
G1 X107.682 Y49.737 E0.01387
G1 X129.691 Y47.866 E0.69256
G1 X130.332 Y47.913 E0.02015
G1 X130.969 Y48.167 E0.02151
G1 X131.453 Y48.594 E0.02025
G1 X131.777 Y49.159 E0.02042
G1 X131.911 Y49.821 E0.02118
G1 X132.136 Y59.209 E0.29442
G1 X131.661 Y59.368 E0.01568
G1 X131.578 Y59.950 E0.01843
G1 X131.808 Y60.449 E0.01723
G1 X131.816 Y60.828 E0.01190
G1 X131.651 Y61.109 E0.01022
G1 X131.711 Y61.443 E0.01063
G1 X132.370 Y62.361 E0.03545
G1 X132.825 Y75.291 E0.40565
G1 X132.819 Y75.720 E0.01344
G1 X132.703 Y76.120 E0.01306
G1 X132.489 Y76.556 E0.01524
G1 X132.072 Y77.013 E0.01940
G1 X132.537 Y78.599 E0.05182
G1 X132.797 Y81.061 E0.07763
G1 X133.283 Y83.928 E0.09116
G1 X133.433 Y86.770 E0.08924
G1 X133.314 Y87.784 E0.03201
G1 X132.890 Y88.666 E0.03067
G1 X132.204 Y89.349 E0.03034
G1 X131.320 Y89.767 E0.03067
G1 X130.305 Y89.881 E0.03202
G1 X126.011 Y89.636 E0.13486
G1 X125.779 Y89.271 F10800.000
G1 F8640.000
G1 X122.738 Y89.285 E-0.76000
G1 E-0.04000 F2100.00000
G1 Z0.800 F10800.000
G1 X107.656 Y87.271
G1 Z0.200
G1 E0.80000 F2100.00000
G1 F1200.000
G1 X108.318 Y87.932 E0.02941
G1 X108.684 Y88.134 E0.01318
G1 X109.149 Y88.229 E0.01493
G1 X107.752 Y86.832 E0.06215
G1 X107.797 Y86.342 E0.01548
G1 X109.711 Y88.255 E0.08513
G1 X110.272 Y88.281 E0.01768
G1 X107.842 Y85.851 E0.10810
G1 X107.887 Y85.361 E0.01548
G1 X110.834 Y88.308 E0.13108
G1 X111.395 Y88.334 E0.01768
G1 X107.932 Y84.871 E0.15406
G1 X107.977 Y84.381 E0.01548
G1 X111.956 Y88.360 E0.17703
G1 X112.518 Y88.386 E0.01768
G1 X108.022 Y83.891 E0.20001
G1 X108.067 Y83.401 E0.01548
G1 X113.079 Y88.413 E0.22299
G1 X113.640 Y88.439 E0.01768
G1 X108.109 Y82.907 E0.24611
G1 X108.113 Y82.376 E0.01671
G1 X114.202 Y88.465 E0.27091
G1 X114.732 Y88.461 E0.01668
G1 X108.117 Y81.845 E0.29433
G1 X108.121 Y81.314 E0.01671
G1 X115.250 Y88.444 E0.31720
G1 X115.768 Y88.426 E0.01630
G1 X108.125 Y80.783 E0.34007
G1 X108.129 Y80.252 E0.01671
G1 X116.286 Y88.409 E0.36294
G1 X116.804 Y88.392 E0.01630
G1 X108.133 Y79.721 E0.38580
G1 X108.137 Y79.190 E0.01671
G1 X117.322 Y88.375 E0.40867
G1 X117.840 Y88.358 E0.01630
G1 X108.140 Y78.659 E0.43154
G1 X108.144 Y78.127 E0.01671
G1 X118.358 Y88.341 E0.45441
G1 X118.876 Y88.324 E0.01630
G1 X108.148 Y77.596 E0.47728
G1 X108.152 Y77.065 E0.01671
G1 X119.394 Y88.307 E0.50014
G1 X119.706 Y88.296 E0.00984
G1 X119.944 Y88.322 E0.00752
G1 X108.156 Y76.534 E0.52445
G1 X108.060 Y75.903 E0.02010
G1 X120.544 Y88.386 E0.55543
G1 X121.143 Y88.451 E0.01898
G1 X107.949 Y75.256 E0.58705
G1 X107.889 Y74.909 E0.01110
G1 X107.894 Y74.666 E0.00763
G1 X121.743 Y88.516 E0.61618
G1 X122.343 Y88.580 E0.01898
G1 X107.904 Y74.141 E0.64242
G1 X107.914 Y73.616 E0.01652
G1 X122.942 Y88.645 E0.66865
G1 X123.542 Y88.709 E0.01898
G1 X107.924 Y73.091 E0.69488
G1 X107.934 Y72.566 E0.01652
G1 X124.142 Y88.774 E0.72111
G1 X124.741 Y88.839 E0.01898
G1 X107.944 Y72.041 E0.74735
G1 X107.954 Y71.516 E0.01652
G1 X125.341 Y88.903 E0.77358
G1 X125.941 Y88.968 E0.01898
G1 X107.964 Y70.991 E0.79981
G1 X107.974 Y70.466 E0.01652
G1 X126.512 Y89.004 E0.82476
G1 X127.079 Y89.036 E0.01788
G1 X107.984 Y69.941 E0.84956
G1 X107.994 Y69.416 E0.01652
G1 X127.646 Y89.068 E0.87436
G1 X128.214 Y89.101 E0.01788
G1 X108.004 Y68.891 E0.89915
G1 X108.014 Y68.366 E0.01652
G1 X128.781 Y89.133 E0.92395
G1 X129.349 Y89.165 E0.01788
G1 X108.024 Y67.841 E0.94875
G1 X108.034 Y67.316 E0.01652
G1 X129.916 Y89.197 E0.97354
G1 X130.287 Y89.219 E0.01169
G1 X130.453 Y89.200 E0.00527
G1 X108.044 Y66.791 E0.99701
M73 P4 R64
G1 X108.055 Y66.266 E0.01652
G1 X130.935 Y89.146 E1.01797
G1 X131.137 Y89.123 E0.00642
G1 X131.347 Y89.024 E0.00732
G1 X108.065 Y65.741 E1.03589
G1 X108.075 Y65.216 E0.01652
G1 X131.711 Y88.852 E1.05161
G1 X131.820 Y88.801 E0.00379
G1 X132.008 Y88.614 E0.00834
G1 X108.085 Y64.691 E1.06437
G1 X108.095 Y64.166 E0.01652
G1 X132.276 Y88.347 E1.07585
G1 X132.345 Y88.279 E0.00305
G1 X132.474 Y88.010 E0.00938
G1 X108.105 Y63.641 E1.08421
G1 X108.115 Y63.116 E0.01652
G1 X132.647 Y87.648 E1.09148
G1 X132.671 Y87.598 E0.00175
G1 X132.720 Y87.186 E0.01306
G1 X108.125 Y62.591 E1.09426
G1 X108.128 Y62.454 E0.00431
G1 X108.247 Y62.178 E0.00945
G1 X132.769 Y86.699 E1.09099
G1 X132.739 Y86.134 E0.01780
G1 X108.410 Y61.805 E1.08245
G1 X108.572 Y61.432 E0.01279
G1 X132.709 Y85.569 E1.07390
G1 X132.679 Y85.004 E0.01780
G1 X107.170 Y59.495 E1.13494
G1 X107.159 Y58.949 E0.01718
G1 X132.649 Y84.439 E1.13409
G1 X132.626 Y84.001 E0.01382
G1 X132.601 Y83.857 E0.00460
G1 X107.148 Y58.403 E1.13246
G1 X107.137 Y57.857 E0.01718
G1 X132.492 Y83.213 E1.12810
G1 X132.383 Y82.568 E0.02055
G1 X107.126 Y57.311 E1.12374
G1 X107.115 Y56.765 E0.01718
G1 X132.274 Y81.924 E1.11938
G1 X132.165 Y81.280 E0.02055
G1 X107.104 Y56.219 E1.11502
G1 X107.093 Y55.673 E0.01718
G1 X132.093 Y80.673 E1.11228
G1 X132.030 Y80.074 E0.01893
G1 X107.082 Y55.127 E1.10996
G1 X107.071 Y54.581 E0.01718
G1 X131.966 Y79.476 E1.10764
G1 X131.903 Y78.878 E0.01893
G1 X107.060 Y54.035 E1.10531
G1 X107.049 Y53.489 E0.01718
G1 X131.721 Y78.161 E1.09770
G1 X131.499 Y77.403 E0.02482
G1 X107.038 Y52.942 E1.08830
G1 X107.027 Y52.396 E0.01718
G1 X131.401 Y76.770 E1.08443
G1 X131.656 Y76.490 E0.01192
G1 X107.016 Y51.850 E1.09627
G1 X107.005 Y51.304 E0.01718
G1 X131.911 Y76.211 E1.10812
G1 X132.092 Y75.856 E0.01251
G1 X107.096 Y50.861 E1.11211
G1 X107.143 Y50.761 E0.00347
G1 X107.334 Y50.563 E0.00864
G1 X132.164 Y75.393 E1.10472
G1 X132.149 Y74.843 E0.01730
G1 X107.714 Y50.408 E1.08716
G1 X108.196 Y50.355 E0.01526
G1 X132.130 Y74.289 E1.06484
G1 X132.110 Y73.734 E0.01746
G1 X108.689 Y50.313 E1.04203
G1 X109.182 Y50.271 E0.01557
G1 X132.090 Y73.180 E1.01922
G1 X132.071 Y72.625 E0.01746
G1 X109.675 Y50.229 E0.99641
G1 X110.169 Y50.188 E0.01557
G1 X132.051 Y72.070 E0.97360
M73 P6 R63
G1 X132.032 Y71.516 E0.01746
G1 X110.662 Y50.146 E0.95079
G1 X111.155 Y50.104 E0.01557
G1 X132.012 Y70.961 E0.92798
G1 X131.993 Y70.407 E0.01746
G1 X111.648 Y50.062 E0.90517
G1 X112.141 Y50.020 E0.01557
G1 X131.973 Y69.852 E0.88237
G1 X131.954 Y69.297 E0.01746
G1 X112.634 Y49.978 E0.85956
G1 X113.128 Y49.936 E0.01557
G1 X131.934 Y68.743 E0.83675
G1 X131.915 Y68.188 E0.01746
G1 X113.621 Y49.894 E0.81394
G1 X114.114 Y49.852 E0.01557
G1 X131.895 Y67.634 E0.79113
G1 X131.876 Y67.079 E0.01746
G1 X114.607 Y49.810 E0.76832
G1 X115.100 Y49.768 E0.01557
G1 X131.856 Y66.525 E0.74551
G1 X131.837 Y65.970 E0.01746
G1 X115.593 Y49.726 E0.72270
G1 X116.086 Y49.684 E0.01557
G1 X131.817 Y65.415 E0.69989
G1 X131.798 Y64.861 E0.01746
G1 X116.580 Y49.643 E0.67708
G1 X117.073 Y49.601 E0.01557
G1 X131.778 Y64.306 E0.65427
G1 X131.759 Y63.752 E0.01746
G1 X117.566 Y49.559 E0.63147
G1 X118.059 Y49.517 E0.01557
G1 X131.739 Y63.197 E0.60866
G1 X131.720 Y62.642 E0.01746
G1 X118.552 Y49.475 E0.58585
G1 X119.045 Y49.433 E0.01557
G1 X131.037 Y61.425 E0.53354
G1 X130.958 Y60.985 E0.01405
G1 X131.023 Y60.875 E0.00403
G1 X119.539 Y49.391 E0.51094
G1 X120.032 Y49.349 E0.01557
G1 X131.039 Y60.357 E0.48974
G1 X130.898 Y60.049 E0.01066
G1 X130.944 Y59.726 E0.01026
G1 X120.525 Y49.307 E0.46355
G1 X121.018 Y49.265 E0.01557
G1 X131.011 Y59.258 E0.44459
G1 X131.066 Y58.871 E0.01229
G1 X131.136 Y58.848 E0.00232
G1 X121.511 Y49.223 E0.42821
G1 X122.004 Y49.181 E0.01557
G1 X131.462 Y58.639 E0.42078
G1 X131.449 Y58.091 E0.01725
G1 X122.497 Y49.139 E0.39826
G1 X122.991 Y49.098 E0.01557
G1 X131.436 Y57.543 E0.37574
G1 X131.423 Y56.994 E0.01725
G1 X123.484 Y49.056 E0.35321
G1 X123.977 Y49.014 E0.01557
G1 X131.409 Y56.446 E0.33069
G1 X131.396 Y55.898 E0.01725
G1 X124.470 Y48.972 E0.30816
G1 X124.963 Y48.930 E0.01557
G1 X131.383 Y55.350 E0.28564
G1 X131.370 Y54.802 E0.01725
G1 X125.456 Y48.888 E0.26311
G1 X125.950 Y48.846 E0.01557
G1 X131.357 Y54.254 E0.24059
G1 X131.344 Y53.705 E0.01725
G1 X126.443 Y48.804 E0.21807
G1 X126.936 Y48.762 E0.01557
G1 X131.331 Y53.157 E0.19554
G1 X131.318 Y52.609 E0.01725
G1 X127.429 Y48.720 E0.17302
