; generated by PrusaSlicer 2.2.0+win64 on 2020-08-18 at 18:24:46 UTC

; 

; external perimeters extrusion width = 0.45mm
; perimeters extrusion width = 0.45mm
; infill extrusion width = 0.45mm
; solid infill extrusion width = 0.45mm
; top infill extrusion width = 0.40mm
; support material extrusion width = 0.35mm
; first layer extrusion width = 0.42mm

; external perimeters extrusion width = 0.45mm
; perimeters extrusion width = 0.45mm
; infill extrusion width = 0.45mm
; solid infill extrusion width = 0.45mm
; top infill extrusion width = 0.40mm
; support material extrusion width = 0.35mm
; first layer extrusion width = 0.42mm

M73 P0 R40
M201 X9000 Y9000 Z500 E10000 ; sets maximum accelerations, mm/sec^2
M203 X500 Y500 Z12 E120 ; sets maximum feedrates, mm/sec
M204 P2000 R1500 T2000 ; sets acceleration (P, T) and retract acceleration (R), mm/sec^2
M205 X10.00 Y10.00 Z0.20 E4.50 ; sets the jerk limits, mm/sec
M205 S0 T0 ; sets the minimum extruding and travel feed rate, mm/sec
M107
M862.3 P "MK2.5SMMU2S" ; printer model check
M862.1 P0.4 ; nozzle diameter check
M115 U3.9.0 ; tell printer latest fw version
G90 ; use absolute coordinates
M83 ; extruder relative mode
M104 S215 ; set extruder temp
M140 S60 ; set bed temp
M190 S60 ; wait for bed temp
M109 S215 ; wait for extruder temp
G28 W ; home all without mesh bed level
G80 ; mesh bed leveling

; Send the filament type to the MMU2.0 unit.
; E stands for extruder number, F stands for filament type (0: default; 1:flex; 2: PVA)
M403 E0 F0
M403 E1 F0
M403 E2 F0
M403 E3 F0
M403 E4 F0


;go outside print area
G1 Y-3.0 F1000.0
G1 Z0.4 F1000.0
; select extruder
T0
; initial load
G1 X55.0 E29.0 F1073.0
M73 P0 R40
G1 X5.0 E29.0 F1800.0
G1 X55.0 E8.0 F2000.0
G1 Z0.3 F1000.0
G92 E0.0
G1 X240.0 E25.0 F2200.0
G1 Y-2.0 F1000.0
G1 X55.0 E25 F1400.0
G1 Z0.20 F1000.0
G1 X5.0 E4.0 F1000.0
G92 E0.0

G92 E0.0
G21 ; set units to millimeters
G90 ; use absolute coordinates
M83 ; use relative distances for extrusion
T0
M900 K0.06 ; Filament gcode LA 1.5
M900 K30 ; Filament gcode LA 1.0
G1 Z0.200 F10800.000
;BEFORE_LAYER_CHANGE
G92 E0.0
;0.2


G1 E-0.80000 F2100.00000
G1 Z0.800 F10800.000
G1 Z0.200
;AFTER_LAYER_CHANGE
;0.2
G1 E-2.20000 F2100.00000
G1 Z0.800 F10800.000
G1 X148.697 Y120.140
G1 Z0.200
G1 E3.00000 F2100.00000
;-------------------------------------
; CP WIPE TOWER FIRST LAYER BRIM START
G1  X148.697 Y134.200  E0.8016 F2400
G1  X146.154 Y134.657   F7000
G1  Y119.683  E0.6260 F2100
G1  X85.240  E2.5466
G1  Y134.657  E0.6260
G1  X146.154  E2.5466
G1  X146.611 Y135.114   F7000
G1  Y119.226  E0.6642 F2100
G1  X84.783  E2.5849
G1  Y135.114  E0.6642
G1  X146.611  E2.5849
G1  X147.068 Y135.571   F7000
G1  Y118.769  E0.7025 F2100
G1  X84.326  E2.6231
G1  Y135.571  E0.7025
G1  X147.068  E2.6231
G1  X147.525 Y136.028   F7000
G1  Y118.312  E0.7407 F2100
G1  X83.869  E2.6613
G1  Y136.028  E0.7407
G1  X147.525  E2.6613
G1  X145.697 Y134.200   F7000
G1  X85.697 
G1  X145.697 
; CP WIPE TOWER FIRST LAYER BRIM END
;-----------------------------------
G1  X145.197 Y120.640   F7200
;--------------------
; CP EMPTY GRID START
; layer #1
G1  X145.697 
G1  Y120.140 
G1  Y134.200  E0.5344 F1450
G1  X85.697  E2.2804
G1  Y120.140  E0.5344
G1  X145.697  E2.2804
G1  X145.197 
G1  Y120.640 
G1  Y133.700  E0.4964
G1  X86.197  E2.2424
G1  Y120.640  E0.4964
G1  X145.197  E2.2424
G1  Y133.700 
G1  X144.697 Y133.177   E0.0275
G1  X86.697  E2.2044
G1  Y132.653  E0.0199
G1  X144.697  E2.2044
G1  Y132.130  E0.0199
G1  X86.697  E2.2044
M73 P3 R39
G1  Y131.607  E0.0199
G1  X144.697  E2.2044
G1  Y131.083  E0.0199
G1  X86.697  E2.2044
G1  Y130.560  E0.0199
G1  X144.697  E2.2044
G1  Y130.037  E0.0199
G1  X86.697  E2.2044
G1  Y129.513  E0.0199
G1  X144.697  E2.2044
G1  Y128.990  E0.0199
G1  X86.697  E2.2044
G1  Y128.467  E0.0199
G1  X144.697  E2.2044
G1  Y127.943  E0.0199
G1  X86.697  E2.2044
G1  Y127.420  E0.0199
G1  X144.697  E2.2044
G1  Y126.897  E0.0199
G1  X86.697  E2.2044
G1  Y126.373  E0.0199
G1  X144.697  E2.2044
G1  Y125.850  E0.0199
G1  X86.697  E2.2044
G1  Y125.327  E0.0199
G1  X144.697  E2.2044
G1  Y124.803  E0.0199
G1  X86.697  E2.2044
G1  Y124.280  E0.0199
G1  X144.697  E2.2044
G1  Y123.757  E0.0199
G1  X86.697  E2.2044
G1  Y123.233  E0.0199
G1  X144.697  E2.2044
G1  Y122.710  E0.0199
G1  X86.697  E2.2044
G1  Y122.187  E0.0199
G1  X144.697  E2.2044
G1  Y121.663  E0.0199
G1  X86.697  E2.2044
G1  Y121.140  E0.0199
G1  X144.697  E2.2044
G1  X86.697 
; CP EMPTY GRID END
;------------------







G1 F8640.000
G1 X83.406 Y121.140 E-0.76000
G1 E-0.04000 F2100.00000
G1 Z0.800 F10800.000
G1 X81.367 Y117.389
G1 Z0.200
G1 E0.80000 F2100.00000
M204 S1000
G1 F1200.000
G1 X102.288 Y73.013 E1.53823
G1 X102.915 Y72.279 E0.03028
G1 X103.353 Y71.927 E0.01763
G1 X104.173 Y71.472 E0.02939
G1 X105.170 Y71.218 E0.03227
G1 X127.560 Y69.319 E0.70455
G1 X160.472 Y69.709 E1.03198
G1 X161.624 Y69.825 E0.03633
G1 X162.716 Y70.249 E0.03674
G1 X163.224 Y70.563 E0.01870
G1 X164.086 Y71.354 E0.03668
G1 X164.842 Y72.647 E0.04697
G1 X165.144 Y74.072 E0.04566
G1 X166.671 Y111.114 E1.16242
M73 P5 R38
G1 X166.456 Y112.919 E0.05699
G1 X165.704 Y114.520 E0.05548
G1 X149.684 Y137.645 E0.88203
G1 X149.121 Y138.202 E0.02484
G1 X148.406 Y138.543 E0.02484
G1 X147.759 Y138.634 E0.02048
G1 X83.629 Y138.634 E2.01074
G1 X82.954 Y138.532 E0.02142
G1 X82.338 Y138.245 E0.02130
G1 X81.910 Y137.886 E0.01752
G1 X81.577 Y137.437 E0.01752
G1 X81.359 Y136.923 E0.01752
G1 X81.266 Y136.368 E0.01763
G1 X81.264 Y118.072 E0.57368
G1 X81.358 Y117.448 E0.01978
G1 F8640.000
G1 X82.761 Y114.470 E-0.76000
G1 E-0.04000 F2100.00000
G1 Z0.800 F10800.000
G1 X156.633 Y113.684
G1 Z0.200
G1 E0.80000 F2100.00000
G1 F1200.000
G1 X150.347 Y113.007 E0.19823
G1 X145.011 Y113.183 E0.16741
G1 X139.762 Y112.937 E0.16477
G1 X139.237 Y112.830 E0.01679
G1 X138.795 Y112.586 E0.01583
G1 X138.438 Y112.220 E0.01603
G1 X138.206 Y111.772 E0.01583
G1 X138.118 Y111.277 E0.01574
G1 X138.477 Y107.365 E0.12319
G1 X138.525 Y100.917 E0.20216
G1 X138.257 Y99.358 E0.04962
G1 X138.497 Y86.820 E0.39319
G1 X138.993 Y85.679 E0.03899
G1 X137.740 Y85.203 E0.04202
G1 X137.635 Y85.129 E0.00403
G1 X137.570 Y85.014 E0.00415
G1 X137.559 Y84.946 E0.00216
G1 X137.372 Y75.674 E0.29078
G1 X137.420 Y75.321 E0.01115
G1 X137.556 Y75.030 E0.01007
G1 X137.774 Y74.788 E0.01023
G1 X138.049 Y74.622 E0.01007
G1 X138.394 Y74.537 E0.01115
G1 X160.344 Y72.671 E0.69070
G1 X160.897 Y72.712 E0.01739
G1 X161.420 Y72.920 E0.01763
G1 X161.809 Y73.263 E0.01626
G1 X162.071 Y73.721 E0.01655
G1 X162.186 Y74.291 E0.01822
G1 X162.403 Y83.367 E0.28466
G1 X161.972 Y83.511 E0.01425
G1 X161.841 Y84.434 E0.02921
G1 X162.084 Y84.963 E0.01825
G1 X162.088 Y85.156 E0.00608
G1 X161.906 Y85.466 E0.01125
G1 X162.007 Y86.021 E0.01769
G1 X162.649 Y86.916 E0.03453
G1 X163.099 Y99.722 E0.40179
G1 X163.094 Y100.091 E0.01155
G1 X163.001 Y100.410 E0.01044
G1 X162.826 Y100.769 E0.01253
G1 X162.302 Y101.343 E0.02436
G1 X162.817 Y103.100 E0.05740
G1 X163.075 Y105.540 E0.07693
G1 X163.559 Y108.397 E0.09085
G1 X163.706 Y111.185 E0.08755
G1 X163.598 Y112.105 E0.02904
G1 X163.230 Y112.872 E0.02667
G1 X162.636 Y113.463 E0.02627
G1 X161.867 Y113.826 E0.02667
G1 X160.946 Y113.930 E0.02905
G1 X156.693 Y113.687 E0.13356
G1 X156.602 Y114.060 F10800.000
G1 F1200.000
G1 X150.333 Y113.385 E0.19770
G1 X145.008 Y113.561 E0.16705
G1 X139.715 Y113.312 E0.16616
G1 X139.105 Y113.188 E0.01950
G1 X138.564 Y112.889 E0.01938
G1 X138.129 Y112.443 E0.01954
G1 X137.845 Y111.894 E0.01938
G1 X137.738 Y111.293 E0.01913
G1 X138.100 Y107.346 E0.12429
G1 X138.148 Y100.948 E0.20061
G1 X137.879 Y99.386 E0.04968
G1 X138.122 Y86.738 E0.39665
G1 X138.490 Y85.891 E0.02894
G1 X137.582 Y85.546 E0.03045
G1 X137.459 Y85.479 E0.00440
G1 X137.350 Y85.380 E0.00460
G1 X137.261 Y85.254 E0.00485
G1 X137.205 Y85.118 E0.00460
G1 X137.182 Y84.980 E0.00440
G1 X136.995 Y75.652 E0.29251
G1 X137.054 Y75.214 E0.01387
G1 X137.238 Y74.820 E0.01364
G1 X137.531 Y74.494 E0.01375
G1 X137.904 Y74.269 E0.01364
G1 X138.333 Y74.164 E0.01387
G1 X160.342 Y72.293 E0.69256
G1 X160.983 Y72.340 E0.02015
G1 X161.620 Y72.594 E0.02151
G1 X162.105 Y73.022 E0.02025
G1 X162.429 Y73.586 E0.02042
G1 X162.562 Y74.249 E0.02118
G1 X162.787 Y83.636 E0.29442
G1 X162.313 Y83.795 E0.01568
G1 X162.230 Y84.377 E0.01843
G1 X162.459 Y84.876 E0.01723
G1 X162.467 Y85.255 E0.01190
G1 X162.302 Y85.536 E0.01022
G1 X162.362 Y85.870 E0.01063
G1 X163.022 Y86.788 E0.03545
G1 X163.476 Y99.718 E0.40565
G1 X163.471 Y100.147 E0.01344
G1 X163.354 Y100.547 E0.01306
G1 X163.141 Y100.984 E0.01524
G1 X162.723 Y101.441 E0.01940
G1 X163.188 Y103.026 E0.05182
G1 X163.449 Y105.489 E0.07763
G1 X163.934 Y108.355 E0.09116
G1 X164.085 Y111.198 E0.08924
G1 X163.965 Y112.212 E0.03201
G1 X163.542 Y113.094 E0.03067
G1 X162.856 Y113.776 E0.03034
G1 X161.971 Y114.194 E0.03067
G1 X160.956 Y114.308 E0.03202
G1 X156.662 Y114.063 E0.13486
G1 X156.431 Y113.699 F10800.000
G1 F8640.000
G1 X153.390 Y113.712 E-0.76000
G1 E-0.04000 F2100.00000
G1 Z0.800 F10800.000
G1 X138.308 Y111.698
G1 Z0.200
G1 E0.80000 F2100.00000
G1 F1200.000
G1 X138.969 Y112.359 E0.02941
G1 X139.336 Y112.561 E0.01318
G1 X139.801 Y112.656 E0.01493
G1 X138.404 Y111.259 E0.06215
G1 X138.449 Y110.769 E0.01548
G1 X140.362 Y112.682 E0.08513
G1 X140.924 Y112.709 E0.01768
G1 X138.494 Y110.279 E0.10810
G1 X138.539 Y109.789 E0.01548
G1 X141.485 Y112.735 E0.13108
G1 X142.046 Y112.761 E0.01768
G1 X138.584 Y109.299 E0.15406
G1 X138.629 Y108.808 E0.01548
G1 X142.608 Y112.787 E0.17703
G1 X143.169 Y112.814 E0.01768
G1 X138.674 Y108.318 E0.20001
G1 X138.719 Y107.828 E0.01548
G1 X143.730 Y112.840 E0.22299
G1 X144.292 Y112.866 E0.01768
G1 X138.760 Y107.335 E0.24611
G1 X138.764 Y106.804 E0.01671
G1 X144.853 Y112.893 E0.27091
G1 X145.384 Y112.888 E0.01668
G1 X138.768 Y106.272 E0.29433
G1 X138.772 Y105.741 E0.01671
G1 X145.901 Y112.871 E0.31720
G1 X146.419 Y112.854 E0.01630
G1 X138.776 Y105.210 E0.34007
G1 X138.780 Y104.679 E0.01671
G1 X146.937 Y112.837 E0.36294
G1 X147.455 Y112.819 E0.01630
G1 X138.784 Y104.148 E0.38580
G1 X138.788 Y103.617 E0.01671
G1 X147.973 Y112.802 E0.40867
G1 X148.491 Y112.785 E0.01630
G1 X138.792 Y103.086 E0.43154
G1 X138.796 Y102.555 E0.01671
G1 X149.009 Y112.768 E0.45441
G1 X149.527 Y112.751 E0.01630
G1 X138.800 Y102.024 E0.47728
G1 X138.804 Y101.493 E0.01671
G1 X150.045 Y112.734 E0.50014
G1 X150.358 Y112.724 E0.00984
G1 X150.595 Y112.749 E0.00752
G1 X138.808 Y100.961 E0.52445
G1 X138.711 Y100.330 E0.02010
G1 X151.195 Y112.814 E0.55543
G1 X151.795 Y112.878 E0.01898
G1 X138.600 Y99.684 E0.58705
G1 X138.540 Y99.336 E0.01110
G1 X138.545 Y99.093 E0.00763
G1 X152.394 Y112.943 E0.61618
G1 X152.994 Y113.008 E0.01898
G1 X138.555 Y98.568 E0.64242
G1 X138.565 Y98.043 E0.01652
G1 X153.594 Y113.072 E0.66865
G1 X154.193 Y113.137 E0.01898
G1 X138.575 Y97.518 E0.69488
G1 X138.585 Y96.993 E0.01652
G1 X154.793 Y113.201 E0.72111
G1 X155.393 Y113.266 E0.01898
G1 X138.595 Y96.468 E0.74735
G1 X138.605 Y95.943 E0.01652
G1 X155.992 Y113.331 E0.77358
G1 X156.592 Y113.395 E0.01898
G1 X138.615 Y95.418 E0.79981
G1 X138.625 Y94.893 E0.01652
G1 X157.163 Y113.431 E0.82476
G1 X157.730 Y113.463 E0.01788
G1 X138.635 Y94.368 E0.84956
G1 X138.646 Y93.843 E0.01652
G1 X158.298 Y113.496 E0.87436
G1 X158.865 Y113.528 E0.01788
G1 X138.656 Y93.318 E0.89915
G1 X138.666 Y92.793 E0.01652
G1 X159.433 Y113.560 E0.92395
G1 X160.000 Y113.592 E0.01788
G1 X138.676 Y92.268 E0.94875
G1 X138.686 Y91.743 E0.01652
G1 X160.567 Y113.625 E0.97354
G1 X160.938 Y113.646 E0.01169
G1 X161.105 Y113.627 E0.00527
G1 X138.696 Y91.218 E0.99701
G1 X138.706 Y90.693 E0.01652
G1 X161.586 Y113.573 E1.01797
G1 X161.789 Y113.550 E0.00642
G1 X161.999 Y113.451 E0.00732
G1 X138.716 Y90.168 E1.03589
G1 X138.726 Y89.643 E0.01652
G1 X162.362 Y113.279 E1.05161
G1 X162.471 Y113.228 E0.00379
G1 X162.659 Y113.041 E0.00834
G1 X138.736 Y89.118 E1.06437
M73 P8 R37
G1 X138.746 Y88.593 E0.01652
G1 X162.927 Y112.774 E1.07585
G1 X162.996 Y112.706 E0.00305
G1 X163.125 Y112.437 E0.00938
G1 X138.756 Y88.068 E1.08421
G1 X138.766 Y87.543 E0.01652
G1 X163.298 Y112.075 E1.09148
G1 X163.322 Y112.025 E0.00175
G1 X163.371 Y111.613 E0.01306
G1 X138.776 Y87.018 E1.09426
G1 X138.779 Y86.881 E0.00431
G1 X138.899 Y86.605 E0.00945
G1 X163.420 Y111.127 E1.09099
G1 X163.390 Y110.562 E0.01780
G1 X139.061 Y86.233 E1.08245
G1 X139.223 Y85.860 E0.01279
G1 X163.360 Y109.997 E1.07390
G1 X163.330 Y109.432 E0.01780
G1 X137.821 Y83.923 E1.13494
G1 X137.810 Y83.377 E0.01718
G1 X163.300 Y108.867 E1.13409
G1 X163.277 Y108.428 E0.01382
G1 X163.253 Y108.284 E0.00460
G1 X137.799 Y82.831 E1.13246
G1 X137.788 Y82.284 E0.01718
G1 X163.144 Y107.640 E1.12810
G1 X163.035 Y106.996 E0.02055
G1 X137.777 Y81.738 E1.12374
G1 X137.766 Y81.192 E0.01718
G1 X162.926 Y106.352 E1.11938
G1 X162.816 Y105.708 E0.02055
G1 X137.755 Y80.646 E1.11502
G1 X137.744 Y80.100 E0.01718
G1 X162.744 Y105.100 E1.11228
G1 X162.681 Y104.502 E0.01893
G1 X137.733 Y79.554 E1.10996
G1 X137.722 Y79.008 E0.01718
G1 X162.618 Y103.903 E1.10764
G1 X162.554 Y103.305 E0.01893
G1 X137.711 Y78.462 E1.10531
G1 X137.700 Y77.916 E0.01718
G1 X162.372 Y102.588 E1.09770
G1 X162.150 Y101.831 E0.02482
G1 X137.689 Y77.370 E1.08830
G1 X137.678 Y76.824 E0.01718
G1 X162.052 Y101.197 E1.08443
G1 X162.307 Y100.918 E0.01192
G1 X137.667 Y76.278 E1.09627
G1 X137.656 Y75.732 E0.01718
G1 X162.563 Y100.638 E1.10812
G1 X162.743 Y100.284 E0.01251
G1 X137.747 Y75.288 E1.11211
G1 X137.794 Y75.188 E0.00347
G1 X137.985 Y74.990 E0.00864
G1 X162.815 Y99.820 E1.10472
G1 X162.800 Y99.271 E0.01730
G1 X138.365 Y74.835 E1.08716
G1 X138.847 Y74.783 E0.01526
G1 X162.781 Y98.716 E1.06484
G1 X162.761 Y98.161 E0.01746
G1 X139.341 Y74.741 E1.04203
G1 X139.834 Y74.699 E0.01557
G1 X162.742 Y97.607 E1.01922
G1 X162.722 Y97.052 E0.01746
G1 X140.327 Y74.657 E0.99641
G1 X140.820 Y74.615 E0.01557
G1 X162.703 Y96.498 E0.97360
G1 X162.683 Y95.943 E0.01746
G1 X141.313 Y74.573 E0.95079
G1 X141.806 Y74.531 E0.01557
G1 X162.664 Y95.388 E0.92798
G1 X162.644 Y94.834 E0.01746
G1 X142.299 Y74.489 E0.90517
G1 X142.793 Y74.447 E0.01557
G1 X162.625 Y94.279 E0.88237
M73 P10 R36
G1 X162.605 Y93.725 E0.01746
G1 X143.286 Y74.405 E0.85956
G1 X143.779 Y74.363 E0.01557
G1 X162.586 Y93.170 E0.83675
G1 X162.566 Y92.616 E0.01746
G1 X144.272 Y74.321 E0.81394
G1 X144.765 Y74.279 E0.01557
G1 X162.547 Y92.061 E0.79113
G1 X162.527 Y91.506 E0.01746
G1 X145.258 Y74.238 E0.76832
G1 X145.752 Y74.196 E0.01557
G1 X162.508 Y90.952 E0.74551
G1 X162.488 Y90.397 E0.01746
G1 X146.245 Y74.154 E0.72270
G1 X146.738 Y74.112 E0.01557
G1 X162.469 Y89.843 E0.69989
G1 X162.449 Y89.288 E0.01746
G1 X147.231 Y74.070 E0.67708
G1 X147.724 Y74.028 E0.01557
G1 X162.430 Y88.734 E0.65427
G1 X162.410 Y88.179 E0.01746
G1 X148.217 Y73.986 E0.63147
G1 X148.710 Y73.944 E0.01557
G1 X162.391 Y87.624 E0.60866
G1 X162.371 Y87.070 E0.01746
G1 X149.204 Y73.902 E0.58585
G1 X149.697 Y73.860 E0.01557
G1 X161.689 Y85.852 E0.53354
G1 X161.609 Y85.413 E0.01405
G1 X161.674 Y85.302 E0.00403
G1 X150.190 Y73.818 E0.51094
G1 X150.683 Y73.776 E0.01557
G1 X161.691 Y84.784 E0.48974
G1 X161.549 Y84.476 E0.01066
G1 X161.595 Y84.153 E0.01026
G1 X151.176 Y73.734 E0.46355
G1 X151.669 Y73.693 E0.01557
G1 X161.662 Y83.685 E0.44459
G1 X161.717 Y83.299 E0.01229
G1 X161.787 Y83.275 E0.00232
G1 X152.162 Y73.651 E0.42821
G1 X152.656 Y73.609 E0.01557
G1 X162.113 Y83.066 E0.42078
G1 X162.100 Y82.518 E0.01725
G1 X153.149 Y73.567 E0.39826
G1 X153.642 Y73.525 E0.01557
G1 X162.087 Y81.970 E0.37574
G1 X162.074 Y81.422 E0.01725
G1 X154.135 Y73.483 E0.35321
G1 X154.628 Y73.441 E0.01557
G1 X162.061 Y80.874 E0.33069
G1 X162.048 Y80.325 E0.01725
G1 X155.121 Y73.399 E0.30816
G1 X155.615 Y73.357 E0.01557
G1 X162.035 Y79.777 E0.28564
G1 X162.022 Y79.229 E0.01725
G1 X156.108 Y73.315 E0.26311
G1 X156.601 Y73.273 E0.01557
G1 X162.008 Y78.681 E0.24059
G1 X161.995 Y78.133 E0.01725
G1 X157.094 Y73.231 E0.21807
G1 X157.587 Y73.189 E0.01557
G1 X161.982 Y77.585 E0.19554
G1 X161.969 Y77.036 E0.01725
G1 X158.080 Y73.148 E0.17302
G1 X158.573 Y73.106 E0.01557
G1 X161.956 Y76.488 E0.15049
G1 X161.943 Y75.940 E0.01725
