; generated by PrusaSlicer 2.1.1+win64 on 2020-04-21 at 17:46:26 UTC

; 

; external perimeters extrusion width = 0.45mm
; perimeters extrusion width = 0.45mm
; infill extrusion width = 0.45mm
; solid infill extrusion width = 0.45mm
; top infill extrusion width = 0.40mm
; support material extrusion width = 0.35mm
; first layer extrusion width = 0.42mm

M73 P0 R25
M201 X9000 Y9000 Z500 E10000 ; sets maximum accelerations, mm/sec^2
M203 X500 Y500 Z12 E120 ; sets maximum feedrates, mm/sec
M204 P2000 R1500 T2000 ; sets acceleration (P, T) and retract acceleration (R), mm/sec^2
M205 X10.00 Y10.00 Z0.20 E2.50 ; sets the jerk limits, mm/sec
M205 S0 T0 ; sets the minimum extruding and travel feed rate, mm/sec
M107
M862.3 P "MK2.5SMMU2S" ; printer model check
M862.1 P0.4 ; nozzle diameter check
M115 U3.8.0 ; tell printer latest fw version
G90 ; use absolute coordinates
M83 ; extruder relative mode
M104 S215 ; set extruder temp
M140 S60 ; set bed temp
Tx
M190 S60 ; wait for bed temp
M109 S215 ; wait for extruder temp
G28 W ; home all without mesh bed level
G80 ; mesh bed leveling

G21 ; set units to millimeters

;go outside print area
G1 Y-3.0 F1000.0
G1 Z0.4 F1000.0
; select extruder
Tc
; purge line
G1 X55.0 F2000.0
G1 Z0.3 F1000.0
G92 E0.0
G1 X240.0 E25.0 F2200.0
M73 P0 R25
G1 Y-2.0 F1000.0
G1 X55.0 E25 F1400.0
G1 Z0.20 F1000.0
G1 X5.0 E4.0 F1000.0
G92 E0.0
G21 ; set units to millimeters
G90 ; use absolute coordinates
M83 ; use relative distances for extrusion
M900 K30 ; Filament gcode
;BEFORE_LAYER_CHANGE
G92 E0.0
;0.2


G1 E-0.80000 F2100.00000
G1 Z0.600 F10800.000
;AFTER_LAYER_CHANGE
;0.2
G1 X134.875 Y83.876
G1 Z0.200
G1 E0.80000 F2100.00000
M204 S1000
G1 F1200
G1 X135.573 Y84.328 E0.02608
G1 X141.312 Y90.070 E0.25452
G1 X141.669 Y90.598 E0.01998
G1 X141.859 Y91.210 E0.02010
G1 X140.905 Y121.874 E0.96193
G1 X140.682 Y125.038 E0.09944
G1 X140.572 Y125.551 E0.01646
G1 X140.372 Y125.977 E0.01475
G1 X140.086 Y126.351 E0.01475
G1 X134.093 Y132.344 E0.26576
G1 X133.630 Y132.692 E0.01817
G1 X133.091 Y132.907 E0.01817
G1 X132.537 Y132.972 E0.01749
G1 X129.217 Y132.872 E0.10415
G1 X117.738 Y131.277 E0.36338
G1 X116.989 Y130.839 E0.02721
G1 X112.516 Y126.610 E0.19301
G1 X109.519 Y123.365 E0.13849
G1 X109.117 Y122.678 E0.02496
G1 X108.987 Y121.962 E0.02281
G1 X108.988 Y112.078 E0.30993
G1 X109.570 Y108.640 E0.10932
G1 X119.647 Y89.249 E0.68518
G1 X120.231 Y88.383 E0.03276
G1 X120.864 Y87.670 E0.02990
G1 X121.700 Y86.953 E0.03453
G1 X122.514 Y86.430 E0.03031
G1 X123.412 Y86.006 E0.03116
G1 X124.258 Y85.731 E0.02787
G1 X130.690 Y84.102 E0.20806
G1 X134.059 Y83.717 E0.10630
G1 X134.816 Y83.865 E0.02420
G1 E-0.80000 F2100.00000
G1 Z0.800 F10800.000
G1 X130.216 Y103.263
G1 Z0.200
G1 E0.80000 F2100.00000
G1 F1200
G1 X122.641 Y110.838 E0.33592
G1 X123.174 Y111.372 E0.02365
G1 X130.630 Y103.916 E0.33060
G1 X131.163 Y104.449 E0.02365
G1 X123.707 Y111.905 E0.33060
G1 X123.807 Y112.004 E0.00442
G1 X122.176 Y113.636 E0.07234
G1 X122.609 Y114.069 E0.01923
G1 X133.328 Y103.351 E0.47527
G1 X133.861 Y103.884 E0.02365
G1 X123.142 Y114.603 E0.47527
G1 X123.676 Y115.136 E0.02365
G1 X134.394 Y104.418 E0.47527
G1 X134.927 Y104.951 E0.02365
G1 X124.209 Y115.669 E0.47527
G1 X124.742 Y116.203 E0.02365
G1 X135.461 Y105.484 E0.47527
G1 X135.994 Y106.017 E0.02365
G1 X125.156 Y116.856 E0.48059
G1 E-0.80000 F2100.00000
G1 Z0.800 F10800.000
G1 X125.061 Y126.549
G1 Z0.200
G1 E0.80000 F2100.00000
G1 F1200
G1 X131.735 Y119.875 E0.29594
G1 X130.669 Y119.875 E0.03344
G1 X124.648 Y125.896 E0.26697
G1 X124.114 Y125.363 E0.02365
G1 X129.602 Y119.875 E0.24333
G1 X128.889 Y119.875 E0.02235
G1 X128.687 Y119.786 E0.00694
G1 X128.657 Y119.754 E0.00137
G1 X123.581 Y124.830 E0.22507
G1 X123.048 Y124.296 E0.02365
G1 X128.147 Y119.197 E0.22612
G1 X127.638 Y118.640 E0.02367
G1 X122.515 Y123.763 E0.22717
G1 X122.176 Y123.424 E0.01503
G1 X123.807 Y121.793 E0.07234
G1 X123.613 Y121.598 E0.00861
G1 X127.474 Y117.737 E0.17121
G1 X127.474 Y116.671 E0.03344
G1 X123.079 Y121.065 E0.19486
G1 X122.546 Y120.532 E0.02365
G1 X127.474 Y115.604 E0.21851
G1 X127.474 Y115.200 E0.01267
G1 X127.554 Y115.007 E0.00656
G1 X128.702 Y113.858 E0.05092
G1 X128.895 Y113.778 E0.00656
G1 X129.300 Y113.778 E0.01269
G1 X136.527 Y106.551 E0.32046
G1 X137.061 Y107.084 E0.02365
G1 X130.367 Y113.778 E0.29682
G1 X131.433 Y113.778 E0.03344
G1 X137.594 Y107.617 E0.27317
G1 X138.127 Y108.150 E0.02365
G1 X132.359 Y113.919 E0.25578
G1 X132.892 Y114.452 E0.02365
G1 X138.660 Y108.684 E0.25578
G1 X138.718 Y108.742 E0.00257
G1 X137.087 Y110.373 E0.07234
G1 X137.562 Y110.848 E0.02107
G1 X133.425 Y114.986 E0.18345
G1 X133.526 Y115.200 E0.00743
G1 X133.526 Y115.951 E0.02356
G1 X138.096 Y111.382 E0.20262
G1 X138.629 Y111.915 E0.02365
G1 X133.526 Y117.018 E0.22627
G1 X133.526 Y118.084 E0.03344
G1 X137.531 Y114.080 E0.17758
G1 X138.064 Y114.613 E0.02365
G1 X125.714 Y126.963 E0.54761
G1 X126.247 Y127.496 E0.02365
G1 X138.597 Y115.146 E0.54761
G1 X138.718 Y115.267 E0.00537
G1 X135.456 Y118.530 E0.14467
G1 X135.868 Y118.942 E0.01828
G1 X126.781 Y128.029 E0.40294
G1 X127.314 Y128.562 E0.02365
G1 X136.401 Y119.475 E0.40294
G1 X136.934 Y120.009 E0.02365
G1 X127.847 Y129.096 E0.40294
G1 X128.381 Y129.629 E0.02365
G1 X137.468 Y120.542 E0.40294
G1 X138.001 Y121.075 E0.02365
G1 X128.914 Y130.162 E0.40294
G1 X129.447 Y130.695 E0.02365
G1 X138.534 Y121.608 E0.40294
G1 X138.718 Y121.793 E0.00817
G1 X137.087 Y123.424 E0.07234
G1 X137.436 Y123.773 E0.01548
G1 X131.612 Y129.597 E0.25826
G1 X132.145 Y130.131 E0.02365
G1 X137.969 Y124.306 E0.25826
G1 X138.503 Y124.840 E0.02365
G1 X132.558 Y130.784 E0.26358
G1 E-0.80000 F2100.00000
G1 Z0.800 F10800.000
G1 X130.500 Y118.762
G1 Z0.200
G1 E0.80000 F2100.00000
G1 F1200
G1 X129.259 Y118.762 E0.03893
G1 X128.587 Y118.028 E0.03119
G1 X128.587 Y115.547 E0.07778
G1 X129.243 Y114.891 E0.02910
G1 X131.757 Y114.891 E0.07881
G1 X132.413 Y115.548 E0.02910
G1 X132.413 Y118.028 E0.07778
G1 X131.741 Y118.762 E0.03119
G1 X130.560 Y118.762 E0.03703
G1 X130.500 Y119.139 F10800.000
G1 F1200
G1 X129.092 Y119.139 E0.04414
G1 X128.210 Y118.175 E0.04099
G1 X128.210 Y115.391 E0.08727
G1 X129.087 Y114.514 E0.03890
G1 X131.913 Y114.514 E0.08861
G1 X132.790 Y115.391 E0.03890
G1 X132.790 Y118.175 E0.08727
G1 X131.907 Y119.139 E0.04099
G1 X130.560 Y119.139 E0.04224
G1 X130.256 Y118.822 F10800.000
G1 E-0.80000 F2100.00000
G1 Z0.800 F10800.000
G1 X128.700 Y117.791
G1 Z0.200
G1 E0.80000 F2100.00000
G1 F1200
G1 X129.389 Y118.479 E0.03175
G1 X129.943 Y118.479 E0.01808
G1 X128.870 Y117.406 E0.04950
G1 X128.870 Y116.851 E0.01808
G1 X130.498 Y118.479 E0.07507
G1 X131.052 Y118.479 E0.01808
G1 X128.870 Y116.297 E0.10065
G1 X128.870 Y115.742 E0.01808
G1 X131.617 Y118.479 E0.12645
G1 X131.877 Y118.195 E0.01257
G1 X129.108 Y115.426 E0.12768
G1 X129.360 Y115.174 E0.01163
G1 X129.411 Y115.174 E0.00163
G1 X132.130 Y117.893 E0.12541
G1 X132.130 Y117.339 E0.01808
G1 X129.965 Y115.174 E0.09983
G1 X130.520 Y115.174 E0.01808
G1 X132.130 Y116.784 E0.07426
G1 X132.130 Y116.230 E0.01808
G1 X131.074 Y115.174 E0.04869
G1 X131.629 Y115.174 E0.01808
G1 X132.300 Y115.845 E0.03094
G1 E-0.80000 F2100.00000
G1 Z0.800 F10800.000
G1 X121.558 Y129.295
G1 Z0.200
G1 E0.80000 F2100.00000
G1 F1200
G1 X127.503 Y123.351 E0.26358
G1 X126.969 Y122.817 E0.02365
G1 X121.145 Y128.642 E0.25826
G1 X120.612 Y128.109 E0.02365
G1 X126.436 Y122.284 E0.25826
G1 X126.087 Y121.935 E0.01548
G1 X127.718 Y120.304 E0.07234
G1 X127.534 Y120.120 E0.00817
G1 X118.447 Y129.207 E0.40294
G1 X117.914 Y128.673 E0.02365
G1 X127.001 Y119.586 E0.40294
G1 X126.468 Y119.053 E0.02365
G1 X117.381 Y128.140 E0.40294
G1 X116.847 Y127.607 E0.02365
G1 X125.934 Y118.520 E0.40294
G1 X125.401 Y117.987 E0.02365
G1 X116.314 Y127.074 E0.40294
G1 X115.781 Y126.540 E0.02365
G1 X124.868 Y117.453 E0.40294
G1 X124.456 Y117.041 E0.01828
G1 X127.718 Y113.778 E0.14467
G1 X127.597 Y113.657 E0.00537
G1 X115.247 Y126.007 E0.54761
G1 X114.714 Y125.474 E0.02365
G1 X127.064 Y113.124 E0.54761
G1 X126.531 Y112.591 E0.02365
G1 X122.526 Y116.595 E0.17758
G1 X122.526 Y115.529 E0.03344
G1 X127.629 Y110.426 E0.22627
G1 X127.096 Y109.893 E0.02365
G1 X122.526 Y114.462 E0.20262
G1 X122.526 Y113.711 E0.02356
G1 X122.425 Y113.497 E0.00743
G1 X126.562 Y109.360 E0.18345
G1 X126.087 Y108.884 E0.02107
G1 X127.718 Y107.253 E0.07234
G1 X127.660 Y107.195 E0.00257
G1 X121.892 Y112.963 E0.25578
G1 X121.359 Y112.430 E0.02365
G1 X127.127 Y106.662 E0.25578
G1 X126.594 Y106.128 E0.02365
G1 X120.433 Y112.289 E0.27317
G1 X119.367 Y112.289 E0.03344
G1 X126.061 Y105.595 E0.29682
G1 X125.527 Y105.062 E0.02365
G1 X118.300 Y112.289 E0.32046
G1 X117.895 Y112.289 E0.01269
G1 X117.702 Y112.369 E0.00656
G1 X116.554 Y113.518 E0.05092
G1 X116.474 Y113.711 E0.00656
G1 X116.474 Y114.115 E0.01267
G1 X111.546 Y119.043 E0.21851
G1 X112.079 Y119.576 E0.02365
G1 X116.474 Y115.182 E0.19486
G1 X116.474 Y116.248 E0.03344
G1 X112.613 Y120.110 E0.17121
G1 X112.807 Y120.304 E0.00861
G1 X111.176 Y121.935 E0.07234
G1 X111.515 Y122.274 E0.01503
G1 X116.638 Y117.151 E0.22717
M73 P4 R24
G1 X117.147 Y117.708 E0.02367
G1 X112.048 Y122.807 E0.22612
G1 X112.581 Y123.341 E0.02365
G1 X117.657 Y118.265 E0.22507
G1 X117.687 Y118.297 E0.00137
G1 X117.889 Y118.386 E0.00694
G1 X118.602 Y118.386 E0.02235
G1 X113.114 Y123.874 E0.24333
G1 X113.648 Y124.407 E0.02365
G1 X119.668 Y118.386 E0.26697
G1 X120.735 Y118.386 E0.03344
G1 X114.061 Y125.061 E0.29594
G1 E-0.80000 F2100.00000
G1 Z0.800 F10800.000
G1 X114.156 Y115.367
G1 Z0.200
G1 E0.80000 F2100.00000
G1 F1200
G1 X124.994 Y104.529 E0.48059
G1 X124.461 Y103.995 E0.02365
G1 X113.742 Y114.714 E0.47527
G1 X113.209 Y114.180 E0.02365
G1 X123.927 Y103.462 E0.47527
G1 X123.394 Y102.929 E0.02365
G1 X112.676 Y113.647 E0.47527
G1 X112.142 Y113.114 E0.02365
G1 X122.861 Y102.396 E0.47527
G1 X122.328 Y101.862 E0.02365
G1 X111.609 Y112.581 E0.47527
G1 X111.176 Y112.147 E0.01923
G1 X112.807 Y110.516 E0.07234
G1 X112.707 Y110.416 E0.00442
G1 X120.163 Y102.960 E0.33060
G1 X119.630 Y102.427 E0.02365
G1 X112.174 Y109.883 E0.33060
G1 X111.641 Y109.350 E0.02365
G1 X119.216 Y101.774 E0.33592
G1 E-0.80000 F2100.00000
G1 Z0.800 F10800.000
G1 X119.500 Y117.273
G1 Z0.200
G1 E0.80000 F2100.00000
G1 F1200
G1 X118.259 Y117.273 E0.03893
G1 X117.587 Y116.539 E0.03119
G1 X117.587 Y114.059 E0.07778
G1 X118.243 Y113.402 E0.02910
G1 X120.757 Y113.402 E0.07881
G1 X121.413 Y114.059 E0.02910
G1 X121.413 Y116.539 E0.07778
G1 X120.741 Y117.273 E0.03119
G1 X119.560 Y117.273 E0.03703
G1 X119.500 Y117.650 F10800.000
G1 F1200
G1 X118.092 Y117.650 E0.04414
G1 X117.210 Y116.686 E0.04099
G1 X117.210 Y113.903 E0.08727
G1 X118.087 Y113.025 E0.03890
G1 X120.913 Y113.025 E0.08861
G1 X121.790 Y113.903 E0.03890
G1 X121.790 Y116.686 E0.08727
G1 X120.907 Y117.650 E0.04099
G1 X119.560 Y117.650 E0.04224
G1 X119.256 Y117.334 F10800.000
G1 E-0.80000 F2100.00000
G1 Z0.800 F10800.000
G1 X117.700 Y116.302
G1 Z0.200
G1 E0.80000 F2100.00000
G1 F1200
G1 X118.389 Y116.991 E0.03175
G1 X118.943 Y116.991 E0.01808
G1 X117.870 Y115.917 E0.04950
G1 X117.870 Y115.362 E0.01808
G1 X119.498 Y116.991 E0.07507
G1 X120.052 Y116.991 E0.01808
G1 X117.870 Y114.808 E0.10065
G1 X117.870 Y114.253 E0.01808
G1 X120.617 Y116.991 E0.12645
G1 X120.877 Y116.706 E0.01257
G1 X118.108 Y113.937 E0.12768
G1 X118.360 Y113.685 E0.01163
G1 X118.411 Y113.685 E0.00163
G1 X121.130 Y116.404 E0.12541
G1 X121.130 Y115.850 E0.01808
G1 X118.965 Y113.685 E0.09983
G1 X119.520 Y113.685 E0.01808
G1 X121.130 Y115.295 E0.07426
G1 X121.130 Y114.741 E0.01808
G1 X120.074 Y113.685 E0.04869
G1 X120.629 Y113.685 E0.01808
G1 X121.300 Y114.356 E0.03094
G1 E-0.80000 F2100.00000
G1 Z0.800 F10800.000
G1 X130.489 Y100.753
G1 Z0.200
G1 E0.80000 F2100.00000
G1 F1200
G1 X139.696 Y91.546 E0.40826
G1 X139.163 Y91.013 E0.02365
G1 X130.076 Y100.100 E0.40294
G1 X129.543 Y99.566 E0.02365
G1 X138.630 Y90.479 E0.40294
G1 X138.097 Y89.946 E0.02365
G1 X129.010 Y99.033 E0.40294
G1 X128.476 Y98.500 E0.02365
G1 X137.563 Y89.413 E0.40294
G1 X137.030 Y88.879 E0.02365
G1 X131.725 Y94.185 E0.23524
G1 X131.784 Y93.894 E0.00931
G1 X131.469 Y93.507 E0.01565
G1 X131.336 Y93.507 E0.00416
G1 X136.497 Y88.346 E0.22884
G1 X135.964 Y87.813 E0.02365
G1 X131.754 Y92.023 E0.18668
G1 X131.531 Y91.179 E0.02737
G1 X135.430 Y87.280 E0.17289
G1 X134.897 Y86.746 E0.02365
G1 X131.210 Y90.434 E0.16351
G1 X130.805 Y89.772 E0.02433
G1 X134.364 Y86.213 E0.15779
G1 X134.056 Y85.906 E0.01363
G1 X132.424 Y87.538 E0.07237
G1 X132.198 Y87.312 E0.01001
G1 X130.328 Y89.182 E0.08294
G1 X129.779 Y88.665 E0.02366
G1 X131.665 Y86.779 E0.08364
G1 X131.132 Y86.246 E0.02365
G1 X129.032 Y88.346 E0.09311
G1 E-0.80000 F2100.00000
G1 Z0.800 F10800.000
G1 X131.387 Y92.390
G1 Z0.200
G1 E0.80000 F2100.00000
G1 F1200
G1 X130.915 Y92.862 E0.02094
G1 E-0.80000 F2100.00000
G1 Z0.800 F10800.000
G1 X126.327 Y97.577
G1 Z0.200
G1 E0.80000 F2100.00000
G1 F1200
G1 X125.726 Y97.556 E0.01887
G1 X125.132 Y97.456 E0.01888
G1 X124.557 Y97.279 E0.01886
G1 X123.990 Y97.015 E0.01962
G1 X123.483 Y96.691 E0.01887
G1 X123.023 Y96.302 E0.01888
G1 X122.609 Y95.842 E0.01940
G1 X122.269 Y95.345 E0.01889
G1 X121.997 Y94.807 E0.01890
G1 X121.799 Y94.238 E0.01890
G1 X121.679 Y93.647 E0.01889
G1 X121.637 Y93.033 E0.01931
G1 X121.677 Y92.432 E0.01888
G1 X121.796 Y91.842 E0.01886
G1 X122.001 Y91.251 E0.01961
G1 X122.273 Y90.714 E0.01886
G1 X122.614 Y90.218 E0.01889
G1 X123.017 Y89.771 E0.01888
G1 X123.490 Y89.371 E0.01940
G1 X123.997 Y89.047 E0.01888
G1 X124.543 Y88.793 E0.01887
G1 X125.142 Y88.608 E0.01965
G1 X125.736 Y88.509 E0.01889
G1 X126.334 Y88.490 E0.01876
G1 X126.950 Y88.552 E0.01941
G1 X127.535 Y88.693 E0.01887
G1 X128.097 Y88.910 E0.01888
G1 X128.625 Y89.199 E0.01888
G1 X129.110 Y89.555 E0.01887
G1 X129.561 Y89.991 E0.01965
G1 X129.934 Y90.464 E0.01888
G1 X130.241 Y90.983 E0.01890
G1 X130.437 Y91.446 E0.01579
G1 X129.971 Y91.446 E0.01461
G1 X129.971 Y94.620 E0.09952
G1 X130.437 Y94.620 E0.01459
G1 X130.228 Y95.105 E0.01655
G1 X129.933 Y95.603 E0.01815
G1 X129.561 Y96.076 E0.01888
G1 X129.112 Y96.510 E0.01956
G1 X128.627 Y96.867 E0.01888
G1 X128.099 Y97.156 E0.01889
G1 X127.530 Y97.375 E0.01912
G1 X126.951 Y97.514 E0.01867
G1 X126.387 Y97.571 E0.01776
G1 X126.340 Y97.955 F10800.000
G1 F1200
G1 X125.688 Y97.932 E0.02046
G1 X125.045 Y97.824 E0.02045
G1 X124.422 Y97.631 E0.02044
G1 X123.808 Y97.346 E0.02122
G1 X123.258 Y96.995 E0.02046
G1 X122.760 Y96.573 E0.02046
G1 X122.312 Y96.076 E0.02099
G1 X121.943 Y95.537 E0.02047
G1 X121.649 Y94.954 E0.02047
G1 X121.435 Y94.338 E0.02047
G1 X121.304 Y93.698 E0.02047
G1 X121.259 Y93.033 E0.02090
G1 X121.302 Y92.382 E0.02046
G1 X121.431 Y91.743 E0.02045
G1 X121.653 Y91.103 E0.02121
G1 X121.948 Y90.522 E0.02045
G1 X122.317 Y89.984 E0.02046
G1 X122.754 Y89.499 E0.02046
G1 X123.265 Y89.067 E0.02099
G1 X123.816 Y88.716 E0.02047
G1 X124.407 Y88.440 E0.02046
G1 X125.055 Y88.240 E0.02125
G1 X125.699 Y88.133 E0.02047
G1 X126.347 Y88.112 E0.02034
G1 X127.014 Y88.180 E0.02099
G1 X127.648 Y88.332 E0.02045
G1 X128.256 Y88.567 E0.02045
G1 X128.829 Y88.880 E0.02046
G1 X129.354 Y89.266 E0.02046
G1 X129.841 Y89.737 E0.02124
G1 X130.245 Y90.250 E0.02047
G1 X130.578 Y90.812 E0.02047
G1 X130.833 Y91.413 E0.02046
G1 X130.944 Y91.823 E0.01334
G1 X130.349 Y91.823 E0.01868
G1 X130.349 Y94.243 E0.07588
G1 X130.944 Y94.243 E0.01868
G1 X130.832 Y94.655 E0.01338
G1 X130.565 Y95.276 E0.02122
G1 X130.245 Y95.817 E0.01969
G1 X129.841 Y96.329 E0.02046
G1 X129.356 Y96.798 E0.02116
G1 X128.830 Y97.185 E0.02047
G1 X128.258 Y97.499 E0.02047
G1 X127.642 Y97.736 E0.02069
G1 X127.014 Y97.886 E0.02025
G1 X126.400 Y97.949 E0.01935
G1 X126.129 Y97.615 F10800.000
G1 E-0.80000 F2100.00000
G1 Z0.800 F10800.000
G1 X124.044 Y96.916
G1 Z0.200
G1 E0.80000 F2100.00000
G1 F1200
G1 X122.316 Y95.187 E0.07863
G1 X121.922 Y94.246 F10800.000
G1 F1200
G1 X124.703 Y97.028 E0.12651
G1 X125.198 Y97.181 E0.01664
G1 X125.445 Y97.222 E0.00807
G1 X121.992 Y93.770 E0.15704
G1 X121.959 Y93.609 E0.00527
G1 X121.929 Y93.159 E0.01450
G1 X126.054 Y97.285 E0.18764
G1 X126.318 Y97.294 E0.00848
G1 X126.583 Y97.267 E0.00858
G1 X121.947 Y92.630 E0.21089
