; generated by PrusaSlicer 2.1.1+win64 on 2019-12-20 at 23:54:05 UTC

; 

; external perimeters extrusion width = 0.45mm
; perimeters extrusion width = 0.45mm
; infill extrusion width = 0.45mm
; solid infill extrusion width = 0.45mm
; top infill extrusion width = 0.40mm
; first layer extrusion width = 0.42mm

; external perimeters extrusion width = 0.45mm
; perimeters extrusion width = 0.45mm
; infill extrusion width = 0.45mm
; solid infill extrusion width = 0.45mm
; top infill extrusion width = 0.40mm
; first layer extrusion width = 0.42mm

M73 P0 R60
M201 X9000 Y9000 Z500 E10000 ; sets maximum accelerations, mm/sec^2
M203 X500 Y500 Z12 E120 ; sets maximum feedrates, mm/sec
M204 P2000 R1500 T2000 ; sets acceleration (P, T) and retract acceleration (R), mm/sec^2
M205 X10.00 Y10.00 Z0.20 E2.50 ; sets the jerk limits, mm/sec
M205 S0 T0 ; sets the minimum extruding and travel feed rate, mm/sec
M107
M862.3 P "MK2.5SMMU2S" ; printer model check
M862.1 P0.4 ; nozzle diameter check
M115 U3.8.1 ; tell printer latest fw version
G90 ; use absolute coordinates
M83 ; extruder relative mode
M104 S215 ; set extruder temp
M140 S60 ; set bed temp
M190 S60 ; wait for bed temp
M109 S215 ; wait for extruder temp
G28 W ; home all without mesh bed level
G80 ; mesh bed leveling

; Send the filament type to the MMU2.0 unit.
; E stands for extruder number, F stands for filament type (0: default; 1:flex; 2: PVA)
M403 E0 F0
M403 E1 F0
M403 E2 F0
M403 E3 F0
M403 E4 F0


;go outside print area
G1 Y-3.0 F1000.0
G1 Z0.4 F1000.0
; select extruder
T0
; initial load
G1 X55.0 E29.0 F1073.0
M73 P0 R60
G1 X5.0 E29.0 F1800.0
G1 X55.0 E8.0 F2000.0
G1 Z0.3 F1000.0
G92 E0.0
G1 X240.0 E25.0 F2200.0
G1 Y-2.0 F1000.0
G1 X55.0 E25 F1400.0
G1 Z0.20 F1000.0
G1 X5.0 E4.0 F1000.0
G92 E0.0

G92 E0.0
G21 ; set units to millimeters
G90 ; use absolute coordinates
M83 ; use relative distances for extrusion
T0
M900 K30 ; Filament gcode
G1 Z0.200 F10800.000
;BEFORE_LAYER_CHANGE
G92 E0.0
;0.2


G1 E-0.80000 F2100.00000
G1 Z0.800 F10800.000
G1 Z0.200
;AFTER_LAYER_CHANGE
;0.2
G1 E-2.20000 F2100.00000
G1 Z0.800 F10800.000
G1 X171.283 Y26.422
G1 Z0.200
G1 E3.00000 F2100.00000
;-------------------------------------
; CP WIPE TOWER FIRST LAYER BRIM START
G1  X171.283 Y40.482 E0.8016 F2400
G1  X168.740 Y40.939  F7000
G1  Y25.965 E0.6260 F2100
G1  X107.826 E2.5466
G1  Y40.939 E0.6260
G1  X168.740 E2.5466
G1  X169.197 Y41.396  F7000
G1  Y25.508 E0.6642 F2100
G1  X107.369 E2.5849
G1  Y41.396 E0.6642
G1  X169.197 E2.5849
G1  X169.654 Y41.853  F7000
G1  Y25.051 E0.7025 F2100
G1  X106.912 E2.6231
G1  Y41.853 E0.7025
G1  X169.654 E2.6231
G1  X170.111 Y42.310  F7000
G1  Y24.594 E0.7407 F2100
G1  X106.455 E2.6613
G1  Y42.310 E0.7407
G1  X170.111 E2.6613
G1  X168.283 Y40.482  F7000
G1  X108.283
G1  X168.283
; CP WIPE TOWER FIRST LAYER BRIM END
;-----------------------------------
G1  X167.783 Y26.922  F7200
;--------------------
; CP EMPTY GRID START
; layer #1
G1  X168.283
G1  Y26.422
G1  Y40.482 E0.5344 F1450
G1  X108.283 E2.2804
G1  Y26.422 E0.5344
G1  X168.283 E2.2804
G1  X167.783
G1  Y26.922
G1  Y39.982 E0.4964
G1  X108.783 E2.2424
G1  Y26.922 E0.4964
G1  X167.783 E2.2424
G1  Y39.982
G1  X167.283 Y39.459  E0.0275
G1  X109.283 E2.2044
G1  Y38.935 E0.0199
G1  X167.283 E2.2044
G1  Y38.412 E0.0199
G1  X109.283 E2.2044
M73 P2 R59
G1  Y37.889 E0.0199
G1  X167.283 E2.2044
G1  Y37.365 E0.0199
G1  X109.283 E2.2044
G1  Y36.842 E0.0199
G1  X167.283 E2.2044
G1  Y36.319 E0.0199
G1  X109.283 E2.2044
G1  Y35.795 E0.0199
G1  X167.283 E2.2044
G1  Y35.272 E0.0199
G1  X109.283 E2.2044
G1  Y34.749 E0.0199
G1  X167.283 E2.2044
G1  Y34.225 E0.0199
G1  X109.283 E2.2044
G1  Y33.702 E0.0199
G1  X167.283 E2.2044
G1  Y33.179 E0.0199
G1  X109.283 E2.2044
G1  Y32.655 E0.0199
G1  X167.283 E2.2044
G1  Y32.132 E0.0199
G1  X109.283 E2.2044
G1  Y31.609 E0.0199
G1  X167.283 E2.2044
G1  Y31.085 E0.0199
G1  X109.283 E2.2044
G1  Y30.562 E0.0199
G1  X167.283 E2.2044
G1  Y30.039 E0.0199
G1  X109.283 E2.2044
G1  Y29.515 E0.0199
G1  X167.283 E2.2044
G1  Y28.992 E0.0199
G1  X109.283 E2.2044
G1  Y28.469 E0.0199
G1  X167.283 E2.2044
G1  Y27.945 E0.0199
G1  X109.283 E2.2044
G1  Y27.422 E0.0199
G1  X167.283 E2.2044
G1  X109.283
; CP EMPTY GRID END
;------------------







G1 F8640
G1 X105.991 Y27.422 E-0.76000
G1 E-0.04000 F2100.00000
G1 Z0.800 F10800.000
G1 X86.182 Y66.285
G1 Z0.200
G1 E0.80000 F2100.00000
M204 S1000
G1 F1200
G1 X86.467 Y65.879 E0.01555
G1 X86.836 Y65.548 E0.01555
G1 X87.270 Y65.308 E0.01555
G1 X87.748 Y65.172 E0.01555
G1 X93.107 Y65.143 E0.16805
G1 X93.660 Y65.215 E0.01749
G1 X94.178 Y65.425 E0.01752
G1 X160.089 Y102.576 E2.37226
G1 X160.511 Y102.888 E0.01646
G1 X160.846 Y103.292 E0.01646
G1 X161.091 Y103.807 E0.01788
G1 X169.828 Y130.899 E0.89251
G1 X170.116 Y131.963 E0.03458
G1 X171.696 Y173.552 E1.30492
M73 P3 R58
G1 X171.689 Y183.760 E0.32007
G1 X171.590 Y184.250 E0.01567
G1 X171.384 Y184.705 E0.01567
G1 X171.079 Y185.101 E0.01567
G1 X170.693 Y185.418 E0.01567
G1 X170.130 Y185.676 E0.01942
G1 X169.514 Y185.766 E0.01953
G1 X111.500 Y185.766 E1.81896
G1 X110.698 Y185.611 E0.02563
G1 X110.267 Y185.380 E0.01532
G1 X109.898 Y185.060 E0.01532
G1 X75.764 Y147.617 E1.58862
G1 X75.514 Y147.082 E0.01851
G1 X75.416 Y146.500 E0.01851
G1 X75.415 Y136.379 E0.31732
G1 X76.914 Y95.675 E1.27712
G1 X77.026 Y94.627 E0.03304
G1 X86.163 Y66.342 E0.93200
G1 F8640
G1 X86.467 Y65.879 E-0.12783
G1 X86.836 Y65.548 E-0.11453
G1 X87.270 Y65.308 E-0.11453
G1 X87.748 Y65.172 E-0.11453
G1 X88.997 Y65.166 E-0.28860
G1 E-0.04000 F2100.00000
G1 Z0.800 F10800.000
G1 X116.513 Y169.677
G1 Z0.200
G1 E0.80000 F2100.00000
G1 F1200
G1 X115.984 Y169.625 E0.01666
G1 X115.476 Y169.471 E0.01666
G1 X115.007 Y169.220 E0.01666
G1 X114.596 Y168.883 E0.01666
G1 X114.259 Y168.472 E0.01666
G1 X114.009 Y168.004 E0.01666
G1 X113.854 Y167.495 E0.01666
G1 X113.802 Y166.966 E0.01666
G1 X113.854 Y166.437 E0.01666
G1 X114.009 Y165.929 E0.01666
G1 X114.259 Y165.460 E0.01666
G1 X114.596 Y165.049 E0.01666
G1 X115.007 Y164.712 E0.01666
G1 X115.477 Y164.461 E0.01669
G1 X116.010 Y164.305 E0.01742
G1 X116.513 Y164.255 E0.01586
G1 X117.042 Y164.307 E0.01666
G1 X117.551 Y164.462 E0.01666
G1 X118.019 Y164.712 E0.01666
G1 X118.430 Y165.049 E0.01666
G1 X118.767 Y165.460 E0.01666
G1 X119.018 Y165.929 E0.01666
G1 X119.172 Y166.437 E0.01666
G1 X119.224 Y166.966 E0.01666
G1 X119.172 Y167.495 E0.01666
G1 X119.018 Y168.004 E0.01666
G1 X118.767 Y168.472 E0.01666
G1 X118.430 Y168.883 E0.01666
G1 X118.019 Y169.220 E0.01666
G1 X117.551 Y169.471 E0.01666
G1 X117.042 Y169.625 E0.01666
G1 X116.573 Y169.671 E0.01478
G1 X116.313 Y170.024 F10800.000
G1 F8640
G1 X115.984 Y169.625 E-0.13633
G1 X115.476 Y169.471 E-0.12271
G1 X115.007 Y169.220 E-0.12271
G1 X114.596 Y168.883 E-0.12271
G1 X114.259 Y168.472 E-0.12271
G1 X114.009 Y168.004 E-0.12271
G1 X113.996 Y167.962 E-0.01010
G1 E-0.04000 F2100.00000
G1 Z0.800 F10800.000
G1 X116.505 Y161.162
G1 Z0.200
G1 E0.80000 F2100.00000
G1 F1200
G1 X115.976 Y161.110 E0.01666
G1 X115.468 Y160.956 E0.01666
G1 X114.999 Y160.705 E0.01666
G1 X114.588 Y160.368 E0.01666
G1 X114.251 Y159.958 E0.01666
G1 X114.001 Y159.489 E0.01666
G1 X113.846 Y158.980 E0.01666
G1 X113.794 Y158.451 E0.01666
G1 X113.846 Y157.922 E0.01666
G1 X114.001 Y157.414 E0.01666
G1 X114.251 Y156.945 E0.01666
G1 X114.588 Y156.534 E0.01666
G1 X114.999 Y156.197 E0.01666
G1 X115.469 Y155.946 E0.01669
G1 X116.002 Y155.790 E0.01742
G1 X116.505 Y155.740 E0.01586
G1 X117.034 Y155.792 E0.01666
G1 X117.543 Y155.947 E0.01666
G1 X118.011 Y156.197 E0.01666
G1 X118.422 Y156.534 E0.01666
G1 X118.759 Y156.945 E0.01666
G1 X119.010 Y157.414 E0.01666
G1 X119.164 Y157.922 E0.01666
G1 X119.216 Y158.451 E0.01666
G1 X119.164 Y158.980 E0.01666
G1 X119.010 Y159.489 E0.01666
G1 X118.759 Y159.958 E0.01666
G1 X118.422 Y160.368 E0.01666
G1 X118.011 Y160.705 E0.01666
G1 X117.543 Y160.956 E0.01666
G1 X117.034 Y161.110 E0.01666
G1 X116.565 Y161.156 E0.01478
G1 X116.305 Y161.509 F10800.000
G1 F8640
G1 X115.976 Y161.110 E-0.13633
G1 X115.468 Y160.956 E-0.12271
G1 X114.999 Y160.705 E-0.12271
G1 X114.588 Y160.368 E-0.12271
G1 X114.251 Y159.958 E-0.12272
G1 X114.001 Y159.489 E-0.12271
G1 X113.988 Y159.447 E-0.01010
G1 E-0.04000 F2100.00000
G1 Z0.800 F10800.000
G1 X116.505 Y152.647
G1 Z0.200
G1 E0.80000 F2100.00000
G1 F1200
G1 X115.976 Y152.595 E0.01666
G1 X115.468 Y152.441 E0.01666
G1 X114.999 Y152.191 E0.01666
G1 X114.588 Y151.853 E0.01666
G1 X114.251 Y151.443 E0.01666
G1 X114.001 Y150.974 E0.01666
G1 X113.846 Y150.465 E0.01666
G1 X113.794 Y149.936 E0.01666
G1 X113.846 Y149.408 E0.01666
G1 X114.001 Y148.899 E0.01666
G1 X114.251 Y148.430 E0.01666
G1 X114.588 Y148.019 E0.01666
G1 X114.999 Y147.682 E0.01666
G1 X115.469 Y147.431 E0.01669
G1 X116.002 Y147.275 E0.01742
G1 X116.505 Y147.225 E0.01586
G1 X117.034 Y147.277 E0.01666
G1 X117.543 Y147.432 E0.01666
G1 X118.011 Y147.682 E0.01666
G1 X118.422 Y148.019 E0.01666
G1 X118.759 Y148.430 E0.01666
G1 X119.010 Y148.899 E0.01666
G1 X119.164 Y149.408 E0.01666
G1 X119.216 Y149.936 E0.01666
G1 X119.164 Y150.465 E0.01666
G1 X119.010 Y150.974 E0.01666
G1 X118.759 Y151.443 E0.01666
G1 X118.422 Y151.853 E0.01666
G1 X118.011 Y152.191 E0.01666
G1 X117.543 Y152.441 E0.01666
G1 X117.034 Y152.595 E0.01666
G1 X116.565 Y152.642 E0.01478
G1 X116.305 Y152.994 F10800.000
G1 F8640
G1 X115.976 Y152.595 E-0.13633
G1 X115.468 Y152.441 E-0.12271
G1 X114.999 Y152.191 E-0.12271
G1 X114.588 Y151.853 E-0.12271
G1 X114.251 Y151.443 E-0.12271
G1 X114.001 Y150.974 E-0.12271
G1 X113.988 Y150.932 E-0.01010
G1 E-0.04000 F2100.00000
G1 Z0.800 F10800.000
G1 X116.505 Y144.132
G1 Z0.200
G1 E0.80000 F2100.00000
G1 F1200
G1 X115.976 Y144.080 E0.01666
G1 X115.468 Y143.926 E0.01666
G1 X114.999 Y143.676 E0.01666
G1 X114.588 Y143.338 E0.01666
G1 X114.251 Y142.928 E0.01666
G1 X114.001 Y142.459 E0.01666
G1 X113.846 Y141.950 E0.01666
G1 X113.794 Y141.421 E0.01666
G1 X113.846 Y140.893 E0.01666
G1 X114.001 Y140.384 E0.01666
G1 X114.251 Y139.915 E0.01666
G1 X114.588 Y139.504 E0.01666
G1 X114.999 Y139.167 E0.01666
G1 X115.469 Y138.916 E0.01669
G1 X116.002 Y138.760 E0.01742
G1 X116.505 Y138.710 E0.01586
G1 X117.034 Y138.763 E0.01666
G1 X117.543 Y138.917 E0.01666
G1 X118.011 Y139.167 E0.01666
G1 X118.422 Y139.504 E0.01666
G1 X118.759 Y139.915 E0.01666
G1 X119.010 Y140.384 E0.01666
G1 X119.164 Y140.893 E0.01666
G1 X119.216 Y141.421 E0.01666
G1 X119.164 Y141.950 E0.01666
G1 X119.010 Y142.459 E0.01666
G1 X118.759 Y142.928 E0.01666
G1 X118.422 Y143.338 E0.01666
G1 X118.011 Y143.676 E0.01666
G1 X117.543 Y143.926 E0.01666
G1 X117.034 Y144.080 E0.01666
G1 X116.565 Y144.127 E0.01478
G1 X116.305 Y144.479 F10800.000
G1 F8640
G1 X115.976 Y144.080 E-0.13633
G1 X115.468 Y143.926 E-0.12271
G1 X114.999 Y143.676 E-0.12271
G1 X114.588 Y143.338 E-0.12271
G1 X114.251 Y142.928 E-0.12271
G1 X114.001 Y142.459 E-0.12271
G1 X113.988 Y142.417 E-0.01010
G1 E-0.04000 F2100.00000
G1 Z0.800 F10800.000
G1 X116.505 Y135.618
G1 Z0.200
G1 E0.80000 F2100.00000
G1 F1200
G1 X115.976 Y135.565 E0.01666
G1 X115.468 Y135.411 E0.01666
G1 X114.999 Y135.161 E0.01666
G1 X114.588 Y134.823 E0.01666
G1 X114.251 Y134.413 E0.01666
G1 X114.001 Y133.944 E0.01666
G1 X113.846 Y133.435 E0.01666
G1 X113.794 Y132.906 E0.01666
G1 X113.846 Y132.378 E0.01666
G1 X114.001 Y131.869 E0.01666
G1 X114.251 Y131.400 E0.01666
G1 X114.588 Y130.990 E0.01666
G1 X114.999 Y130.652 E0.01666
G1 X115.469 Y130.401 E0.01669
G1 X116.002 Y130.245 E0.01742
G1 X116.505 Y130.195 E0.01586
G1 X117.034 Y130.248 E0.01666
G1 X117.543 Y130.402 E0.01666
G1 X118.011 Y130.652 E0.01666
G1 X118.422 Y130.990 E0.01666
G1 X118.759 Y131.400 E0.01666
G1 X119.010 Y131.869 E0.01666
G1 X119.164 Y132.378 E0.01666
G1 X119.216 Y132.906 E0.01666
G1 X119.164 Y133.435 E0.01666
G1 X119.010 Y133.944 E0.01666
G1 X118.759 Y134.413 E0.01666
G1 X118.422 Y134.823 E0.01666
G1 X118.011 Y135.161 E0.01666
G1 X117.543 Y135.411 E0.01666
G1 X117.034 Y135.565 E0.01666
G1 X116.565 Y135.612 E0.01478
G1 X116.305 Y135.964 F10800.000
G1 F8640
G1 X115.976 Y135.565 E-0.13633
G1 X115.468 Y135.411 E-0.12271
G1 X114.999 Y135.161 E-0.12271
G1 X114.588 Y134.823 E-0.12271
G1 X114.251 Y134.413 E-0.12271
G1 X114.001 Y133.944 E-0.12271
G1 X113.988 Y133.902 E-0.01010
G1 E-0.04000 F2100.00000
G1 Z0.800 F10800.000
G1 X124.508 Y182.991
G1 Z0.200
G1 E0.80000 F2100.00000
G1 F1200
G1 X112.095 Y182.991 E0.38920
G1 X112.095 Y174.165 E0.27673
G1 X122.595 Y174.165 E0.32922
G1 X122.595 Y167.379 E0.21276
G1 X119.562 Y167.379 E0.09508
G1 X119.603 Y166.966 E0.01301
G1 X119.562 Y166.553 E0.01301
G1 X122.595 Y166.553 E0.09508
G1 X122.595 Y158.864 E0.24109
G1 X119.555 Y158.864 E0.09532
G1 X119.595 Y158.451 E0.01301
G1 X119.555 Y158.038 E0.01301
G1 X122.595 Y158.038 E0.09532
G1 X122.595 Y150.349 E0.24109
G1 X119.555 Y150.349 E0.09532
G1 X119.595 Y149.936 E0.01301
G1 X119.555 Y149.523 E0.01301
G1 X122.595 Y149.523 E0.09532
G1 X122.595 Y141.834 E0.24109
G1 X119.555 Y141.834 E0.09532
G1 X119.595 Y141.421 E0.01301
G1 X119.555 Y141.009 E0.01301
G1 X122.595 Y141.009 E0.09532
G1 X122.595 Y133.319 E0.24109
G1 X119.555 Y133.319 E0.09532
G1 X119.595 Y132.906 E0.01301
G1 X119.555 Y132.494 E0.01301
G1 X122.595 Y132.494 E0.09532
G1 X122.595 Y105.066 E0.85997
G1 X126.421 Y105.066 E0.11996
G1 X126.421 Y132.494 E0.85997
G1 X129.461 Y132.494 E0.09532
G1 X129.420 Y132.906 E0.01301
G1 X129.461 Y133.319 E0.01301
G1 X126.421 Y133.319 E0.09532
G1 X126.421 Y141.009 E0.24109
G1 X129.461 Y141.009 E0.09532
G1 X129.420 Y141.421 E0.01301
G1 X129.461 Y141.834 E0.01301
G1 X126.421 Y141.834 E0.09532
G1 X126.421 Y149.523 E0.24109
G1 X129.461 Y149.523 E0.09532
G1 X129.420 Y149.936 E0.01301
G1 X129.461 Y150.349 E0.01301
G1 X126.421 Y150.349 E0.09532
G1 X126.421 Y158.038 E0.24109
G1 X129.461 Y158.038 E0.09532
G1 X129.420 Y158.451 E0.01301
G1 X129.461 Y158.864 E0.01301
G1 X126.421 Y158.864 E0.09532
G1 X126.421 Y166.553 E0.24109
G1 X129.453 Y166.553 E0.09508
G1 X129.412 Y166.966 E0.01301
G1 X129.453 Y167.379 E0.01301
G1 X126.421 Y167.379 E0.09508
G1 X126.421 Y174.165 E0.21276
G1 X136.921 Y174.165 E0.32922
G1 X136.921 Y182.991 E0.27673
G1 X124.568 Y182.991 E0.38732
G1 F8640
G1 X121.276 Y182.991 E-0.76000
G1 E-0.04000 F2100.00000
G1 Z0.800 F10800.000
G1 X132.510 Y135.618
G1 Z0.200
G1 E0.80000 F2100.00000
G1 F1200
G1 X131.981 Y135.565 E0.01666
G1 X131.473 Y135.411 E0.01666
G1 X131.004 Y135.161 E0.01666
G1 X130.593 Y134.823 E0.01666
G1 X130.256 Y134.413 E0.01666
G1 X130.005 Y133.944 E0.01666
G1 X129.851 Y133.435 E0.01666
G1 X129.799 Y132.906 E0.01666
G1 X129.851 Y132.378 E0.01666
G1 X130.005 Y131.869 E0.01666
G1 X130.256 Y131.400 E0.01666
G1 X130.593 Y130.990 E0.01666
G1 X131.004 Y130.652 E0.01666
G1 X131.473 Y130.402 E0.01666
G1 X131.981 Y130.248 E0.01666
G1 X132.485 Y130.198 E0.01586
G1 X133.038 Y130.247 E0.01742
G1 X133.547 Y130.402 E0.01669
G1 X134.016 Y130.652 E0.01666
G1 X134.427 Y130.990 E0.01666
G1 X134.764 Y131.400 E0.01666
G1 X135.015 Y131.869 E0.01666
G1 X135.169 Y132.378 E0.01666
G1 X135.221 Y132.906 E0.01666
G1 X135.169 Y133.435 E0.01666
G1 X135.015 Y133.944 E0.01666
G1 X134.764 Y134.413 E0.01666
G1 X134.427 Y134.823 E0.01666
G1 X134.016 Y135.161 E0.01666
G1 X133.547 Y135.411 E0.01666
G1 X133.039 Y135.565 E0.01666
G1 X132.570 Y135.612 E0.01478
G1 X132.310 Y135.964 F10800.000
G1 F8640
G1 X131.981 Y135.565 E-0.13633
G1 X131.473 Y135.411 E-0.12271
G1 X131.004 Y135.161 E-0.12271
G1 X130.593 Y134.823 E-0.12271
G1 X130.256 Y134.413 E-0.12271
G1 X130.005 Y133.944 E-0.12271
G1 X129.993 Y133.902 E-0.01010
G1 E-0.04000 F2100.00000
G1 Z0.800 F10800.000
G1 X132.510 Y144.132
G1 Z0.200
G1 E0.80000 F2100.00000
G1 F1200
G1 X131.981 Y144.080 E0.01666
G1 X131.473 Y143.926 E0.01666
G1 X131.004 Y143.676 E0.01666
G1 X130.593 Y143.338 E0.01666
G1 X130.256 Y142.928 E0.01666
G1 X130.005 Y142.459 E0.01666
G1 X129.851 Y141.950 E0.01666
G1 X129.799 Y141.421 E0.01666
G1 X129.851 Y140.893 E0.01666
G1 X130.005 Y140.384 E0.01666
G1 X130.256 Y139.915 E0.01666
G1 X130.593 Y139.504 E0.01666
G1 X131.004 Y139.167 E0.01666
G1 X131.473 Y138.917 E0.01666
G1 X131.981 Y138.763 E0.01666
G1 X132.485 Y138.713 E0.01586
