; generated by PrusaSlicer 2.1.1+win64 on 2020-05-19 at 16:39:34 UTC

; 

; external perimeters extrusion width = 0.45mm
; perimeters extrusion width = 0.45mm
; infill extrusion width = 0.45mm
; solid infill extrusion width = 0.45mm
; top infill extrusion width = 0.40mm
; first layer extrusion width = 0.42mm

M73 P0 R330
M201 X9000 Y9000 Z500 E10000 ; sets maximum accelerations, mm/sec^2
M203 X500 Y500 Z12 E120 ; sets maximum feedrates, mm/sec
M204 P2000 R1500 T2000 ; sets acceleration (P, T) and retract acceleration (R), mm/sec^2
M205 X10.00 Y10.00 Z0.20 E4.50 ; sets the jerk limits, mm/sec
M205 S0 T0 ; sets the minimum extruding and travel feed rate, mm/sec
M107
M862.3 P "MK2.5SMMU2S" ; printer model check
M862.1 P0.4 ; nozzle diameter check
M115 U3.8.1 ; tell printer latest fw version
G90 ; use absolute coordinates
M83 ; extruder relative mode
M104 S215 ; set extruder temp
M140 S60 ; set bed temp
Tx
M190 S60 ; wait for bed temp
M109 S215 ; wait for extruder temp
G28 W ; home all without mesh bed level
G80 ; mesh bed leveling

;go outside print area
G1 Y-3.0 F1000.0
G1 Z0.4 F1000.0
; select extruder
Tc
; purge line
G1 X55.0 F2000.0
G1 Z0.3 F1000.0
G92 E0.0
G1 X240.0 E25.0 F2200.0
M73 P0 R330
G1 Y-2.0 F1000.0
G1 X55.0 E25 F1400.0
G1 Z0.20 F1000.0
G1 X5.0 E4.0 F1000.0
G92 E0.0
G21 ; set units to millimeters
G90 ; use absolute coordinates
M83 ; use relative distances for extrusion
M900 K30 ; Filament gcode
;BEFORE_LAYER_CHANGE
G92 E0.0
;0.2


G1 E-0.80000 F2100.00000
G1 Z0.600 F10800.000
;AFTER_LAYER_CHANGE
;0.2
G1 X17.912 Y20.946
G1 Z0.200
G1 E0.80000 F2100.00000
M204 S1000
G1 F1200
G1 X18.776 Y20.765 E0.02766
G1 X182.082 Y20.739 E5.12035
G1 X226.486 Y21.586 E1.39251
G1 X227.135 Y21.719 E0.02078
G1 X227.711 Y22.039 E0.02066
G1 X228.167 Y22.515 E0.02066
G1 X228.460 Y23.105 E0.02066
G1 X236.077 Y100.924 E2.45162
G1 X236.147 Y186.033 E2.66853
G1 X235.991 Y186.832 E0.02552
G1 X235.551 Y187.521 E0.02563
G1 X234.836 Y188.025 E0.02743
G1 X233.984 Y188.209 E0.02732
G1 X174.467 Y188.267 E1.86611
G1 X26.132 Y188.292 E4.65094
G1 X25.326 Y188.136 E0.02574
G1 X24.637 Y187.695 E0.02563
G1 X24.175 Y187.069 E0.02439
G1 X23.962 Y186.321 E0.02439
G1 X16.664 Y108.052 E2.46472
G1 X16.595 Y22.941 E2.66860
G1 X16.751 Y22.142 E0.02552
G1 X17.191 Y21.453 E0.02563
G1 X17.863 Y20.980 E0.02577
G1 F8640
G1 X18.776 Y20.765 E-0.21646
G1 X21.130 Y20.765 E-0.54354
G1 E-0.04000 F2100.00000
G1 Z0.800 F10800.000
G1 X47.225 Y100.516
G1 Z0.200
G1 E0.80000 F2100.00000
G1 F1200
G1 X26.607 Y100.516 E0.64646
G1 X19.428 Y23.541 E2.42397
G1 X75.018 Y23.541 E1.74301
G1 X67.453 Y100.516 E2.42513
M73 P0 R329
G1 X47.285 Y100.516 E0.63237
G1 X47.225 Y100.893 F10800.000
G1 F1200
G1 X26.263 Y100.893 E0.65723
G1 X19.014 Y23.164 E2.44772
G1 X75.434 Y23.164 E1.76903
G1 X67.795 Y100.893 E2.44889
G1 X47.285 Y100.893 E0.64309
G1 X46.904 Y100.654 F10800.000
G1 F8640
G1 X43.993 Y100.893 E-0.76000
G1 E-0.04000 F2100.00000
G1 Z0.800 F10800.000
G1 X27.475 Y100.403
G1 Z0.200
G1 E0.80000 F2100.00000
G1 F1200
G1 X26.819 Y99.747 E0.02914
G1 X26.764 Y99.158 E0.01859
G1 X27.840 Y100.233 E0.04778
G1 X28.374 Y100.233 E0.01678
G1 X26.709 Y98.568 E0.07395
G1 X26.654 Y97.979 E0.01859
G1 X28.908 Y100.233 E0.10012
G1 X29.442 Y100.233 E0.01678
G1 X26.599 Y97.390 E0.12629
G1 X26.544 Y96.801 E0.01859
G1 X29.977 Y100.233 E0.15246
G1 X30.511 Y100.233 E0.01678
G1 X26.490 Y96.212 E0.17863
G1 X26.435 Y95.622 E0.01859
G1 X31.045 Y100.233 E0.20480
G1 X31.579 Y100.233 E0.01678
G1 X26.380 Y95.033 E0.23098
G1 X26.325 Y94.444 E0.01859
G1 X32.114 Y100.233 E0.25715
G1 X32.648 Y100.233 E0.01678
G1 X26.270 Y93.855 E0.28332
G1 X26.215 Y93.266 E0.01859
G1 X33.182 Y100.233 E0.30949
G1 X33.716 Y100.233 E0.01678
G1 X26.160 Y92.677 E0.33566
G1 X26.105 Y92.087 E0.01859
G1 X34.250 Y100.233 E0.36183
G1 X34.785 Y100.233 E0.01678
G1 X26.050 Y91.498 E0.38801
G1 X25.995 Y90.909 E0.01859
G1 X35.319 Y100.233 E0.41418
G1 X35.853 Y100.233 E0.01678
G1 X25.940 Y90.320 E0.44035
G1 X25.885 Y89.731 E0.01859
G1 X36.387 Y100.233 E0.46652
G1 X36.922 Y100.233 E0.01678
G1 X25.830 Y89.142 E0.49269
G1 X25.775 Y88.552 E0.01859
G1 X37.456 Y100.233 E0.51886
G1 X37.990 Y100.233 E0.01678
G1 X25.720 Y87.963 E0.54504
G1 X25.665 Y87.374 E0.01859
G1 X38.524 Y100.233 E0.57121
G1 X39.058 Y100.233 E0.01678
G1 X25.610 Y86.785 E0.59738
G1 X25.555 Y86.196 E0.01859
G1 X39.593 Y100.233 E0.62355
G1 X40.127 Y100.233 E0.01678
G1 X25.500 Y85.607 E0.64972
G1 X25.445 Y85.017 E0.01859
G1 X40.661 Y100.233 E0.67589
G1 X41.195 Y100.233 E0.01678
G1 X25.391 Y84.428 E0.70207
G1 X25.336 Y83.839 E0.01859
G1 X41.730 Y100.233 E0.72824
G1 X42.264 Y100.233 E0.01678
G1 X25.281 Y83.250 E0.75441
G1 X25.226 Y82.661 E0.01859
G1 X42.798 Y100.233 E0.78058
G1 X43.332 Y100.233 E0.01678
G1 X25.171 Y82.072 E0.80675
G1 X25.116 Y81.482 E0.01859
G1 X43.866 Y100.233 E0.83292
G1 X44.401 Y100.233 E0.01678
G1 X25.061 Y80.893 E0.85910
G1 X25.006 Y80.304 E0.01859
G1 X44.935 Y100.233 E0.88527
G1 X45.469 Y100.233 E0.01678
G1 X24.951 Y79.715 E0.91144
G1 X24.896 Y79.126 E0.01859
G1 X46.003 Y100.233 E0.93761
G1 X46.538 Y100.233 E0.01678
G1 X24.841 Y78.536 E0.96378
G1 X24.786 Y77.947 E0.01859
G1 X47.072 Y100.233 E0.98995
G1 X47.606 Y100.233 E0.01678
G1 X24.731 Y77.358 E1.01612
G1 X24.676 Y76.769 E0.01859
G1 X48.140 Y100.233 E1.04230
G1 X48.675 Y100.233 E0.01678
G1 X24.621 Y76.180 E1.06847
G1 X24.566 Y75.591 E0.01859
G1 X49.209 Y100.233 E1.09464
G1 X49.743 Y100.233 E0.01678
G1 X24.511 Y75.001 E1.12081
G1 X24.456 Y74.412 E0.01859
G1 X50.277 Y100.233 E1.14698
G1 X50.811 Y100.233 E0.01678
G1 X24.401 Y73.823 E1.17315
G1 X24.346 Y73.234 E0.01859
G1 X51.346 Y100.233 E1.19933
M73 P0 R328
G1 X51.880 Y100.233 E0.01678
G1 X24.292 Y72.645 E1.22550
G1 X24.237 Y72.056 E0.01859
G1 X52.414 Y100.233 E1.25167
G1 X52.948 Y100.233 E0.01678
G1 X24.182 Y71.466 E1.27784
G1 X24.127 Y70.877 E0.01859
G1 X53.483 Y100.233 E1.30401
G1 X54.017 Y100.233 E0.01678
G1 X24.072 Y70.288 E1.33018
G1 X24.017 Y69.699 E0.01859
G1 X54.551 Y100.233 E1.35636
G1 X55.085 Y100.233 E0.01678
G1 X23.962 Y69.110 E1.38253
G1 X23.907 Y68.520 E0.01859
G1 X55.619 Y100.233 E1.40870
G1 X56.154 Y100.233 E0.01678
G1 X23.852 Y67.931 E1.43487
G1 X23.797 Y67.342 E0.01859
G1 X56.688 Y100.233 E1.46104
G1 X57.222 Y100.233 E0.01678
G1 X23.742 Y66.753 E1.48721
G1 X23.687 Y66.164 E0.01859
G1 X57.756 Y100.233 E1.51339
G1 X58.291 Y100.233 E0.01678
G1 X23.632 Y65.575 E1.53956
G1 X23.577 Y64.985 E0.01859
G1 X58.825 Y100.233 E1.56573
G1 X59.359 Y100.233 E0.01678
G1 X23.522 Y64.396 E1.59190
G1 X23.467 Y63.807 E0.01859
G1 X59.893 Y100.233 E1.61807
G1 X60.427 Y100.233 E0.01678
G1 X23.412 Y63.218 E1.64424
G1 X23.357 Y62.629 E0.01859
G1 X60.962 Y100.233 E1.67041
G1 X61.496 Y100.233 E0.01678
G1 X23.302 Y62.040 E1.69659
G1 X23.247 Y61.450 E0.01859
G1 X62.030 Y100.233 E1.72276
G1 X62.564 Y100.233 E0.01678
G1 X23.192 Y60.861 E1.74893
G1 X23.138 Y60.272 E0.01859
G1 X63.099 Y100.233 E1.77510
G1 X63.633 Y100.233 E0.01678
G1 X23.083 Y59.683 E1.80127
G1 X23.028 Y59.094 E0.01859
G1 X64.167 Y100.233 E1.82744
G1 X64.701 Y100.233 E0.01678
G1 X22.973 Y58.505 E1.85362
M73 P0 R327
G1 X22.918 Y57.915 E0.01859
G1 X65.235 Y100.233 E1.87979
G1 X65.770 Y100.233 E0.01678
G1 X22.863 Y57.326 E1.90596
G1 X22.808 Y56.737 E0.01859
G1 X66.304 Y100.233 E1.93213
G1 X66.838 Y100.233 E0.01678
G1 X22.753 Y56.148 E1.95830
G1 X22.698 Y55.559 E0.01859
G1 X67.213 Y100.073 E1.97738
G1 X67.260 Y99.587 E0.01535
G1 X22.643 Y54.969 E1.98195
G1 X22.588 Y54.380 E0.01859
G1 X67.308 Y99.101 E1.98651
G1 X67.356 Y98.614 E0.01535
G1 X22.533 Y53.791 E1.99108
G1 X22.478 Y53.202 E0.01859
G1 X67.404 Y98.128 E1.99564
G1 X67.452 Y97.641 E0.01535
G1 X22.423 Y52.613 E2.00020
G1 X22.368 Y52.024 E0.01859
G1 X67.500 Y97.155 E2.00477
G1 X67.547 Y96.668 E0.01535
G1 X22.313 Y51.434 E2.00933
G1 X22.258 Y50.845 E0.01859
G1 X67.595 Y96.182 E2.01390
G1 X67.643 Y95.696 E0.01535
G1 X22.203 Y50.256 E2.01846
G1 X22.148 Y49.667 E0.01859
G1 X67.691 Y95.209 E2.02303
G1 X67.739 Y94.723 E0.01535
G1 X22.093 Y49.078 E2.02759
G1 X22.039 Y48.489 E0.01859
G1 X67.786 Y94.236 E2.03216
G1 X67.834 Y93.750 E0.01535
G1 X21.984 Y47.899 E2.03672
G1 X21.929 Y47.310 E0.01859
G1 X67.882 Y93.264 E2.04129
M73 P1 R326
G1 X67.930 Y92.777 E0.01535
G1 X21.874 Y46.721 E2.04585
G1 X21.819 Y46.132 E0.01859
G1 X67.978 Y92.291 E2.05041
G1 X68.025 Y91.804 E0.01535
G1 X21.764 Y45.543 E2.05498
G1 X21.709 Y44.954 E0.01859
G1 X68.073 Y91.318 E2.05954
G1 X68.121 Y90.831 E0.01535
G1 X21.654 Y44.364 E2.06411
G1 X21.599 Y43.775 E0.01859
G1 X68.169 Y90.345 E2.06867
G1 X68.217 Y89.859 E0.01535
G1 X21.544 Y43.186 E2.07324
G1 X21.489 Y42.597 E0.01859
G1 X68.264 Y89.372 E2.07780
G1 X68.312 Y88.886 E0.01535
G1 X21.434 Y42.008 E2.08237
G1 X21.379 Y41.418 E0.01859
G1 X68.360 Y88.399 E2.08693
G1 X68.408 Y87.913 E0.01535
G1 X21.324 Y40.829 E2.09150
G1 X21.269 Y40.240 E0.01859
G1 X68.456 Y87.427 E2.09606
G1 X68.503 Y86.940 E0.01535
G1 X21.214 Y39.651 E2.10062
G1 X21.159 Y39.062 E0.01859
G1 X68.551 Y86.454 E2.10519
G1 X68.599 Y85.967 E0.01535
G1 X21.104 Y38.473 E2.10975
G1 X21.049 Y37.883 E0.01859
G1 X68.647 Y85.481 E2.11432
G1 X68.695 Y84.994 E0.01535
G1 X20.994 Y37.294 E2.11888
G1 X20.940 Y36.705 E0.01859
G1 X68.742 Y84.508 E2.12345
M73 P1 R325
G1 X68.790 Y84.022 E0.01535
G1 X20.885 Y36.116 E2.12801
G1 X20.830 Y35.527 E0.01859
G1 X68.838 Y83.535 E2.13258
G1 X68.886 Y83.049 E0.01535
G1 X20.775 Y34.938 E2.13714
G1 X20.720 Y34.348 E0.01859
G1 X68.934 Y82.562 E2.14170
G1 X68.981 Y82.076 E0.01535
G1 X20.665 Y33.759 E2.14627
G1 X20.610 Y33.170 E0.01859
G1 X69.029 Y81.590 E2.15083
G1 X69.077 Y81.103 E0.01535
G1 X20.555 Y32.581 E2.15540
G1 X20.500 Y31.992 E0.01859
G1 X69.125 Y80.617 E2.15996
G1 X69.173 Y80.130 E0.01535
G1 X20.445 Y31.403 E2.16453
G1 X20.390 Y30.813 E0.01859
G1 X69.220 Y79.644 E2.16909
G1 X69.268 Y79.157 E0.01535
G1 X20.335 Y30.224 E2.17366
G1 X20.280 Y29.635 E0.01859
G1 X69.316 Y78.671 E2.17822
G1 X69.364 Y78.185 E0.01535
G1 X20.225 Y29.046 E2.18279
G1 X20.170 Y28.457 E0.01859
G1 X69.412 Y77.698 E2.18735
G1 X69.460 Y77.212 E0.01535
G1 X20.115 Y27.867 E2.19191
G1 X20.060 Y27.278 E0.01859
G1 X69.507 Y76.725 E2.19648
G1 X69.555 Y76.239 E0.01535
G1 X20.005 Y26.689 E2.20104
G1 X19.950 Y26.100 E0.01859
G1 X69.603 Y75.752 E2.20561
M73 P1 R324
G1 X69.651 Y75.266 E0.01535
G1 X19.895 Y25.511 E2.21017
G1 X19.841 Y24.922 E0.01859
G1 X69.699 Y74.780 E2.21474
G1 X69.746 Y74.293 E0.01535
G1 X19.786 Y24.332 E2.21930
G1 X19.738 Y23.824 E0.01606
G1 X19.811 Y23.824 E0.00229
G1 X69.794 Y73.807 E2.22030
G1 X69.842 Y73.320 E0.01535
G1 X20.345 Y23.824 E2.19869
G1 X20.879 Y23.824 E0.01678
G1 X69.890 Y72.834 E2.17709
G1 X69.938 Y72.348 E0.01535
G1 X21.414 Y23.824 E2.15548
G1 X21.948 Y23.824 E0.01678
G1 X69.985 Y71.861 E2.13387
G1 X70.033 Y71.375 E0.01535
G1 X22.482 Y23.824 E2.11227
G1 X23.016 Y23.824 E0.01678
G1 X70.081 Y70.888 E2.09066
G1 X70.129 Y70.402 E0.01535
G1 X23.550 Y23.824 E2.06905
G1 X24.085 Y23.824 E0.01678
G1 X70.177 Y69.915 E2.04744
G1 X70.224 Y69.429 E0.01535
G1 X24.619 Y23.824 E2.02584
G1 X25.153 Y23.824 E0.01678
G1 X70.272 Y68.943 E2.00423
G1 X70.320 Y68.456 E0.01535
G1 X25.687 Y23.824 E1.98262
G1 X26.222 Y23.824 E0.01678
G1 X70.368 Y67.970 E1.96102
G1 X70.416 Y67.483 E0.01535
G1 X26.756 Y23.824 E1.93941
G1 X27.290 Y23.824 E0.01678
G1 X70.463 Y66.997 E1.91780
M73 P2 R323
G1 X70.511 Y66.511 E0.01535
G1 X27.824 Y23.824 E1.89619
G1 X28.358 Y23.824 E0.01678
G1 X70.559 Y66.024 E1.87459
G1 X70.607 Y65.538 E0.01535
G1 X28.893 Y23.824 E1.85298
G1 X29.427 Y23.824 E0.01678
G1 X70.655 Y65.051 E1.83137
G1 X70.702 Y64.565 E0.01535
G1 X29.961 Y23.824 E1.80977
G1 X30.495 Y23.824 E0.01678
G1 X70.750 Y64.078 E1.78816
G1 X70.798 Y63.592 E0.01535
G1 X31.030 Y23.824 E1.76655
G1 X31.564 Y23.824 E0.01678
G1 X70.846 Y63.106 E1.74494
G1 X70.894 Y62.619 E0.01535
G1 X32.098 Y23.824 E1.72334
G1 X32.632 Y23.824 E0.01678
G1 X70.941 Y62.133 E1.70173
G1 X70.989 Y61.646 E0.01535
G1 X33.166 Y23.824 E1.68012
G1 X33.701 Y23.824 E0.01678
G1 X71.037 Y61.160 E1.65852
G1 X71.085 Y60.674 E0.01535
G1 X34.235 Y23.824 E1.63691
G1 X34.769 Y23.824 E0.01678
G1 X71.133 Y60.187 E1.61530
G1 X71.181 Y59.701 E0.01535
G1 X35.303 Y23.824 E1.59370
G1 X35.838 Y23.824 E0.01678
G1 X71.228 Y59.214 E1.57209
G1 X71.276 Y58.728 E0.01535
G1 X36.372 Y23.824 E1.55048
G1 X36.906 Y23.824 E0.01678
G1 X71.324 Y58.241 E1.52887
G1 X71.372 Y57.755 E0.01535
G1 X37.440 Y23.824 E1.50727
G1 X37.974 Y23.824 E0.01678
G1 X71.420 Y57.269 E1.48566
G1 X71.467 Y56.782 E0.01535
G1 X38.509 Y23.824 E1.46405
G1 X39.043 Y23.824 E0.01678
G1 X71.515 Y56.296 E1.44245
G1 X71.563 Y55.809 E0.01535
G1 X39.577 Y23.824 E1.42084
M73 P2 R322
G1 X40.111 Y23.824 E0.01678
G1 X71.611 Y55.323 E1.39923
G1 X71.659 Y54.837 E0.01535
G1 X40.646 Y23.824 E1.37762
G1 X41.180 Y23.824 E0.01678
G1 X71.706 Y54.350 E1.35602
G1 X71.754 Y53.864 E0.01535
G1 X41.714 Y23.824 E1.33441
G1 X42.248 Y23.824 E0.01678
G1 X71.802 Y53.377 E1.31280
G1 X71.850 Y52.891 E0.01535
G1 X42.782 Y23.824 E1.29120
G1 X43.317 Y23.824 E0.01678
G1 X71.898 Y52.404 E1.26959
G1 X71.945 Y51.918 E0.01535
G1 X43.851 Y23.824 E1.24798
G1 X44.385 Y23.824 E0.01678
G1 X71.993 Y51.432 E1.22637
G1 X72.041 Y50.945 E0.01535
G1 X44.919 Y23.824 E1.20477
G1 X45.454 Y23.824 E0.01678
G1 X72.089 Y50.459 E1.18316
G1 X72.137 Y49.972 E0.01535
G1 X45.988 Y23.824 E1.16155
G1 X46.522 Y23.824 E0.01678
G1 X72.184 Y49.486 E1.13995
G1 X72.232 Y49.000 E0.01535
G1 X47.056 Y23.824 E1.11834
G1 X47.590 Y23.824 E0.01678
G1 X72.280 Y48.513 E1.09673
G1 X72.328 Y48.027 E0.01535
G1 X48.125 Y23.824 E1.07512
G1 X48.659 Y23.824 E0.01678
G1 X72.376 Y47.540 E1.05352
G1 X72.423 Y47.054 E0.01535
G1 X49.193 Y23.824 E1.03191
G1 X49.727 Y23.824 E0.01678
G1 X72.471 Y46.567 E1.01030
G1 X72.519 Y46.081 E0.01535
G1 X50.262 Y23.824 E0.98870
G1 X50.796 Y23.824 E0.01678
G1 X72.567 Y45.595 E0.96709
G1 X72.615 Y45.108 E0.01535
G1 X51.330 Y23.824 E0.94548
G1 X51.864 Y23.824 E0.01678
G1 X72.662 Y44.622 E0.92387
G1 X72.710 Y44.135 E0.01535
G1 X52.398 Y23.824 E0.90227
G1 X52.933 Y23.824 E0.01678
G1 X72.758 Y43.649 E0.88066
G1 X72.806 Y43.162 E0.01535
G1 X53.467 Y23.824 E0.85905
G1 X54.001 Y23.824 E0.01678
G1 X72.854 Y42.676 E0.83745
G1 X72.902 Y42.190 E0.01535
G1 X54.535 Y23.824 E0.81584
G1 X55.070 Y23.824 E0.01678
G1 X72.949 Y41.703 E0.79423
G1 X72.997 Y41.217 E0.01535
G1 X55.604 Y23.824 E0.77262
G1 X56.138 Y23.824 E0.01678
G1 X73.045 Y40.730 E0.75102
G1 X73.093 Y40.244 E0.01535
G1 X56.672 Y23.824 E0.72941
G1 X57.206 Y23.824 E0.01678
G1 X73.141 Y39.758 E0.70780
G1 X73.188 Y39.271 E0.01535
G1 X57.741 Y23.824 E0.68620
G1 X58.275 Y23.824 E0.01678
G1 X73.236 Y38.785 E0.66459
G1 X73.284 Y38.298 E0.01535
G1 X58.809 Y23.824 E0.64298
G1 X59.343 Y23.824 E0.01678
G1 X73.332 Y37.812 E0.62138
M73 P2 R321
G1 X73.380 Y37.325 E0.01535
G1 X59.878 Y23.824 E0.59977
G1 X60.412 Y23.824 E0.01678
G1 X73.427 Y36.839 E0.57816
G1 X73.475 Y36.353 E0.01535
G1 X60.946 Y23.824 E0.55655
G1 X61.480 Y23.824 E0.01678
G1 X73.523 Y35.866 E0.53495
G1 X73.571 Y35.380 E0.01535
G1 X62.015 Y23.824 E0.51334
G1 X62.549 Y23.824 E0.01678
G1 X73.619 Y34.893 E0.49173
G1 X73.666 Y34.407 E0.01535
G1 X63.083 Y23.824 E0.47013
G1 X63.617 Y23.824 E0.01678
G1 X73.714 Y33.921 E0.44852
G1 X73.762 Y33.434 E0.01535
G1 X64.151 Y23.824 E0.42691
G1 X64.686 Y23.824 E0.01678
G1 X73.810 Y32.948 E0.40530
G1 X73.858 Y32.461 E0.01535
G1 X65.220 Y23.824 E0.38370
G1 X65.754 Y23.824 E0.01678
G1 X73.905 Y31.975 E0.36209
G1 X73.953 Y31.488 E0.01535
G1 X66.288 Y23.824 E0.34048
G1 X66.823 Y23.824 E0.01678
G1 X74.001 Y31.002 E0.31888
G1 X74.049 Y30.516 E0.01535
G1 X67.357 Y23.824 E0.29727
G1 X67.891 Y23.824 E0.01678
G1 X74.097 Y30.029 E0.27566
G1 X74.144 Y29.543 E0.01535
G1 X68.425 Y23.824 E0.25405
G1 X68.959 Y23.824 E0.01678
G1 X74.192 Y29.056 E0.23245
G1 X74.240 Y28.570 E0.01535
G1 X69.494 Y23.824 E0.21084
G1 X70.028 Y23.824 E0.01678
G1 X74.288 Y28.084 E0.18923
G1 X74.336 Y27.597 E0.01535
G1 X70.562 Y23.824 E0.16763
G1 X71.096 Y23.824 E0.01678
G1 X74.383 Y27.111 E0.14602
G1 X74.431 Y26.624 E0.01535
G1 X71.631 Y23.824 E0.12441
G1 X72.165 Y23.824 E0.01678
G1 X74.479 Y26.138 E0.10280
G1 X74.527 Y25.651 E0.01535
G1 X72.699 Y23.824 E0.08120
