; generated by PrusaSlicer 2.0.0+ on 2019-08-19 at 11:46:29

; 

; external perimeters extrusion width = 0.45mm
; perimeters extrusion width = 0.45mm
; infill extrusion width = 0.45mm
; solid infill extrusion width = 0.45mm
; top infill extrusion width = 0.40mm
; first layer extrusion width = 0.42mm

; external perimeters extrusion width = 0.45mm
; perimeters extrusion width = 0.45mm
; infill extrusion width = 0.45mm
; solid infill extrusion width = 0.45mm
; top infill extrusion width = 0.40mm
; first layer extrusion width = 0.42mm

M73 P0 R78
M201 X9000 Y9000 Z500 E10000 ; sets maximum accelerations, mm/sec^2
M203 X500 Y500 Z12 E120 ; sets maximum feedrates, mm/sec
M204 P2000 R1500 T2000 ; sets acceleration (P, T) and retract acceleration (R), mm/sec^2
M205 X10.00 Y10.00 Z0.20 E2.50 ; sets the jerk limits, mm/sec
M205 S0 T0 ; sets the minimum extruding and travel feed rate, mm/sec
M107
M115 U3.7.2 ; tell printer latest fw version
G90 ; use absolute coordinates
M83 ; extruder relative mode
M104 S215 ; set extruder temp
M140 S60 ; set bed temp
M190 S60 ; wait for bed temp
M109 S215 ; wait for extruder temp
G28 W ; home all without mesh bed level
G80 ; mesh bed leveling
G21 ; set units to millimeters

; Send the filament type to the MMU2.0 unit.
; E stands for extruder number, F stands for filament type (0: default; 1:flex; 2: PVA)
M403 E0 F0
M403 E1 F0
M403 E2 F0
M403 E3 F0
M403 E4 F0


;go outside print area
G1 Y-3.0 F1000.0
G1 Z0.4 F1000.0
; select extruder
T0
; initial load
G1 X55.0 E29.0 F1073.0
M73 P0 R77
G1 X5.0 E29.0 F1800.0
G1 X55.0 E8.0 F2000.0
G1 Z0.3 F1000.0
G92 E0.0
G1 X240.0 E25.0 F2200.0
G1 Y-2.0 F1000.0
G1 X55.0 E25 F1400.0
G1 Z0.20 F1000.0
G1 X5.0 E4.0 F1000.0
G92 E0.0

G92 E0.0
G21 ; set units to millimeters
G90 ; use absolute coordinates
M83 ; use relative distances for extrusion
T0
M900 K30 ; Filament gcode
G1 Z0.200 F10800.000
;BEFORE_LAYER_CHANGE
G92 E0.0
;0.2


G1 E-0.80000 F2100.00000
G1 Z0.800 F10800.000
G1 Z0.200
;AFTER_LAYER_CHANGE
;0.2
M900 K0
G1 E-2.20000 F2100.00000
G1 Z0.800 F10800.000
G1 X177.555 Y79.628
G1 Z0.200
G1 E3.00000 F2100.00000
;-------------------------------------
; CP WIPE TOWER FIRST LAYER BRIM START
G1 X177.555 Y93.688 E0.8016 F2400
G1 X175.012 Y94.145  F7000
G1 Y79.171 E0.6260 F2100
G1 X114.098 E2.5466
G1 Y94.145 E0.6260
G1 X175.012 E2.5466
G1 X175.469 Y94.602  F7000
G1 Y78.714 E0.6642 F2100
G1 X113.641 E2.5849
G1 Y94.602 E0.6642
G1 X175.469 E2.5849
G1 X175.926 Y95.059  F7000
G1 Y78.257 E0.7025 F2100
G1 X113.184 E2.6231
G1 Y95.059 E0.7025
G1 X175.926 E2.6231
G1 X176.383 Y95.516  F7000
G1 Y77.800 E0.7407 F2100
G1 X112.727 E2.6613
G1 Y95.516 E0.7407
G1 X176.383 E2.6613
G1 X174.555 Y93.688  F7000
G1 X114.555
G1 X174.555
; CP WIPE TOWER FIRST LAYER BRIM END
;-----------------------------------
G1 X174.055 Y80.128  F7200
;--------------------
; CP EMPTY GRID START
; layer #1
G1 X174.555
G1 Y79.628
G1 Y93.688 E0.5344 F1450
G1 X114.555 E2.2804
G1 Y79.628 E0.5344
G1 X174.555 E2.2804
G1 X174.055
G1 Y80.128
G1 Y93.188 E0.4964
G1 X115.055 E2.2424
G1 Y80.128 E0.4964
G1 X174.055 E2.2424
G1 Y93.188
G1 X173.555 Y92.665  E0.0275
G1 X115.555 E2.2044
G1 Y92.141 E0.0199
G1 X173.555 E2.2044
G1 Y91.618 E0.0199
G1 X115.555 E2.2044
M73 P1 R76
G1 Y91.095 E0.0199
G1 X173.555 E2.2044
G1 Y90.571 E0.0199
G1 X115.555 E2.2044
G1 Y90.048 E0.0199
G1 X173.555 E2.2044
G1 Y89.525 E0.0199
G1 X115.555 E2.2044
G1 Y89.001 E0.0199
G1 X173.555 E2.2044
G1 Y88.478 E0.0199
G1 X115.555 E2.2044
G1 Y87.955 E0.0199
G1 X173.555 E2.2044
G1 Y87.431 E0.0199
G1 X115.555 E2.2044
G1 Y86.908 E0.0199
G1 X173.555 E2.2044
G1 Y86.385 E0.0199
G1 X115.555 E2.2044
G1 Y85.861 E0.0199
G1 X173.555 E2.2044
G1 Y85.338 E0.0199
G1 X115.555 E2.2044
G1 Y84.815 E0.0199
G1 X173.555 E2.2044
G1 Y84.291 E0.0199
G1 X115.555 E2.2044
G1 Y83.768 E0.0199
G1 X173.555 E2.2044
G1 Y83.245 E0.0199
G1 X115.555 E2.2044
G1 Y82.721 E0.0199
G1 X173.555 E2.2044
G1 Y82.198 E0.0199
G1 X115.555 E2.2044
G1 Y81.675 E0.0199
G1 X173.555 E2.2044
G1 Y81.151 E0.0199
G1 X115.555 E2.2044
G1 Y80.628 E0.0199
G1 X173.555 E2.2044
G1 X115.555
; CP EMPTY GRID END
;------------------







M900 K30 ; Filament gcode
G1 F8640
G1 X112.264 Y80.628 E-0.76000
G1 E-0.04000 F2100.00000
G1 Z0.800 F10800.000
G1 X88.592 Y153.811
G1 Z0.200
G1 E0.80000 F2100.00000
M204 S1000
G1 F1200
G1 X81.926 Y151.566 E0.22053
G1 X81.228 Y151.100 E0.02633
G1 X80.598 Y150.313 E0.03162
G1 X76.655 Y144.288 E0.22577
G1 X75.425 Y141.932 E0.08332
G1 X69.774 Y126.527 E0.51448
G1 X69.250 Y124.724 E0.05888
G1 X69.147 Y123.848 E0.02765
G1 X69.653 Y74.145 E1.55849
G1 X70.253 Y67.563 E0.20723
G1 X70.494 Y66.630 E0.03021
G1 X71.168 Y65.371 E0.04477
G1 X72.980 Y62.548 E0.10519
G1 X74.767 Y60.012 E0.09724
G1 X75.851 Y58.964 E0.04729
G1 X77.214 Y57.877 E0.05465
G1 X78.449 Y57.078 E0.04613
G1 X79.676 Y56.486 E0.04272
G1 X80.468 Y56.228 E0.02611
G1 X81.168 Y56.132 E0.02214
G1 X99.691 Y56.131 E0.58079
M73 P3 R75
G1 X100.289 Y56.196 E0.01884
G1 X100.937 Y56.380 E0.02115
G1 X102.554 Y57.138 E0.05597
G1 X104.258 Y58.308 E0.06482
G1 X105.926 Y59.786 E0.06988
G1 X107.240 Y61.549 E0.06892
G1 X109.433 Y64.881 E0.12508
G1 X110.322 Y66.447 E0.05645
G1 X110.619 Y67.368 E0.03036
G1 X111.246 Y74.177 E0.21439
G1 X110.722 Y124.203 E1.56863
G1 X110.514 Y125.242 E0.03322
G1 X110.143 Y126.442 E0.03937
G1 X104.467 Y141.919 E0.51688
G1 X103.227 Y144.294 E0.08399
G1 X99.053 Y150.649 E0.23840
G1 X98.530 Y151.214 E0.02414
G1 X97.930 Y151.579 E0.02201
G1 X91.686 Y153.728 E0.20706
G1 X91.094 Y153.823 E0.01878
G1 X88.652 Y153.811 E0.07657
G1 F8640
G1 X85.530 Y152.769 E-0.76000
G1 E-0.04000 F2100.00000
G1 Z0.800 F10800.000
G1 X86.437 Y147.896
G1 Z0.200
G1 E0.80000 F2100.00000
G1 F1200
G1 X86.196 Y147.467 E0.01542
G1 X85.913 Y146.882 E0.02036
G1 X85.692 Y146.306 E0.01937
G1 X85.553 Y145.793 E0.01665
G1 X85.488 Y145.376 E0.01324
G1 X85.477 Y145.013 E0.01137
G1 X85.505 Y144.711 E0.00951
G1 X85.582 Y144.383 E0.01059
G1 X85.723 Y144.144 E0.00870
G1 X86.241 Y143.557 E0.02454
G1 X86.433 Y143.307 E0.00989
G1 X86.609 Y142.972 E0.01186
G1 X86.684 Y142.590 E0.01220
G1 X86.617 Y142.239 E0.01121
G1 X86.462 Y141.950 E0.01026
G1 X85.866 Y141.214 E0.02972
G1 X85.648 Y140.892 E0.01218
G1 X85.508 Y140.605 E0.01002
G1 X85.433 Y140.355 E0.00818
G1 X85.397 Y140.077 E0.00879
G1 X85.402 Y139.887 E0.00596
G1 X85.736 Y138.843 E0.03437
G1 X85.811 Y138.520 E0.01038
G1 X85.847 Y138.212 E0.00972
G1 X85.831 Y137.881 E0.01041
G1 X85.726 Y137.537 E0.01128
G1 X85.497 Y137.210 E0.01250
G1 X85.115 Y136.996 E0.01372
G1 X84.924 Y136.997 E0.00601
G1 X85.123 Y136.781 E0.00923
G1 X85.354 Y136.419 E0.01345
G1 X85.434 Y136.121 E0.00969
G1 X85.391 Y135.772 E0.01103
G1 X85.159 Y135.483 E0.01163
G1 X84.884 Y135.373 E0.00929
G1 X84.409 Y135.287 E0.01514
G1 X83.604 Y135.188 E0.02541
G1 X82.612 Y135.097 E0.03124
G1 X81.098 Y135.018 E0.04755
G1 X80.678 Y135.020 E0.01316
G1 X81.594 Y134.649 E0.03097
G1 X81.992 Y134.450 E0.01396
G1 X82.334 Y134.242 E0.01255
G1 X82.650 Y133.962 E0.01324
G1 X82.819 Y133.407 E0.01819
G1 X82.511 Y133.042 E0.01496
G1 X82.309 Y132.911 E0.00755
G1 X81.857 Y132.691 E0.01578
G1 X79.729 Y131.812 E0.07220
G1 X78.880 Y131.433 E0.02913
G1 X78.594 Y131.419 E0.00899
G1 X78.282 Y131.494 E0.01006
G1 X78.771 Y131.034 E0.02105
G1 X79.976 Y131.629 E0.04213
G1 X80.584 Y131.889 E0.02075
G1 X80.895 Y131.988 E0.01023
G1 X81.216 Y132.043 E0.01021
G1 X81.580 Y132.009 E0.01146
G1 X82.044 Y131.696 E0.01755
G1 X82.052 Y131.077 E0.01940
G1 X81.741 Y130.739 E0.01442
G1 X81.048 Y130.254 E0.02651
G1 X80.372 Y129.851 E0.02466
G1 X80.423 Y129.860 E0.00161
G1 X80.863 Y129.719 E0.01450
G1 X81.034 Y129.275 E0.01491
G1 X81.026 Y129.224 E0.00163
G1 X81.378 Y129.360 E0.01185
G1 X81.707 Y129.381 E0.01034
G1 X82.093 Y129.222 E0.01310
G1 X82.305 Y128.806 E0.01464
G1 X82.246 Y128.452 E0.01124
G1 X81.995 Y127.940 E0.01788
G1 X81.531 Y127.177 E0.02801
G1 X80.638 Y125.828 E0.05072
G1 X79.776 Y124.599 E0.04706
G1 X79.597 Y124.270 E0.01174
G1 X79.118 Y123.158 E0.03796
G1 X78.577 Y121.690 E0.04907
G1 X78.880 Y121.762 E0.00977
G1 X79.398 Y121.590 E0.01712
G1 X79.566 Y121.171 E0.01417
G1 X79.573 Y120.872 E0.00939
G1 X79.489 Y120.276 E0.01888
G1 X78.881 Y117.496 E0.08920
G1 X78.857 Y116.900 E0.01870
G1 X78.911 Y115.929 E0.03050
G1 X78.973 Y116.111 E0.00604
G1 X79.163 Y116.438 E0.01186
G1 X79.426 Y116.652 E0.01061
G1 X79.932 Y116.711 E0.01598
G1 X80.282 Y116.347 E0.01585
G1 X80.483 Y115.962 E0.01362
G1 X81.203 Y114.308 E0.05655
G1 X81.519 Y113.631 E0.02342
G1 X81.776 Y113.149 E0.01714
G1 X81.960 Y112.865 E0.01059
G1 X82.692 Y112.037 E0.03464
G1 X83.240 Y111.510 E0.02383
G1 X83.506 Y111.296 E0.01072
G1 X83.109 Y111.850 E0.02139
G1 X82.903 Y112.313 E0.01585
G1 X82.864 Y112.626 E0.00991
G1 X82.943 Y112.948 E0.01037
G1 X83.172 Y113.217 E0.01108
G1 X83.487 Y113.347 E0.01071
G1 X83.813 Y113.375 E0.01023
G1 X84.105 Y113.360 E0.00920
G1 X84.747 Y113.245 E0.02043
G1 X85.498 Y113.027 E0.02453
G1 X86.420 Y112.694 E0.03073
G1 X87.309 Y112.323 E0.03022
G1 X88.094 Y111.946 E0.02728
G1 X88.622 Y111.637 E0.01920
G1 X89.677 Y110.941 E0.03962
G1 X89.840 Y110.878 E0.00549
G1 X89.956 Y110.864 E0.00367
G1 X90.068 Y110.876 E0.00354
G1 X90.237 Y110.940 E0.00565
G1 X91.261 Y111.631 E0.03875
G1 X91.792 Y111.946 E0.01933
G1 X92.578 Y112.323 E0.02733
G1 X93.598 Y112.745 E0.03461
G1 X94.517 Y113.069 E0.03057
G1 X95.246 Y113.270 E0.02372
G1 X95.591 Y113.336 E0.01101
G1 X95.981 Y113.373 E0.01227
G1 X96.318 Y113.361 E0.01058
G1 X96.641 Y113.263 E0.01057
G1 X96.904 Y113.019 E0.01126
G1 X97.019 Y112.687 E0.01101
G1 X96.997 Y112.381 E0.00963
G1 X96.914 Y112.123 E0.00849
G1 X96.686 Y111.704 E0.01495
G1 X96.395 Y111.313 E0.01529
G1 X96.906 Y111.745 E0.02097
G1 X97.279 Y112.128 E0.01677
G1 X97.879 Y112.804 E0.02836
G1 X98.155 Y113.228 E0.01586
G1 X98.587 Y114.095 E0.03036
G1 X99.420 Y115.997 E0.06511
G1 X99.605 Y116.348 E0.01244
G1 X99.954 Y116.711 E0.01581
G1 X100.461 Y116.652 E0.01598
G1 X100.723 Y116.438 E0.01061
G1 X100.913 Y116.111 E0.01186
G1 X100.975 Y115.929 E0.00605
G1 X101.010 Y116.308 E0.01196
G1 X101.029 Y116.787 E0.01501
G1 X101.005 Y117.498 E0.02230
G1 X100.398 Y120.275 E0.08915
G1 X100.313 Y120.872 E0.01888
G1 X100.320 Y121.171 E0.00939
G1 X100.488 Y121.590 E0.01417
G1 X101.002 Y121.760 E0.01698
G1 X101.307 Y121.692 E0.00980
G1 X100.744 Y123.217 E0.05097
G1 X100.290 Y124.270 E0.03595
G1 X100.111 Y124.599 E0.01176
G1 X99.248 Y125.828 E0.04706
G1 X98.356 Y127.177 E0.05072
G1 X97.891 Y127.940 E0.02801
G1 X97.640 Y128.452 E0.01788
G1 X97.581 Y128.806 E0.01124
G1 X97.793 Y129.222 E0.01464
G1 X98.179 Y129.381 E0.01310
G1 X98.508 Y129.360 E0.01034
G1 X98.866 Y129.222 E0.01201
G1 X98.846 Y129.404 E0.00575
G1 X99.248 Y129.867 E0.01922
G1 X99.541 Y129.840 E0.00920
G1 X98.670 Y130.363 E0.03183
G1 X98.148 Y130.738 E0.02017
G1 X97.898 Y130.999 E0.01131
G1 X97.764 Y131.558 E0.01804
G1 X98.230 Y131.987 E0.01987
G1 X98.625 Y132.046 E0.01251
G1 X98.952 Y131.998 E0.01039
G1 X99.265 Y131.903 E0.01025
G1 X99.910 Y131.629 E0.02195
G1 X101.117 Y131.033 E0.04223
G1 X101.612 Y131.495 E0.02121
G1 X101.322 Y131.423 E0.00937
G1 X101.029 Y131.425 E0.00916
G1 X100.158 Y131.812 E0.02989
G1 X97.992 Y132.708 E0.07350
G1 X97.549 Y132.927 E0.01550
G1 X97.333 Y133.074 E0.00821
G1 X97.055 Y133.484 E0.01551
G1 X97.272 Y134.001 E0.01759
G1 X97.580 Y134.260 E0.01262
G1 X97.925 Y134.466 E0.01261
G1 X98.327 Y134.665 E0.01405
G1 X99.215 Y135.021 E0.03001
G1 X98.013 Y135.048 E0.03770
G1 X96.691 Y135.147 E0.04158
G1 X95.482 Y135.287 E0.03815
G1 X95.056 Y135.360 E0.01355
G1 X94.657 Y135.510 E0.01336
G1 X94.456 Y135.908 E0.01399
G1 X94.473 Y136.257 E0.01094
G1 X94.652 Y136.631 E0.01302
G1 X94.952 Y136.995 E0.01477
G1 X94.846 Y136.991 E0.00331
G1 X94.547 Y137.095 E0.00992
G1 X94.274 Y137.348 E0.01168
G1 X94.114 Y137.652 E0.01078
G1 X94.046 Y137.958 E0.00984
G1 X94.041 Y138.266 E0.00966
G1 X94.146 Y138.830 E0.01798
G1 X94.484 Y139.887 E0.03479
G1 X94.490 Y140.077 E0.00596
G1 X94.453 Y140.355 E0.00879
G1 X94.378 Y140.605 E0.00818
G1 X94.238 Y140.892 E0.01002
G1 X94.021 Y141.213 E0.01216
G1 X93.439 Y141.929 E0.02894
G1 X93.270 Y142.236 E0.01097
G1 X93.202 Y142.590 E0.01131
G1 X93.277 Y142.969 E0.01212
G1 X93.439 Y143.287 E0.01118
G1 X93.643 Y143.555 E0.01056
G1 X94.185 Y144.173 E0.02577
G1 X94.273 Y144.312 E0.00516
G1 X94.316 Y144.420 E0.00364
G1 X94.393 Y144.798 E0.01209
G1 X94.410 Y145.148 E0.01100
G1 X94.375 Y145.561 E0.01300
G1 X94.278 Y146.026 E0.01489
G1 X94.080 Y146.622 E0.01969
G1 X93.804 Y147.244 E0.02132
G1 X93.449 Y147.889 E0.02308
G1 X93.429 Y147.595 E0.00923
G1 X93.349 Y147.222 E0.01197
G1 X93.434 Y147.200 E0.00276
G1 X93.773 Y146.842 E0.01547
G1 X93.831 Y146.433 E0.01293
G1 X93.725 Y146.094 E0.01115
G1 X93.511 Y145.690 E0.01434
G1 X93.198 Y145.233 E0.01736
G1 X92.869 Y144.830 E0.01632
G1 X92.482 Y144.426 E0.01752
G1 X92.091 Y144.081 E0.01636
G1 X91.711 Y143.803 E0.01476
G1 X91.299 Y143.561 E0.01497
G1 X90.858 Y143.370 E0.01509
G1 X90.451 Y143.257 E0.01322
G1 X90.090 Y143.209 E0.01143
G1 X89.712 Y143.209 E0.01184
G1 X89.267 Y143.270 E0.01410
G1 X88.900 Y143.370 E0.01192
G1 X88.499 Y143.533 E0.01359
G1 X88.124 Y143.739 E0.01341
G1 X87.733 Y144.014 E0.01498
G1 X87.427 Y144.276 E0.01263
G1 X87.146 Y144.556 E0.01245
G1 X86.669 Y145.144 E0.02372
G1 X86.434 Y145.506 E0.01355
G1 X86.238 Y145.872 E0.01300
G1 X86.103 Y146.215 E0.01156
G1 X86.047 Y146.611 E0.01255
G1 X86.204 Y146.960 E0.01201
G1 X86.454 Y147.186 E0.01056
G1 X86.539 Y147.217 E0.00283
G1 X86.457 Y147.594 E0.01211
G1 X86.441 Y147.836 E0.00759
G1 F8640
G1 X86.196 Y147.467 E-0.10225
G1 X85.913 Y146.882 E-0.14994
G1 X85.692 Y146.306 E-0.14268
G1 X85.553 Y145.793 E-0.12260
G1 X85.488 Y145.376 E-0.09752
G1 X85.477 Y145.013 E-0.08370
G1 X85.502 Y144.749 E-0.06132
G1 E-0.04000 F2100.00000
G1 Z0.800 F10800.000
G1 X77.592 Y128.142
G1 Z0.200
G1 E0.80000 F2100.00000
G1 F1200
G1 X75.855 Y127.260 E0.06110
G1 X75.427 Y127.023 E0.01532
G1 X75.182 Y126.850 E0.00940
G1 X75.022 Y126.657 E0.00787
G1 X74.912 Y126.482 E0.00649
G1 X74.744 Y126.158 E0.01143
G1 X74.359 Y125.240 E0.03122
G1 X73.956 Y124.087 E0.03829
G1 X73.522 Y122.657 E0.04687
G1 X73.129 Y121.182 E0.04785
G1 X72.783 Y119.667 E0.04873
G1 X72.576 Y118.505 E0.03700
G1 X72.502 Y117.761 E0.02345
G1 X72.512 Y117.540 E0.00694
G1 X72.558 Y117.372 E0.00546
G1 X72.751 Y116.990 E0.01340
G1 X73.133 Y116.333 E0.02384
G1 X73.852 Y115.188 E0.04240
G1 X75.436 Y112.821 E0.08930
G1 X75.061 Y113.666 E0.02900
G1 X74.437 Y115.162 E0.05082
G1 X73.901 Y116.525 E0.04594
G1 X73.502 Y117.614 E0.03634
G1 X73.220 Y118.476 E0.02846
G1 X73.053 Y119.113 E0.02062
G1 X72.992 Y119.615 E0.01588
G1 X73.068 Y120.209 E0.01878
G1 X73.277 Y121.046 E0.02703
G1 X73.584 Y122.015 E0.03188
G1 X73.922 Y122.908 E0.02994
G1 X74.095 Y123.274 E0.01270
G1 X74.303 Y123.548 E0.01076
G1 X74.577 Y123.694 E0.00976
G1 X75.090 Y123.886 E0.01716
G1 X75.149 Y123.936 E0.00243
G1 X75.244 Y124.242 E0.01003
G1 X75.679 Y125.986 E0.05636
G1 X75.799 Y126.338 E0.01165
G1 X75.968 Y126.624 E0.01042
G1 X76.262 Y126.975 E0.01434
G1 X76.657 Y127.359 E0.01730
G1 X77.545 Y128.105 E0.03635
G1 F8640
G1 X75.855 Y127.260 E-0.43640
G1 X75.427 Y127.023 E-0.11285
G1 X75.182 Y126.850 E-0.06919
G1 X75.022 Y126.657 E-0.05794
G1 X74.912 Y126.482 E-0.04778
G1 X74.841 Y126.344 E-0.03583
G1 E-0.04000 F2100.00000
G1 Z0.800 F10800.000
G1 X74.879 Y130.216
G1 Z0.200
G1 E0.80000 F2100.00000
G1 F1200
G1 X75.673 Y130.937 E0.03363
G1 X76.386 Y131.490 E0.02828
G1 X76.726 Y131.701 E0.01254
G1 X76.925 Y131.789 E0.00685
G1 X76.794 Y131.759 E0.00422
G1 X76.504 Y131.639 E0.00984
G1 X76.158 Y131.437 E0.01259
G1 X75.765 Y131.139 E0.01544
G1 X75.256 Y130.654 E0.02203
G1 X74.918 Y130.261 E0.01625
G1 F8640
G1 X75.673 Y130.937 E-0.23394
G1 X76.386 Y131.490 E-0.20823
G1 X76.726 Y131.701 E-0.09231
G1 X76.925 Y131.789 E-0.05046
G1 X76.794 Y131.759 E-0.03105
G1 X76.504 Y131.639 E-0.07250
G1 X76.237 Y131.483 E-0.07151
G1 E-0.04000 F2100.00000
G1 Z0.800 F10800.000
G1 X77.978 Y134.690
G1 Z0.200
G1 E0.80000 F2100.00000
G1 F1200
G1 X78.494 Y134.934 E0.01788
G1 X79.179 Y135.160 E0.02262
G1 X79.506 Y135.224 E0.01044
G1 X79.306 Y135.343 E0.00728
G1 X79.041 Y135.544 E0.01043
