; generated by PrusaSlicer 2.1.0+ on 2019-11-01 at 19:03:31 UTC

; 

; external perimeters extrusion width = 0.45mm
; perimeters extrusion width = 0.45mm
; infill extrusion width = 0.45mm
; solid infill extrusion width = 0.45mm
; top infill extrusion width = 0.40mm
; support material extrusion width = 0.35mm
; first layer extrusion width = 0.42mm

M73 P0 R250
M201 X9000 Y9000 Z500 E10000 ; sets maximum accelerations, mm/sec^2
M203 X500 Y500 Z12 E120 ; sets maximum feedrates, mm/sec
M204 P2000 R1500 T2000 ; sets acceleration (P, T) and retract acceleration (R), mm/sec^2
M205 X10.00 Y10.00 Z0.20 E2.50 ; sets the jerk limits, mm/sec
M205 S0 T0 ; sets the minimum extruding and travel feed rate, mm/sec
M107
M862.3 P "MK2.5SMMU2S" ; printer model check
M862.1 P0.4 ; nozzle diameter check
M115 U3.8.0 ; tell printer latest fw version
G90 ; use absolute coordinates
M83 ; extruder relative mode
M104 S230 ; set extruder temp
M140 S60 ; set bed temp
Tx
M190 S60 ; wait for bed temp
M109 S230 ; wait for extruder temp
G28 W ; home all without mesh bed level
G80 ; mesh bed leveling

G21 ; set units to millimeters

;go outside print area
G1 Y-3.0 F1000.0
G1 Z0.4 F1000.0
; select extruder
Tc
; purge line
G1 X55.0 F2000.0
G1 Z0.3 F1000.0
G92 E0.0
G1 X240.0 E25.0 F2200.0
M73 P0 R250
G1 Y-2.0 F1000.0
G1 X55.0 E25 F1400.0
G1 Z0.20 F1000.0
G1 X5.0 E4.0 F1000.0
G92 E0.0
G21 ; set units to millimeters
G90 ; use absolute coordinates
M83 ; use relative distances for extrusion
M900 K30 ; Filament gcode
;BEFORE_LAYER_CHANGE
G92 E0.0
;0.2


G1 E-0.80000 F2100.00000
G1 Z0.600 F10800.000
;AFTER_LAYER_CHANGE
;0.2
G1 X82.508 Y24.091
G1 Z0.200
G1 E0.80000 F2100.00000
M204 S1000
G1 F1200
G1 X82.838 Y23.575 E0.01919
G1 X83.300 Y23.169 E0.01930
G1 X83.853 Y22.908 E0.01919
G1 X84.461 Y22.810 E0.01930
G1 X158.268 Y22.810 E2.31416
G1 X159.101 Y22.976 E0.02664
G1 X159.809 Y23.448 E0.02664
G1 X160.950 Y24.775 E0.05488
G1 X161.178 Y25.272 E0.01714
G1 X161.277 Y25.809 E0.01714
G1 X167.660 Y167.961 E4.46155
G1 X167.688 Y185.023 E0.53498
G1 X167.492 Y185.909 E0.02844
G1 X167.158 Y186.430 E0.01942
G1 X166.694 Y186.835 E0.01930
G1 X166.136 Y187.095 E0.01930
G1 X165.528 Y187.190 E0.01930
G1 X84.496 Y187.190 E2.54068
G1 X83.593 Y186.993 E0.02900
G1 X83.071 Y186.659 E0.01942
G1 X82.664 Y186.193 E0.01942
G1 X82.403 Y185.627 E0.01953
G1 X82.311 Y185.015 E0.01942
G1 X82.311 Y24.995 E5.01731
G1 X82.496 Y24.150 E0.02712
G1 E-0.80000 F2100.00000
G1 Z0.800 F10800.000
G1 X88.271 Y108.881
G1 Z0.200
G1 E0.80000 F2100.00000
G1 F1200
G1 X88.271 Y100.474 E0.26358
G1 X89.025 Y100.474 E0.02365
G1 X89.025 Y108.711 E0.25826
G1 X89.779 Y108.711 E0.02365
G1 X89.779 Y100.474 E0.25826
G1 X90.533 Y100.474 E0.02365
G1 X90.533 Y108.711 E0.25826
G1 X91.287 Y108.711 E0.02365
G1 X91.287 Y100.474 E0.25826
G1 X92.042 Y100.474 E0.02365
G1 X92.042 Y108.711 E0.25826
G1 X92.796 Y108.711 E0.02365
G1 X92.796 Y100.474 E0.25826
G1 X93.550 Y100.474 E0.02365
G1 X93.550 Y108.711 E0.25826
G1 X94.304 Y108.711 E0.02365
G1 X94.304 Y100.474 E0.25826
G1 X95.058 Y100.474 E0.02365
G1 X95.058 Y108.711 E0.25826
G1 X95.812 Y108.711 E0.02365
G1 X95.812 Y100.474 E0.25826
G1 X96.567 Y100.474 E0.02365
G1 X96.567 Y108.711 E0.25826
G1 X97.321 Y108.711 E0.02365
G1 X97.321 Y100.474 E0.25826
G1 X98.075 Y100.474 E0.02365
G1 X98.075 Y108.711 E0.25826
G1 X98.829 Y108.711 E0.02365
G1 X98.829 Y100.474 E0.25826
G1 X99.583 Y100.474 E0.02365
G1 X99.583 Y108.711 E0.25826
G1 X100.337 Y108.711 E0.02365
G1 X100.337 Y100.474 E0.25826
G1 X101.091 Y100.474 E0.02365
G1 X101.091 Y108.711 E0.25826
G1 X101.846 Y108.711 E0.02365
G1 X101.846 Y100.474 E0.25826
G1 X102.600 Y100.474 E0.02365
G1 X102.600 Y108.711 E0.25826
G1 X103.354 Y108.711 E0.02365
G1 X103.354 Y100.474 E0.25826
G1 X104.108 Y100.474 E0.02365
G1 X104.108 Y108.711 E0.25826
G1 X104.862 Y108.711 E0.02365
G1 X104.862 Y100.474 E0.25826
G1 X105.616 Y100.474 E0.02365
G1 X105.616 Y108.711 E0.25826
G1 X106.371 Y108.711 E0.02365
G1 X106.371 Y100.474 E0.25826
G1 X107.125 Y100.474 E0.02365
G1 X107.125 Y108.711 E0.25826
G1 X107.879 Y108.711 E0.02365
G1 X107.879 Y100.474 E0.25826
G1 X108.633 Y100.474 E0.02365
G1 X108.633 Y108.711 E0.25826
G1 X109.387 Y108.711 E0.02365
G1 X109.387 Y100.474 E0.25826
G1 X110.141 Y100.474 E0.02365
G1 X110.141 Y108.711 E0.25826
G1 X110.896 Y108.711 E0.02365
G1 X110.896 Y100.474 E0.25826
G1 X111.650 Y100.474 E0.02365
G1 X111.650 Y108.711 E0.25826
G1 X112.404 Y108.711 E0.02365
G1 X112.404 Y100.474 E0.25826
G1 X113.158 Y100.474 E0.02365
G1 X113.158 Y108.711 E0.25826
G1 X113.912 Y108.711 E0.02365
G1 X113.912 Y100.474 E0.25826
G1 X114.666 Y100.474 E0.02365
G1 X114.666 Y108.881 E0.26358
G1 E-0.80000 F2100.00000
G1 Z0.800 F10800.000
G1 X110.141 Y131.732
G1 Z0.200
G1 E0.80000 F2100.00000
G1 F1200
G1 X110.141 Y128.159 E0.11203
G1 X109.387 Y128.159 E0.02365
G1 X109.387 Y131.563 E0.10671
G1 X108.633 Y131.563 E0.02365
G1 X108.633 Y128.159 E0.10671
G1 X107.879 Y128.159 E0.02365
G1 X107.879 Y131.563 E0.10671
G1 X107.125 Y131.563 E0.02365
G1 X107.125 Y128.159 E0.10671
G1 X106.371 Y128.159 E0.02365
G1 X106.371 Y135.023 E0.21522
G1 X105.616 Y135.023 E0.02365
G1 X105.616 Y128.159 E0.21522
G1 X104.862 Y128.159 E0.02365
G1 X104.862 Y135.023 E0.21522
G1 X104.108 Y135.023 E0.02365
G1 X104.108 Y128.159 E0.21522
G1 X103.354 Y128.159 E0.02365
G1 X103.354 Y138.703 E0.33060
G1 X102.600 Y138.703 E0.02365
G1 X102.600 Y128.159 E0.33060
G1 X101.846 Y128.159 E0.02365
G1 X101.846 Y138.703 E0.33060
G1 X101.296 Y138.703 E0.01724
G1 X101.296 Y135.332 E0.10572
G1 X101.091 Y135.127 E0.00906
G1 X101.091 Y128.159 E0.21848
G1 X100.337 Y128.159 E0.02365
G1 X100.337 Y135.023 E0.21522
G1 X99.583 Y135.023 E0.02365
G1 X99.583 Y128.159 E0.21522
G1 X98.829 Y128.159 E0.02365
G1 X98.829 Y135.023 E0.21522
M73 P0 R249
G1 X98.075 Y135.023 E0.02365
G1 X98.075 Y128.159 E0.21522
G1 X97.321 Y128.159 E0.02365
G1 X97.321 Y131.563 E0.10671
G1 X96.567 Y131.563 E0.02365
G1 X96.567 Y128.159 E0.10671
G1 X95.812 Y128.159 E0.02365
G1 X95.812 Y131.563 E0.10671
G1 X95.058 Y131.563 E0.02365
G1 X95.058 Y128.159 E0.10671
G1 X94.304 Y128.159 E0.02365
G1 X94.304 Y131.563 E0.10671
G1 X93.550 Y131.563 E0.02365
G1 X93.550 Y127.990 E0.11203
G1 E-0.80000 F2100.00000
G1 Z0.800 F10800.000
G1 X98.075 Y169.616
G1 Z0.200
G1 E0.80000 F2100.00000
G1 F1200
G1 X98.075 Y173.309 E0.11580
G1 X98.829 Y173.309 E0.02365
G1 X98.829 Y169.786 E0.11048
G1 X99.583 Y169.786 E0.02365
G1 X99.583 Y173.309 E0.11048
G1 X100.337 Y173.309 E0.02365
G1 X100.337 Y169.786 E0.11048
G1 X100.987 Y169.786 E0.02038
G1 X101.091 Y169.682 E0.00462
G1 X101.091 Y173.309 E0.11375
G1 X101.846 Y173.309 E0.02365
G1 X101.846 Y162.765 E0.33060
G1 X102.600 Y162.765 E0.02365
G1 X102.600 Y173.309 E0.33060
G1 X103.354 Y173.309 E0.02365
G1 X103.354 Y162.765 E0.33060
G1 X103.686 Y162.765 E0.01040
G1 X103.686 Y169.478 E0.21046
G1 X103.994 Y169.786 E0.01366
G1 X104.108 Y169.786 E0.00358
G1 X104.108 Y173.309 E0.11048
G1 X104.862 Y173.309 E0.02365
G1 X104.862 Y169.786 E0.11048
G1 X105.616 Y169.786 E0.02365
G1 X105.616 Y173.309 E0.11048
G1 X106.371 Y173.309 E0.02365
G1 X106.371 Y169.786 E0.11048
G1 X107.125 Y169.786 E0.02365
G1 X107.125 Y173.309 E0.11048
G1 X107.879 Y173.309 E0.02365
G1 X107.879 Y169.788 E0.11041
G1 X108.633 Y169.791 E0.02365
G1 X108.633 Y173.309 E0.11033
G1 X109.387 Y173.309 E0.02365
G1 X109.387 Y169.793 E0.11025
G1 X109.565 Y169.794 E0.00559
G1 X109.880 Y169.448 E0.01466
G1 X109.829 Y168.936 E0.01614
G1 X109.961 Y167.600 E0.04210
G1 X110.141 Y167.005 E0.01948
G1 X110.141 Y173.309 E0.19767
G1 X110.896 Y173.309 E0.02365
G1 X110.896 Y165.295 E0.25127
G1 X110.984 Y165.131 E0.00586
G1 X111.650 Y164.319 E0.03292
G1 X111.650 Y173.309 E0.28189
G1 X112.404 Y173.309 E0.02365
G1 X112.404 Y163.626 E0.30361
G1 X112.873 Y163.241 E0.01904
G1 X113.158 Y163.089 E0.01012
G1 X113.158 Y173.309 E0.32046
G1 X113.912 Y173.309 E0.02365
G1 X113.912 Y162.765 E0.33060
G1 X114.666 Y162.765 E0.02365
G1 X114.666 Y173.309 E0.33060
G1 X115.421 Y173.309 E0.02365
G1 X115.421 Y162.765 E0.33060
G1 X116.175 Y162.765 E0.02365
G1 X116.175 Y173.309 E0.33060
G1 X116.929 Y173.309 E0.02365
G1 X116.929 Y162.765 E0.33060
G1 X117.683 Y162.765 E0.02365
G1 X117.683 Y173.309 E0.33060
G1 X118.437 Y173.309 E0.02365
G1 X118.437 Y162.765 E0.33060
G1 X119.191 Y162.765 E0.02365
G1 X119.191 Y173.309 E0.33060
G1 X119.945 Y173.309 E0.02365
G1 X119.945 Y162.953 E0.32471
G1 X120.484 Y163.241 E0.01913
G1 X120.700 Y163.418 E0.00876
G1 X120.700 Y173.309 E0.31013
G1 X121.454 Y173.309 E0.02365
G1 X121.454 Y164.037 E0.29073
G1 X121.522 Y164.093 E0.00275
G1 X122.208 Y164.929 E0.03393
G1 X122.208 Y173.309 E0.26276
G1 X122.962 Y173.309 E0.02365
G1 X122.962 Y166.232 E0.22190
G1 X123.006 Y166.315 E0.00293
G1 X123.396 Y167.600 E0.04210
G1 X123.528 Y168.936 E0.04210
G1 X123.472 Y169.500 E0.01778
G1 X123.716 Y169.767 E0.01134
G1 X123.716 Y173.309 E0.11108
G1 X124.470 Y173.309 E0.02365
G1 X124.470 Y169.839 E0.10881
G1 X125.225 Y169.831 E0.02365
G1 X125.225 Y173.309 E0.10907
G1 X125.979 Y173.309 E0.02365
G1 X125.979 Y169.823 E0.10933
G1 X126.733 Y169.814 E0.02365
G1 X126.733 Y173.309 E0.10958
G1 X127.487 Y173.309 E0.02365
G1 X127.487 Y169.806 E0.10984
G1 X128.241 Y169.798 E0.02365
G1 X128.241 Y173.479 E0.11542
G1 E-0.80000 F2100.00000
G1 Z0.800 F10800.000
G1 X125.000 Y183.421
G1 Z0.200
G1 E0.80000 F2100.00000
G1 F1200
G1 X86.081 Y183.421 E1.22029
G1 X86.081 Y168.673 E0.46241
G1 X100.182 Y168.673 E0.44214
G1 X100.183 Y136.137 E1.02015
G1 X96.740 Y136.137 E0.10793
G1 X96.740 Y132.676 E0.10851
G1 X86.413 Y132.676 E0.32381
G1 X86.413 Y72.841 E1.87607
G1 X116.514 Y72.841 E0.94381
G1 X116.515 Y132.676 E1.87607
G1 X107.837 Y132.676 E0.27211
G1 X107.837 Y136.137 E0.10851
G1 X104.799 Y136.137 E0.09524
G1 X104.799 Y168.674 E1.02018
G1 X108.736 Y168.679 E0.12346
G1 X108.864 Y167.381 E0.04089
G1 X109.317 Y165.887 E0.04897
G1 X110.054 Y164.509 E0.04897
G1 X111.045 Y163.302 E0.04897
G1 X112.252 Y162.311 E0.04897
G1 X113.629 Y161.575 E0.04897
G1 X115.124 Y161.121 E0.04897
G1 X116.679 Y160.968 E0.04897
G1 X118.233 Y161.121 E0.04897
G1 X119.728 Y161.575 E0.04897
G1 X121.105 Y162.311 E0.04897
G1 X122.312 Y163.302 E0.04897
G1 X123.303 Y164.509 E0.04897
G1 X124.040 Y165.887 E0.04897
G1 X124.493 Y167.381 E0.04897
G1 X124.625 Y168.724 E0.04231
G1 X129.338 Y168.673 E0.14776
G1 X163.575 Y168.673 E1.07350
G1 X163.919 Y169.634 E0.03201
G1 X163.919 Y183.421 E0.43228
G1 X125.060 Y183.421 E1.21841
G1 X125.000 Y183.044 F10800.000
G1 F1200
G1 X86.458 Y183.044 E1.20846
G1 X86.458 Y169.050 E0.43876
G1 X100.559 Y169.050 E0.44214
G1 X100.560 Y135.760 E1.04380
G1 X97.117 Y135.760 E0.10793
G1 X97.117 Y132.299 E0.10851
G1 X86.790 Y132.299 E0.32381
G1 X86.790 Y73.218 E1.85243
G1 X116.137 Y73.218 E0.92017
G1 X116.138 Y132.299 E1.85243
G1 X107.460 Y132.299 E0.27211
G1 X107.460 Y135.760 E0.10851
G1 X104.422 Y135.760 E0.09524
G1 X104.422 Y169.050 E1.04381
G1 X109.102 Y169.057 E0.14674
G1 X109.090 Y168.936 E0.00381
G1 X109.236 Y167.455 E0.04664
G1 X109.667 Y166.032 E0.04664
G1 X110.369 Y164.720 E0.04664
G1 X111.313 Y163.570 E0.04664
G1 X112.462 Y162.626 E0.04664
G1 X113.774 Y161.925 E0.04664
G1 X115.198 Y161.493 E0.04664
G1 X116.679 Y161.347 E0.04664
G1 X118.159 Y161.493 E0.04664
G1 X119.583 Y161.925 E0.04664
G1 X120.895 Y162.626 E0.04664
G1 X122.044 Y163.570 E0.04664
G1 X122.988 Y164.720 E0.04664
G1 X123.690 Y166.032 E0.04664
G1 X124.121 Y167.455 E0.04664
G1 X124.267 Y168.936 E0.04664
G1 X124.250 Y169.105 E0.00535
G1 X129.340 Y169.050 E0.15958
G1 X163.310 Y169.050 E1.06511
M73 P0 R248
G1 X163.542 Y169.699 E0.02163
G1 X163.542 Y183.044 E0.41840
G1 X125.060 Y183.044 E1.20658
G1 X124.840 Y183.410 F10800.000
G1 X125.000 Y184.414
G1 F1200
G1 X85.087 Y184.414 E1.25144
G1 X85.087 Y25.586 E4.97996
G1 X158.000 Y25.586 E2.28614
G1 X158.505 Y26.154 E0.02383
G1 X158.505 Y167.679 E4.43741
G1 X164.642 Y167.679 E0.19243
G1 X164.723 Y167.692 E0.00259
G1 X164.888 Y168.152 E0.01532
G1 X164.913 Y169.366 E0.03805
G1 X164.913 Y184.414 E0.47184
G1 X125.060 Y184.414 E1.24956
G1 X125.000 Y184.791 F10800.000
G1 F1200
G1 X84.710 Y184.791 E1.26326
G1 X84.710 Y25.209 E5.00361
G1 X158.170 Y25.209 E2.30329
G1 X158.882 Y26.011 E0.03364
G1 X158.882 Y167.302 E4.43007
G1 X164.672 Y167.302 E0.18155
G1 X165.003 Y167.355 E0.01052
G1 X165.264 Y168.083 E0.02424
G1 X165.290 Y169.362 E0.04010
G1 X165.290 Y184.791 E0.48379
G1 X125.060 Y184.791 E1.26138
G1 X124.759 Y184.472 F10800.000
G1 E-0.80000 F2100.00000
G1 Z0.800 F10800.000
G1 X127.430 Y168.581
G1 Z0.200
G1 E0.80000 F2100.00000
G1 F1200
G1 X123.929 Y165.080 E0.15556
G1 X124.302 Y165.778 E0.02487
G1 X124.393 Y166.079 E0.00988
G1 X126.733 Y168.418 E0.10398
G1 X126.204 Y168.424 E0.01661
G1 X124.626 Y166.846 E0.07014
G1 X124.772 Y167.326 E0.01576
G1 X124.794 Y167.548 E0.00701
G1 X125.676 Y168.430 E0.03920
G1 X125.147 Y168.436 E0.01661
G1 X124.663 Y167.952 E0.02152
G1 E-0.80000 F2100.00000
G1 Z0.800 F10800.000
G1 X104.912 Y167.975
G1 Z0.200
G1 E0.80000 F2100.00000
G1 F1200
G1 X105.328 Y168.392 E0.01850
G1 X105.863 Y168.392 E0.01682
G1 X105.082 Y167.610 E0.03474
G1 X105.082 Y167.076 E0.01679
G1 X106.399 Y168.393 E0.05853
G1 X106.934 Y168.394 E0.01682
G1 X105.082 Y166.542 E0.08231
G1 X105.082 Y166.007 E0.01679
G1 X107.469 Y168.395 E0.10609
G1 X108.004 Y168.395 E0.01682
G1 X105.082 Y165.473 E0.12988
G1 X105.082 Y164.938 E0.01679
G1 X108.485 Y168.342 E0.15126
G1 X108.533 Y167.855 E0.01536
G1 X105.082 Y164.404 E0.15339
G1 X105.082 Y163.869 E0.01679
G1 X108.581 Y167.369 E0.15551
G1 X108.699 Y166.952 E0.01361
G1 X105.082 Y163.335 E0.16074
G1 X105.082 Y162.801 E0.01679
G1 X108.823 Y166.542 E0.16627
G1 X108.948 Y166.132 E0.01347
G1 X105.082 Y162.266 E0.17180
G1 X105.082 Y161.732 E0.01679
G1 X109.080 Y165.730 E0.17770
G1 X109.267 Y165.382 E0.01241
G1 X105.082 Y161.197 E0.18597
G1 X105.082 Y160.663 E0.01679
G1 X109.453 Y165.034 E0.19425
G1 X109.639 Y164.685 E0.01241
G1 X105.082 Y160.128 E0.20252
G1 X105.082 Y159.594 E0.01679
G1 X109.827 Y164.339 E0.21089
G1 X110.068 Y164.046 E0.01193
G1 X105.082 Y159.059 E0.22160
G1 X105.082 Y158.525 E0.01679
G1 X110.309 Y163.752 E0.23230
G1 X110.550 Y163.459 E0.01193
G1 X105.082 Y157.991 E0.24301
G1 X105.082 Y157.456 E0.01679
G1 X110.791 Y163.165 E0.25371
G1 X110.844 Y163.101 E0.00262
G1 X111.073 Y162.913 E0.00932
G1 X105.082 Y156.922 E0.26624
G1 X105.082 Y156.387 E0.01679
G1 X111.366 Y162.672 E0.27929
G1 X111.660 Y162.431 E0.01193
G1 X105.082 Y155.853 E0.29233
G1 X105.082 Y155.318 E0.01679
G1 X111.953 Y162.190 E0.30538
M73 P1 R247
G1 X112.094 Y162.075 E0.00572
G1 X112.276 Y161.978 E0.00647
G1 X105.082 Y154.784 E0.31969
G1 X105.082 Y154.249 E0.01679
G1 X112.624 Y161.791 E0.33517
G1 X112.972 Y161.605 E0.01241
G1 X105.082 Y153.715 E0.35064
G1 X105.082 Y153.181 E0.01679
G1 X113.320 Y161.419 E0.36612
G1 X113.521 Y161.312 E0.00714
G1 X113.695 Y161.259 E0.00572
G1 X105.082 Y152.646 E0.38277
G1 X105.082 Y152.112 E0.01679
G1 X114.105 Y161.135 E0.40099
G1 X114.515 Y161.010 E0.01347
G1 X105.082 Y151.577 E0.41921
G1 X105.082 Y151.043 E0.01679
G1 X114.925 Y160.886 E0.43743
G1 X115.069 Y160.843 E0.00471
G1 X115.385 Y160.811 E0.00998
G1 X105.082 Y150.508 E0.45787
G1 X105.082 Y149.974 E0.01679
G1 X115.871 Y160.763 E0.47949
G1 X116.358 Y160.716 E0.01536
G1 X105.082 Y149.439 E0.50111
G1 X105.082 Y148.905 E0.01679
G1 X116.881 Y160.704 E0.52434
G1 X117.474 Y160.762 E0.01872
G1 X105.082 Y148.371 E0.55068
G1 X105.082 Y147.836 E0.01679
G1 X118.066 Y160.821 E0.57703
G1 X118.288 Y160.843 E0.00701
G1 X118.768 Y160.988 E0.01576
G1 X105.082 Y147.302 E0.60822
G1 X105.082 Y146.767 E0.01679
G1 X119.535 Y161.221 E0.64232
G1 X119.836 Y161.312 E0.00988
G1 X120.534 Y161.685 E0.02487
G1 X105.082 Y146.233 E0.68670
G1 X105.082 Y145.698 E0.01679
G1 X127.790 Y168.407 E1.00916
G1 X128.319 Y168.401 E0.01661
G1 X105.082 Y145.164 E1.03266
G1 X105.082 Y144.629 E0.01679
G1 X128.848 Y168.395 E1.05615
G1 X129.377 Y168.390 E0.01663
G1 X105.082 Y144.095 E1.07966
G1 X105.082 Y143.561 E0.01679
G1 X129.911 Y168.390 E1.10341
G1 X130.446 Y168.390 E0.01679
G1 X105.082 Y143.026 E1.12716
G1 X105.082 Y142.492 E0.01679
G1 X130.980 Y168.390 E1.15091
G1 X131.515 Y168.390 E0.01679
