; generated by PrusaSlicer 2.1.1+win64 on 2020-04-23 at 18:13:48 UTC

; 

; external perimeters extrusion width = 0.45mm
; perimeters extrusion width = 0.45mm
; infill extrusion width = 0.45mm
; solid infill extrusion width = 0.45mm
; top infill extrusion width = 0.40mm
; support material extrusion width = 0.35mm
; first layer extrusion width = 0.42mm

M73 P0 R20
M201 X9000 Y9000 Z500 E10000 ; sets maximum accelerations, mm/sec^2
M203 X500 Y500 Z12 E120 ; sets maximum feedrates, mm/sec
M204 P2000 R1500 T2000 ; sets acceleration (P, T) and retract acceleration (R), mm/sec^2
M205 X10.00 Y10.00 Z0.20 E2.50 ; sets the jerk limits, mm/sec
M205 S0 T0 ; sets the minimum extruding and travel feed rate, mm/sec
M107
M862.3 P "MK2.5SMMU2S" ; printer model check
M862.1 P0.4 ; nozzle diameter check
M115 U3.8.0 ; tell printer latest fw version
G90 ; use absolute coordinates
M83 ; extruder relative mode
M104 S215 ; set extruder temp
M140 S60 ; set bed temp
Tx
M190 S60 ; wait for bed temp
M109 S215 ; wait for extruder temp
G28 W ; home all without mesh bed level
G80 ; mesh bed leveling

G21 ; set units to millimeters

;go outside print area
G1 Y-3.0 F1000.0
G1 Z0.4 F1000.0
; select extruder
Tc
; purge line
G1 X55.0 F2000.0
G1 Z0.3 F1000.0
G92 E0.0
G1 X240.0 E25.0 F2200.0
M73 P0 R20
G1 Y-2.0 F1000.0
G1 X55.0 E25 F1400.0
G1 Z0.20 F1000.0
G1 X5.0 E4.0 F1000.0
G92 E0.0
G21 ; set units to millimeters
G90 ; use absolute coordinates
M83 ; use relative distances for extrusion
M900 K30 ; Filament gcode
;BEFORE_LAYER_CHANGE
G92 E0.0
;0.2


G1 E-0.80000 F2100.00000
G1 Z0.600 F10800.000
;AFTER_LAYER_CHANGE
;0.2
G1 X108.392 Y89.921
G1 Z0.200
G1 E0.80000 F2100.00000
M204 S1000
G1 F1200
G1 X119.747 Y77.782 E0.52118
G1 X120.814 Y76.920 E0.04300
G1 X122.123 Y76.224 E0.04649
G1 X123.529 Y75.800 E0.04603
G1 X125.004 Y75.656 E0.04649
G1 X126.473 Y75.801 E0.04626
G1 X127.878 Y76.225 E0.04603
G1 X129.184 Y76.919 E0.04637
G1 X130.253 Y77.782 E0.04306
G1 X141.609 Y89.922 E0.52122
G1 X142.999 Y91.612 E0.06861
G1 X143.681 Y92.582 E0.03720
G1 X144.784 Y94.427 E0.06738
G1 X145.705 Y96.370 E0.06742
G1 X146.138 Y97.494 E0.03777
G1 X146.760 Y99.550 E0.06738
G1 X147.182 Y101.659 E0.06742
G1 X147.328 Y102.850 E0.03761
G1 X147.432 Y105.001 E0.06753
G1 X147.329 Y107.149 E0.06742
G1 X147.181 Y108.345 E0.03777
G1 X146.760 Y110.452 E0.06737
G1 X146.137 Y112.510 E0.06742
G1 X145.706 Y113.629 E0.03761
G1 X144.785 Y115.572 E0.06742
G1 X143.681 Y117.418 E0.06742
G1 X142.997 Y118.390 E0.03727
G1 X141.608 Y120.079 E0.06857
G1 X130.253 Y132.218 E0.52118
G1 X129.186 Y133.080 E0.04300
G1 X127.877 Y133.776 E0.04649
G1 X126.471 Y134.200 E0.04603
G1 X124.999 Y134.344 E0.04637
G1 X123.527 Y134.199 E0.04637
G1 X122.122 Y133.775 E0.04603
G1 X120.816 Y133.081 E0.04637
G1 X119.747 Y132.218 E0.04306
G1 X108.391 Y120.078 E0.52122
G1 X107.001 Y118.388 E0.06861
G1 X106.319 Y117.418 E0.03720
G1 X105.216 Y115.573 E0.06738
G1 X104.295 Y113.630 E0.06742
G1 X103.862 Y112.506 E0.03777
G1 X103.240 Y110.449 E0.06738
G1 X102.818 Y108.341 E0.06742
G1 X102.672 Y107.150 E0.03761
G1 X102.568 Y104.999 E0.06754
G1 X102.671 Y102.851 E0.06742
G1 X102.819 Y101.655 E0.03777
G1 X103.240 Y99.548 E0.06738
G1 X103.863 Y97.490 E0.06742
G1 X104.294 Y96.371 E0.03761
G1 X105.215 Y94.428 E0.06742
G1 X106.319 Y92.582 E0.06742
G1 X107.001 Y91.613 E0.03716
G1 X108.354 Y89.967 E0.06680
G1 E-0.80000 F2100.00000
G1 Z0.800 F10800.000
G1 X125.041 Y131.278
G1 Z0.200
G1 E0.80000 F2100.00000
G1 F1200
G1 X124.136 Y131.189 E0.02851
G1 X123.266 Y130.925 E0.02851
G1 X122.464 Y130.496 E0.02851
G1 X121.762 Y129.919 E0.02851
G1 X121.185 Y129.216 E0.02851
G1 X120.756 Y128.415 E0.02851
G1 X120.492 Y127.545 E0.02851
G1 X120.403 Y126.640 E0.02851
G1 X120.492 Y125.735 E0.02851
G1 X120.756 Y124.865 E0.02851
G1 X121.185 Y124.063 E0.02851
G1 X121.762 Y123.360 E0.02851
G1 X122.464 Y122.783 E0.02851
G1 X123.267 Y122.355 E0.02852
G1 X124.158 Y122.089 E0.02916
G1 X125.041 Y122.002 E0.02782
G1 X125.946 Y122.091 E0.02851
G1 X126.816 Y122.355 E0.02851
G1 X127.618 Y122.783 E0.02851
G1 X128.321 Y123.360 E0.02851
G1 X128.897 Y124.063 E0.02851
G1 X129.326 Y124.865 E0.02851
G1 X129.590 Y125.735 E0.02851
G1 X129.679 Y126.640 E0.02851
G1 X129.590 Y127.545 E0.02851
G1 X129.326 Y128.415 E0.02851
G1 X128.897 Y129.216 E0.02851
G1 X128.321 Y129.919 E0.02851
G1 X127.618 Y130.496 E0.02851
G1 X126.816 Y130.925 E0.02851
G1 X125.946 Y131.189 E0.02851
G1 X125.101 Y131.272 E0.02663
G1 X124.841 Y131.624 F10800.000
G1 E-0.80000 F2100.00000
G1 Z0.800 F10800.000
G1 X125.000 Y118.716
G1 Z0.200
G1 E0.80000 F2100.00000
G1 F1200
G1 X124.327 Y118.699 E0.02111
G1 X123.656 Y118.650 E0.02111
G1 X122.987 Y118.567 E0.02111
G1 X122.324 Y118.452 E0.02111
G1 X121.667 Y118.305 E0.02111
G1 X121.019 Y118.125 E0.02111
G1 X120.379 Y117.914 E0.02111
G1 X119.751 Y117.672 E0.02111
G1 X119.136 Y117.399 E0.02111
G1 X118.534 Y117.096 E0.02111
G1 X117.949 Y116.764 E0.02111
G1 X117.380 Y116.404 E0.02111
G1 X116.830 Y116.017 E0.02111
G1 X116.299 Y115.602 E0.02111
G1 X115.789 Y115.163 E0.02111
G1 X115.302 Y114.698 E0.02111
G1 X114.837 Y114.211 E0.02111
G1 X114.398 Y113.701 E0.02111
G1 X113.983 Y113.170 E0.02111
G1 X113.596 Y112.620 E0.02111
G1 X113.236 Y112.051 E0.02111
G1 X112.904 Y111.466 E0.02111
G1 X112.601 Y110.864 E0.02111
G1 X112.328 Y110.249 E0.02111
G1 X112.086 Y109.621 E0.02111
G1 X111.875 Y108.981 E0.02111
G1 X111.695 Y108.333 E0.02111
G1 X111.548 Y107.676 E0.02111
G1 X111.433 Y107.013 E0.02111
G1 X111.350 Y106.344 E0.02111
G1 X111.301 Y105.673 E0.02111
G1 X111.284 Y105.000 E0.02111
G1 X111.301 Y104.327 E0.02111
G1 X111.350 Y103.656 E0.02111
G1 X111.433 Y102.988 E0.02111
G1 X111.548 Y102.324 E0.02111
G1 X111.695 Y101.667 E0.02111
G1 X111.875 Y101.019 E0.02111
G1 X112.086 Y100.379 E0.02111
G1 X112.328 Y99.751 E0.02111
G1 X112.601 Y99.136 E0.02111
G1 X112.904 Y98.534 E0.02111
G1 X113.236 Y97.949 E0.02111
G1 X113.596 Y97.380 E0.02111
G1 X113.983 Y96.830 E0.02111
G1 X114.398 Y96.299 E0.02111
G1 X114.837 Y95.789 E0.02111
G1 X115.302 Y95.302 E0.02111
G1 X115.789 Y94.837 E0.02111
G1 X116.299 Y94.398 E0.02111
G1 X116.830 Y93.983 E0.02111
G1 X117.380 Y93.596 E0.02111
G1 X117.949 Y93.236 E0.02111
G1 X118.534 Y92.904 E0.02111
G1 X119.136 Y92.601 E0.02111
G1 X119.751 Y92.328 E0.02111
G1 X120.379 Y92.086 E0.02111
G1 X121.019 Y91.875 E0.02111
G1 X121.667 Y91.695 E0.02111
G1 X122.324 Y91.548 E0.02111
G1 X122.988 Y91.433 E0.02111
G1 X123.656 Y91.350 E0.02112
G1 X124.341 Y91.300 E0.02154
G1 X125.000 Y91.284 E0.02066
G1 X125.673 Y91.301 E0.02111
G1 X126.344 Y91.350 E0.02111
G1 X127.013 Y91.433 E0.02111
G1 X127.676 Y91.548 E0.02111
G1 X128.333 Y91.695 E0.02111
G1 X128.981 Y91.875 E0.02111
G1 X129.621 Y92.086 E0.02111
G1 X130.249 Y92.328 E0.02111
G1 X130.864 Y92.601 E0.02111
G1 X131.466 Y92.904 E0.02111
G1 X132.051 Y93.236 E0.02111
G1 X132.620 Y93.596 E0.02111
G1 X133.170 Y93.983 E0.02111
G1 X133.701 Y94.398 E0.02111
G1 X134.211 Y94.837 E0.02111
G1 X134.698 Y95.302 E0.02111
G1 X135.163 Y95.789 E0.02111
G1 X135.602 Y96.299 E0.02111
G1 X136.017 Y96.830 E0.02111
G1 X136.404 Y97.380 E0.02111
G1 X136.764 Y97.949 E0.02111
G1 X137.096 Y98.534 E0.02111
G1 X137.399 Y99.136 E0.02111
G1 X137.672 Y99.751 E0.02111
G1 X137.914 Y100.379 E0.02111
G1 X138.125 Y101.019 E0.02111
G1 X138.305 Y101.667 E0.02111
G1 X138.452 Y102.324 E0.02111
G1 X138.567 Y102.987 E0.02111
G1 X138.650 Y103.656 E0.02111
G1 X138.699 Y104.327 E0.02111
G1 X138.716 Y105.000 E0.02111
G1 X138.699 Y105.673 E0.02111
G1 X138.650 Y106.344 E0.02111
G1 X138.567 Y107.012 E0.02111
G1 X138.452 Y107.676 E0.02111
G1 X138.305 Y108.333 E0.02111
G1 X138.125 Y108.981 E0.02111
G1 X137.914 Y109.621 E0.02111
G1 X137.672 Y110.249 E0.02111
G1 X137.399 Y110.864 E0.02111
G1 X137.096 Y111.466 E0.02111
G1 X136.764 Y112.051 E0.02111
G1 X136.404 Y112.620 E0.02111
G1 X136.017 Y113.170 E0.02111
G1 X135.602 Y113.701 E0.02111
G1 X135.163 Y114.211 E0.02111
G1 X134.698 Y114.698 E0.02111
G1 X134.211 Y115.163 E0.02111
G1 X133.701 Y115.602 E0.02111
G1 X133.170 Y116.017 E0.02111
G1 X132.620 Y116.404 E0.02111
G1 X132.051 Y116.764 E0.02111
G1 X131.466 Y117.096 E0.02111
G1 X130.864 Y117.399 E0.02111
G1 X130.249 Y117.672 E0.02111
G1 X129.621 Y117.914 E0.02111
G1 X128.981 Y118.125 E0.02111
G1 X128.333 Y118.305 E0.02111
G1 X127.676 Y118.452 E0.02111
G1 X127.012 Y118.567 E0.02111
G1 X126.344 Y118.650 E0.02111
G1 X125.673 Y118.699 E0.02111
G1 X125.060 Y118.714 E0.01923
G1 X125.000 Y118.339 F10800.000
G1 F1200
G1 X124.346 Y118.322 E0.02053
G1 X123.693 Y118.274 E0.02053
G1 X123.043 Y118.194 E0.02053
G1 X122.398 Y118.082 E0.02053
G1 X121.759 Y117.939 E0.02053
G1 X121.128 Y117.764 E0.02053
G1 X120.506 Y117.559 E0.02053
G1 X119.896 Y117.323 E0.02053
G1 X119.297 Y117.058 E0.02053
G1 X118.712 Y116.764 E0.02053
G1 X118.143 Y116.441 E0.02053
G1 X117.590 Y116.091 E0.02053
G1 X117.054 Y115.714 E0.02053
G1 X116.538 Y115.311 E0.02053
G1 X116.042 Y114.883 E0.02053
G1 X115.568 Y114.432 E0.02053
G1 X115.117 Y113.958 E0.02053
G1 X114.689 Y113.462 E0.02053
G1 X114.286 Y112.946 E0.02053
G1 X113.909 Y112.410 E0.02053
G1 X113.559 Y111.857 E0.02053
G1 X113.236 Y111.288 E0.02053
G1 X112.942 Y110.703 E0.02053
G1 X112.677 Y110.104 E0.02053
G1 X112.441 Y109.494 E0.02053
G1 X112.236 Y108.872 E0.02053
G1 X112.061 Y108.241 E0.02053
G1 X111.918 Y107.602 E0.02053
G1 X111.806 Y106.957 E0.02053
G1 X111.726 Y106.307 E0.02053
G1 X111.678 Y105.654 E0.02053
G1 X111.661 Y105.000 E0.02053
G1 X111.678 Y104.346 E0.02053
G1 X111.726 Y103.693 E0.02053
G1 X111.806 Y103.043 E0.02053
G1 X111.918 Y102.398 E0.02053
G1 X112.061 Y101.759 E0.02053
G1 X112.236 Y101.128 E0.02053
G1 X112.441 Y100.506 E0.02053
G1 X112.677 Y99.896 E0.02053
G1 X112.942 Y99.297 E0.02053
G1 X113.236 Y98.712 E0.02053
G1 X113.559 Y98.143 E0.02053
G1 X113.909 Y97.590 E0.02053
G1 X114.286 Y97.054 E0.02053
G1 X114.689 Y96.538 E0.02053
G1 X115.117 Y96.042 E0.02053
G1 X115.568 Y95.568 E0.02053
G1 X116.042 Y95.117 E0.02053
G1 X116.538 Y94.689 E0.02053
G1 X117.054 Y94.286 E0.02053
G1 X117.590 Y93.909 E0.02053
G1 X118.143 Y93.559 E0.02053
G1 X118.712 Y93.236 E0.02053
G1 X119.297 Y92.942 E0.02053
G1 X119.896 Y92.677 E0.02053
G1 X120.506 Y92.441 E0.02053
G1 X121.128 Y92.236 E0.02053
G1 X121.759 Y92.061 E0.02053
G1 X122.398 Y91.918 E0.02053
G1 X123.043 Y91.806 E0.02053
G1 X123.693 Y91.726 E0.02053
G1 X124.360 Y91.677 E0.02096
G1 X125.000 Y91.661 E0.02009
G1 X125.654 Y91.678 E0.02053
G1 X126.307 Y91.726 E0.02053
G1 X126.957 Y91.806 E0.02053
G1 X127.602 Y91.918 E0.02053
G1 X128.241 Y92.061 E0.02053
G1 X128.872 Y92.236 E0.02053
G1 X129.494 Y92.441 E0.02053
G1 X130.104 Y92.677 E0.02053
G1 X130.703 Y92.942 E0.02053
G1 X131.288 Y93.236 E0.02053
G1 X131.857 Y93.559 E0.02053
G1 X132.410 Y93.909 E0.02053
G1 X132.946 Y94.286 E0.02053
G1 X133.462 Y94.689 E0.02053
G1 X133.958 Y95.117 E0.02053
G1 X134.432 Y95.568 E0.02053
G1 X134.883 Y96.042 E0.02053
G1 X135.311 Y96.538 E0.02053
G1 X135.714 Y97.054 E0.02053
G1 X136.091 Y97.590 E0.02053
G1 X136.441 Y98.143 E0.02053
G1 X136.764 Y98.712 E0.02053
G1 X137.058 Y99.297 E0.02053
G1 X137.323 Y99.896 E0.02053
G1 X137.559 Y100.506 E0.02053
G1 X137.764 Y101.128 E0.02053
G1 X137.939 Y101.759 E0.02053
G1 X138.082 Y102.398 E0.02053
G1 X138.194 Y103.043 E0.02053
G1 X138.274 Y103.693 E0.02053
G1 X138.322 Y104.346 E0.02053
G1 X138.339 Y105.000 E0.02053
G1 X138.322 Y105.654 E0.02053
G1 X138.274 Y106.307 E0.02053
G1 X138.194 Y106.957 E0.02053
G1 X138.082 Y107.602 E0.02053
G1 X137.939 Y108.241 E0.02053
G1 X137.764 Y108.872 E0.02053
G1 X137.559 Y109.494 E0.02053
G1 X137.323 Y110.104 E0.02053
G1 X137.058 Y110.703 E0.02053
G1 X136.764 Y111.288 E0.02053
G1 X136.441 Y111.857 E0.02053
G1 X136.091 Y112.410 E0.02053
G1 X135.714 Y112.946 E0.02053
G1 X135.311 Y113.462 E0.02053
G1 X134.883 Y113.958 E0.02053
G1 X134.432 Y114.432 E0.02053
G1 X133.958 Y114.883 E0.02053
G1 X133.462 Y115.311 E0.02053
G1 X132.946 Y115.714 E0.02053
G1 X132.410 Y116.091 E0.02053
G1 X131.857 Y116.441 E0.02053
G1 X131.288 Y116.764 E0.02053
G1 X130.703 Y117.058 E0.02053
G1 X130.104 Y117.323 E0.02053
G1 X129.494 Y117.559 E0.02053
G1 X128.872 Y117.764 E0.02053
G1 X128.241 Y117.939 E0.02053
G1 X127.602 Y118.082 E0.02053
G1 X126.957 Y118.194 E0.02053
G1 X126.307 Y118.274 E0.02053
G1 X125.654 Y118.322 E0.02053
G1 X125.060 Y118.337 E0.01864
G1 X124.800 Y118.685 F10800.000
G1 E-0.80000 F2100.00000
G1 Z0.800 F10800.000
G1 X120.599 Y124.359
G1 Z0.200
G1 E0.80000 F2100.00000
G1 F1200
G1 X119.880 Y123.977 E0.02553
G1 X119.296 Y123.811 E0.01903
G1 X118.378 Y123.507 E0.03032
G1 X117.478 Y123.160 E0.03025
G1 X116.596 Y122.769 E0.03025
G1 X115.734 Y122.335 E0.03025
G1 X114.895 Y121.860 E0.03025
G1 X114.079 Y121.344 E0.03025
G1 X113.291 Y120.788 E0.03025
G1 X112.549 Y120.210 E0.02949
G1 X111.799 Y119.564 E0.03102
G1 X111.101 Y118.899 E0.03024
G1 X110.436 Y118.200 E0.03025
G1 X109.805 Y117.470 E0.03025
G1 X109.212 Y116.709 E0.03025
G1 X108.656 Y115.921 E0.03025
G1 X108.140 Y115.105 E0.03025
G1 X107.665 Y114.266 E0.03025
G1 X107.231 Y113.404 E0.03025
G1 X106.840 Y112.522 E0.03025
G1 X106.493 Y111.622 E0.03025
G1 X106.190 Y110.706 E0.03025
G1 X105.933 Y109.776 E0.03025
G1 X105.721 Y108.835 E0.03025
G1 X105.556 Y107.884 E0.03025
G1 X105.438 Y106.927 E0.03025
G1 X105.367 Y105.964 E0.03025
G1 X105.344 Y105.000 E0.03025
G1 X105.367 Y104.036 E0.03025
G1 X105.436 Y103.097 E0.02949
G1 X105.556 Y102.115 E0.03102
G1 X105.721 Y101.165 E0.03024
G1 X105.933 Y100.224 E0.03025
G1 X106.190 Y99.294 E0.03025
G1 X106.493 Y98.378 E0.03025
G1 X106.840 Y97.478 E0.03025
G1 X107.231 Y96.596 E0.03025
G1 X107.654 Y95.756 E0.02949
G1 X108.140 Y94.894 E0.03102
G1 X108.656 Y94.079 E0.03024
G1 X109.212 Y93.291 E0.03025
G1 X109.805 Y92.530 E0.03025
G1 X110.436 Y91.800 E0.03025
G1 X111.101 Y91.101 E0.03025
G1 X111.782 Y90.452 E0.02949
G1 X112.530 Y89.805 E0.03102
G1 X113.291 Y89.212 E0.03024
G1 X114.079 Y88.656 E0.03025
G1 X114.895 Y88.140 E0.03025
G1 X115.713 Y87.676 E0.02949
G1 X116.596 Y87.231 E0.03102
G1 X117.478 Y86.840 E0.03024
G1 X118.378 Y86.493 E0.03025
G1 X119.296 Y86.189 E0.03032
G1 X119.880 Y86.023 E0.01903
G1 X120.535 Y85.675 E0.02326
G1 X120.788 Y86.147 E0.01680
G1 X121.411 Y86.908 E0.03084
G1 X122.172 Y87.532 E0.03084
G1 X123.039 Y87.995 E0.03084
G1 X123.980 Y88.281 E0.03084
G1 X124.959 Y88.377 E0.03084
G1 X125.938 Y88.281 E0.03084
G1 X126.879 Y87.995 E0.03084
G1 X127.746 Y87.532 E0.03084
G1 X128.506 Y86.908 E0.03084
G1 X129.130 Y86.147 E0.03084
G1 X129.401 Y85.641 E0.01801
G1 X130.120 Y86.023 E0.02553
G1 X130.704 Y86.189 E0.01903
G1 X131.622 Y86.493 E0.03032
G1 X132.522 Y86.840 E0.03025
G1 X133.404 Y87.231 E0.03025
G1 X134.266 Y87.665 E0.03025
G1 X135.105 Y88.140 E0.03025
G1 X135.921 Y88.656 E0.03025
G1 X136.709 Y89.212 E0.03025
G1 X137.470 Y89.805 E0.03025
G1 X138.200 Y90.436 E0.03025
G1 X138.899 Y91.101 E0.03025
G1 X139.564 Y91.800 E0.03025
G1 X140.195 Y92.530 E0.03025
G1 X140.788 Y93.291 E0.03025
G1 X141.344 Y94.079 E0.03025
G1 X141.847 Y94.874 E0.02949
G1 X142.336 Y95.734 E0.03102
G1 X142.769 Y96.596 E0.03024
G1 X143.160 Y97.478 E0.03025
G1 X143.507 Y98.378 E0.03025
G1 X143.810 Y99.294 E0.03025
G1 X144.067 Y100.224 E0.03025
G1 X144.279 Y101.165 E0.03025
G1 X144.444 Y102.116 E0.03025
G1 X144.562 Y103.073 E0.03025
G1 X144.633 Y104.036 E0.03025
G1 X144.656 Y105.000 E0.03025
G1 X144.633 Y105.964 E0.03025
G1 X144.564 Y106.903 E0.02949
G1 X144.444 Y107.885 E0.03102
G1 X144.279 Y108.835 E0.03024
G1 X144.067 Y109.776 E0.03025
G1 X143.810 Y110.706 E0.03025
G1 X143.507 Y111.622 E0.03025
G1 X143.160 Y112.522 E0.03025
G1 X142.769 Y113.404 E0.03025
G1 X142.346 Y114.244 E0.02949
G1 X141.860 Y115.106 E0.03102
G1 X141.344 Y115.921 E0.03024
G1 X140.788 Y116.709 E0.03025
G1 X140.195 Y117.470 E0.03025
G1 X139.564 Y118.200 E0.03025
G1 X138.899 Y118.899 E0.03025
G1 X138.200 Y119.564 E0.03025
G1 X137.470 Y120.195 E0.03025
G1 X136.709 Y120.788 E0.03025
G1 X135.921 Y121.344 E0.03025
G1 X135.105 Y121.860 E0.03025
G1 X134.266 Y122.335 E0.03025
G1 X133.404 Y122.769 E0.03025
G1 X132.522 Y123.160 E0.03025
G1 X131.622 Y123.507 E0.03025
G1 X130.704 Y123.811 E0.03032
G1 X130.120 Y123.977 E0.01903
G1 X129.465 Y124.325 E0.02326
