; generated by PrusaSlicer 2.1.1+win64 on 2020-04-23 at 18:16:42 UTC

; 

; external perimeters extrusion width = 0.45mm
; perimeters extrusion width = 0.45mm
; infill extrusion width = 0.45mm
; solid infill extrusion width = 0.45mm
; top infill extrusion width = 0.40mm
; support material extrusion width = 0.35mm
; first layer extrusion width = 0.42mm

M73 P0 R66
M201 X9000 Y9000 Z500 E10000 ; sets maximum accelerations, mm/sec^2
M203 X500 Y500 Z12 E120 ; sets maximum feedrates, mm/sec
M204 P2000 R1500 T2000 ; sets acceleration (P, T) and retract acceleration (R), mm/sec^2
M205 X10.00 Y10.00 Z0.20 E2.50 ; sets the jerk limits, mm/sec
M205 S0 T0 ; sets the minimum extruding and travel feed rate, mm/sec
M107
M862.3 P "MK2.5SMMU2S" ; printer model check
M862.1 P0.4 ; nozzle diameter check
M115 U3.8.0 ; tell printer latest fw version
G90 ; use absolute coordinates
M83 ; extruder relative mode
M104 S215 ; set extruder temp
M140 S60 ; set bed temp
Tx
M190 S60 ; wait for bed temp
M109 S215 ; wait for extruder temp
G28 W ; home all without mesh bed level
G80 ; mesh bed leveling

G21 ; set units to millimeters

;go outside print area
G1 Y-3.0 F1000.0
G1 Z0.4 F1000.0
; select extruder
Tc
; purge line
G1 X55.0 F2000.0
G1 Z0.3 F1000.0
G92 E0.0
G1 X240.0 E25.0 F2200.0
M73 P0 R66
G1 Y-2.0 F1000.0
G1 X55.0 E25 F1400.0
G1 Z0.20 F1000.0
G1 X5.0 E4.0 F1000.0
G92 E0.0
G21 ; set units to millimeters
G90 ; use absolute coordinates
M83 ; use relative distances for extrusion
M900 K30 ; Filament gcode
;BEFORE_LAYER_CHANGE
G92 E0.0
;0.2


G1 E-0.80000 F2100.00000
G1 Z0.600 F10800.000
;AFTER_LAYER_CHANGE
;0.2
G1 X114.142 Y80.684
G1 Z0.200
G1 E0.80000 F2100.00000
M204 S1000
G1 F1200
G1 X115.899 Y78.562 E0.08639
G1 X118.173 Y76.697 E0.09222
G1 X120.770 Y75.307 E0.09234
G1 X123.403 Y74.496 E0.08639
G1 X126.557 Y74.154 E0.09949
G1 X129.495 Y74.444 E0.09257
G1 X132.324 Y75.302 E0.09268
G1 X134.931 Y76.696 E0.09268
G1 X137.221 Y78.576 E0.09291
G1 X139.091 Y80.856 E0.09245
G1 X140.487 Y83.470 E0.09291
G1 X141.343 Y86.299 E0.09268
G1 X141.629 Y89.347 E0.09598
G1 X138.264 Y123.529 E1.07696
G1 X137.393 Y126.501 E0.09710
G1 X135.858 Y129.316 E0.10051
G1 X134.101 Y131.438 E0.08639
G1 X131.821 Y133.307 E0.09245
G1 X129.227 Y134.694 E0.09222
G1 X126.590 Y135.506 E0.08650
G1 X123.333 Y135.843 E0.10267
G1 X120.497 Y135.555 E0.08937
G1 X117.669 Y134.695 E0.09268
G1 X115.069 Y133.304 E0.09245
G1 X112.774 Y131.419 E0.09314
G1 X110.909 Y129.144 E0.09222
G1 X109.513 Y126.530 E0.09291
G1 X108.657 Y123.701 E0.09268
G1 X108.371 Y120.653 E0.09598
G1 X111.736 Y86.471 E1.07696
G1 X112.606 Y83.502 E0.09699
G1 X114.113 Y80.737 E0.09874
G1 E-0.80000 F2100.00000
G1 Z0.800 F10800.000
G1 X126.553 Y101.533
G1 Z0.200
G1 E0.80000 F2100.00000
G1 F1200
G1 X124.153 Y101.296 E0.07560
G1 X121.846 Y100.596 E0.07560
G1 X119.719 Y99.460 E0.07560
G1 X117.855 Y97.930 E0.07560
G1 X116.326 Y96.066 E0.07560
G1 X115.189 Y93.940 E0.07560
G1 X114.489 Y91.632 E0.07560
G1 X114.253 Y89.233 E0.07560
G1 X114.489 Y86.833 E0.07560
G1 X115.189 Y84.525 E0.07560
G1 X116.326 Y82.399 E0.07560
G1 X117.855 Y80.535 E0.07560
G1 X119.719 Y79.005 E0.07560
G1 X121.846 Y77.869 E0.07560
G1 X124.153 Y77.169 E0.07560
G1 X126.562 Y76.933 E0.07589
G1 X128.953 Y77.169 E0.07531
G1 X131.260 Y77.869 E0.07560
G1 X133.387 Y79.005 E0.07560
G1 X135.250 Y80.535 E0.07560
G1 X136.780 Y82.399 E0.07560
G1 X137.917 Y84.525 E0.07560
G1 X138.617 Y86.833 E0.07560
G1 X138.853 Y89.233 E0.07560
G1 X138.617 Y91.632 E0.07560
G1 X137.917 Y93.940 E0.07560
G1 X136.780 Y96.066 E0.07560
G1 X135.250 Y97.930 E0.07560
G1 X133.387 Y99.460 E0.07560
G1 X131.260 Y100.596 E0.07560
G1 X128.953 Y101.296 E0.07560
G1 X126.613 Y101.527 E0.07372
G1 X126.553 Y101.912 F10800.000
G1 F1200
G1 X124.079 Y101.668 E0.07793
G1 X121.701 Y100.946 E0.07793
G1 X119.509 Y99.775 E0.07793
G1 X117.587 Y98.198 E0.07793
G1 X116.011 Y96.277 E0.07793
G1 X114.839 Y94.085 E0.07793
G1 X114.118 Y91.706 E0.07793
G1 X113.874 Y89.233 E0.07793
G1 X114.118 Y86.759 E0.07793
G1 X114.839 Y84.380 E0.07793
G1 X116.011 Y82.188 E0.07793
G1 X117.587 Y80.267 E0.07793
G1 X119.509 Y78.690 E0.07793
G1 X121.701 Y77.519 E0.07793
G1 X124.079 Y76.797 E0.07793
G1 X126.562 Y76.554 E0.07822
G1 X129.027 Y76.797 E0.07764
G1 X131.405 Y77.519 E0.07793
G1 X133.597 Y78.690 E0.07793
G1 X135.518 Y80.267 E0.07793
G1 X137.095 Y82.188 E0.07793
G1 X138.267 Y84.380 E0.07793
G1 X138.988 Y86.759 E0.07793
G1 X139.232 Y89.233 E0.07793
G1 X138.988 Y91.706 E0.07793
G1 X138.267 Y94.085 E0.07793
G1 X137.095 Y96.277 E0.07793
G1 X135.518 Y98.198 E0.07793
G1 X133.597 Y99.775 E0.07793
G1 X131.405 Y100.946 E0.07793
G1 X129.027 Y101.668 E0.07793
G1 X126.613 Y101.906 E0.07605
G1 X126.353 Y101.565 F10800.000
G1 E-0.80000 F2100.00000
G1 Z0.800 F10800.000
G1 X121.904 Y100.496
G1 Z0.200
G1 E0.80000 F2100.00000
G1 F1200
G1 X115.696 Y94.288 E0.27842
G1 X115.452 Y93.831 E0.01645
G1 X115.309 Y93.362 E0.01553
G1 X122.423 Y100.476 E0.31907
G1 X123.198 Y100.711 E0.02566
G1 X115.075 Y92.588 E0.36433
G1 X114.840 Y91.814 E0.02566
G1 X123.972 Y100.946 E0.40960
G1 X124.209 Y101.018 E0.00785
G1 X124.624 Y101.059 E0.01323
G1 X114.727 Y91.161 E0.44391
G1 X114.668 Y90.563 E0.01907
G1 X125.222 Y101.117 E0.47339
G1 X125.821 Y101.176 E0.01907
G1 X114.609 Y89.965 E0.50287
G1 X114.550 Y89.366 E0.01907
G1 X126.419 Y101.235 E0.53235
G1 X126.553 Y101.249 E0.00427
G1 X126.934 Y101.211 E0.01215
G1 X114.574 Y88.851 E0.55435
G1 X114.623 Y88.360 E0.01565
G1 X127.425 Y101.163 E0.57421
G1 X127.916 Y101.114 E0.01565
G1 X114.671 Y87.869 E0.59407
G1 X114.720 Y87.378 E0.01565
G1 X128.407 Y101.066 E0.61392
G1 X128.898 Y101.017 E0.01564
G1 X114.768 Y86.887 E0.63376
G1 X114.894 Y86.473 E0.01372
G1 X129.312 Y100.892 E0.64669
G1 X129.726 Y100.766 E0.01372
G1 X115.019 Y86.060 E0.65962
G1 X115.145 Y85.646 E0.01372
G1 X130.140 Y100.641 E0.67256
G1 X130.554 Y100.515 E0.01372
G1 X115.270 Y85.232 E0.68549
G1 X115.396 Y84.818 E0.01372
G1 X130.967 Y100.390 E0.69842
G1 X131.151 Y100.334 E0.00609
G1 X131.347 Y100.229 E0.00703
G1 X115.556 Y84.439 E0.70824
G1 X115.744 Y84.087 E0.01264
G1 X131.698 Y100.042 E0.71558
G1 X132.050 Y99.854 E0.01264
G1 X115.932 Y83.736 E0.72292
G1 X116.120 Y83.384 E0.01264
G1 X132.401 Y99.666 E0.73026
G1 X132.753 Y99.478 E0.01264
G1 X116.308 Y83.033 E0.73760
G1 X116.495 Y82.681 E0.01264
G1 X133.104 Y99.290 E0.74494
G1 X133.229 Y99.223 E0.00448
G1 X133.420 Y99.066 E0.00785
G1 X116.719 Y82.365 E0.74908
G1 X116.962 Y82.069 E0.01216
G1 X133.716 Y98.823 E0.75146
G1 X134.013 Y98.580 E0.01216
G1 X117.205 Y81.773 E0.75384
G1 X117.448 Y81.477 E0.01216
G1 X134.309 Y98.337 E0.75622
G1 X134.605 Y98.094 E0.01216
G1 X117.692 Y81.180 E0.75861
G1 X117.935 Y80.884 E0.01216
G1 X134.901 Y97.851 E0.76099
G1 X135.050 Y97.729 E0.00608
G1 X135.171 Y97.581 E0.00608
G1 X118.204 Y80.614 E0.76099
M73 P1 R65
G1 X118.501 Y80.371 E0.01216
G1 X135.414 Y97.285 E0.75861
G1 X135.657 Y96.988 E0.01216
G1 X118.797 Y80.128 E0.75622
G1 X119.093 Y79.885 E0.01216
G1 X135.901 Y96.692 E0.75384
G1 X136.144 Y96.396 E0.01216
G1 X119.390 Y79.642 E0.75146
G1 X119.686 Y79.399 E0.01216
G1 X136.387 Y96.100 E0.74908
G1 X136.544 Y95.908 E0.00785
G1 X136.610 Y95.784 E0.00447
G1 X120.002 Y79.175 E0.74494
G1 X120.353 Y78.987 E0.01264
G1 X136.798 Y95.432 E0.73760
G1 X136.986 Y95.081 E0.01264
G1 X120.705 Y78.799 E0.73026
G1 X121.056 Y78.611 E0.01264
G1 X137.174 Y94.729 E0.72292
G1 X137.362 Y94.378 E0.01264
G1 X121.408 Y78.423 E0.71558
G1 X121.759 Y78.236 E0.01264
G1 X137.550 Y94.026 E0.70824
G1 X137.654 Y93.831 E0.00703
G1 X137.710 Y93.647 E0.00609
G1 X122.138 Y78.075 E0.69842
G1 X122.552 Y77.950 E0.01372
G1 X137.836 Y93.233 E0.68549
G1 X137.961 Y92.819 E0.01372
G1 X122.966 Y77.824 E0.67256
G1 X123.380 Y77.699 E0.01372
G1 X138.087 Y92.405 E0.65962
G1 X138.212 Y91.992 E0.01372
G1 X123.794 Y77.573 E0.64669
G1 X124.208 Y77.448 E0.01372
G1 X138.338 Y91.578 E0.63376
G1 X138.386 Y91.087 E0.01564
G1 X124.699 Y77.400 E0.61391
G1 X125.190 Y77.351 E0.01566
G1 X138.435 Y90.596 E0.59404
G1 X138.483 Y90.105 E0.01565
G1 X125.682 Y77.303 E0.57417
G1 X126.173 Y77.255 E0.01566
G1 X138.531 Y89.614 E0.55430
G1 X138.569 Y89.233 E0.01215
G1 X138.556 Y89.099 E0.00427
G1 X126.687 Y77.230 E0.53235
G1 X127.285 Y77.289 E0.01907
G1 X138.497 Y88.500 E0.50287
G1 X138.438 Y87.902 E0.01907
G1 X127.883 Y77.348 E0.47339
G1 X128.482 Y77.406 E0.01907
G1 X138.379 Y87.304 E0.44391
G1 X138.338 Y86.888 E0.01324
G1 X138.266 Y86.651 E0.00785
G1 X129.134 Y77.519 E0.40960
G1 X129.908 Y77.754 E0.02566
G1 X138.031 Y85.877 E0.36434
G1 X137.797 Y85.103 E0.02566
G1 X130.683 Y77.989 E0.31908
G1 X131.151 Y78.131 E0.01553
G1 X131.609 Y78.376 E0.01644
G1 X137.816 Y84.583 E0.27842
G1 X137.204 Y83.431 F10800.000
G1 F1200
G1 X132.354 Y78.582 E0.21752
G1 X133.815 Y79.503 F10800.000
G1 F1200
G1 X136.282 Y81.970 E0.11065
G1 E-0.80000 F2100.00000
G1 Z0.800 F10800.000
G1 X120.752 Y99.883
G1 Z0.200
G1 E0.80000 F2100.00000
G1 F1200
G1 X115.902 Y95.034 E0.21751
G1 X116.824 Y96.495 F10800.000
G1 F1200
G1 X119.290 Y98.961 E0.11063
G1 E-0.80000 F2100.00000
G1 Z0.800 F10800.000
G1 X123.447 Y133.068
G1 Z0.200
G1 E0.80000 F2100.00000
G1 F1200
G1 X121.047 Y132.831 E0.07560
G1 X118.740 Y132.131 E0.07560
G1 X116.613 Y130.995 E0.07560
G1 X114.750 Y129.465 E0.07560
G1 X113.220 Y127.601 E0.07560
G1 X112.083 Y125.475 E0.07560
G1 X111.383 Y123.167 E0.07560
G1 X111.147 Y120.767 E0.07560
G1 X111.383 Y118.368 E0.07560
G1 X112.083 Y116.060 E0.07560
G1 X113.220 Y113.934 E0.07560
G1 X114.749 Y112.070 E0.07560
G1 X116.613 Y110.540 E0.07560
G1 X118.740 Y109.404 E0.07560
G1 X121.047 Y108.704 E0.07560
G1 X123.456 Y108.468 E0.07589
G1 X125.847 Y108.704 E0.07531
G1 X128.154 Y109.404 E0.07560
G1 X130.281 Y110.540 E0.07560
G1 X132.145 Y112.070 E0.07560
G1 X133.674 Y113.934 E0.07560
G1 X134.811 Y116.060 E0.07560
G1 X135.511 Y118.368 E0.07560
G1 X135.747 Y120.767 E0.07560
G1 X135.511 Y123.167 E0.07560
G1 X134.811 Y125.475 E0.07560
G1 X133.674 Y127.601 E0.07560
G1 X132.145 Y129.465 E0.07560
G1 X130.281 Y130.995 E0.07560
G1 X128.154 Y132.131 E0.07560
G1 X125.847 Y132.831 E0.07560
G1 X123.507 Y133.062 E0.07372
G1 X123.447 Y133.447 F10800.000
G1 F1200
G1 X120.973 Y133.203 E0.07793
G1 X118.595 Y132.481 E0.07793
G1 X116.403 Y131.310 E0.07793
G1 X114.482 Y129.733 E0.07793
G1 X112.905 Y127.812 E0.07793
G1 X111.733 Y125.620 E0.07793
G1 X111.012 Y123.241 E0.07793
G1 X110.768 Y120.767 E0.07793
G1 X111.012 Y118.294 E0.07793
G1 X111.733 Y115.915 E0.07793
G1 X112.905 Y113.723 E0.07793
G1 X114.482 Y111.802 E0.07793
G1 X116.403 Y110.225 E0.07793
G1 X118.595 Y109.054 E0.07793
G1 X120.973 Y108.332 E0.07793
G1 X123.456 Y108.089 E0.07822
G1 X125.921 Y108.332 E0.07764
G1 X128.299 Y109.054 E0.07793
G1 X130.491 Y110.225 E0.07793
G1 X132.413 Y111.802 E0.07793
G1 X133.989 Y113.723 E0.07793
G1 X135.161 Y115.915 E0.07793
G1 X135.882 Y118.294 E0.07793
G1 X136.126 Y120.767 E0.07793
G1 X135.882 Y123.241 E0.07793
G1 X135.161 Y125.620 E0.07793
G1 X133.989 Y127.812 E0.07793
G1 X132.413 Y129.733 E0.07793
G1 X130.491 Y131.310 E0.07793
G1 X128.299 Y132.481 E0.07793
G1 X125.921 Y133.203 E0.07793
G1 X123.507 Y133.441 E0.07605
G1 X123.247 Y133.100 F10800.000
G1 E-0.80000 F2100.00000
G1 Z0.800 F10800.000
G1 X118.798 Y132.031
G1 Z0.200
G1 E0.80000 F2100.00000
G1 F1200
G1 X112.590 Y125.823 E0.27842
G1 X112.346 Y125.366 E0.01645
G1 X112.204 Y124.897 E0.01553
G1 X119.317 Y132.011 E0.31907
G1 X120.092 Y132.246 E0.02566
G1 X111.969 Y124.123 E0.36433
G1 X111.734 Y123.349 E0.02566
G1 X120.866 Y132.481 E0.40960
G1 X121.103 Y132.553 E0.00785
G1 X121.518 Y132.594 E0.01323
G1 X111.621 Y122.696 E0.44391
G1 X111.562 Y122.098 E0.01907
G1 X122.116 Y132.652 E0.47339
G1 X122.715 Y132.711 E0.01907
G1 X111.503 Y121.500 E0.50287
G1 X111.444 Y120.901 E0.01907
G1 X123.313 Y132.770 E0.53235
G1 X123.447 Y132.784 E0.00427
G1 X123.828 Y132.746 E0.01215
G1 X111.469 Y120.386 E0.55435
G1 X111.517 Y119.895 E0.01565
G1 X124.319 Y132.698 E0.57421
G1 X124.810 Y132.649 E0.01565
G1 X111.565 Y119.404 E0.59407
G1 X111.614 Y118.913 E0.01565
G1 X125.301 Y132.601 E0.61392
G1 X125.792 Y132.552 E0.01564
G1 X111.662 Y118.422 E0.63376
G1 X111.788 Y118.008 E0.01372
G1 X126.206 Y132.427 E0.64669
G1 X126.620 Y132.301 E0.01372
G1 X111.913 Y117.595 E0.65962
G1 X112.039 Y117.181 E0.01372
G1 X127.034 Y132.176 E0.67256
G1 X127.448 Y132.050 E0.01372
G1 X112.164 Y116.767 E0.68549
G1 X112.290 Y116.353 E0.01372
G1 X127.862 Y131.925 E0.69842
G1 X128.045 Y131.869 E0.00609
G1 X128.241 Y131.764 E0.00703
G1 X112.450 Y115.974 E0.70824
G1 X112.638 Y115.622 E0.01264
G1 X128.592 Y131.577 E0.71558
G1 X128.944 Y131.389 E0.01264
G1 X112.826 Y115.271 E0.72292
G1 X113.014 Y114.919 E0.01264
G1 X129.295 Y131.201 E0.73026
G1 X129.647 Y131.013 E0.01264
M73 P3 R64
G1 X113.202 Y114.568 E0.73760
G1 X113.390 Y114.216 E0.01264
G1 X129.998 Y130.825 E0.74494
G1 X130.123 Y130.758 E0.00448
G1 X130.314 Y130.601 E0.00785
G1 X113.613 Y113.900 E0.74908
G1 X113.856 Y113.604 E0.01216
G1 X130.610 Y130.358 E0.75146
G1 X130.907 Y130.115 E0.01216
G1 X114.099 Y113.308 E0.75384
G1 X114.343 Y113.012 E0.01216
G1 X131.203 Y129.872 E0.75622
G1 X131.499 Y129.629 E0.01216
G1 X114.586 Y112.715 E0.75861
G1 X114.829 Y112.419 E0.01216
G1 X131.796 Y129.386 E0.76099
G1 X131.944 Y129.264 E0.00608
G1 X132.065 Y129.116 E0.00608
G1 X115.099 Y112.149 E0.76099
G1 X115.395 Y111.906 E0.01216
G1 X132.308 Y128.820 E0.75861
G1 X132.551 Y128.523 E0.01216
G1 X115.691 Y111.663 E0.75622
G1 X115.987 Y111.420 E0.01216
G1 X132.795 Y128.227 E0.75384
G1 X133.038 Y127.931 E0.01216
G1 X116.284 Y111.177 E0.75146
G1 X116.580 Y110.934 E0.01216
G1 X133.281 Y127.635 E0.74908
G1 X133.438 Y127.443 E0.00785
G1 X133.505 Y127.319 E0.00447
G1 X116.896 Y110.710 E0.74494
G1 X117.247 Y110.522 E0.01264
G1 X133.692 Y126.967 E0.73760
G1 X133.880 Y126.616 E0.01264
G1 X117.599 Y110.334 E0.73026
G1 X117.950 Y110.146 E0.01264
G1 X134.068 Y126.264 E0.72292
G1 X134.256 Y125.913 E0.01264
G1 X118.302 Y109.958 E0.71558
G1 X118.653 Y109.771 E0.01264
G1 X134.444 Y125.561 E0.70824
G1 X134.548 Y125.366 E0.00703
G1 X134.604 Y125.182 E0.00609
G1 X119.033 Y109.610 E0.69842
G1 X119.446 Y109.485 E0.01372
G1 X134.730 Y124.768 E0.68549
G1 X134.855 Y124.354 E0.01372
G1 X119.860 Y109.359 E0.67256
G1 X120.274 Y109.234 E0.01372
G1 X134.981 Y123.940 E0.65962
G1 X135.106 Y123.527 E0.01372
G1 X120.688 Y109.108 E0.64669
G1 X121.102 Y108.983 E0.01372
G1 X135.232 Y123.113 E0.63376
G1 X135.280 Y122.622 E0.01564
G1 X121.593 Y108.934 E0.61391
G1 X122.084 Y108.886 E0.01566
G1 X135.329 Y122.131 E0.59404
G1 X135.377 Y121.640 E0.01565
G1 X122.576 Y108.838 E0.57417
G1 X123.067 Y108.790 E0.01566
G1 X135.426 Y121.149 E0.55430
G1 X135.463 Y120.767 E0.01215
G1 X135.450 Y120.634 E0.00427
G1 X123.581 Y108.765 E0.53235
G1 X124.179 Y108.824 E0.01907
G1 X135.391 Y120.035 E0.50287
G1 X135.332 Y119.437 E0.01907
G1 X124.778 Y108.883 E0.47339
G1 X125.376 Y108.941 E0.01907
G1 X135.273 Y118.839 E0.44391
G1 X135.232 Y118.423 E0.01324
G1 X135.160 Y118.186 E0.00785
G1 X126.028 Y109.054 E0.40960
G1 X126.802 Y109.289 E0.02566
G1 X134.925 Y117.412 E0.36434
G1 X134.691 Y116.638 E0.02566
G1 X127.577 Y109.524 E0.31908
G1 X128.045 Y109.666 E0.01553
G1 X128.503 Y109.911 E0.01644
G1 X134.710 Y116.118 E0.27842
G1 X134.098 Y114.966 F10800.000
G1 F1200
G1 X129.248 Y110.117 E0.21752
G1 X130.709 Y111.038 F10800.000
G1 F1200
G1 X133.176 Y113.505 E0.11065
G1 E-0.80000 F2100.00000
G1 Z0.800 F10800.000
G1 X117.646 Y131.418
G1 Z0.200
G1 E0.80000 F2100.00000
G1 F1200
G1 X112.796 Y126.569 E0.21751
G1 X113.718 Y128.030 F10800.000
G1 F1200
G1 X116.185 Y130.496 E0.11063
M106 S255
;BEFORE_LAYER_CHANGE
G92 E0.0
;0.4


G1 E-0.80000 F2100.00000
G1 Z0.800 F10800.000
;AFTER_LAYER_CHANGE
;0.4
M104 S210 ; set temperature
G1 X115.069 Y133.304
G1 Z0.400
G1 E0.80000 F2100.00000
G1 F3000
G1 X112.774 Y131.419 E0.09314
G1 X110.909 Y129.144 E0.09222
G1 X109.513 Y126.530 E0.09291
G1 X108.657 Y123.701 E0.09268
G1 X108.371 Y120.653 E0.09598
G1 X111.736 Y86.471 E1.07696
G1 X112.606 Y83.502 E0.09699
G1 X114.142 Y80.684 E0.10062
G1 X115.899 Y78.562 E0.08639
G1 X118.173 Y76.697 E0.09222
G1 X120.770 Y75.307 E0.09234
G1 X123.403 Y74.496 E0.08639
