; generated by PrusaSlicer 2.1.1+win64 on 2020-06-26 at 18:20:39 UTC

; 

; external perimeters extrusion width = 0.45mm
; perimeters extrusion width = 0.45mm
; infill extrusion width = 0.45mm
; solid infill extrusion width = 0.45mm
; top infill extrusion width = 0.40mm
; first layer extrusion width = 0.42mm

M73 P0 R32
M201 X9000 Y9000 Z500 E10000 ; sets maximum accelerations, mm/sec^2
M203 X500 Y500 Z12 E120 ; sets maximum feedrates, mm/sec
M204 P2000 R1500 T2000 ; sets acceleration (P, T) and retract acceleration (R), mm/sec^2
M205 X10.00 Y10.00 Z0.20 E4.50 ; sets the jerk limits, mm/sec
M205 S0 T0 ; sets the minimum extruding and travel feed rate, mm/sec
M107
M862.3 P "MK2.5SMMU2S" ; printer model check
M862.1 P0.4 ; nozzle diameter check
M115 U3.8.1 ; tell printer latest fw version
G90 ; use absolute coordinates
M83 ; extruder relative mode
M104 S215 ; set extruder temp
M140 S60 ; set bed temp
Tx
M190 S60 ; wait for bed temp
M109 S215 ; wait for extruder temp
G28 W ; home all without mesh bed level
G80 ; mesh bed leveling

;go outside print area
G1 Y-3.0 F1000.0
G1 Z0.4 F1000.0
; select extruder
Tc
; purge line
G1 X55.0 F2000.0
G1 Z0.3 F1000.0
G92 E0.0
G1 X240.0 E25.0 F2200.0
M73 P0 R31
G1 Y-2.0 F1000.0
G1 X55.0 E25 F1400.0
G1 Z0.20 F1000.0
G1 X5.0 E4.0 F1000.0
G92 E0.0
G21 ; set units to millimeters
G90 ; use absolute coordinates
M83 ; use relative distances for extrusion
M900 K30 ; Filament gcode
;BEFORE_LAYER_CHANGE
G92 E0.0
;0.2


G1 E-0.80000 F2100.00000
G1 Z0.600 F10800.000
;AFTER_LAYER_CHANGE
;0.2
G1 X154.176 Y86.060
G1 Z0.200
G1 E0.80000 F2100.00000
M204 S1000
G1 F1200
G1 X154.361 Y86.879 E0.02631
G1 X154.361 Y123.116 E1.13618
G1 X154.284 Y123.635 E0.01646
G1 X154.088 Y124.118 E0.01635
G1 X153.780 Y124.543 E0.01646
G1 X153.380 Y124.883 E0.01646
G1 X152.837 Y125.142 E0.01885
G1 X152.241 Y125.245 E0.01896
G1 X142.022 Y125.243 E0.32042
G1 X97.668 Y122.831 E1.39275
G1 X97.177 Y122.738 E0.01567
G1 X96.720 Y122.536 E0.01567
G1 X96.320 Y122.236 E0.01567
G1 X96.000 Y121.853 E0.01567
G1 X95.734 Y121.289 E0.01953
G1 X95.638 Y120.674 E0.01953
G1 X95.638 Y89.312 E0.98331
G1 X95.712 Y88.789 E0.01658
G1 X95.909 Y88.298 E0.01658
G1 X96.218 Y87.869 E0.01658
G1 X96.620 Y87.527 E0.01658
G1 X97.131 Y87.277 E0.01783
G1 X97.693 Y87.168 E0.01794
G1 X142.027 Y84.757 E1.39213
G1 X152.177 Y84.754 E0.31823
G1 X152.997 Y84.915 E0.02620
G1 X153.699 Y85.374 E0.02631
G1 X154.142 Y86.011 E0.02431
G1 F8640
G1 X154.361 Y86.879 E-0.20664
G1 X154.361 Y89.275 E-0.55336
G1 E-0.04000 F2100.00000
G1 Z0.800 F10800.000
G1 X110.099 Y97.587
G1 Z0.200
G1 E0.80000 F2100.00000
G1 F1200
G1 X109.498 Y97.646 E0.01894
G1 X108.896 Y97.587 E0.01894
G1 X108.318 Y97.412 E0.01894
G1 X107.785 Y97.127 E0.01894
G1 X107.318 Y96.743 E0.01894
G1 X106.935 Y96.276 E0.01894
G1 X106.650 Y95.744 E0.01894
G1 X106.475 Y95.165 E0.01894
G1 X106.416 Y94.564 E0.01894
G1 X106.475 Y93.963 E0.01894
G1 X106.650 Y93.385 E0.01894
G1 X106.935 Y92.852 E0.01894
G1 X107.318 Y92.385 E0.01894
G1 X107.785 Y92.002 E0.01894
G1 X108.318 Y91.717 E0.01894
G1 X108.896 Y91.541 E0.01894
G1 X109.498 Y91.482 E0.01894
G1 X110.099 Y91.541 E0.01894
G1 X110.677 Y91.717 E0.01894
G1 X111.210 Y92.002 E0.01894
G1 X111.677 Y92.385 E0.01894
G1 X112.060 Y92.852 E0.01894
G1 X112.345 Y93.385 E0.01894
G1 X112.520 Y93.963 E0.01894
G1 X112.580 Y94.564 E0.01894
G1 X112.520 Y95.165 E0.01894
G1 X112.345 Y95.744 E0.01894
G1 X112.060 Y96.276 E0.01894
G1 X111.677 Y96.743 E0.01894
G1 X111.210 Y97.127 E0.01894
G1 X110.677 Y97.412 E0.01894
G1 X110.156 Y97.569 E0.01706
G1 X110.025 Y97.215 F10800.000
G1 F1200
G1 X109.498 Y97.267 E0.01661
G1 X108.970 Y97.215 E0.01661
G1 X108.463 Y97.061 E0.01661
G1 X107.996 Y96.812 E0.01661
G1 X107.586 Y96.476 E0.01661
G1 X107.250 Y96.066 E0.01661
G1 X107.000 Y95.599 E0.01661
G1 X106.846 Y95.091 E0.01661
G1 X106.794 Y94.564 E0.01661
G1 X106.846 Y94.037 E0.01661
G1 X107.000 Y93.530 E0.01661
G1 X107.250 Y93.062 E0.01661
G1 X107.586 Y92.653 E0.01661
G1 X107.996 Y92.317 E0.01661
G1 X108.463 Y92.067 E0.01661
G1 X108.970 Y91.913 E0.01661
G1 X109.498 Y91.861 E0.01661
G1 X110.025 Y91.913 E0.01661
G1 X110.532 Y92.067 E0.01661
G1 X110.999 Y92.317 E0.01661
G1 X111.409 Y92.653 E0.01661
G1 X111.745 Y93.062 E0.01661
G1 X111.995 Y93.530 E0.01661
G1 X112.149 Y94.037 E0.01661
G1 X112.201 Y94.564 E0.01661
G1 X112.149 Y95.091 E0.01661
G1 X111.995 Y95.599 E0.01661
G1 X111.745 Y96.066 E0.01661
G1 X111.409 Y96.476 E0.01661
G1 X110.999 Y96.812 E0.01661
G1 X110.532 Y97.061 E0.01661
G1 X110.082 Y97.198 E0.01473
G1 X109.896 Y97.594 F10800.000
G1 F8640
G1 X109.498 Y97.267 E-0.13597
G1 X108.970 Y97.215 E-0.12235
G1 X108.463 Y97.061 E-0.12236
G1 X107.996 Y96.812 E-0.12235
G1 X107.586 Y96.476 E-0.12236
G1 X107.250 Y96.066 E-0.12235
G1 X107.225 Y96.019 E-0.01226
G1 E-0.04000 F2100.00000
G1 Z0.800 F10800.000
G1 X103.409 Y97.497
G1 Z0.200
G1 E0.80000 F2100.00000
G1 F1200
G1 X102.788 Y97.538 E0.01951
G1 X102.193 Y97.480 E0.01875
G1 X101.611 Y97.303 E0.01905
G1 X101.075 Y97.017 E0.01905
G1 X100.606 Y96.631 E0.01905
G1 X100.220 Y96.162 E0.01905
G1 X99.934 Y95.626 E0.01905
G1 X99.764 Y95.067 E0.01833
G1 X99.654 Y94.448 E0.01972
G1 X99.764 Y93.814 E0.02015
G1 X99.934 Y93.254 E0.01837
G1 X100.220 Y92.718 E0.01905
G1 X100.606 Y92.248 E0.01905
G1 X101.075 Y91.863 E0.01905
G1 X101.611 Y91.576 E0.01905
G1 X102.193 Y91.400 E0.01905
G1 X102.779 Y91.342 E0.01848
G1 X103.400 Y91.399 E0.01955
G1 X103.983 Y91.576 E0.01911
G1 X104.519 Y91.863 E0.01905
G1 X104.989 Y92.248 E0.01905
G1 X105.358 Y92.697 E0.01822
G1 X105.701 Y93.221 E0.01962
G1 X105.839 Y93.859 E0.02047
G1 X105.897 Y94.440 E0.01831
G1 X105.837 Y95.045 E0.01905
G1 X105.661 Y95.626 E0.01905
G1 X105.374 Y96.162 E0.01905
G1 X104.989 Y96.631 E0.01905
G1 X104.519 Y97.017 E0.01905
G1 X103.992 Y97.299 E0.01875
G1 X103.465 Y97.478 E0.01744
G1 X103.334 Y97.124 F10800.000
G1 F1200
G1 X102.794 Y97.160 E0.01698
G1 X102.267 Y97.108 E0.01661
G1 X101.756 Y96.953 E0.01672
G1 X101.286 Y96.702 E0.01672
G1 X100.874 Y96.364 E0.01672
G1 X100.535 Y95.951 E0.01672
G1 X100.284 Y95.481 E0.01672
G1 X100.131 Y94.979 E0.01646
G1 X100.037 Y94.447 E0.01694
G1 X100.131 Y93.902 E0.01734
G1 X100.284 Y93.399 E0.01648
G1 X100.535 Y92.928 E0.01672
G1 X100.874 Y92.516 E0.01672
G1 X101.286 Y92.178 E0.01672
G1 X101.756 Y91.926 E0.01672
G1 X102.267 Y91.772 E0.01672
G1 X102.780 Y91.721 E0.01619
G1 X103.327 Y91.771 E0.01722
G1 X103.838 Y91.926 E0.01674
G1 X104.309 Y92.178 E0.01672
G1 X104.721 Y92.516 E0.01672
G1 X105.053 Y92.921 E0.01643
G1 X105.347 Y93.369 E0.01680
G1 X105.466 Y93.918 E0.01760
G1 X105.518 Y94.440 E0.01646
G1 X105.466 Y94.971 E0.01672
G1 X105.311 Y95.481 E0.01672
G1 X105.059 Y95.951 E0.01672
G1 X104.721 Y96.364 E0.01672
G1 X104.309 Y96.702 E0.01672
G1 X103.841 Y96.952 E0.01661
G1 X103.391 Y97.105 E0.01492
G1 X103.200 Y97.501 F10800.000
G1 F8640
G1 X102.794 Y97.160 E-0.13848
G1 X102.267 Y97.108 E-0.12232
G1 X101.756 Y96.953 E-0.12314
G1 X101.286 Y96.702 E-0.12314
G1 X100.874 Y96.364 E-0.12314
G1 X100.535 Y95.951 E-0.12314
G1 X100.522 Y95.926 E-0.00662
G1 E-0.04000 F2100.00000
G1 Z0.800 F10800.000
G1 X142.722 Y101.413
G1 Z0.200
G1 E0.80000 F2100.00000
G1 F1200
G1 X142.722 Y99.004 E0.07554
G1 X98.414 Y99.004 E1.38927
G1 X98.414 Y89.940 E0.28420
G1 X142.722 Y89.940 E1.38927
G1 X142.722 Y87.530 E0.07555
G1 X151.586 Y87.530 E0.27792
G1 X151.586 Y101.413 E0.43529
G1 X142.782 Y101.413 E0.27604
G1 X142.345 Y101.790 F10800.000
G1 F1200
G1 X142.345 Y99.381 E0.07554
G1 X98.037 Y99.381 E1.38927
G1 X98.037 Y89.563 E0.30784
G1 X142.345 Y89.563 E1.38927
G1 X142.345 Y87.153 E0.07555
G1 X151.963 Y87.153 E0.30157
G1 X151.963 Y101.790 E0.45894
G1 X142.405 Y101.790 E0.29969
G1 X142.422 Y101.397 F10800.000
G1 F8640
G1 X142.345 Y99.381 E-0.55645
G1 X141.464 Y99.381 E-0.20355
G1 E-0.04000 F2100.00000
G1 Z0.800 F10800.000
G1 X143.477 Y101.300
G1 Z0.200
G1 E0.80000 F2100.00000
G1 F1200
G1 X143.005 Y100.828 E0.02100
G1 X143.005 Y100.293 E0.01687
G1 X143.843 Y101.130 E0.03729
G1 X144.378 Y101.130 E0.01687
G1 X143.005 Y99.757 E0.06114
G1 X143.005 Y99.222 E0.01687
G1 X144.914 Y101.130 E0.08499
G1 X145.449 Y101.130 E0.01687
G1 X134.542 Y90.223 E0.48575
G1 X135.077 Y90.223 E0.01687
G1 X145.985 Y101.130 E0.48575
G1 X146.520 Y101.130 E0.01687
G1 X135.613 Y90.223 E0.48575
G1 X136.148 Y90.223 E0.01687
G1 X147.056 Y101.130 E0.48575
G1 X147.592 Y101.130 E0.01687
G1 X136.684 Y90.223 E0.48575
G1 X137.220 Y90.223 E0.01687
G1 X148.127 Y101.130 E0.48575
G1 X148.663 Y101.130 E0.01687
G1 X137.755 Y90.223 E0.48575
G1 X138.291 Y90.223 E0.01687
G1 X149.198 Y101.130 E0.48575
G1 X149.734 Y101.130 E0.01687
G1 X138.826 Y90.223 E0.48575
G1 X139.362 Y90.223 E0.01687
G1 X150.269 Y101.130 E0.48575
G1 X150.805 Y101.130 E0.01687
G1 X139.897 Y90.223 E0.48575
G1 X140.433 Y90.223 E0.01687
G1 X151.303 Y101.093 E0.48410
G1 X151.303 Y100.557 E0.01687
G1 X140.969 Y90.223 E0.46025
G1 X141.504 Y90.223 E0.01687
G1 X151.303 Y100.022 E0.43640
G1 X151.303 Y99.486 E0.01687
G1 X142.040 Y90.223 E0.41255
G1 X142.575 Y90.223 E0.01687
G1 X151.303 Y98.951 E0.38870
G1 X151.303 Y98.415 E0.01687
G1 X143.005 Y90.117 E0.36955
G1 X143.005 Y89.581 E0.01687
G1 X151.303 Y97.880 E0.36955
G1 X151.303 Y97.344 E0.01687
G1 X143.005 Y89.046 E0.36955
G1 X143.005 Y88.510 E0.01687
G1 X151.303 Y96.808 E0.36955
G1 X151.303 Y96.273 E0.01687
G1 X143.005 Y87.974 E0.36955
G1 X143.005 Y87.813 E0.00509
G1 X143.379 Y87.813 E0.01177
G1 X151.303 Y95.737 E0.35290
G1 X151.303 Y95.202 E0.01687
G1 X143.915 Y87.813 E0.32905
G1 X144.450 Y87.813 E0.01687
G1 X151.303 Y94.666 E0.30520
G1 X151.303 Y94.131 E0.01687
G1 X144.986 Y87.813 E0.28135
G1 X145.521 Y87.813 E0.01687
G1 X151.303 Y93.595 E0.25750
M73 P3 R30
G1 X151.303 Y93.059 E0.01687
G1 X146.057 Y87.813 E0.23365
G1 X146.593 Y87.813 E0.01687
G1 X151.303 Y92.524 E0.20980
G1 X151.303 Y91.988 E0.01687
G1 X147.128 Y87.813 E0.18594
G1 X147.664 Y87.813 E0.01687
G1 X151.303 Y91.453 E0.16209
G1 X151.303 Y90.917 E0.01687
G1 X148.199 Y87.813 E0.13824
G1 X148.735 Y87.813 E0.01687
G1 X151.303 Y90.381 E0.11439
G1 X151.303 Y89.846 E0.01687
G1 X149.270 Y87.813 E0.09054
G1 X149.806 Y87.813 E0.01687
G1 X151.303 Y89.310 E0.06669
G1 X151.303 Y88.775 E0.01687
G1 X150.342 Y87.813 E0.04284
G1 X150.877 Y87.813 E0.01687
G1 X151.473 Y88.409 E0.02654
G1 F8640
G1 X150.877 Y87.813 E-0.19464
G1 X150.342 Y87.813 E-0.12367
G1 X151.303 Y88.775 E-0.31412
G1 X151.303 Y89.310 E-0.12367
G1 X151.291 Y89.298 E-0.00392
G1 E-0.04000 F2100.00000
G1 Z0.800 F10800.000
G1 X142.674 Y98.891
G1 Z0.200
G1 E0.80000 F2100.00000
G1 F1200
G1 X134.006 Y90.223 E0.38602
G1 X133.470 Y90.223 E0.01687
G1 X141.969 Y98.721 E0.37847
G1 X141.433 Y98.721 E0.01687
G1 X132.935 Y90.223 E0.37847
G1 X132.399 Y90.223 E0.01687
G1 X140.898 Y98.721 E0.37847
G1 X140.362 Y98.721 E0.01687
G1 X131.864 Y90.223 E0.37847
G1 X131.328 Y90.223 E0.01687
G1 X139.827 Y98.721 E0.37847
G1 X139.291 Y98.721 E0.01687
G1 X130.793 Y90.223 E0.37847
G1 X130.257 Y90.223 E0.01687
G1 X138.755 Y98.721 E0.37847
G1 X138.220 Y98.721 E0.01687
G1 X129.721 Y90.223 E0.37847
G1 X129.186 Y90.223 E0.01687
G1 X137.684 Y98.721 E0.37847
G1 X137.149 Y98.721 E0.01687
G1 X128.650 Y90.223 E0.37847
G1 X128.115 Y90.223 E0.01687
G1 X136.613 Y98.721 E0.37847
G1 X136.078 Y98.721 E0.01687
G1 X127.579 Y90.223 E0.37847
G1 X127.044 Y90.223 E0.01687
G1 X135.542 Y98.721 E0.37847
G1 X135.006 Y98.721 E0.01687
G1 X126.508 Y90.223 E0.37847
G1 X125.972 Y90.223 E0.01687
G1 X134.471 Y98.721 E0.37847
G1 X133.935 Y98.721 E0.01687
G1 X125.437 Y90.223 E0.37847
G1 X124.901 Y90.223 E0.01687
G1 X133.400 Y98.721 E0.37847
G1 X132.864 Y98.721 E0.01687
G1 X124.366 Y90.223 E0.37847
G1 X123.830 Y90.223 E0.01687
G1 X132.329 Y98.721 E0.37847
G1 X131.793 Y98.721 E0.01687
G1 X123.295 Y90.223 E0.37847
G1 X122.759 Y90.223 E0.01687
G1 X131.257 Y98.721 E0.37847
G1 X130.722 Y98.721 E0.01687
G1 X122.223 Y90.223 E0.37847
G1 X121.688 Y90.223 E0.01687
G1 X130.186 Y98.721 E0.37847
G1 X129.651 Y98.721 E0.01687
G1 X121.152 Y90.223 E0.37847
G1 X120.617 Y90.223 E0.01687
G1 X129.115 Y98.721 E0.37847
G1 X128.580 Y98.721 E0.01687
G1 X120.081 Y90.223 E0.37847
G1 X119.545 Y90.223 E0.01687
G1 X128.044 Y98.721 E0.37847
G1 X127.508 Y98.721 E0.01687
G1 X119.010 Y90.223 E0.37847
G1 X118.474 Y90.223 E0.01687
G1 X126.973 Y98.721 E0.37847
G1 X126.437 Y98.721 E0.01687
G1 X117.939 Y90.223 E0.37847
G1 X117.403 Y90.223 E0.01687
G1 X125.902 Y98.721 E0.37847
G1 X125.366 Y98.721 E0.01687
G1 X116.868 Y90.223 E0.37847
G1 X116.332 Y90.223 E0.01687
G1 X124.831 Y98.721 E0.37847
G1 X124.295 Y98.721 E0.01687
G1 X115.796 Y90.223 E0.37847
G1 X115.261 Y90.223 E0.01687
G1 X123.759 Y98.721 E0.37847
G1 X123.224 Y98.721 E0.01687
G1 X114.725 Y90.223 E0.37847
G1 X114.190 Y90.223 E0.01687
G1 X122.688 Y98.721 E0.37847
G1 X122.153 Y98.721 E0.01687
G1 X113.654 Y90.223 E0.37847
G1 X113.119 Y90.223 E0.01687
G1 X121.617 Y98.721 E0.37847
G1 X121.081 Y98.721 E0.01687
G1 X112.583 Y90.223 E0.37847
G1 X112.047 Y90.223 E0.01687
G1 X120.546 Y98.721 E0.37847
G1 X120.010 Y98.721 E0.01687
G1 X111.512 Y90.223 E0.37847
G1 X110.976 Y90.223 E0.01687
G1 X119.475 Y98.721 E0.37847
G1 X118.939 Y98.721 E0.01687
G1 X110.441 Y90.223 E0.37847
G1 X109.905 Y90.223 E0.01687
G1 X118.404 Y98.721 E0.37847
G1 X117.868 Y98.721 E0.01687
G1 X112.688 Y93.541 E0.23069
G1 X112.799 Y93.907 E0.01207
G1 X112.830 Y94.218 E0.00983
G1 X117.332 Y98.721 E0.20052
G1 X116.797 Y98.721 E0.01687
G1 X112.844 Y94.768 E0.17605
G1 X112.790 Y95.250 E0.01528
G1 X116.261 Y98.721 E0.15458
G1 X115.726 Y98.721 E0.01687
G1 X112.666 Y95.661 E0.13628
G1 X112.607 Y95.852 E0.00630
G1 X112.508 Y96.039 E0.00666
G1 X115.190 Y98.721 E0.11945
G1 X114.655 Y98.721 E0.01687
G1 X112.321 Y96.388 E0.10391
G1 X112.087 Y96.689 E0.01202
G1 X114.119 Y98.721 E0.09048
G1 X113.583 Y98.721 E0.01687
G1 X111.839 Y96.976 E0.07769
G1 X111.545 Y97.218 E0.01198
G1 X113.048 Y98.721 E0.06694
G1 X112.512 Y98.721 E0.01687
G1 X111.229 Y97.437 E0.05716
G1 X110.880 Y97.624 E0.01246
G1 X111.977 Y98.721 E0.04886
G1 X111.441 Y98.721 E0.01687
G1 X110.485 Y97.765 E0.04256
G1 X110.154 Y97.866 E0.01089
G1 X110.059 Y97.875 E0.00300
G1 X110.906 Y98.721 E0.03768
G1 X110.370 Y98.721 E0.01687
G1 X109.572 Y97.923 E0.03554
G1 X109.498 Y97.930 E0.00235
G1 X108.994 Y97.881 E0.01593
G1 X109.834 Y98.721 E0.03742
G1 X109.299 Y98.721 E0.01687
G1 X108.270 Y97.693 E0.04580
G1 F8640
G1 X109.299 Y98.721 E-0.33583
G1 X109.834 Y98.721 E-0.12367
G1 X108.994 Y97.881 E-0.27439
G1 X109.107 Y97.892 E-0.02611
G1 E-0.04000 F2100.00000
G1 Z0.800 F10800.000
G1 X106.369 Y95.791
G1 Z0.200
G1 E0.80000 F2100.00000
G1 F1200
G1 X106.011 Y95.447 E0.01565
G1 X105.923 Y95.735 E0.00946
G1 X105.872 Y95.830 E0.00341
G1 X108.763 Y98.721 E0.12874
G1 X108.228 Y98.721 E0.01687
G1 X105.686 Y96.179 E0.11320
G1 X105.611 Y96.320 E0.00502
G1 X105.466 Y96.495 E0.00716
G1 X107.692 Y98.721 E0.09911
G1 X107.156 Y98.721 E0.01687
G1 X105.225 Y96.790 E0.08601
G1 X104.939 Y97.039 E0.01195
G1 X106.621 Y98.721 E0.07492
G1 X106.085 Y98.721 E0.01687
G1 X104.638 Y97.274 E0.06444
G1 X104.289 Y97.461 E0.01246
G1 X105.550 Y98.721 E0.05613
G1 X105.014 Y98.721 E0.01687
G1 X103.916 Y97.623 E0.04889
G1 X103.517 Y97.759 E0.01330
G1 X104.479 Y98.721 E0.04284
G1 X103.943 Y98.721 E0.01687
G1 X103.028 Y97.806 E0.04076
G1 X102.783 Y97.822 E0.00772
G1 X102.479 Y97.792 E0.00964
G1 X103.407 Y98.721 E0.04137
G1 X102.872 Y98.721 E0.01687
G1 X101.550 Y97.399 E0.05889
G1 F8640
G1 X102.872 Y98.721 E-0.43179
G1 X103.407 Y98.721 E-0.12367
G1 X102.781 Y98.095 E-0.20454
G1 E-0.04000 F2100.00000
G1 Z0.800 F10800.000
G1 X99.293 Y98.891
G1 Z0.200
G1 E0.80000 F2100.00000
G1 F1200
G1 X98.697 Y98.295 E0.02654
G1 X98.697 Y97.759 E0.01687
G1 X99.658 Y98.721 E0.04284
G1 X100.194 Y98.721 E0.01687
G1 X98.697 Y97.224 E0.06669
G1 X98.697 Y96.688 E0.01687
G1 X100.730 Y98.721 E0.09054
G1 X101.265 Y98.721 E0.01687
G1 X98.697 Y96.152 E0.11439
G1 X98.697 Y95.617 E0.01687
G1 X101.801 Y98.721 E0.13824
G1 X102.336 Y98.721 E0.01687
G1 X98.697 Y95.081 E0.16209
G1 X98.697 Y94.546 E0.01687
G1 X99.578 Y95.427 E0.03925
G1 X99.489 Y95.133 E0.00968
G1 X99.417 Y94.730 E0.01287
G1 X98.697 Y94.010 E0.03208
G1 X98.697 Y93.475 E0.01687
