; generated by PrusaSlicer 2.2.0+win64 on 2020-11-03 at 18:05:02 UTC

; 

; external perimeters extrusion width = 0.60mm
; perimeters extrusion width = 0.43mm
; infill extrusion width = 0.45mm
; solid infill extrusion width = 0.70mm
; top infill extrusion width = 0.43mm
; support material extrusion width = 0.37mm
; first layer extrusion width = 0.42mm

M73 P0 R15
M201 X9000 Y9000 Z500 E10000 ; sets maximum accelerations, mm/sec^2
M203 X500 Y500 Z12 E120 ; sets maximum feedrates, mm/sec
M204 P2000 R1500 T2000 ; sets acceleration (P, T) and retract acceleration (R), mm/sec^2
M205 X10.00 Y10.00 Z0.20 E2.50 ; sets the jerk limits, mm/sec
M205 S0 T0 ; sets the minimum extruding and travel feed rate, mm/sec
M107
M862.3 P "MK2.5SMMU2S" ; printer model check
M862.1 P0.4 ; nozzle diameter check
M115 U3.8.0 ; tell printer latest fw version
G90 ; use absolute coordinates
M83 ; extruder relative mode
M104 S215 ; set extruder temp
M140 S60 ; set bed temp
Tx
M190 S60 ; wait for bed temp
M109 S215 ; wait for extruder temp
G28 W ; home all without mesh bed level
G80 ; mesh bed leveling

G21 ; set units to millimeters

;go outside print area
G1 Y-3.0 F1000.0
G1 Z0.4 F1000.0
; select extruder
Tc
; purge line
G1 X55.0 F2000.0
G1 Z0.3 F1000.0
G92 E0.0
G1 X240.0 E25.0 F2200.0
M73 P0 R15
G1 Y-2.0 F1000.0
G1 X55.0 E25 F1400.0
G1 Z0.20 F1000.0
G1 X5.0 E4.0 F1000.0
G92 E0.0
G21 ; set units to millimeters
G90 ; use absolute coordinates
M83 ; use relative distances for extrusion
M900 K0.06 ; Filament gcode LA 1.5
M900 K30 ; Filament gcode LA 1.0
;BEFORE_LAYER_CHANGE
G92 E0.0
;0.2


G1 E-0.80000 F2100.00000
G1 Z0.600 F10800.000
;AFTER_LAYER_CHANGE
;0.2
G1 X87.400 Y87.931
G1 Z0.200
G1 E0.80000 F2100.00000
M204 S1000
G1 F1200.000
G1 X88.185 Y87.364 E0.03036
G1 X88.655 Y87.210 E0.01550
G1 X89.150 Y87.157 E0.01562
G1 X160.845 Y87.157 E2.24794
G1 X161.535 Y87.260 E0.02190
G1 X162.166 Y87.558 E0.02190
G1 X162.683 Y88.028 E0.02190
G1 X163.040 Y88.624 E0.02178
G1 X166.056 Y99.746 E0.36133
G1 X166.065 Y120.611 E0.65419
G1 X165.938 Y121.244 E0.02024
G1 X165.646 Y121.819 E0.02024
G1 X165.210 Y122.295 E0.02024
G1 X164.662 Y122.636 E0.02024
G1 X164.189 Y122.791 E0.01562
G1 X163.697 Y122.843 E0.01550
G1 X86.274 Y122.843 E2.42756
G1 X85.610 Y122.738 E0.02107
G1 X85.002 Y122.452 E0.02107
G1 X84.498 Y122.007 E0.02107
G1 X84.138 Y121.436 E0.02119
G1 X83.986 Y120.974 E0.01526
G1 X83.931 Y120.486 E0.01538
G1 X83.947 Y99.719 E0.65114
G1 X86.906 Y88.764 E0.35578
G1 X87.369 Y87.983 E0.02848
G1 E-0.80000 F2100.00000
G1 Z0.800 F10800.000
G1 X89.943 Y108.783
G1 Z0.200
G1 E0.80000 F2100.00000
G1 F1200.000
G1 X90.623 Y108.779 E0.02133
G1 X91.008 Y108.745 E0.01211
G1 X90.774 Y108.981 E0.01040
G1 X90.386 Y109.664 E0.02464
G1 X90.162 Y110.398 E0.02405
G1 X90.087 Y111.154 E0.02383
G1 X90.162 Y111.911 E0.02382
G1 X90.382 Y112.638 E0.02382
G1 X90.741 Y113.308 E0.02382
G1 X91.223 Y113.895 E0.02382
G1 X91.810 Y114.377 E0.02382
G1 X92.480 Y114.735 E0.02382
G1 X93.207 Y114.955 E0.02382
G1 X93.963 Y115.030 E0.02382
G1 X94.719 Y114.955 E0.02382
G1 X95.446 Y114.735 E0.02382
G1 X96.116 Y114.377 E0.02382
G1 X96.703 Y113.895 E0.02382
G1 X97.185 Y113.308 E0.02382
G1 X97.543 Y112.638 E0.02382
G1 X97.764 Y111.911 E0.02382
G1 X97.838 Y111.154 E0.02382
G1 X97.764 Y110.398 E0.02383
G1 X97.540 Y109.664 E0.02405
G1 X97.152 Y108.981 E0.02464
G1 X96.917 Y108.744 E0.01045
G1 X97.287 Y108.778 E0.01163
G1 X97.968 Y108.783 E0.02137
G1 X97.968 Y119.253 E0.32829
G1 X152.032 Y119.253 E1.69512
G1 X152.032 Y108.783 E0.32829
G1 X152.713 Y108.778 E0.02137
G1 X153.083 Y108.744 E0.01163
G1 X152.848 Y108.981 E0.01045
G1 X152.460 Y109.664 E0.02464
G1 X152.236 Y110.398 E0.02405
G1 X152.162 Y111.154 E0.02383
G1 X152.236 Y111.911 E0.02382
G1 X152.457 Y112.638 E0.02382
G1 X152.815 Y113.308 E0.02382
G1 X153.297 Y113.895 E0.02382
G1 X153.884 Y114.377 E0.02382
G1 X154.554 Y114.735 E0.02382
G1 X155.281 Y114.955 E0.02382
G1 X156.037 Y115.030 E0.02382
G1 X156.793 Y114.955 E0.02382
G1 X157.520 Y114.735 E0.02382
G1 X158.190 Y114.377 E0.02382
G1 X158.777 Y113.895 E0.02382
G1 X159.259 Y113.308 E0.02382
G1 X159.618 Y112.638 E0.02382
G1 X159.838 Y111.911 E0.02382
G1 X159.913 Y111.154 E0.02382
G1 X159.838 Y110.398 E0.02383
G1 X159.614 Y109.664 E0.02405
G1 X159.226 Y108.981 E0.02464
G1 X158.992 Y108.745 E0.01040
G1 X159.377 Y108.779 E0.01211
G1 X160.057 Y108.783 E0.02133
G1 X160.057 Y119.253 E0.32827
G1 X162.905 Y119.253 E0.08929
G1 X162.905 Y119.679 E0.01335
G1 X87.095 Y119.679 E2.37698
G1 X87.095 Y119.253 E0.01335
G1 X89.943 Y119.253 E0.08929
G1 X89.943 Y108.843 E0.32639
G1 E-0.80000 F2100.00000
G1 Z0.800 F10800.000
G1 X98.345 Y118.876
G1 Z0.200
G1 E0.80000 F2100.00000
G1 F1200.000
G1 X151.655 Y118.876 E1.67147
G1 X151.655 Y108.408 E0.32820
G1 X152.695 Y108.401 E0.03262
G1 X153.196 Y108.355 E0.01578
G1 X153.676 Y108.253 E0.01540
G1 X154.134 Y108.210 E0.01442
G1 X154.588 Y108.210 E0.01424
G1 X154.206 Y108.414 E0.01359
G1 X153.979 Y108.601 E0.00922
G1 X153.684 Y108.730 E0.01010
G1 X153.406 Y108.954 E0.01120
G1 X153.151 Y109.211 E0.01133
G1 X152.808 Y109.814 E0.02175
G1 X152.608 Y110.472 E0.02157
G1 X152.541 Y111.154 E0.02150
G1 X152.608 Y111.837 E0.02149
G1 X152.807 Y112.493 E0.02149
G1 X153.130 Y113.097 E0.02149
G1 X153.565 Y113.627 E0.02149
G1 X154.095 Y114.062 E0.02149
G1 X154.699 Y114.385 E0.02149
G1 X155.355 Y114.584 E0.02149
G1 X156.037 Y114.651 E0.02149
G1 X156.719 Y114.584 E0.02149
G1 X157.375 Y114.385 E0.02149
G1 X157.980 Y114.062 E0.02149
G1 X158.510 Y113.627 E0.02149
G1 X158.944 Y113.097 E0.02149
G1 X159.267 Y112.493 E0.02149
G1 X159.466 Y111.837 E0.02149
G1 X159.534 Y111.154 E0.02149
G1 X159.466 Y110.472 E0.02150
G1 X159.266 Y109.814 E0.02157
G1 X158.923 Y109.211 E0.02175
G1 X158.669 Y108.954 E0.01133
G1 X158.390 Y108.730 E0.01120
G1 X158.095 Y108.601 E0.01010
G1 X157.868 Y108.414 E0.00922
G1 X157.486 Y108.210 E0.01359
G1 X157.954 Y108.210 E0.01467
G1 X158.412 Y108.257 E0.01445
G1 X158.894 Y108.358 E0.01543
G1 X159.395 Y108.402 E0.01577
G1 X160.435 Y108.409 E0.03260
G1 X160.435 Y118.876 E0.32820
G1 X163.282 Y118.876 E0.08929
G1 X163.282 Y120.056 E0.03700
G1 X86.718 Y120.056 E2.40062
G1 X86.718 Y118.876 E0.03700
G1 X89.565 Y118.876 E0.08929
G1 X89.565 Y108.409 E0.32820
G1 X90.605 Y108.402 E0.03260
G1 X91.106 Y108.358 E0.01577
G1 X91.588 Y108.257 E0.01543
G1 X92.046 Y108.210 E0.01445
G1 X92.514 Y108.210 E0.01467
G1 X92.132 Y108.414 E0.01359
G1 X91.905 Y108.601 E0.00922
G1 X91.610 Y108.730 E0.01010
G1 X91.331 Y108.954 E0.01120
G1 X91.077 Y109.211 E0.01133
G1 X90.734 Y109.814 E0.02175
G1 X90.534 Y110.472 E0.02157
G1 X90.466 Y111.154 E0.02150
G1 X90.534 Y111.837 E0.02149
G1 X90.733 Y112.493 E0.02149
G1 X91.056 Y113.097 E0.02149
G1 X91.490 Y113.627 E0.02149
G1 X92.020 Y114.062 E0.02149
G1 X92.625 Y114.385 E0.02149
G1 X93.281 Y114.584 E0.02149
G1 X93.963 Y114.651 E0.02149
G1 X94.645 Y114.584 E0.02149
G1 X95.301 Y114.385 E0.02149
G1 X95.905 Y114.062 E0.02149
G1 X96.435 Y113.627 E0.02149
G1 X96.870 Y113.097 E0.02149
G1 X97.193 Y112.493 E0.02149
G1 X97.392 Y111.837 E0.02149
G1 X97.459 Y111.154 E0.02149
G1 X97.392 Y110.472 E0.02150
G1 X97.192 Y109.814 E0.02157
G1 X96.849 Y109.211 E0.02175
G1 X96.594 Y108.954 E0.01133
G1 X96.316 Y108.730 E0.01120
G1 X96.021 Y108.601 E0.01010
G1 X95.794 Y108.414 E0.00922
G1 X95.412 Y108.210 E0.01359
G1 X95.866 Y108.210 E0.01424
G1 X96.324 Y108.253 E0.01442
G1 X96.804 Y108.355 E0.01540
G1 X97.305 Y108.401 E0.01578
G1 X98.345 Y108.408 E0.03262
G1 X98.345 Y118.816 E0.32632
G1 X98.359 Y119.276 F10800.000
G1 X96.521 Y119.566
G1 F1200.000
G1 X90.363 Y113.408 E0.27356
G1 X90.225 Y113.436 E0.00442
G1 X90.225 Y113.805 E0.01158
G1 X95.817 Y119.396 E0.24841
G1 X95.282 Y119.396 E0.01679
G1 X90.225 Y114.339 E0.22468
G1 X90.225 Y114.873 E0.01679
G1 X94.748 Y119.396 E0.20094
G1 X94.214 Y119.396 E0.01679
G1 X90.225 Y115.408 E0.17720
G1 X90.225 Y115.942 E0.01679
G1 X93.680 Y119.396 E0.15346
G1 X93.145 Y119.396 E0.01679
G1 X90.225 Y116.476 E0.12972
G1 X90.225 Y117.010 E0.01679
G1 X92.611 Y119.396 E0.10599
G1 X92.077 Y119.396 E0.01679
G1 X90.225 Y117.545 E0.08225
G1 X90.225 Y118.079 E0.01679
G1 X91.542 Y119.396 E0.05851
G1 X91.008 Y119.396 E0.01679
G1 X90.225 Y118.613 E0.03477
G1 X90.225 Y119.148 E0.01679
G1 X90.643 Y119.566 E0.01857
G1 E-0.80000 F2100.00000
G1 Z0.800 F10800.000
G1 X90.298 Y108.969
G1 Z0.200
G1 E0.80000 F2100.00000
G1 F1200.000
G1 X90.153 Y109.709 E0.00538
G1 E-0.80000 F2100.00000
G1 Z0.800 F10800.000
G1 X90.153 Y112.603
G1 Z0.200
G1 E0.80000 F2100.00000
G1 F1200.000
G1 X90.254 Y113.142 E0.00370
G1 E-0.80000 F2100.00000
G1 Z0.800 F10800.000
G1 X92.206 Y114.717
G1 Z0.200
G1 E0.80000 F2100.00000
G1 F1200.000
G1 X96.885 Y119.396 E0.20789
G1 X97.420 Y119.396 E0.01679
G1 X93.269 Y115.246 E0.18439
G1 X93.862 Y115.304 E0.01871
G1 X97.686 Y119.128 E0.16987
G1 X97.686 Y118.593 E0.01679
G1 X94.366 Y115.274 E0.14746
G1 X94.841 Y115.214 E0.01501
G1 X97.686 Y118.059 E0.12640
G1 X97.686 Y117.525 E0.01679
G1 X95.250 Y115.090 E0.10819
G1 X95.555 Y114.997 E0.00999
G1 X95.645 Y114.949 E0.00320
G1 X97.686 Y116.990 E0.09068
G1 X97.686 Y116.456 E0.01679
G1 X95.993 Y114.763 E0.07521
G1 X96.330 Y114.567 E0.01228
G1 X97.686 Y115.922 E0.06021
G1 X97.686 Y115.388 E0.01679
G1 X96.624 Y114.326 E0.04717
G1 X96.915 Y114.083 E0.01192
G1 X97.686 Y114.853 E0.03424
G1 X97.686 Y114.319 E0.01679
G1 X97.156 Y113.789 E0.02354
G1 X97.397 Y113.496 E0.01193
G1 X97.855 Y113.954 E0.02038
G1 X97.659 Y113.170 F10800.000
G1 F1200.000
G1 X97.758 Y112.652 E0.00287
G1 E-0.80000 F2100.00000
G1 Z0.800 F10800.000
G1 X97.758 Y109.660
G1 Z0.200
G1 E0.80000 F2100.00000
G1 F1200.000
G1 X97.620 Y108.969 E0.00392
G1 E-0.80000 F2100.00000
G1 Z0.800 F10800.000
G1 X152.380 Y108.969
G1 Z0.200
G1 E0.80000 F2100.00000
G1 F1200.000
G1 X152.242 Y109.660 E0.00411
G1 E-0.80000 F2100.00000
G1 Z0.800 F10800.000
G1 X152.242 Y112.652
G1 Z0.200
G1 E0.80000 F2100.00000
G1 F1200.000
G1 X152.342 Y113.170 E0.00287
G1 E-0.80000 F2100.00000
G1 Z0.800 F10800.000
G1 X152.145 Y119.088
G1 Z0.200
G1 E0.80000 F2100.00000
G1 F1200.000
G1 X152.453 Y119.396 E0.01370
G1 X152.987 Y119.396 E0.01679
G1 X152.314 Y118.723 E0.02990
G1 X152.314 Y118.189 E0.01679
G1 X153.522 Y119.396 E0.05364
G1 X154.056 Y119.396 E0.01679
G1 X152.314 Y117.654 E0.07738
G1 X152.314 Y117.120 E0.01679
G1 X154.590 Y119.396 E0.10111
G1 X155.125 Y119.396 E0.01679
G1 X152.314 Y116.586 E0.12485
G1 X152.314 Y116.052 E0.01679
G1 X155.659 Y119.396 E0.14859
G1 X156.193 Y119.396 E0.01679
G1 X152.314 Y115.517 E0.17233
G1 X152.314 Y114.983 E0.01679
G1 X156.728 Y119.396 E0.19607
G1 X157.262 Y119.396 E0.01679
G1 X152.314 Y114.449 E0.21980
G1 X152.314 Y113.914 E0.01679
G1 X157.796 Y119.396 E0.24354
G1 X158.330 Y119.396 E0.01679
G1 X152.384 Y113.450 E0.26417
G1 X152.552 Y113.416 E0.00538
G1 X153.096 Y114.096 E0.02733
G1 X153.726 Y114.613 E0.02562
G1 X154.475 Y115.006 E0.02658
G1 X158.865 Y119.396 E0.19502
G1 X159.399 Y119.396 E0.01679
G1 X155.238 Y115.235 E0.18485
G1 X155.831 Y115.294 E0.01871
G1 X159.775 Y119.237 E0.17521
G1 X159.775 Y118.703 E0.01679
G1 X156.354 Y115.283 E0.15195
G1 X156.841 Y115.235 E0.01535
G1 X159.775 Y118.169 E0.13034
M73 P7 R14
G1 X159.775 Y117.634 E0.01679
G1 X157.252 Y115.112 E0.11208
G1 X157.657 Y114.982 E0.01336
G1 X159.775 Y117.100 E0.09408
G1 X159.775 Y116.566 E0.01679
G1 X158.005 Y114.796 E0.07862
G1 X158.353 Y114.609 E0.01239
G1 X159.775 Y116.032 E0.06318
G1 X159.775 Y115.497 E0.01679
G1 X158.646 Y114.369 E0.05015
G1 X158.939 Y114.128 E0.01193
G1 X159.775 Y114.963 E0.03711
G1 X159.775 Y114.429 E0.01679
G1 X159.187 Y113.841 E0.02610
G1 X159.428 Y113.548 E0.01193
G1 X159.944 Y114.064 E0.02294
G1 X159.746 Y113.142 F10800.000
G1 F1200.000
G1 X159.847 Y112.603 E0.00370
G1 E-0.80000 F2100.00000
G1 Z0.800 F10800.000
G1 X159.847 Y109.709
G1 Z0.200
G1 E0.80000 F2100.00000
G1 F1200.000
G1 X159.702 Y108.969 E0.00515
G1 E-0.80000 F2100.00000
G1 Z0.800 F10800.000
G1 X97.968 Y100.787
G1 Z0.200
G1 E0.80000 F2100.00000
G1 F1200.000
G1 X152.032 Y100.787 E1.69512
G1 X152.032 Y90.317 E0.32829
G1 X152.713 Y90.312 E0.02137
G1 X153.083 Y90.278 E0.01163
G1 X152.848 Y90.515 E0.01045
G1 X152.460 Y91.198 E0.02464
G1 X152.236 Y91.932 E0.02405
G1 X152.162 Y92.688 E0.02383
G1 X152.236 Y93.445 E0.02382
G1 X152.457 Y94.172 E0.02382
G1 X152.815 Y94.842 E0.02382
G1 X153.297 Y95.429 E0.02382
G1 X153.884 Y95.911 E0.02382
G1 X154.554 Y96.269 E0.02382
G1 X155.281 Y96.489 E0.02382
G1 X156.037 Y96.564 E0.02382
G1 X156.793 Y96.489 E0.02382
G1 X157.520 Y96.269 E0.02382
G1 X158.190 Y95.911 E0.02382
G1 X158.777 Y95.429 E0.02382
G1 X159.259 Y94.842 E0.02382
G1 X159.618 Y94.172 E0.02382
G1 X159.838 Y93.445 E0.02382
G1 X159.913 Y92.688 E0.02382
G1 X159.838 Y91.932 E0.02383
G1 X159.614 Y91.198 E0.02405
G1 X159.226 Y90.515 E0.02464
G1 X158.992 Y90.279 E0.01040
G1 X159.377 Y90.313 E0.01211
G1 X160.057 Y90.317 E0.02133
G1 X160.057 Y100.787 E0.32827
G1 X162.905 Y100.787 E0.08929
G1 X162.905 Y101.213 E0.01335
G1 X87.095 Y101.213 E2.37698
G1 X87.095 Y100.787 E0.01335
G1 X89.943 Y100.787 E0.08929
G1 X89.943 Y90.317 E0.32827
G1 X90.623 Y90.313 E0.02133
G1 X91.008 Y90.279 E0.01211
G1 X90.774 Y90.515 E0.01040
G1 X90.386 Y91.198 E0.02464
G1 X90.162 Y91.932 E0.02405
G1 X90.087 Y92.688 E0.02383
G1 X90.162 Y93.445 E0.02382
G1 X90.382 Y94.172 E0.02382
G1 X90.741 Y94.842 E0.02382
G1 X91.223 Y95.429 E0.02382
G1 X91.810 Y95.911 E0.02382
G1 X92.480 Y96.269 E0.02382
G1 X93.207 Y96.489 E0.02382
G1 X93.963 Y96.564 E0.02382
G1 X94.719 Y96.489 E0.02382
G1 X95.446 Y96.269 E0.02382
G1 X96.116 Y95.911 E0.02382
G1 X96.703 Y95.429 E0.02382
G1 X97.185 Y94.842 E0.02382
G1 X97.543 Y94.172 E0.02382
G1 X97.764 Y93.445 E0.02382
G1 X97.838 Y92.688 E0.02382
G1 X97.764 Y91.932 E0.02383
G1 X97.540 Y91.198 E0.02405
G1 X97.152 Y90.515 E0.02464
G1 X96.917 Y90.278 E0.01045
G1 X97.287 Y90.312 E0.01163
G1 X97.968 Y90.317 E0.02137
G1 X97.968 Y100.727 E0.32641
G1 X98.345 Y100.410 F10800.000
G1 F1200.000
G1 X151.655 Y100.410 E1.67147
G1 X151.655 Y89.943 E0.32820
G1 X152.695 Y89.935 E0.03262
G1 X153.196 Y89.889 E0.01578
G1 X153.676 Y89.787 E0.01540
G1 X154.134 Y89.744 E0.01442
G1 X154.588 Y89.744 E0.01424
G1 X154.206 Y89.948 E0.01359
G1 X153.979 Y90.135 E0.00922
G1 X153.684 Y90.264 E0.01010
G1 X153.406 Y90.488 E0.01120
G1 X153.151 Y90.745 E0.01133
G1 X152.808 Y91.348 E0.02175
G1 X152.608 Y92.006 E0.02157
G1 X152.541 Y92.688 E0.02150
G1 X152.608 Y93.371 E0.02149
G1 X152.807 Y94.027 E0.02149
G1 X153.130 Y94.631 E0.02149
G1 X153.565 Y95.161 E0.02149
G1 X154.095 Y95.596 E0.02149
G1 X154.699 Y95.919 E0.02149
G1 X155.355 Y96.118 E0.02149
G1 X156.037 Y96.185 E0.02149
G1 X156.719 Y96.118 E0.02149
G1 X157.375 Y95.919 E0.02149
G1 X157.980 Y95.596 E0.02149
G1 X158.510 Y95.161 E0.02149
G1 X158.944 Y94.631 E0.02149
G1 X159.267 Y94.027 E0.02149
G1 X159.466 Y93.371 E0.02149
G1 X159.534 Y92.688 E0.02149
G1 X159.466 Y92.006 E0.02150
G1 X159.266 Y91.348 E0.02157
G1 X158.923 Y90.745 E0.02175
G1 X158.669 Y90.488 E0.01133
G1 X158.390 Y90.264 E0.01120
G1 X158.095 Y90.135 E0.01010
G1 X157.868 Y89.948 E0.00922
G1 X157.486 Y89.744 E0.01359
G1 X157.954 Y89.744 E0.01467
G1 X158.412 Y89.791 E0.01445
G1 X158.894 Y89.892 E0.01543
G1 X159.395 Y89.936 E0.01577
G1 X160.435 Y89.943 E0.03260
G1 X160.435 Y100.410 E0.32820
G1 X163.282 Y100.410 E0.08929
G1 X163.282 Y101.590 E0.03700
G1 X86.718 Y101.590 E2.40062
G1 X86.718 Y100.410 E0.03700
G1 X89.565 Y100.410 E0.08929
G1 X89.565 Y89.943 E0.32820
G1 X90.605 Y89.936 E0.03260
G1 X91.106 Y89.892 E0.01577
G1 X91.588 Y89.791 E0.01543
G1 X92.046 Y89.744 E0.01445
G1 X92.514 Y89.744 E0.01467
G1 X92.132 Y89.948 E0.01359
G1 X91.905 Y90.135 E0.00922
G1 X91.610 Y90.264 E0.01010
G1 X91.331 Y90.488 E0.01120
G1 X91.077 Y90.745 E0.01133
G1 X90.734 Y91.348 E0.02175
G1 X90.534 Y92.006 E0.02157
G1 X90.466 Y92.688 E0.02150
G1 X90.534 Y93.371 E0.02149
G1 X90.733 Y94.027 E0.02149
G1 X91.056 Y94.631 E0.02149
G1 X91.490 Y95.161 E0.02149
G1 X92.020 Y95.596 E0.02149
G1 X92.625 Y95.919 E0.02149
G1 X93.281 Y96.118 E0.02149
G1 X93.963 Y96.185 E0.02149
G1 X94.645 Y96.118 E0.02149
G1 X95.301 Y95.919 E0.02149
G1 X95.905 Y95.596 E0.02149
G1 X96.435 Y95.161 E0.02149
