; generated by PrusaSlicer 2.2.0+win64 on 2020-11-03 at 18:07:21 UTC

; 

; external perimeters extrusion width = 0.45mm
; perimeters extrusion width = 0.45mm
; infill extrusion width = 0.45mm
; solid infill extrusion width = 0.45mm
; top infill extrusion width = 0.40mm
; first layer extrusion width = 0.42mm

M73 P0 R32
M201 X9000 Y9000 Z500 E10000 ; sets maximum accelerations, mm/sec^2
M203 X500 Y500 Z12 E120 ; sets maximum feedrates, mm/sec
M204 P2000 R1500 T2000 ; sets acceleration (P, T) and retract acceleration (R), mm/sec^2
M205 X10.00 Y10.00 Z0.20 E2.50 ; sets the jerk limits, mm/sec
M205 S0 T0 ; sets the minimum extruding and travel feed rate, mm/sec
M107
M862.3 P "MK2.5SMMU2S" ; printer model check
M862.1 P0.4 ; nozzle diameter check
M115 U3.8.0 ; tell printer latest fw version
G90 ; use absolute coordinates
M83 ; extruder relative mode
M104 S215 ; set extruder temp
M140 S60 ; set bed temp
Tx
M190 S60 ; wait for bed temp
M109 S215 ; wait for extruder temp
G28 W ; home all without mesh bed level
G80 ; mesh bed leveling

G21 ; set units to millimeters

;go outside print area
G1 Y-3.0 F1000.0
G1 Z0.4 F1000.0
; select extruder
Tc
; purge line
G1 X55.0 F2000.0
G1 Z0.3 F1000.0
G92 E0.0
G1 X240.0 E25.0 F2200.0
M73 P0 R32
G1 Y-2.0 F1000.0
G1 X55.0 E25 F1400.0
G1 Z0.20 F1000.0
G1 X5.0 E4.0 F1000.0
G92 E0.0
G21 ; set units to millimeters
G90 ; use absolute coordinates
M83 ; use relative distances for extrusion
M900 K0.06 ; Filament gcode LA 1.5
M900 K30 ; Filament gcode LA 1.0
;BEFORE_LAYER_CHANGE
G92 E0.0
;0.2


G1 E-0.80000 F2100.00000
G1 Z0.600 F10800.000
;AFTER_LAYER_CHANGE
;0.2
G1 X102.579 Y83.943
G1 Z0.200
G1 E0.80000 F2100.00000
M204 S1000
G1 F1200.000
G1 X103.267 Y83.202 E0.03169
G1 X104.274 Y82.306 E0.04229
G1 X105.403 Y81.505 E0.04340
G1 X106.614 Y80.835 E0.04340
G1 X107.857 Y80.318 E0.04221
G1 X108.822 Y80.020 E0.03165
G1 X110.147 Y79.746 E0.04245
G1 X111.977 Y79.608 E0.05753
G1 X138.023 Y79.608 E0.81666
G1 X138.983 Y79.646 E0.03013
G1 X140.276 Y79.816 E0.04089
G1 X142.108 Y80.303 E0.05943
G1 X143.004 Y80.657 E0.03021
G1 X144.169 Y81.245 E0.04089
G1 X145.737 Y82.310 E0.05943
G1 X146.466 Y82.939 E0.03021
G1 X147.371 Y83.879 E0.04089
G1 X148.500 Y85.402 E0.05943
G1 X148.980 Y86.237 E0.03021
G1 X149.524 Y87.422 E0.04089
G1 X150.087 Y89.236 E0.05955
G1 X150.318 Y90.597 E0.04328
G1 X150.396 Y91.960 E0.04280
G1 X150.386 Y118.506 E0.83234
G1 X150.181 Y120.310 E0.05693
G1 X149.715 Y122.061 E0.05681
G1 X149.153 Y123.417 E0.04602
G1 X148.249 Y124.979 E0.05657
G1 X147.402 Y126.083 E0.04364
G1 X146.439 Y127.083 E0.04352
G1 X145.371 Y127.969 E0.04352
G1 X144.210 Y128.729 E0.04352
G1 X142.967 Y129.357 E0.04364
G1 X141.666 Y129.839 E0.04352
G1 X140.319 Y130.173 E0.04352
G1 X138.946 Y130.354 E0.04340
G1 X111.091 Y130.356 E0.87339
G1 X109.647 Y130.166 E0.04566
G1 X107.901 Y129.695 E0.05669
G1 X106.577 Y129.144 E0.04499
G1 X105.020 Y128.242 E0.05641
G1 X103.915 Y127.395 E0.04364
G1 X102.916 Y126.432 E0.04352
G1 X102.030 Y125.364 E0.04352
G1 X101.269 Y124.203 E0.04352
G1 X100.642 Y122.960 E0.04364
G1 X100.160 Y121.662 E0.04340
G1 X99.826 Y120.315 E0.04352
G1 X99.645 Y118.939 E0.04352
G1 X99.642 Y91.090 E0.87320
G1 X99.833 Y89.646 E0.04566
G1 X100.304 Y87.900 E0.05669
G1 X100.855 Y86.575 E0.04499
G1 X101.757 Y85.019 E0.05641
G1 X102.543 Y83.991 E0.04056
G1 E-0.80000 F2100.00000
G1 Z0.800 F10800.000
G1 X138.019 Y95.738
G1 Z0.200
G1 E0.80000 F2100.00000
G1 F1200.000
G1 X137.287 Y95.666 E0.02306
G1 X136.583 Y95.452 E0.02306
G1 X135.934 Y95.105 E0.02306
G1 X135.366 Y94.639 E0.02306
G1 X134.899 Y94.070 E0.02306
G1 X134.552 Y93.421 E0.02306
G1 X134.339 Y92.718 E0.02306
G1 X134.267 Y91.986 E0.02306
G1 X134.339 Y91.253 E0.02306
G1 X134.552 Y90.550 E0.02306
G1 X134.899 Y89.901 E0.02306
G1 X135.366 Y89.332 E0.02306
G1 X135.934 Y88.866 E0.02306
G1 X136.584 Y88.519 E0.02309
G1 X137.296 Y88.305 E0.02332
G1 X138.019 Y88.234 E0.02276
G1 X138.749 Y88.305 E0.02301
G1 X139.455 Y88.519 E0.02313
G1 X140.104 Y88.866 E0.02306
G1 X140.672 Y89.332 E0.02306
G1 X141.139 Y89.901 E0.02306
G1 X141.486 Y90.550 E0.02306
G1 X141.699 Y91.253 E0.02306
G1 X141.771 Y91.986 E0.02306
G1 X141.699 Y92.718 E0.02306
G1 X141.486 Y93.421 E0.02306
G1 X141.139 Y94.070 E0.02306
G1 X140.672 Y94.639 E0.02306
G1 X140.104 Y95.105 E0.02306
G1 X139.455 Y95.452 E0.02306
G1 X138.751 Y95.666 E0.02306
G1 X138.079 Y95.732 E0.02118
G1 X138.019 Y95.359 F10800.000
G1 F1200.000
G1 X137.361 Y95.294 E0.02073
G1 X136.728 Y95.102 E0.02073
G1 X136.145 Y94.790 E0.02073
G1 X135.634 Y94.371 E0.02073
G1 X135.214 Y93.860 E0.02073
G1 X134.902 Y93.276 E0.02073
G1 X134.711 Y92.644 E0.02073
G1 X134.646 Y91.986 E0.02073
G1 X134.711 Y91.327 E0.02073
G1 X134.902 Y90.695 E0.02073
G1 X135.214 Y90.111 E0.02073
G1 X135.634 Y89.600 E0.02073
G1 X136.145 Y89.181 E0.02073
G1 X136.728 Y88.869 E0.02074
G1 X137.369 Y88.677 E0.02099
G1 X138.019 Y88.613 E0.02046
G1 X138.675 Y88.677 E0.02068
G1 X139.310 Y88.869 E0.02079
G1 X139.893 Y89.181 E0.02073
G1 X140.404 Y89.600 E0.02073
G1 X140.824 Y90.111 E0.02073
G1 X141.135 Y90.695 E0.02073
G1 X141.327 Y91.327 E0.02073
G1 X141.392 Y91.986 E0.02073
G1 X141.327 Y92.644 E0.02073
G1 X141.135 Y93.276 E0.02073
G1 X140.824 Y93.860 E0.02073
G1 X140.404 Y94.371 E0.02073
G1 X139.893 Y94.790 E0.02073
G1 X139.310 Y95.102 E0.02073
G1 X138.677 Y95.294 E0.02073
G1 X138.079 Y95.353 E0.01885
G1 X137.819 Y95.705 F10800.000
G1 E-0.80000 F2100.00000
G1 Z0.800 F10800.000
G1 X138.028 Y101.398
G1 Z0.200
G1 E0.80000 F2100.00000
G1 F1200.000
G1 X137.152 Y101.356 E0.02749
G1 X136.266 Y101.233 E0.02805
G1 X135.577 Y101.076 E0.02213
G1 X135.248 Y100.981 E0.01076
G1 X134.756 Y100.813 E0.01630
G1 X134.257 Y100.613 E0.01687
G1 X133.621 Y100.307 E0.02212
G1 X133.006 Y99.953 E0.02224
G1 X132.721 Y99.766 E0.01069
G1 X132.150 Y99.345 E0.02224
G1 X131.613 Y98.882 E0.02224
G1 X131.369 Y98.647 E0.01059
G1 X130.780 Y97.998 E0.02749
G1 X130.239 Y97.283 E0.02812
G1 X129.964 Y96.853 E0.01602
G1 X129.700 Y96.388 E0.01676
G1 X129.320 Y95.576 E0.02811
G1 X129.024 Y94.757 E0.02731
G1 X128.841 Y94.075 E0.02214
G1 X128.770 Y93.735 E0.01087
G1 X128.712 Y93.394 E0.01087
G1 X128.633 Y92.689 E0.02224
G1 X128.606 Y91.986 E0.02207
G1 X128.633 Y91.277 E0.02224
G1 X128.665 Y90.935 E0.01076
G1 X128.739 Y90.421 E0.01630
G1 X128.843 Y89.887 E0.01704
G1 X128.926 Y89.555 E0.01075
G1 X129.135 Y88.877 E0.02224
G1 X129.391 Y88.224 E0.02197
G1 X129.777 Y87.444 E0.02731
G1 X130.244 Y86.680 E0.02805
G1 X130.663 Y86.112 E0.02213
G1 X130.881 Y85.850 E0.01069
G1 X131.365 Y85.328 E0.02230
G1 X131.739 Y84.976 E0.01613
G1 X132.151 Y84.626 E0.01693
G1 X132.564 Y84.317 E0.01618
G1 X133.007 Y84.018 E0.01677
G1 X133.768 Y83.590 E0.02737
G1 X134.581 Y83.224 E0.02796
G1 X135.403 Y82.946 E0.02721
G1 X136.274 Y82.736 E0.02812
G1 X136.779 Y82.657 E0.01602
G1 X137.311 Y82.600 E0.01677
G1 X138.183 Y82.576 E0.02737
G1 X139.078 Y82.633 E0.02811
G1 X139.607 Y82.709 E0.01676
G1 X140.108 Y82.808 E0.01603
G1 X140.949 Y83.043 E0.02738
G1 X141.786 Y83.360 E0.02805
G1 X142.417 Y83.664 E0.02196
G1 X143.032 Y84.018 E0.02224
G1 X143.314 Y84.204 E0.01059
G1 X144.014 Y84.732 E0.02749
G1 X144.681 Y85.336 E0.02823
G1 X144.915 Y85.579 E0.01058
G1 X145.378 Y86.117 E0.02224
G1 X145.796 Y86.683 E0.02207
G1 X146.173 Y87.284 E0.02224
G1 X146.339 Y87.584 E0.01076
G1 X146.568 Y88.051 E0.01630
G1 X146.780 Y88.545 E0.01687
G1 X147.014 Y89.213 E0.02219
G1 X147.150 Y89.709 E0.01613
G1 X147.268 Y90.236 E0.01693
G1 X147.348 Y90.746 E0.01618
G1 X147.405 Y91.280 E0.01687
G1 X147.431 Y91.982 E0.02202
G1 X147.390 Y92.853 E0.02731
G1 X147.266 Y93.744 E0.02823
G1 X147.197 Y94.075 E0.01058
G1 X147.013 Y94.760 E0.02224
G1 X146.781 Y95.424 E0.02207
G1 X146.497 Y96.074 E0.02224
G1 X146.343 Y96.379 E0.01069
G1 X145.989 Y96.993 E0.02224
G1 X145.589 Y97.579 E0.02224
G1 X145.380 Y97.852 E0.01076
G1 X145.044 Y98.248 E0.01630
G1 X144.678 Y98.637 E0.01676
G1 X144.014 Y99.239 E0.02811
G1 X143.314 Y99.767 E0.02749
G1 X143.032 Y99.953 E0.01059
G1 X142.420 Y100.306 E0.02214
G1 X141.631 Y100.675 E0.02731
G1 X140.788 Y100.981 E0.02812
G1 X140.296 Y101.117 E0.01602
G1 X139.771 Y101.234 E0.01687
G1 X139.073 Y101.339 E0.02212
G1 X138.088 Y101.397 E0.03095
G1 X138.022 Y101.775 F10800.000
G1 F1200.000
G1 X137.117 Y101.732 E0.02841
G1 X136.198 Y101.604 E0.02910
G1 X135.483 Y101.441 E0.02298
G1 X135.135 Y101.341 E0.01138
G1 X134.625 Y101.166 E0.01688
G1 X134.105 Y100.959 E0.01757
G1 X133.444 Y100.641 E0.02297
G1 X132.809 Y100.274 E0.02302
G1 X132.506 Y100.075 E0.01136
G1 X131.915 Y99.640 E0.02302
G1 X131.359 Y99.161 E0.02302
G1 X131.099 Y98.910 E0.01132
G1 X130.489 Y98.239 E0.02841
G1 X129.929 Y97.499 E0.02912
G1 X129.641 Y97.047 E0.01678
G1 X129.364 Y96.562 E0.01753
G1 X128.971 Y95.720 E0.02912
G1 X128.664 Y94.870 E0.02835
G1 X128.474 Y94.162 E0.02298
G1 X128.400 Y93.806 E0.01142
G1 X128.339 Y93.447 E0.01142
G1 X128.257 Y92.717 E0.02302
G1 X128.229 Y91.986 E0.02295
G1 X128.257 Y91.252 E0.02302
G1 X128.290 Y90.891 E0.01138
G1 X128.367 Y90.358 E0.01688
G1 X128.475 Y89.806 E0.01763
G1 X128.562 Y89.454 E0.01138
G1 X128.779 Y88.752 E0.02302
G1 X129.046 Y88.072 E0.02292
G1 X129.447 Y87.261 E0.02835
G1 X129.931 Y86.470 E0.02910
G1 X130.366 Y85.880 E0.02298
G1 X130.597 Y85.601 E0.01136
G1 X131.097 Y85.063 E0.02304
G1 X131.488 Y84.695 E0.01682
G1 X131.915 Y84.331 E0.01759
G1 X132.345 Y84.010 E0.01684
G1 X132.809 Y83.697 E0.01753
G1 X133.597 Y83.253 E0.02837
G1 X134.443 Y82.872 E0.02906
G1 X135.298 Y82.583 E0.02831
G1 X136.201 Y82.366 E0.02912
G1 X136.730 Y82.283 E0.01678
G1 X137.286 Y82.223 E0.01753
G1 X138.190 Y82.199 E0.02837
G1 X139.117 Y82.257 E0.02912
G1 X139.670 Y82.338 E0.01753
G1 X140.196 Y82.441 E0.01679
G1 X141.067 Y82.684 E0.02837
G1 X141.935 Y83.013 E0.02910
G1 X142.593 Y83.330 E0.02292
G1 X143.229 Y83.697 E0.02302
G1 X143.531 Y83.895 E0.01132
G1 X144.255 Y84.441 E0.02841
G1 X144.944 Y85.065 E0.02916
G1 X145.194 Y85.325 E0.01132
G1 X145.673 Y85.882 E0.02302
G1 X146.108 Y86.471 E0.02295
G1 X146.498 Y87.092 E0.02302
G1 X146.674 Y87.410 E0.01138
G1 X146.911 Y87.893 E0.01688
G1 X147.132 Y88.408 E0.01757
G1 X147.374 Y89.101 E0.02300
G1 X147.517 Y89.618 E0.01682
G1 X147.638 Y90.166 E0.01759
G1 X147.722 Y90.696 E0.01684
G1 X147.781 Y91.253 E0.01757
G1 X147.809 Y91.984 E0.02294
G1 X147.765 Y92.888 E0.02835
G1 X147.638 Y93.809 E0.02916
G1 X147.564 Y94.162 E0.01132
G1 X147.374 Y94.871 E0.02302
G1 X147.132 Y95.562 E0.02295
G1 X146.839 Y96.235 E0.02302
G1 X146.675 Y96.558 E0.01136
G1 X146.308 Y97.194 E0.02302
G1 X145.895 Y97.801 E0.02302
G1 X145.674 Y98.088 E0.01138
G1 X145.325 Y98.499 E0.01688
G1 X144.943 Y98.907 E0.01753
G1 X144.255 Y99.530 E0.02912
G1 X143.531 Y100.076 E0.02841
G1 X143.229 Y100.274 E0.01132
G1 X142.594 Y100.640 E0.02298
G1 X141.776 Y101.024 E0.02835
G1 X140.903 Y101.341 E0.02912
G1 X140.387 Y101.483 E0.01678
G1 X139.840 Y101.605 E0.01757
G1 X139.115 Y101.714 E0.02297
G1 X138.082 Y101.774 E0.03245
G1 X137.822 Y101.429 F10800.000
G1 E-0.80000 F2100.00000
G1 Z0.800 F10800.000
G1 X140.927 Y100.811
G1 Z0.200
G1 E0.80000 F2100.00000
G1 F1200.000
G1 X129.328 Y89.211 E0.51880
G1 X129.201 Y89.622 E0.01361
G1 X140.379 Y100.801 E0.49997
G1 X139.946 Y100.905 E0.01410
G1 X129.098 Y90.057 E0.48517
G1 X129.012 Y90.509 E0.01455
G1 X139.493 Y100.990 E0.46875
G1 X139.024 Y101.059 E0.01498
G1 X128.945 Y90.980 E0.45079
G1 X128.908 Y91.481 E0.01590
G1 X138.524 Y101.096 E0.43005
G1 X138.003 Y101.114 E0.01647
G1 X128.890 Y92.001 E0.40759
G1 X128.911 Y92.559 E0.01768
G1 X137.438 Y101.087 E0.38139
G1 X137.178 Y101.074 E0.00823
G1 X136.841 Y101.027 E0.01076
G1 X128.970 Y93.156 E0.35203
G1 X129.072 Y93.796 E0.02048
G1 X136.205 Y100.929 E0.31903
G1 X135.496 Y100.758 E0.02306
G1 X129.251 Y94.513 E0.27930
G1 X129.533 Y95.333 E0.02741
G1 X134.677 Y100.477 E0.23004
G1 X134.370 Y100.354 E0.01042
G1 X133.673 Y100.011 E0.02459
G1 X129.992 Y96.330 E0.16464
G1 X130.471 Y97.122 E0.02928
G1 X130.998 Y97.818 E0.02760
G1 X131.551 Y98.426 E0.02601
G1 X132.819 Y99.694 E0.05671
G1 E-0.80000 F2100.00000
G1 Z0.800 F10800.000
G1 X134.711 Y83.299
G1 Z0.200
G1 E0.80000 F2100.00000
G1 F1200.000
G1 X139.789 Y88.377 E0.22711
G1 X139.564 Y88.256 E0.00809
G1 X138.942 Y88.068 E0.02053
G1 X134.462 Y83.587 E0.20039
G1 X134.091 Y83.755 E0.01286
G1 X138.315 Y87.978 E0.18891
G1 X138.019 Y87.950 E0.00942
G1 X137.772 Y87.974 E0.00782
G1 X133.733 Y83.934 E0.18067
G1 X133.389 Y84.128 E0.01249
G1 X137.283 Y88.022 E0.17416
G1 X136.863 Y88.140 E0.01380
G1 X133.052 Y84.329 E0.17043
G1 X132.731 Y84.546 E0.01226
G1 X136.453 Y88.268 E0.16648
G1 X136.102 Y88.455 E0.01257
G1 X132.423 Y84.776 E0.16457
G1 X132.127 Y85.018 E0.01209
G1 X135.756 Y88.646 E0.16230
G1 X135.460 Y88.889 E0.01209
G1 X131.840 Y85.269 E0.16189
G1 X131.563 Y85.530 E0.01203
G1 X135.165 Y89.131 E0.16107
G1 X134.922 Y89.427 E0.01209
G1 X131.305 Y85.809 E0.16181
G1 X131.048 Y86.091 E0.01204
G1 X134.680 Y89.722 E0.16242
G1 X134.489 Y90.069 E0.01252
G1 X130.810 Y86.390 E0.16454
G1 X130.581 Y86.700 E0.01216
G1 X134.301 Y90.419 E0.16637
G1 X134.172 Y90.828 E0.01356
G1 X130.366 Y87.022 E0.17022
G1 X130.162 Y87.356 E0.01237
G1 X134.055 Y91.249 E0.17411
G1 X134.007 Y91.739 E0.01556
G1 X129.967 Y87.698 E0.18071
G1 X129.789 Y88.058 E0.01270
G1 X134.012 Y92.281 E0.18889
G1 X134.060 Y92.773 E0.01562
G1 X134.101 Y92.909 E0.00449
G1 X129.616 Y88.424 E0.20060
G1 X129.465 Y88.810 E0.01312
G1 X134.411 Y93.756 E0.22121
G1 X134.663 Y94.228 E0.01693
G1 X135.165 Y94.840 E0.02502
G1 X135.777 Y95.342 E0.02502
G1 X136.248 Y95.594 E0.01693
G1 X141.189 Y100.535 E0.22098
G1 X141.580 Y100.387 E0.01319
G1 X137.096 Y95.903 E0.20055
G1 X137.232 Y95.944 E0.00449
G1 X137.723 Y95.993 E0.01562
G1 X141.946 Y100.215 E0.18886
G1 X142.311 Y100.042 E0.01277
G1 X138.266 Y95.998 E0.18090
G1 X138.755 Y95.949 E0.01556
G1 X142.652 Y99.845 E0.17425
G1 X142.987 Y99.643 E0.01240
G1 X139.176 Y95.832 E0.17046
G1 X139.585 Y95.703 E0.01356
G1 X143.303 Y99.421 E0.16630
G1 X143.610 Y99.190 E0.01215
G1 X139.936 Y95.516 E0.16433
G1 X140.282 Y95.325 E0.01252
G1 X143.910 Y98.952 E0.16225
G1 X144.192 Y98.696 E0.01204
G1 X140.578 Y95.082 E0.16165
G1 X140.873 Y94.840 E0.01209
G1 X144.474 Y98.441 E0.16106
G1 X144.735 Y98.164 E0.01203
G1 X141.116 Y94.544 E0.16188
G1 X141.358 Y94.249 E0.01209
G1 X144.987 Y97.878 E0.16231
G1 X145.230 Y97.583 E0.01208
G1 X141.549 Y93.902 E0.16462
G1 X141.737 Y93.552 E0.01257
G1 X145.457 Y97.272 E0.16638
G1 X145.675 Y96.952 E0.01224
G1 X141.866 Y93.143 E0.17036
G1 X141.983 Y92.722 E0.01381
G1 X145.879 Y96.618 E0.17425
G1 X146.076 Y96.277 E0.01245
G1 X142.031 Y92.232 E0.18090
G1 X142.055 Y91.986 E0.00785
G1 X142.026 Y91.690 E0.00940
G1 X146.256 Y95.920 E0.18919
G1 X146.420 Y95.545 E0.01292
G1 X141.937 Y91.062 E0.20050
G1 X141.748 Y90.441 E0.02053
G1 X141.627 Y90.215 E0.00809
G1 X146.573 Y95.161 E0.22120
G1 X146.713 Y94.763 E0.01335
G1 X135.247 Y83.297 E0.51280
G1 X135.662 Y83.174 E0.01369
G1 X146.832 Y94.344 E0.49956
G1 X146.941 Y93.915 E0.01399
G1 X136.096 Y83.070 E0.48506
G1 X136.544 Y82.980 E0.01445
G1 X147.020 Y93.457 E0.46856
G1 X147.086 Y92.984 E0.01508
G1 X137.017 Y82.916 E0.45032
G1 X137.517 Y82.877 E0.01584
G1 X147.124 Y92.485 E0.42969
G1 X147.148 Y91.971 E0.01627
G1 X138.041 Y82.863 E0.40733
G1 X138.601 Y82.886 E0.01775
G1 X147.127 Y91.412 E0.38131
G1 X147.071 Y90.818 E0.01886
G1 X139.188 Y82.934 E0.35260
G1 X139.833 Y83.042 E0.02069
G1 X146.964 Y90.173 E0.31892
M73 P3 R31
G1 X146.789 Y89.460 E0.02323
G1 X140.555 Y83.226 E0.27878
G1 X140.861 Y83.312 E0.01004
G1 X141.372 Y83.505 E0.01729
G1 X146.518 Y88.651 E0.23013
G1 X146.311 Y88.169 E0.01658
G1 X146.050 Y87.645 E0.01851
G1 X142.365 Y83.960 E0.16482
G1 X143.151 Y84.435 E0.02906
G1 X143.834 Y84.950 E0.02702
G1 X144.460 Y85.517 E0.02674
G1 X145.724 Y86.782 E0.05654
G1 E-0.80000 F2100.00000
G1 Z0.800 F10800.000
G1 X138.019 Y121.764
G1 Z0.200
G1 E0.80000 F2100.00000
G1 F1200.000
G1 X137.287 Y121.692 E0.02306
G1 X136.583 Y121.478 E0.02306
G1 X135.934 Y121.132 E0.02306
G1 X135.366 Y120.665 E0.02306
G1 X134.899 Y120.096 E0.02306
G1 X134.552 Y119.448 E0.02306
G1 X134.339 Y118.744 E0.02306
G1 X134.267 Y118.012 E0.02306
G1 X134.339 Y117.280 E0.02306
