; generated by PrusaSlicer 2.2.0+win64 on 2020-11-03 at 18:06:26 UTC

; 

; external perimeters extrusion width = 0.45mm
; perimeters extrusion width = 0.45mm
; infill extrusion width = 0.45mm
; solid infill extrusion width = 0.45mm
; top infill extrusion width = 0.40mm
; first layer extrusion width = 0.42mm

M73 P0 R38
M201 X9000 Y9000 Z500 E10000 ; sets maximum accelerations, mm/sec^2
M203 X500 Y500 Z12 E120 ; sets maximum feedrates, mm/sec
M204 P2000 R1500 T2000 ; sets acceleration (P, T) and retract acceleration (R), mm/sec^2
M205 X10.00 Y10.00 Z0.20 E2.50 ; sets the jerk limits, mm/sec
M205 S0 T0 ; sets the minimum extruding and travel feed rate, mm/sec
M107
M862.3 P "MK2.5SMMU2S" ; printer model check
M862.1 P0.4 ; nozzle diameter check
M115 U3.8.0 ; tell printer latest fw version
G90 ; use absolute coordinates
M83 ; extruder relative mode
M104 S215 ; set extruder temp
M140 S60 ; set bed temp
Tx
M190 S60 ; wait for bed temp
M109 S215 ; wait for extruder temp
G28 W ; home all without mesh bed level
G80 ; mesh bed leveling

G21 ; set units to millimeters

;go outside print area
G1 Y-3.0 F1000.0
G1 Z0.4 F1000.0
; select extruder
Tc
; purge line
G1 X55.0 F2000.0
G1 Z0.3 F1000.0
G92 E0.0
G1 X240.0 E25.0 F2200.0
M73 P0 R38
G1 Y-2.0 F1000.0
G1 X55.0 E25 F1400.0
G1 Z0.20 F1000.0
G1 X5.0 E4.0 F1000.0
G92 E0.0
G21 ; set units to millimeters
G90 ; use absolute coordinates
M83 ; use relative distances for extrusion
M900 K0.06 ; Filament gcode LA 1.5
M900 K30 ; Filament gcode LA 1.0
;BEFORE_LAYER_CHANGE
G92 E0.0
;0.2


G1 E-0.80000 F2100.00000
G1 Z0.600 F10800.000
;AFTER_LAYER_CHANGE
;0.2
G1 X100.352 Y97.466
G1 Z0.200
G1 E0.80000 F2100.00000
M204 S1000
G1 F1200.000
G1 X100.708 Y96.564 E0.03038
G1 X101.543 Y95.546 E0.04127
G1 X102.801 Y94.373 E0.05394
G1 X104.515 Y93.193 E0.06524
G1 X106.074 Y92.419 E0.05458
G1 X107.410 Y91.933 E0.04456
G1 X108.936 Y91.553 E0.04933
G1 X110.839 Y91.313 E0.06012
G1 X139.215 Y91.286 E0.88972
G1 X140.348 Y91.328 E0.03554
G1 X141.703 Y91.494 E0.04280
G1 X143.253 Y91.847 E0.04984
G1 X144.748 Y92.370 E0.04966
G1 X146.242 Y93.101 E0.05217
G1 X147.692 Y94.068 E0.05464
G1 X148.266 Y94.681 E0.02635
G1 X148.595 Y95.369 E0.02390
G1 X148.691 Y96.026 E0.02083
G1 X148.665 Y110.772 E0.46236
G1 X148.477 Y111.413 E0.02095
G1 X148.118 Y111.977 E0.02095
G1 X146.297 Y113.722 E0.07907
G1 X145.877 Y114.029 E0.01633
G1 X144.999 Y114.326 E0.02907
G1 X132.326 Y115.787 E0.39997
G1 X104.673 Y115.789 E0.86705
G1 X103.745 Y115.588 E0.02977
G1 X101.814 Y114.529 E0.06904
G1 X101.119 Y114.055 E0.02638
G1 X100.655 Y113.479 E0.02319
G1 X100.402 Y112.881 E0.02034
G1 X100.311 Y112.273 E0.01929
G1 X100.352 Y97.526 E0.46239
G1 E-0.80000 F2100.00000
G1 Z0.800 F10800.000
G1 X132.507 Y112.220
G1 Z0.200
G1 E0.80000 F2100.00000
G1 F1200.000
G1 X131.543 Y111.576 E0.03635
G1 X132.173 Y111.009 E0.02656
G1 X132.477 Y110.770 E0.01212
G1 X132.808 Y110.532 E0.01280
G1 X133.518 Y110.082 E0.02636
G1 X134.130 Y109.753 E0.02178
G1 X134.765 Y109.463 E0.02188
G1 X135.787 Y109.092 E0.03409
G1 X136.382 Y108.925 E0.01939
G1 X136.994 Y108.789 E0.01966
G1 X137.587 Y108.689 E0.01885
G1 X138.185 Y108.620 E0.01886
G1 X138.868 Y108.578 E0.02147
G1 X139.660 Y108.579 E0.02483
G1 X140.639 Y108.655 E0.03080
G1 X141.149 Y108.728 E0.01614
G1 X141.846 Y108.865 E0.02229
G1 X142.434 Y109.017 E0.01901
G1 X143.013 Y109.201 E0.01906
G1 X143.577 Y109.414 E0.01890
G1 X144.182 Y109.685 E0.02080
G1 X144.499 Y109.855 E0.01126
G1 X143.791 Y110.687 E0.03427
G1 X143.468 Y110.509 E0.01156
G1 X142.938 Y110.271 E0.01822
G1 X142.449 Y110.086 E0.01639
G1 X141.949 Y109.927 E0.01644
G1 X141.441 Y109.796 E0.01645
G1 X140.848 Y109.679 E0.01896
G1 X140.397 Y109.615 E0.01428
G1 X139.573 Y109.551 E0.02592
G1 X139.032 Y109.546 E0.01695
G1 X138.309 Y109.585 E0.02271
G1 X137.789 Y109.645 E0.01641
G1 X137.280 Y109.731 E0.01619
G1 X136.755 Y109.848 E0.01686
G1 X136.233 Y109.994 E0.01701
G1 X135.372 Y110.307 E0.02873
G1 X134.815 Y110.561 E0.01919
G1 X134.268 Y110.855 E0.01946
G1 X133.678 Y111.230 E0.02193
G1 X133.376 Y111.448 E0.01166
G1 X132.848 Y111.879 E0.02136
G1 X132.550 Y112.178 E0.01325
G1 X132.563 Y112.698 F10800.000
G1 F1200.000
G1 X131.994 Y112.346 E0.02098
G1 X130.960 Y111.631 E0.03940
G1 X131.387 Y111.197 E0.01909
G1 X131.932 Y110.719 E0.02274
G1 X132.597 Y110.219 E0.02607
G1 X133.328 Y109.756 E0.02715
G1 X133.963 Y109.415 E0.02259
G1 X134.622 Y109.114 E0.02274
G1 X135.672 Y108.733 E0.03500
G1 X136.290 Y108.559 E0.02015
G1 X136.922 Y108.419 E0.02029
G1 X137.534 Y108.315 E0.01946
G1 X138.152 Y108.244 E0.01949
G1 X138.857 Y108.201 E0.02216
G1 X139.675 Y108.202 E0.02564
G1 X140.680 Y108.280 E0.03162
G1 X141.212 Y108.356 E0.01684
G1 X141.930 Y108.497 E0.02295
G1 X142.538 Y108.654 E0.01967
G1 X143.137 Y108.844 E0.01971
G1 X143.721 Y109.066 E0.01957
G1 X144.348 Y109.347 E0.02155
G1 X145.082 Y109.754 E0.02631
G1 X144.128 Y110.867 E0.04595
G1 X143.892 Y111.175 E0.01216
G1 X143.299 Y110.846 E0.02126
G1 X142.794 Y110.620 E0.01737
G1 X142.325 Y110.442 E0.01572
G1 X141.845 Y110.290 E0.01579
G1 X141.357 Y110.164 E0.01578
G1 X140.785 Y110.051 E0.01830
G1 X140.356 Y109.990 E0.01359
G1 X139.556 Y109.928 E0.02514
G1 X139.041 Y109.923 E0.01617
G1 X138.341 Y109.961 E0.02198
G1 X137.842 Y110.018 E0.01574
G1 X137.352 Y110.101 E0.01557
G1 X136.847 Y110.213 E0.01623
G1 X136.348 Y110.353 E0.01624
G1 X135.515 Y110.656 E0.02782
G1 X134.983 Y110.899 E0.01833
G1 X134.459 Y111.181 E0.01865
G1 X133.889 Y111.542 E0.02116
G1 X133.606 Y111.747 E0.01095
G1 X133.102 Y112.159 E0.02041
G1 X132.605 Y112.656 E0.02203
G1 X132.407 Y112.330 F10800.000
G1 E-0.80000 F2100.00000
G1 Z0.800 F10800.000
G1 X143.957 Y110.316
G1 Z0.200
G1 E0.80000 F2100.00000
G1 F1200.000
G1 X143.224 Y109.583 E0.03361
G1 X142.389 Y109.300 E0.02859
G1 X143.143 Y110.053 E0.03454
G1 X142.542 Y109.818 E0.02091
G1 X142.271 Y109.733 E0.00922
G1 X141.654 Y109.116 E0.02829
G1 X140.975 Y108.989 E0.02237
G1 X141.508 Y109.521 E0.02442
G1 X140.826 Y109.390 E0.02253
G1 X140.352 Y108.917 E0.02171
G1 X139.754 Y108.870 E0.01943
G1 X140.200 Y109.316 E0.02042
G1 X139.602 Y109.270 E0.01943
G1 X139.194 Y108.861 E0.01872
G1 X138.656 Y108.874 E0.01746
G1 X139.045 Y109.263 E0.01784
G1 X138.520 Y109.290 E0.01703
G1 X138.139 Y108.910 E0.01745
G1 X137.645 Y108.967 E0.01613
G1 X138.013 Y109.334 E0.01685
G1 X137.529 Y109.402 E0.01584
G1 X137.173 Y109.046 E0.01634
G1 X136.716 Y109.141 E0.01511
G1 X137.065 Y109.489 E0.01597
G1 X136.617 Y109.593 E0.01490
G1 X136.274 Y109.249 E0.01574
G1 X135.845 Y109.372 E0.01446
G1 X136.186 Y109.714 E0.01565
G1 X135.779 Y109.858 E0.01400
G1 X135.440 Y109.519 E0.01554
G1 X135.036 Y109.666 E0.01395
G1 X135.375 Y110.005 E0.01554
G1 X134.989 Y110.171 E0.01361
G1 X134.647 Y109.828 E0.01570
G1 X134.268 Y110.001 E0.01349
G1 X134.615 Y110.348 E0.01589
G1 X134.256 Y110.541 E0.01320
G1 X133.909 Y110.193 E0.01594
G1 X133.661 Y110.326 E0.00912
G1 X133.556 Y110.392 E0.00401
G1 X133.911 Y110.747 E0.01627
G1 X133.574 Y110.961 E0.01295
G1 X133.219 Y110.606 E0.01627
G1 X132.969 Y110.764 E0.00960
G1 X132.887 Y110.826 E0.00331
G1 X133.251 Y111.189 E0.01667
G1 X132.945 Y111.435 E0.01272
G1 X132.573 Y111.062 E0.01707
G1 X132.265 Y111.307 E0.01272
G1 X132.763 Y111.804 E0.02282
G1 E-0.80000 F2100.00000
G1 Z0.800 F10800.000
G1 X132.507 Y97.899
G1 Z0.200
G1 E0.80000 F2100.00000
G1 F1200.000
G1 X131.543 Y97.255 E0.03635
G1 X132.173 Y96.688 E0.02656
G1 X132.477 Y96.449 E0.01212
G1 X132.808 Y96.210 E0.01280
G1 X133.518 Y95.760 E0.02636
G1 X134.130 Y95.432 E0.02178
G1 X134.765 Y95.142 E0.02188
G1 X135.787 Y94.771 E0.03409
G1 X136.382 Y94.604 E0.01939
G1 X136.994 Y94.468 E0.01966
G1 X137.587 Y94.368 E0.01885
G1 X138.185 Y94.299 E0.01886
G1 X138.868 Y94.257 E0.02147
G1 X139.660 Y94.258 E0.02483
G1 X140.639 Y94.334 E0.03080
G1 X141.149 Y94.407 E0.01614
G1 X141.846 Y94.544 E0.02229
G1 X142.434 Y94.696 E0.01901
G1 X143.013 Y94.880 E0.01906
G1 X143.577 Y95.093 E0.01890
G1 X144.182 Y95.364 E0.02080
G1 X144.499 Y95.533 E0.01126
G1 X143.791 Y96.366 E0.03427
G1 X143.468 Y96.187 E0.01156
G1 X142.938 Y95.950 E0.01822
G1 X142.449 Y95.765 E0.01639
G1 X141.949 Y95.606 E0.01644
G1 X141.441 Y95.475 E0.01645
G1 X140.848 Y95.358 E0.01896
G1 X140.397 Y95.294 E0.01428
G1 X139.573 Y95.230 E0.02592
G1 X139.032 Y95.225 E0.01695
G1 X138.309 Y95.264 E0.02271
G1 X137.789 Y95.324 E0.01641
G1 X137.280 Y95.410 E0.01619
G1 X136.755 Y95.527 E0.01686
G1 X136.233 Y95.673 E0.01701
G1 X135.372 Y95.986 E0.02873
G1 X134.815 Y96.240 E0.01919
G1 X134.268 Y96.534 E0.01946
G1 X133.678 Y96.909 E0.02193
G1 X133.376 Y97.127 E0.01166
G1 X132.848 Y97.557 E0.02136
G1 X132.550 Y97.857 E0.01325
G1 X132.563 Y98.377 F10800.000
G1 F1200.000
G1 X131.994 Y98.025 E0.02098
G1 X130.960 Y97.310 E0.03940
G1 X131.387 Y96.876 E0.01909
G1 X131.932 Y96.398 E0.02274
G1 X132.597 Y95.898 E0.02607
G1 X133.328 Y95.435 E0.02715
G1 X133.963 Y95.094 E0.02259
G1 X134.622 Y94.793 E0.02274
G1 X135.672 Y94.412 E0.03500
G1 X136.290 Y94.238 E0.02015
G1 X136.922 Y94.097 E0.02029
G1 X137.534 Y93.994 E0.01946
G1 X138.152 Y93.923 E0.01949
G1 X138.857 Y93.880 E0.02216
G1 X139.675 Y93.881 E0.02564
G1 X140.680 Y93.959 E0.03162
G1 X141.212 Y94.035 E0.01684
G1 X141.930 Y94.176 E0.02295
G1 X142.538 Y94.333 E0.01967
G1 X143.137 Y94.523 E0.01971
G1 X143.721 Y94.745 E0.01957
G1 X144.348 Y95.026 E0.02155
G1 X145.082 Y95.433 E0.02631
G1 X144.128 Y96.546 E0.04595
G1 X143.892 Y96.854 E0.01216
G1 X143.299 Y96.525 E0.02126
G1 X142.794 Y96.299 E0.01737
G1 X142.325 Y96.121 E0.01572
G1 X141.845 Y95.969 E0.01579
G1 X141.357 Y95.843 E0.01578
G1 X140.785 Y95.730 E0.01830
G1 X140.356 Y95.669 E0.01359
G1 X139.556 Y95.607 E0.02514
G1 X139.041 Y95.602 E0.01617
G1 X138.341 Y95.640 E0.02198
G1 X137.842 Y95.697 E0.01574
G1 X137.352 Y95.780 E0.01557
G1 X136.847 Y95.892 E0.01623
G1 X136.348 Y96.032 E0.01624
G1 X135.515 Y96.335 E0.02782
G1 X134.983 Y96.578 E0.01833
G1 X134.459 Y96.860 E0.01865
G1 X133.889 Y97.221 E0.02116
G1 X133.606 Y97.426 E0.01095
G1 X133.102 Y97.837 E0.02041
G1 X132.605 Y98.335 E0.02203
G1 X132.407 Y98.009 F10800.000
G1 E-0.80000 F2100.00000
G1 Z0.800 F10800.000
G1 X143.957 Y95.995
G1 Z0.200
G1 E0.80000 F2100.00000
G1 F1200.000
G1 X143.224 Y95.262 E0.03361
G1 X142.389 Y94.978 E0.02859
G1 X143.143 Y95.732 E0.03454
G1 X142.542 Y95.497 E0.02091
G1 X142.271 Y95.411 E0.00922
G1 X141.654 Y94.794 E0.02829
G1 X140.975 Y94.668 E0.02237
G1 X141.508 Y95.200 E0.02442
G1 X140.826 Y95.069 E0.02253
G1 X140.352 Y94.595 E0.02171
G1 X139.754 Y94.549 E0.01943
G1 X140.200 Y94.995 E0.02042
G1 X139.602 Y94.949 E0.01943
G1 X139.194 Y94.540 E0.01872
G1 X138.656 Y94.553 E0.01746
G1 X139.045 Y94.942 E0.01784
G1 X138.520 Y94.969 E0.01703
G1 X138.139 Y94.588 E0.01745
G1 X137.645 Y94.646 E0.01613
G1 X138.013 Y95.013 E0.01685
G1 X137.529 Y95.081 E0.01584
G1 X137.173 Y94.724 E0.01634
G1 X136.716 Y94.819 E0.01511
G1 X137.065 Y95.168 E0.01597
G1 X136.617 Y95.272 E0.01490
G1 X136.274 Y94.928 E0.01574
G1 X135.845 Y95.051 E0.01446
G1 X136.186 Y95.392 E0.01565
G1 X135.779 Y95.537 E0.01400
G1 X135.440 Y95.198 E0.01554
G1 X135.036 Y95.345 E0.01395
G1 X135.375 Y95.684 E0.01554
G1 X134.989 Y95.849 E0.01361
G1 X134.647 Y95.507 E0.01570
G1 X134.268 Y95.680 E0.01349
G1 X134.615 Y96.026 E0.01589
G1 X134.256 Y96.219 E0.01320
G1 X133.909 Y95.872 E0.01594
G1 X133.661 Y96.005 E0.00912
G1 X133.556 Y96.071 E0.00401
G1 X133.911 Y96.426 E0.01627
G1 X133.574 Y96.640 E0.01295
G1 X133.219 Y96.285 E0.01627
G1 X132.969 Y96.443 E0.00960
G1 X132.887 Y96.505 E0.00331
G1 X133.251 Y96.868 E0.01667
G1 X132.945 Y97.114 E0.01272
G1 X132.573 Y96.741 E0.01707
G1 X132.265 Y96.985 E0.01272
G1 X132.763 Y97.483 E0.02282
G1 E-0.80000 F2100.00000
G1 Z0.800 F10800.000
G1 X104.987 Y97.899
G1 Z0.200
G1 E0.80000 F2100.00000
G1 F1200.000
G1 X104.023 Y97.255 E0.03635
G1 X104.653 Y96.688 E0.02656
G1 X104.957 Y96.449 E0.01212
G1 X105.288 Y96.210 E0.01280
G1 X105.998 Y95.760 E0.02636
G1 X106.610 Y95.432 E0.02178
G1 X107.245 Y95.142 E0.02188
G1 X108.267 Y94.771 E0.03409
G1 X108.862 Y94.604 E0.01939
G1 X109.474 Y94.468 E0.01966
G1 X110.067 Y94.368 E0.01885
G1 X110.665 Y94.299 E0.01886
G1 X111.348 Y94.257 E0.02147
G1 X112.140 Y94.258 E0.02483
G1 X113.119 Y94.334 E0.03080
G1 X113.629 Y94.407 E0.01614
G1 X114.326 Y94.544 E0.02229
G1 X114.913 Y94.696 E0.01901
G1 X115.493 Y94.880 E0.01906
G1 X116.056 Y95.093 E0.01890
G1 X116.662 Y95.364 E0.02080
G1 X116.978 Y95.533 E0.01126
G1 X116.270 Y96.366 E0.03427
G1 X115.948 Y96.187 E0.01156
G1 X115.418 Y95.950 E0.01822
G1 X114.929 Y95.765 E0.01639
G1 X114.429 Y95.606 E0.01644
G1 X113.921 Y95.475 E0.01645
G1 X113.328 Y95.358 E0.01896
G1 X112.877 Y95.294 E0.01428
G1 X112.052 Y95.230 E0.02592
G1 X111.512 Y95.225 E0.01695
G1 X110.789 Y95.264 E0.02271
G1 X110.269 Y95.324 E0.01641
G1 X109.760 Y95.410 E0.01619
G1 X109.235 Y95.527 E0.01686
G1 X108.713 Y95.673 E0.01701
G1 X107.851 Y95.986 E0.02873
G1 X107.295 Y96.240 E0.01919
G1 X106.748 Y96.534 E0.01946
G1 X106.157 Y96.909 E0.02193
G1 X105.856 Y97.127 E0.01166
G1 X105.328 Y97.557 E0.02136
G1 X105.029 Y97.857 E0.01325
G1 X105.043 Y98.377 F10800.000
G1 F1200.000
G1 X104.474 Y98.025 E0.02098
G1 X103.440 Y97.310 E0.03940
G1 X103.867 Y96.876 E0.01909
G1 X104.412 Y96.398 E0.02274
G1 X105.076 Y95.898 E0.02607
G1 X105.808 Y95.435 E0.02715
G1 X106.442 Y95.094 E0.02259
G1 X107.102 Y94.793 E0.02274
G1 X108.151 Y94.412 E0.03500
G1 X108.770 Y94.238 E0.02015
G1 X109.402 Y94.097 E0.02029
G1 X110.014 Y93.994 E0.01946
G1 X110.631 Y93.923 E0.01949
G1 X111.337 Y93.880 E0.02216
G1 X112.155 Y93.881 E0.02564
G1 X113.160 Y93.959 E0.03162
G1 X113.692 Y94.035 E0.01684
G1 X114.410 Y94.176 E0.02295
G1 X115.018 Y94.333 E0.01967
G1 X115.617 Y94.523 E0.01971
G1 X116.200 Y94.745 E0.01957
G1 X116.828 Y95.026 E0.02155
G1 X117.561 Y95.433 E0.02631
G1 X116.608 Y96.546 E0.04595
G1 X116.372 Y96.854 E0.01216
G1 X115.779 Y96.525 E0.02126
G1 X115.273 Y96.299 E0.01737
G1 X114.805 Y96.121 E0.01572
G1 X114.325 Y95.969 E0.01579
G1 X113.837 Y95.843 E0.01578
G1 X113.265 Y95.730 E0.01830
G1 X112.836 Y95.669 E0.01359
G1 X112.036 Y95.607 E0.02514
G1 X111.520 Y95.602 E0.01617
G1 X110.820 Y95.640 E0.02198
G1 X110.322 Y95.697 E0.01574
G1 X109.832 Y95.780 E0.01557
G1 X109.327 Y95.892 E0.01623
G1 X108.828 Y96.032 E0.01624
G1 X107.994 Y96.335 E0.02782
G1 X107.462 Y96.578 E0.01833
G1 X106.939 Y96.860 E0.01865
G1 X106.369 Y97.221 E0.02116
G1 X106.086 Y97.426 E0.01095
G1 X105.581 Y97.837 E0.02041
G1 X105.085 Y98.335 E0.02203
G1 X104.887 Y98.009 F10800.000
G1 E-0.80000 F2100.00000
G1 Z0.800 F10800.000
G1 X116.437 Y95.995
G1 Z0.200
G1 E0.80000 F2100.00000
G1 F1200.000
G1 X115.704 Y95.262 E0.03361
G1 X114.869 Y94.978 E0.02859
G1 X115.622 Y95.732 E0.03454
G1 X115.022 Y95.497 E0.02091
G1 X114.751 Y95.411 E0.00922
G1 X114.134 Y94.794 E0.02829
G1 X113.455 Y94.668 E0.02237
G1 X113.988 Y95.200 E0.02442
G1 X113.305 Y95.069 E0.02253
G1 X112.832 Y94.595 E0.02171
G1 X112.234 Y94.549 E0.01943
G1 X112.680 Y94.995 E0.02042
G1 X112.082 Y94.949 E0.01943
G1 X111.674 Y94.540 E0.01872
G1 X111.135 Y94.553 E0.01746
G1 X111.524 Y94.942 E0.01784
G1 X111.000 Y94.969 E0.01703
G1 X110.619 Y94.588 E0.01745
G1 X110.125 Y94.646 E0.01613
G1 X110.493 Y95.013 E0.01685
G1 X110.009 Y95.081 E0.01584
G1 X109.652 Y94.724 E0.01634
G1 X109.196 Y94.819 E0.01511
G1 X109.544 Y95.168 E0.01597
G1 X109.097 Y95.272 E0.01490
G1 X108.753 Y94.928 E0.01574
G1 X108.325 Y95.051 E0.01446
G1 X108.666 Y95.392 E0.01565
G1 X108.259 Y95.537 E0.01400
G1 X107.920 Y95.198 E0.01554
G1 X107.516 Y95.345 E0.01395
G1 X107.855 Y95.684 E0.01554
G1 X107.469 Y95.849 E0.01361
G1 X107.127 Y95.507 E0.01570
G1 X106.748 Y95.680 E0.01349
G1 X107.094 Y96.026 E0.01589
G1 X106.736 Y96.219 E0.01320
G1 X106.388 Y95.872 E0.01594
G1 X106.141 Y96.005 E0.00912
G1 X106.036 Y96.071 E0.00401
G1 X106.391 Y96.426 E0.01627
G1 X106.054 Y96.640 E0.01295
G1 X105.699 Y96.285 E0.01627
G1 X105.449 Y96.443 E0.00960
G1 X105.367 Y96.505 E0.00331
G1 X105.731 Y96.868 E0.01667
G1 X105.425 Y97.114 E0.01272
G1 X105.052 Y96.741 E0.01707
G1 X104.745 Y96.985 E0.01272
G1 X105.243 Y97.483 E0.02282
G1 E-0.80000 F2100.00000
G1 Z0.800 F10800.000
G1 X104.987 Y112.220
G1 Z0.200
G1 E0.80000 F2100.00000
G1 F1200.000
