; generated by PrusaSlicer 2.2.0+win64 on 2020-11-03 at 18:07:32 UTC

; 

; external perimeters extrusion width = 0.45mm
; perimeters extrusion width = 0.45mm
; infill extrusion width = 0.45mm
; solid infill extrusion width = 0.45mm
; top infill extrusion width = 0.40mm
; first layer extrusion width = 0.42mm

M73 P0 R63
M201 X9000 Y9000 Z500 E10000 ; sets maximum accelerations, mm/sec^2
M203 X500 Y500 Z12 E120 ; sets maximum feedrates, mm/sec
M204 P2000 R1500 T2000 ; sets acceleration (P, T) and retract acceleration (R), mm/sec^2
M205 X10.00 Y10.00 Z0.20 E2.50 ; sets the jerk limits, mm/sec
M205 S0 T0 ; sets the minimum extruding and travel feed rate, mm/sec
M107
M862.3 P "MK2.5SMMU2S" ; printer model check
M862.1 P0.4 ; nozzle diameter check
M115 U3.8.0 ; tell printer latest fw version
G90 ; use absolute coordinates
M83 ; extruder relative mode
M104 S215 ; set extruder temp
M140 S60 ; set bed temp
Tx
M190 S60 ; wait for bed temp
M109 S215 ; wait for extruder temp
G28 W ; home all without mesh bed level
G80 ; mesh bed leveling

G21 ; set units to millimeters

;go outside print area
G1 Y-3.0 F1000.0
G1 Z0.4 F1000.0
; select extruder
Tc
; purge line
G1 X55.0 F2000.0
G1 Z0.3 F1000.0
G92 E0.0
G1 X240.0 E25.0 F2200.0
M73 P0 R63
G1 Y-2.0 F1000.0
G1 X55.0 E25 F1400.0
G1 Z0.20 F1000.0
G1 X5.0 E4.0 F1000.0
G92 E0.0
G21 ; set units to millimeters
G90 ; use absolute coordinates
M83 ; use relative distances for extrusion
M900 K0.06 ; Filament gcode LA 1.5
M900 K30 ; Filament gcode LA 1.0
;BEFORE_LAYER_CHANGE
G92 E0.0
;0.2


G1 E-0.80000 F2100.00000
G1 Z0.600 F10800.000
;AFTER_LAYER_CHANGE
;0.2
G1 X88.253 Y98.809
G1 Z0.200
G1 E0.80000 F2100.00000
M204 S1000
G1 F1200.000
G1 X89.302 Y97.272 E0.05836
G1 X90.214 Y96.251 E0.04292
G1 X116.276 Y70.196 E1.15546
G1 X117.994 Y68.771 E0.07000
G1 X119.606 Y67.834 E0.05848
G1 X120.873 Y67.305 E0.04304
G1 X121.838 Y67.007 E0.03165
G1 X123.159 Y66.733 E0.04233
G1 X124.534 Y66.604 E0.04328
G1 X151.039 Y66.595 E0.83105
G1 X152.377 Y66.669 E0.04201
G1 X153.334 Y66.811 E0.03033
G1 X154.276 Y67.028 E0.03033
G1 X155.515 Y67.435 E0.04089
G1 X157.258 Y68.273 E0.06062
G1 X158.352 Y68.990 E0.04101
G1 X159.112 Y69.594 E0.03045
G1 X160.078 Y70.522 E0.04197
G1 X160.710 Y71.253 E0.03033
G1 X161.283 Y72.033 E0.03033
G1 X161.959 Y73.153 E0.04101
G1 X162.732 Y74.927 E0.06066
G1 X163.093 Y76.182 E0.04097
G1 X163.279 Y77.167 E0.03141
G1 X163.412 Y78.966 E0.05657
G1 X163.403 Y131.497 E1.64706
G1 X163.189 Y133.365 E0.05895
G1 X162.571 Y135.509 E0.06997
G1 X161.755 Y137.211 E0.05919
G1 X160.704 Y138.752 E0.05848
G1 X159.786 Y139.778 E0.04316
G1 X158.754 Y140.700 E0.04340
G1 X157.622 Y141.504 E0.04352
G1 X156.442 Y142.158 E0.04233
G1 X155.165 Y142.692 E0.04340
G1 X154.195 Y142.991 E0.03181
G1 X152.875 Y143.265 E0.04229
G1 X151.474 Y143.394 E0.04411
G1 X98.492 Y143.393 E1.66122
G1 X96.626 Y143.178 E0.05887
G1 X94.487 Y142.561 E0.06981
G1 X92.784 Y141.745 E0.05919
G1 X91.244 Y140.694 E0.05848
G1 X90.221 Y139.779 E0.04304
G1 X89.320 Y138.774 E0.04233
G1 X88.515 Y137.647 E0.04340
G1 X88.008 Y136.769 E0.03181
G1 X87.447 Y135.542 E0.04229
G1 X87.015 Y134.227 E0.04340
G1 X86.732 Y132.872 E0.04340
G1 X86.603 Y131.506 E0.04304
G1 X86.629 Y104.065 E0.86038
G1 X86.904 Y102.243 E0.05776
G1 X87.450 Y100.476 E0.05800
G1 X88.227 Y98.863 E0.05612
G1 E-0.80000 F2100.00000
G1 Z0.800 F10800.000
G1 X98.971 Y108.751
G1 Z0.200
G1 E0.80000 F2100.00000
G1 F1200.000
G1 X98.239 Y108.679 E0.02306
G1 X97.535 Y108.465 E0.02306
G1 X96.886 Y108.118 E0.02306
G1 X96.318 Y107.652 E0.02306
G1 X95.851 Y107.083 E0.02306
G1 X95.504 Y106.435 E0.02306
G1 X95.291 Y105.731 E0.02306
G1 X95.219 Y104.999 E0.02306
G1 X95.291 Y104.267 E0.02306
G1 X95.504 Y103.563 E0.02306
G1 X95.851 Y102.914 E0.02306
G1 X96.318 Y102.345 E0.02306
G1 X96.886 Y101.879 E0.02306
G1 X97.536 Y101.532 E0.02309
G1 X98.248 Y101.318 E0.02332
G1 X98.970 Y101.247 E0.02276
G1 X99.701 Y101.318 E0.02301
G1 X100.407 Y101.532 E0.02313
G1 X101.055 Y101.879 E0.02306
G1 X101.624 Y102.345 E0.02306
G1 X102.091 Y102.914 E0.02306
G1 X102.437 Y103.563 E0.02306
G1 X102.651 Y104.267 E0.02306
G1 X102.723 Y104.999 E0.02306
G1 X102.651 Y105.731 E0.02306
G1 X102.437 Y106.435 E0.02306
G1 X102.091 Y107.083 E0.02306
G1 X101.624 Y107.652 E0.02306
G1 X101.055 Y108.118 E0.02306
G1 X100.407 Y108.465 E0.02306
G1 X99.703 Y108.679 E0.02306
G1 X99.030 Y108.745 E0.02118
G1 X98.971 Y108.372 F10800.000
G1 F1200.000
G1 X98.313 Y108.307 E0.02073
G1 X97.680 Y108.115 E0.02073
G1 X97.097 Y107.803 E0.02073
G1 X96.585 Y107.384 E0.02073
G1 X96.166 Y106.873 E0.02073
G1 X95.854 Y106.290 E0.02073
G1 X95.662 Y105.657 E0.02073
G1 X95.597 Y104.999 E0.02073
G1 X95.662 Y104.341 E0.02073
G1 X95.854 Y103.708 E0.02073
G1 X96.166 Y103.125 E0.02073
G1 X96.585 Y102.613 E0.02073
G1 X97.097 Y102.194 E0.02073
G1 X97.680 Y101.882 E0.02074
G1 X98.321 Y101.690 E0.02099
G1 X98.971 Y101.626 E0.02046
G1 X99.627 Y101.690 E0.02068
G1 X100.262 Y101.882 E0.02079
G1 X100.845 Y102.194 E0.02073
G1 X101.356 Y102.613 E0.02073
G1 X101.776 Y103.125 E0.02073
G1 X102.087 Y103.708 E0.02073
G1 X102.279 Y104.341 E0.02073
G1 X102.344 Y104.999 E0.02073
G1 X102.279 Y105.657 E0.02073
G1 X102.087 Y106.290 E0.02073
G1 X101.776 Y106.873 E0.02073
G1 X101.356 Y107.384 E0.02073
G1 X100.845 Y107.803 E0.02073
G1 X100.262 Y108.115 E0.02073
G1 X99.629 Y108.307 E0.02073
G1 X99.030 Y108.366 E0.01885
G1 X98.771 Y108.718 F10800.000
G1 E-0.80000 F2100.00000
G1 Z0.800 F10800.000
G1 X98.979 Y114.411
G1 Z0.200
G1 E0.80000 F2100.00000
G1 F1200.000
G1 X98.104 Y114.369 E0.02749
G1 X97.217 Y114.246 E0.02805
G1 X96.529 Y114.089 E0.02213
G1 X96.200 Y113.994 E0.01076
G1 X95.708 Y113.826 E0.01630
G1 X95.208 Y113.627 E0.01687
G1 X94.573 Y113.320 E0.02212
G1 X93.958 Y112.966 E0.02224
G1 X93.673 Y112.779 E0.01069
G1 X93.102 Y112.358 E0.02224
G1 X92.564 Y111.895 E0.02224
G1 X92.321 Y111.661 E0.01059
G1 X91.732 Y111.012 E0.02749
G1 X91.191 Y110.296 E0.02812
G1 X90.916 Y109.866 E0.01602
G1 X90.651 Y109.401 E0.01676
G1 X90.272 Y108.589 E0.02811
G1 X89.976 Y107.770 E0.02731
G1 X89.793 Y107.088 E0.02214
G1 X89.722 Y106.749 E0.01087
G1 X89.664 Y106.407 E0.01087
G1 X89.585 Y105.702 E0.02224
G1 X89.558 Y104.999 E0.02207
G1 X89.585 Y104.290 E0.02224
G1 X89.617 Y103.948 E0.01076
G1 X89.691 Y103.434 E0.01630
G1 X89.795 Y102.900 E0.01704
G1 X89.877 Y102.568 E0.01075
G1 X90.086 Y101.890 E0.02224
G1 X90.343 Y101.238 E0.02197
G1 X90.729 Y100.457 E0.02731
G1 X91.196 Y99.694 E0.02805
G1 X91.615 Y99.126 E0.02213
G1 X91.833 Y98.863 E0.01069
G1 X92.316 Y98.342 E0.02230
G1 X92.691 Y97.989 E0.01613
G1 X93.102 Y97.639 E0.01693
G1 X93.515 Y97.330 E0.01618
G1 X93.959 Y97.031 E0.01677
G1 X94.719 Y96.603 E0.02737
G1 X95.532 Y96.237 E0.02796
G1 X96.354 Y95.959 E0.02721
G1 X97.226 Y95.749 E0.02812
G1 X97.731 Y95.670 E0.01602
G1 X98.263 Y95.613 E0.01677
G1 X99.135 Y95.590 E0.02737
G1 X100.030 Y95.646 E0.02811
G1 X100.559 Y95.723 E0.01676
G1 X101.060 Y95.821 E0.01603
G1 X101.901 Y96.056 E0.02738
G1 X102.738 Y96.373 E0.02805
G1 X103.369 Y96.677 E0.02196
G1 X103.983 Y97.032 E0.02224
G1 X104.266 Y97.217 E0.01059
G1 X104.966 Y97.745 E0.02749
G1 X105.633 Y98.349 E0.02823
G1 X105.867 Y98.592 E0.01058
G1 X106.330 Y99.130 E0.02224
G1 X106.748 Y99.696 E0.02207
G1 X107.125 Y100.297 E0.02224
G1 X107.291 Y100.597 E0.01076
G1 X107.520 Y101.064 E0.01630
G1 X107.732 Y101.558 E0.01687
G1 X107.966 Y102.226 E0.02219
G1 X108.102 Y102.722 E0.01613
G1 X108.219 Y103.249 E0.01693
G1 X108.300 Y103.759 E0.01618
G1 X108.357 Y104.294 E0.01687
G1 X108.383 Y104.996 E0.02202
G1 X108.341 Y105.866 E0.02731
G1 X108.218 Y106.757 E0.02823
G1 X108.149 Y107.088 E0.01058
G1 X107.965 Y107.773 E0.02224
G1 X107.733 Y108.437 E0.02207
G1 X107.449 Y109.088 E0.02224
G1 X107.295 Y109.392 E0.01069
G1 X106.941 Y110.006 E0.02224
G1 X106.541 Y110.593 E0.02224
G1 X106.332 Y110.865 E0.01076
G1 X105.996 Y111.261 E0.01630
G1 X105.630 Y111.651 E0.01676
G1 X104.966 Y112.253 E0.02811
G1 X104.266 Y112.781 E0.02749
G1 X103.983 Y112.966 E0.01059
G1 X103.372 Y113.319 E0.02214
G1 X102.583 Y113.688 E0.02731
G1 X101.740 Y113.995 E0.02812
G1 X101.247 Y114.130 E0.01602
G1 X100.722 Y114.247 E0.01687
G1 X100.025 Y114.352 E0.02212
G1 X99.039 Y114.410 E0.03095
G1 X98.974 Y114.789 F10800.000
G1 F1200.000
G1 X98.069 Y114.745 E0.02841
G1 X97.150 Y114.618 E0.02910
G1 X96.435 Y114.455 E0.02298
G1 X96.086 Y114.354 E0.01138
G1 X95.577 Y114.180 E0.01688
G1 X95.056 Y113.972 E0.01757
G1 X94.396 Y113.654 E0.02297
G1 X93.761 Y113.287 E0.02302
G1 X93.458 Y113.089 E0.01136
G1 X92.867 Y112.653 E0.02302
G1 X92.310 Y112.174 E0.02302
G1 X92.050 Y111.923 E0.01132
G1 X91.441 Y111.253 E0.02841
G1 X90.881 Y110.512 E0.02912
G1 X90.593 Y110.061 E0.01678
G1 X90.316 Y109.575 E0.01753
G1 X89.923 Y108.733 E0.02912
G1 X89.616 Y107.883 E0.02835
G1 X89.426 Y107.175 E0.02298
G1 X89.351 Y106.819 E0.01142
G1 X89.290 Y106.460 E0.01142
G1 X89.208 Y105.730 E0.02302
G1 X89.181 Y104.999 E0.02295
G1 X89.208 Y104.265 E0.02302
G1 X89.242 Y103.904 E0.01138
G1 X89.319 Y103.371 E0.01688
G1 X89.427 Y102.819 E0.01763
G1 X89.514 Y102.467 E0.01138
G1 X89.730 Y101.765 E0.02302
G1 X89.997 Y101.085 E0.02292
G1 X90.398 Y100.274 E0.02835
G1 X90.883 Y99.483 E0.02910
G1 X91.318 Y98.893 E0.02298
G1 X91.549 Y98.614 E0.01136
G1 X92.049 Y98.076 E0.02304
G1 X92.440 Y97.708 E0.01682
G1 X92.867 Y97.345 E0.01759
G1 X93.297 Y97.023 E0.01684
G1 X93.761 Y96.710 E0.01753
G1 X94.549 Y96.266 E0.02837
G1 X95.394 Y95.886 E0.02906
G1 X96.250 Y95.596 E0.02831
G1 X97.153 Y95.379 E0.02912
G1 X97.681 Y95.296 E0.01678
G1 X98.237 Y95.236 E0.01753
G1 X99.142 Y95.212 E0.02837
G1 X100.069 Y95.271 E0.02912
G1 X100.622 Y95.351 E0.01753
G1 X101.147 Y95.454 E0.01679
G1 X102.019 Y95.697 E0.02837
G1 X102.887 Y96.026 E0.02910
G1 X103.545 Y96.343 E0.02292
G1 X104.181 Y96.710 E0.02302
G1 X104.483 Y96.908 E0.01132
G1 X105.206 Y97.454 E0.02841
G1 X105.896 Y98.078 E0.02916
G1 X106.146 Y98.338 E0.01132
G1 X106.625 Y98.895 E0.02302
G1 X107.060 Y99.484 E0.02295
G1 X107.450 Y100.105 E0.02302
G1 X107.626 Y100.423 E0.01138
G1 X107.863 Y100.907 E0.01688
G1 X108.084 Y101.421 E0.01757
G1 X108.326 Y102.114 E0.02300
G1 X108.468 Y102.631 E0.01682
G1 X108.590 Y103.179 E0.01759
G1 X108.674 Y103.709 E0.01684
G1 X108.733 Y104.266 E0.01757
G1 X108.761 Y104.998 E0.02294
G1 X108.717 Y105.901 E0.02835
G1 X108.589 Y106.822 E0.02916
G1 X108.516 Y107.175 E0.01132
G1 X108.326 Y107.884 E0.02302
G1 X108.084 Y108.575 E0.02295
G1 X107.790 Y109.248 E0.02302
G1 X107.627 Y109.571 E0.01136
G1 X107.260 Y110.207 E0.02302
G1 X106.847 Y110.814 E0.02302
G1 X106.626 Y111.102 E0.01138
G1 X106.277 Y111.512 E0.01688
G1 X105.895 Y111.920 E0.01753
G1 X105.206 Y112.543 E0.02912
G1 X104.483 Y113.089 E0.02841
G1 X104.181 Y113.287 E0.01132
G1 X103.546 Y113.653 E0.02298
G1 X102.727 Y114.037 E0.02835
G1 X101.855 Y114.354 E0.02912
G1 X101.338 Y114.496 E0.01678
G1 X100.791 Y114.618 E0.01757
G1 X100.067 Y114.727 E0.02297
G1 X99.034 Y114.787 E0.03245
G1 X98.774 Y114.442 F10800.000
G1 E-0.80000 F2100.00000
G1 Z0.800 F10800.000
G1 X101.879 Y113.824
G1 Z0.200
G1 E0.80000 F2100.00000
G1 F1200.000
G1 X90.279 Y102.224 E0.51880
G1 X90.153 Y102.635 E0.01361
G1 X101.331 Y113.814 E0.49997
G1 X100.898 Y113.918 E0.01410
G1 X90.050 Y103.070 E0.48517
G1 X89.964 Y103.522 E0.01455
G1 X100.444 Y114.003 E0.46875
G1 X99.976 Y114.072 E0.01498
G1 X89.897 Y103.993 E0.45079
G1 X89.860 Y104.494 E0.01590
G1 X99.476 Y114.110 E0.43005
G1 X98.955 Y114.127 E0.01647
G1 X89.842 Y105.014 E0.40759
G1 X89.863 Y105.573 E0.01768
G1 X98.390 Y114.100 E0.38139
G1 X98.130 Y114.087 E0.00823
G1 X97.793 Y114.041 E0.01076
G1 X89.922 Y106.170 E0.35203
G1 X90.024 Y106.809 E0.02048
G1 X97.157 Y113.942 E0.31903
G1 X96.448 Y113.772 E0.02306
G1 X90.203 Y107.527 E0.27930
G1 X90.485 Y108.346 E0.02741
G1 X95.628 Y113.490 E0.23004
G1 X95.322 Y113.368 E0.01042
G1 X94.625 Y113.024 E0.02459
G1 X90.944 Y109.343 E0.16464
G1 X91.423 Y110.135 E0.02928
G1 X91.950 Y110.831 E0.02760
G1 X92.503 Y111.440 E0.02601
G1 X93.770 Y112.708 E0.05671
G1 E-0.80000 F2100.00000
G1 Z0.800 F10800.000
G1 X95.663 Y96.312
G1 Z0.200
G1 E0.80000 F2100.00000
G1 F1200.000
G1 X100.741 Y101.390 E0.22711
G1 X100.515 Y101.270 E0.00809
G1 X99.894 Y101.081 E0.02053
G1 X95.414 Y96.601 E0.20039
G1 X95.043 Y96.768 E0.01286
G1 X99.267 Y100.992 E0.18891
G1 X98.970 Y100.963 E0.00942
G1 X98.724 Y100.987 E0.00782
G1 X94.685 Y96.947 E0.18067
G1 X94.340 Y97.141 E0.01249
G1 X98.234 Y101.035 E0.17416
G1 X97.814 Y101.153 E0.01380
G1 X94.004 Y97.342 E0.17043
G1 X93.682 Y97.559 E0.01226
G1 X97.405 Y101.281 E0.16648
G1 X97.054 Y101.468 E0.01257
G1 X93.375 Y97.789 E0.16457
G1 X93.079 Y98.031 E0.01209
G1 X96.707 Y101.660 E0.16230
G1 X96.412 Y101.902 E0.01209
G1 X92.792 Y98.282 E0.16189
G1 X92.515 Y98.543 E0.01203
G1 X96.117 Y102.145 E0.16107
G1 X95.874 Y102.440 E0.01209
G1 X92.256 Y98.822 E0.16181
G1 X92.000 Y99.104 E0.01204
G1 X95.632 Y102.735 E0.16242
G1 X95.440 Y103.082 E0.01252
G1 X91.762 Y99.403 E0.16454
G1 X91.533 Y99.713 E0.01216
G1 X95.253 Y103.433 E0.16637
G1 X95.124 Y103.841 E0.01356
G1 X91.318 Y100.036 E0.17022
G1 X91.114 Y100.369 E0.01237
G1 X95.007 Y104.262 E0.17411
G1 X94.959 Y104.752 E0.01556
G1 X90.918 Y100.711 E0.18071
G1 X90.740 Y101.071 E0.01270
G1 X94.964 Y105.295 E0.18889
G1 X95.012 Y105.786 E0.01562
G1 X95.053 Y105.922 E0.00449
G1 X90.568 Y101.437 E0.20060
G1 X90.416 Y101.823 E0.01312
G1 X95.362 Y106.769 E0.22121
G1 X95.615 Y107.241 E0.01693
G1 X96.117 Y107.853 E0.02502
G1 X96.728 Y108.355 E0.02502
G1 X97.200 Y108.607 E0.01693
G1 X102.141 Y113.548 E0.22098
G1 X102.531 Y113.400 E0.01319
G1 X98.047 Y108.916 E0.20055
G1 X98.183 Y108.957 E0.00449
G1 X98.675 Y109.006 E0.01562
G1 X102.898 Y113.229 E0.18886
G1 X103.262 Y113.055 E0.01277
G1 X99.218 Y109.011 E0.18090
G1 X99.707 Y108.962 E0.01556
G1 X103.603 Y112.859 E0.17425
G1 X103.939 Y112.657 E0.01240
G1 X100.128 Y108.845 E0.17046
G1 X100.537 Y108.716 E0.01356
G1 X104.255 Y112.435 E0.16630
G1 X104.562 Y112.203 E0.01215
G1 X100.887 Y108.529 E0.16433
G1 X101.234 Y108.338 E0.01252
G1 X104.862 Y111.965 E0.16225
G1 X105.144 Y111.710 E0.01204
G1 X101.529 Y108.095 E0.16165
G1 X101.825 Y107.853 E0.01209
G1 X105.426 Y111.454 E0.16106
G1 X105.687 Y111.177 E0.01203
G1 X102.067 Y107.557 E0.16188
G1 X102.310 Y107.262 E0.01209
G1 X105.939 Y110.891 E0.16231
G1 X106.182 Y110.596 E0.01208
G1 X102.501 Y106.915 E0.16462
G1 X102.688 Y106.565 E0.01257
G1 X106.408 Y110.285 E0.16638
G1 X106.627 Y109.965 E0.01224
G1 X102.817 Y106.156 E0.17036
G1 X102.935 Y105.735 E0.01381
G1 X106.831 Y109.631 E0.17425
G1 X107.027 Y109.290 E0.01245
G1 X102.983 Y105.246 E0.18090
G1 X103.007 Y104.999 E0.00785
G1 X102.978 Y104.703 E0.00940
G1 X107.208 Y108.933 E0.18919
G1 X107.371 Y108.558 E0.01292
G1 X102.888 Y104.075 E0.20050
G1 X102.700 Y103.454 E0.02053
G1 X102.579 Y103.228 E0.00809
G1 X107.525 Y108.174 E0.22120
G1 X107.665 Y107.776 E0.01335
G1 X96.199 Y96.310 E0.51280
G1 X96.614 Y96.187 E0.01369
G1 X107.784 Y107.357 E0.49956
G1 X107.893 Y106.929 E0.01399
G1 X97.048 Y96.083 E0.48506
G1 X97.496 Y95.993 E0.01445
G1 X107.972 Y106.470 E0.46856
M73 P1 R62
G1 X108.038 Y105.997 E0.01508
G1 X97.969 Y95.929 E0.45032
G1 X98.468 Y95.890 E0.01584
G1 X108.076 Y105.498 E0.42969
G1 X108.100 Y104.984 E0.01627
G1 X98.992 Y95.876 E0.40733
G1 X99.553 Y95.899 E0.01775
G1 X108.079 Y104.425 E0.38131
G1 X108.023 Y103.831 E0.01886
G1 X100.139 Y95.948 E0.35260
G1 X100.785 Y96.055 E0.02069
G1 X107.916 Y103.186 E0.31892
G1 X107.740 Y102.473 E0.02323
G1 X101.507 Y96.239 E0.27878
G1 X101.813 Y96.325 E0.01004
G1 X102.324 Y96.519 E0.01729
G1 X107.469 Y101.664 E0.23013
G1 X107.263 Y101.182 E0.01658
G1 X107.002 Y100.658 E0.01851
G1 X103.317 Y96.973 E0.16482
G1 X104.103 Y97.448 E0.02906
G1 X104.785 Y97.963 E0.02702
G1 X105.412 Y98.531 E0.02674
G1 X106.676 Y99.795 E0.05654
G1 E-0.80000 F2100.00000
G1 Z0.800 F10800.000
G1 X98.971 Y134.777
G1 Z0.200
G1 E0.80000 F2100.00000
G1 F1200.000
G1 X98.239 Y134.705 E0.02306
G1 X97.535 Y134.492 E0.02306
G1 X96.886 Y134.145 E0.02306
G1 X96.318 Y133.678 E0.02306
G1 X95.851 Y133.110 E0.02306
G1 X95.504 Y132.461 E0.02306
G1 X95.291 Y131.757 E0.02306
G1 X95.219 Y131.025 E0.02306
