; generated by PrusaSlicer 2.1.1+win64 on 2020-04-22 at 22:18:48 UTC

; 

; external perimeters extrusion width = 0.45mm
; perimeters extrusion width = 0.45mm
; infill extrusion width = 0.45mm
; solid infill extrusion width = 0.45mm
; top infill extrusion width = 0.40mm
; first layer extrusion width = 0.42mm

M73 P0 R40
M201 X9000 Y9000 Z500 E10000 ; sets maximum accelerations, mm/sec^2
M203 X500 Y500 Z12 E120 ; sets maximum feedrates, mm/sec
M204 P2000 R1500 T2000 ; sets acceleration (P, T) and retract acceleration (R), mm/sec^2
M205 X10.00 Y10.00 Z0.20 E2.50 ; sets the jerk limits, mm/sec
M205 S0 T0 ; sets the minimum extruding and travel feed rate, mm/sec
M107
M862.3 P "MK2.5SMMU2S" ; printer model check
M862.1 P0.4 ; nozzle diameter check
M115 U3.8.0 ; tell printer latest fw version
G90 ; use absolute coordinates
M83 ; extruder relative mode
M104 S215 ; set extruder temp
M140 S60 ; set bed temp
Tx
M190 S60 ; wait for bed temp
M109 S215 ; wait for extruder temp
G28 W ; home all without mesh bed level
G80 ; mesh bed leveling

G21 ; set units to millimeters

;go outside print area
G1 Y-3.0 F1000.0
G1 Z0.4 F1000.0
; select extruder
Tc
; purge line
G1 X55.0 F2000.0
G1 Z0.3 F1000.0
G92 E0.0
G1 X240.0 E25.0 F2200.0
M73 P0 R40
G1 Y-2.0 F1000.0
G1 X55.0 E25 F1400.0
G1 Z0.20 F1000.0
G1 X5.0 E4.0 F1000.0
G92 E0.0
G21 ; set units to millimeters
G90 ; use absolute coordinates
M83 ; use relative distances for extrusion
M900 K30 ; Filament gcode
;BEFORE_LAYER_CHANGE
G92 E0.0
;0.2


G1 E-0.80000 F2100.00000
G1 Z0.600 F10800.000
;AFTER_LAYER_CHANGE
;0.2
G1 X101.725 Y98.656
G1 Z0.200
G1 E0.80000 F2100.00000
M204 S1000
G1 F1200
G1 X102.127 Y98.270 E0.01749
G1 X114.581 Y89.450 E0.47849
G1 X115.236 Y89.140 E0.02270
G1 X146.572 Y85.736 E0.98831
G1 X147.378 Y85.890 E0.02574
G1 X148.074 Y86.334 E0.02586
G1 X148.554 Y87.000 E0.02574
G1 X148.755 Y87.796 E0.02574
G1 X148.007 Y107.531 E0.61923
G1 X147.877 Y108.185 E0.02089
G1 X147.392 Y108.960 E0.02867
G1 X132.682 Y123.835 E0.65594
G1 X132.276 Y124.073 E0.01475
G1 X131.832 Y124.217 E0.01464
G1 X130.903 Y124.212 E0.02911
G1 X105.035 Y118.223 E0.83252
G1 X104.350 Y117.919 E0.02349
G1 X103.808 Y117.402 E0.02349
G1 X103.546 Y116.939 E0.01669
G1 X103.403 Y116.422 E0.01680
G1 X101.250 Y100.219 E0.51252
G1 X101.272 Y99.661 E0.01749
G1 X101.435 Y99.128 E0.01749
G1 X101.694 Y98.707 E0.01549
G1 E-0.80000 F2100.00000
G1 Z0.800 F10800.000
G1 X130.773 Y120.326
G1 Z0.200
G1 E0.80000 F2100.00000
G1 F1200
G1 X123.786 Y111.263 E0.35882
G1 X119.066 Y116.493 E0.22090
G1 X118.246 Y109.803 E0.21131
G1 X108.067 Y114.343 E0.34946
G1 X114.845 Y107.278 E0.30698
G1 X109.766 Y105.910 E0.16492
G1 X115.055 Y103.292 E0.18504
G1 X105.964 Y100.255 E0.30052
G1 X116.654 Y98.712 E0.33865
G1 X116.456 Y92.430 E0.19706
G1 X122.241 Y96.658 E0.22468
G1 X125.361 Y93.828 E0.13207
G1 X126.693 Y95.832 E0.07543
G1 X132.907 Y91.988 E0.22911
G1 X133.422 Y94.967 E0.09479
G1 X144.273 Y89.694 E0.37827
G1 X137.340 Y97.748 E0.33321
G1 X143.595 Y100.388 E0.21284
G1 X136.791 Y102.437 E0.22278
G1 X143.853 Y106.890 E0.26178
G1 X133.916 Y107.097 E0.31163
G1 X136.793 Y113.565 E0.22195
G1 X130.666 Y111.036 E0.20782
G1 X130.772 Y120.266 E0.28943
G1 X131.163 Y121.450 F10800.000
G1 F1200
G1 X123.763 Y111.851 E0.38002
G1 X118.792 Y117.359 E0.23265
G1 X117.934 Y110.356 E0.22123
G1 X106.462 Y115.472 E0.39385
G1 X114.132 Y107.476 E0.34740
G1 X108.704 Y106.015 E0.17623
G1 X114.068 Y103.360 E0.18765
G1 X104.336 Y100.109 E0.32169
G1 X116.266 Y98.387 E0.37793
G1 X116.054 Y91.669 E0.21072
G1 X122.215 Y96.172 E0.23926
G1 X125.433 Y93.255 E0.13618
G1 X126.805 Y95.320 E0.07773
G1 X133.183 Y91.374 E0.23516
G1 X133.708 Y94.409 E0.09657
G1 X145.748 Y88.557 E0.41973
G1 X137.964 Y97.602 E0.37417
G1 X144.705 Y100.448 E0.22942
G1 X137.692 Y102.559 E0.22964
G1 X145.117 Y107.241 E0.27521
G1 X134.492 Y107.463 E0.33321
G1 X137.521 Y114.274 E0.23372
G1 X131.050 Y111.603 E0.21949
G1 X131.162 Y121.390 E0.30690
G1 X131.085 Y121.058 F10800.000
G1 X130.651 Y119.588
G1 F1200
G1 X129.319 Y118.255 E0.05963
G1 X130.639 Y118.498 F10800.000
G1 F1200
G1 X125.697 Y113.557 E0.22118
G1 E-0.80000 F2100.00000
G1 Z0.800 F10800.000
G1 X127.508 Y115.906
G1 Z0.200
G1 E0.80000 F2100.00000
G1 F1200
G1 X130.645 Y119.043 E0.14040
G1 E-0.80000 F2100.00000
G1 Z0.800 F10800.000
G1 X136.397 Y112.953
G1 Z0.200
G1 E0.80000 F2100.00000
G1 F1200
G1 X116.767 Y93.323 E0.87859
G1 X116.784 Y93.878 E0.01760
G1 X135.724 Y112.818 E0.84767
G1 X134.807 Y112.439 E0.03138
G1 X116.802 Y94.434 E0.80586
G1 X116.819 Y94.990 E0.01760
G1 X133.890 Y112.061 E0.76405
G1 X132.974 Y111.683 E0.03138
G1 X116.837 Y95.546 E0.72225
G1 X116.854 Y96.101 E0.01760
G1 X132.057 Y111.304 E0.68044
G1 X131.141 Y110.926 E0.03138
G1 X116.872 Y96.657 E0.63863
G1 X116.889 Y97.213 E0.01760
G1 X130.380 Y110.704 E0.60380
G1 X130.386 Y111.248 E0.01723
G1 X116.907 Y97.769 E0.60330
G1 X116.924 Y98.325 E0.01760
G1 X130.392 Y111.793 E0.60279
G1 X130.399 Y112.337 E0.01723
G1 X116.942 Y98.880 E0.60229
G1 X116.944 Y98.955 E0.00238
G1 X116.537 Y99.014 E0.01301
G1 X130.405 Y112.882 E0.62067
G1 X130.411 Y113.426 E0.01723
G1 X116.067 Y99.082 E0.64200
G1 X115.597 Y99.150 E0.01504
G1 X130.417 Y113.971 E0.66333
G1 X130.424 Y114.515 E0.01723
G1 X115.126 Y99.218 E0.68466
G1 X114.656 Y99.286 E0.01504
G1 X130.430 Y115.060 E0.70599
G1 X130.436 Y115.604 E0.01723
G1 X114.186 Y99.354 E0.72732
M73 P2 R39
G1 X113.715 Y99.422 E0.01504
G1 X130.442 Y116.149 E0.74865
G1 X130.449 Y116.693 E0.01723
G1 X113.245 Y99.490 E0.76998
G1 X112.775 Y99.558 E0.01504
G1 X130.455 Y117.238 E0.79132
G1 X130.461 Y117.782 E0.01723
G1 X123.886 Y111.208 E0.29427
G1 X123.780 Y111.101 F10800.000
G1 F1200
G1 X112.304 Y99.625 E0.51361
G1 X111.834 Y99.693 E0.01504
G1 X123.404 Y111.264 E0.51786
G1 X123.149 Y111.547 E0.01206
G1 X115.158 Y103.556 E0.35763
G1 X114.798 Y103.734 E0.01271
G1 X122.894 Y111.830 E0.36232
G1 X122.638 Y112.113 E0.01206
G1 X114.438 Y103.913 E0.36700
G1 X114.078 Y104.091 E0.01271
G1 X122.383 Y112.395 E0.37169
G1 X122.128 Y112.678 E0.01206
G1 X113.718 Y104.269 E0.37637
G1 X113.358 Y104.447 E0.01271
G1 X121.872 Y112.961 E0.38106
G1 X121.617 Y113.244 E0.01206
G1 X118.581 Y110.208 E0.13588
G1 X118.656 Y110.822 E0.01956
G1 X121.362 Y113.527 E0.12109
G1 X121.106 Y113.810 E0.01206
G1 X118.731 Y111.435 E0.10630
G1 X118.806 Y112.048 E0.01956
G1 X120.851 Y114.093 E0.09151
G1 X120.595 Y114.376 E0.01206
G1 X118.881 Y112.662 E0.07672
G1 X118.956 Y113.275 E0.01956
G1 X120.340 Y114.659 E0.06193
G1 X120.085 Y114.942 E0.01206
G1 X119.032 Y113.889 E0.04714
G1 X119.107 Y114.502 E0.01956
G1 X119.829 Y115.225 E0.03235
G1 X119.574 Y115.508 E0.01206
G1 X119.182 Y115.115 E0.01755
G1 X119.257 Y115.729 E0.01956
G1 X119.439 Y115.911 E0.00814
G1 E-0.80000 F2100.00000
G1 Z0.800 F10800.000
G1 X117.740 Y109.905
G1 Z0.200
G1 E0.80000 F2100.00000
G1 F1200
G1 X115.176 Y107.341 E0.11476
G1 X114.912 Y107.616 E0.01205
G1 X117.239 Y109.943 E0.10415
G1 X116.867 Y110.109 E0.01290
G1 X114.649 Y107.891 E0.09928
G1 X114.385 Y108.165 E0.01205
G1 X116.495 Y110.275 E0.09442
G1 X116.122 Y110.441 E0.01290
G1 X114.122 Y108.440 E0.08955
G1 X113.858 Y108.715 E0.01205
G1 X115.750 Y110.607 E0.08468
G1 X115.378 Y110.773 E0.01290
G1 X113.594 Y108.990 E0.07982
G1 X113.331 Y109.264 E0.01205
G1 X115.006 Y110.939 E0.07495
G1 X114.633 Y111.105 E0.01290
G1 X113.067 Y109.539 E0.07009
G1 X112.804 Y109.814 E0.01205
G1 X114.261 Y111.271 E0.06522
G1 X113.889 Y111.437 E0.01290
G1 X112.540 Y110.089 E0.06036
G1 X112.277 Y110.363 E0.01205
G1 X113.517 Y111.603 E0.05549
G1 X113.144 Y111.769 E0.01290
G1 X112.013 Y110.638 E0.05062
G1 X111.750 Y110.913 E0.01205
G1 X112.772 Y111.935 E0.04576
G1 X112.400 Y112.101 E0.01290
G1 X111.486 Y111.187 E0.04089
G1 X111.223 Y111.462 E0.01205
G1 X112.028 Y112.267 E0.03603
G1 X111.655 Y112.433 E0.01290
G1 X110.959 Y111.737 E0.03116
G1 X110.695 Y112.012 E0.01205
G1 X111.283 Y112.599 E0.02630
G1 X110.911 Y112.765 E0.01290
G1 X110.432 Y112.286 E0.02143
G1 X110.168 Y112.561 E0.01205
G1 X110.538 Y112.931 E0.01656
G1 X110.166 Y113.097 E0.01290
G1 X109.785 Y112.716 E0.01707
G1 X109.518 Y113.323 F10800.000
G1 F1200
G1 X109.406 Y113.402 E0.00292
G1 X109.294 Y113.481 E0.00245
G1 X109.181 Y113.560 E0.00198
G1 X109.069 Y113.639 E0.00151
G1 X108.957 Y113.718 E0.00104
G1 X107.913 Y114.451 F10800.000
G1 F1200
G1 X107.801 Y114.530 E0.00292
G1 X107.688 Y114.609 E0.00245
G1 X107.576 Y114.688 E0.00198
G1 X107.464 Y114.767 E0.00151
G1 X107.351 Y114.846 E0.00104
G1 E-0.80000 F2100.00000
G1 Z0.800 F10800.000
G1 X110.712 Y105.568
G1 Z0.200
G1 E0.80000 F2100.00000
G1 F1200
G1 X111.127 Y105.984 E0.01859
G1 X111.863 Y106.182 E0.02414
G1 X111.198 Y105.517 E0.02978
G1 X111.558 Y105.339 E0.01271
G1 X112.600 Y106.380 E0.04663
G1 X113.336 Y106.579 E0.02414
G1 X111.918 Y105.160 E0.06348
G1 X112.278 Y104.982 E0.01271
G1 X114.073 Y106.777 E0.08033
G1 X114.809 Y106.975 E0.02414
G1 X112.638 Y104.804 E0.09718
G1 X112.998 Y104.626 E0.01271
G1 X118.112 Y109.739 E0.22888
G1 E-0.80000 F2100.00000
G1 Z0.800 F10800.000
G1 X114.635 Y103.032
G1 Z0.200
G1 E0.80000 F2100.00000
G1 F1200
G1 X111.364 Y99.761 E0.14640
G1 X110.893 Y99.829 E0.01504
G1 X113.558 Y102.494 E0.11925
G1 X112.749 Y102.224 E0.02697
G1 X110.423 Y99.897 E0.10413
G1 X109.953 Y99.965 E0.01504
G1 X111.941 Y101.954 E0.08901
G1 X111.133 Y101.684 E0.02697
G1 X109.482 Y100.033 E0.07389
G1 X109.012 Y100.101 E0.01504
G1 X110.325 Y101.414 E0.05876
G1 X109.517 Y101.144 E0.02697
G1 X108.541 Y100.169 E0.04364
G1 X108.071 Y100.237 E0.01504
G1 X108.708 Y100.874 E0.02852
G1 X107.900 Y100.604 E0.02697
G1 X107.451 Y100.155 E0.02010
G1 E-0.80000 F2100.00000
G1 Z0.800 F10800.000
G1 X116.815 Y92.832
G1 Z0.200
G1 E0.80000 F2100.00000
G1 F1200
G1 X135.966 Y111.983 E0.85715
G1 E-0.80000 F2100.00000
G1 Z0.800 F10800.000
G1 X136.827 Y106.924
G1 Z0.200
G1 E0.80000 F2100.00000
G1 F1200
G1 X124.707 Y94.804 E0.54246
G1 X124.425 Y95.060 E0.01206
G1 X136.133 Y106.768 E0.52405
G1 X135.606 Y106.779 E0.01669
G1 X124.142 Y95.316 E0.51309
G1 X123.860 Y95.572 E0.01206
G1 X135.079 Y106.790 E0.50212
G1 X134.552 Y106.801 E0.01669
G1 X123.578 Y95.828 E0.49115
G1 X123.296 Y96.084 E0.01206
G1 X134.024 Y106.812 E0.48019
G1 X133.497 Y106.823 E0.01669
G1 X123.013 Y96.340 E0.46922
G1 X122.731 Y96.596 E0.01206
G1 X133.907 Y107.771 E0.50019
G1 X134.338 Y108.741 E0.03358
G1 X122.449 Y96.852 E0.53212
G1 X122.260 Y97.022 E0.00805
G1 X121.596 Y96.537 E0.02604
G1 X134.769 Y109.710 E0.58959
G1 X135.200 Y110.680 E0.03358
G1 X118.815 Y94.294 E0.73336
G1 E-0.80000 F2100.00000
G1 Z0.800 F10800.000
G1 X126.051 Y95.071
G1 Z0.200
G1 E0.80000 F2100.00000
G1 F1200
G1 X125.271 Y94.292 E0.03490
G1 X124.989 Y94.548 E0.01206
G1 X137.188 Y106.746 E0.54598
G1 X137.715 Y106.735 E0.01669
G1 X126.972 Y95.992 E0.48084
G1 X127.304 Y95.786 E0.01238
G1 X138.242 Y106.724 E0.48956
G1 X138.770 Y106.713 E0.01669
G1 X127.637 Y95.581 E0.49827
G1 X127.970 Y95.375 E0.01238
G1 X139.297 Y106.702 E0.50698
G1 X139.824 Y106.691 E0.01669
G1 X128.302 Y95.169 E0.51570
G1 X128.635 Y94.964 E0.01238
G1 X140.518 Y106.847 E0.53185
G1 X142.100 Y106.814 F10800.000
G1 F1200
G1 X139.675 Y104.389 E0.10850
G1 X141.132 Y105.308 F10800.000
G1 F1200
G1 X142.627 Y106.803 E0.06689
G1 E-0.80000 F2100.00000
G1 Z0.800 F10800.000
G1 X138.218 Y103.471
G1 Z0.200
G1 E0.80000 F2100.00000
G1 F1200
G1 X141.406 Y106.658 E0.14268
G1 X140.879 Y106.669 E0.01669
G1 X137.304 Y103.095 E0.15999
G1 X136.453 Y102.243 F10800.000
G1 F1200
G1 X128.967 Y94.758 E0.33503
G1 X129.300 Y94.552 E0.01238
G1 X136.866 Y102.119 E0.33866
G1 X137.280 Y101.994 E0.01367
G1 X129.632 Y94.346 E0.34229
G1 X129.965 Y94.141 E0.01238
G1 X137.694 Y101.870 E0.34592
G1 X138.108 Y101.745 E0.01367
G1 X130.297 Y93.935 E0.34956
G1 X130.630 Y93.729 E0.01238
G1 X138.521 Y101.621 E0.35319
G1 X138.935 Y101.496 E0.01367
G1 X130.963 Y93.524 E0.35682
G1 X131.295 Y93.318 E0.01238
G1 X139.485 Y101.508 E0.36655
G1 X140.726 Y101.134 F10800.000
G1 F1200
G1 X137.872 Y98.280 E0.12775
G1 X138.803 Y98.673 E0.03200
G1 X141.003 Y100.873 E0.09848
G1 X141.417 Y100.749 E0.01367
G1 X139.735 Y99.066 E0.07531
G1 X140.666 Y99.459 E0.03200
G1 X141.831 Y100.624 E0.05214
G1 X142.245 Y100.499 E0.01367
G1 X141.597 Y99.852 E0.02897
G1 X142.529 Y100.245 E0.03200
G1 X142.794 Y100.511 E0.01189
G1 E-0.80000 F2100.00000
G1 Z0.800 F10800.000
G1 X143.236 Y90.725
G1 Z0.200
G1 E0.80000 F2100.00000
G1 F1200
G1 X143.092 Y90.582 E0.00642
G1 X142.730 Y90.758 E0.01275
G1 X142.866 Y90.894 E0.00610
G1 X142.617 Y91.183 E0.01208
G1 X142.368 Y90.934 E0.01117
G1 X142.006 Y91.110 E0.01275
G1 X142.368 Y91.473 E0.01624
G1 X142.119 Y91.762 E0.01208
G1 X141.643 Y91.286 E0.02131
G1 X141.281 Y91.462 E0.01275
G1 X141.870 Y92.051 E0.02638
G1 X141.621 Y92.341 E0.01208
G1 X140.919 Y91.638 E0.03144
G1 X140.557 Y91.814 E0.01275
G1 X141.373 Y92.630 E0.03651
G1 X141.124 Y92.919 E0.01208
G1 X140.195 Y91.990 E0.04158
G1 X139.832 Y92.166 E0.01275
G1 X140.875 Y93.208 E0.04665
G1 X140.626 Y93.498 E0.01208
G1 X139.470 Y92.342 E0.05172
G1 X139.108 Y92.518 E0.01275
G1 X140.377 Y93.787 E0.05679
G1 X140.128 Y94.076 E0.01208
G1 X138.746 Y92.694 E0.06185
G1 X138.383 Y92.870 E0.01275
G1 X139.879 Y94.366 E0.06692
G1 X139.630 Y94.655 E0.01208
G1 X138.021 Y93.046 E0.07199
G1 X137.659 Y93.223 E0.01275
G1 X139.381 Y94.944 E0.07706
G1 X139.132 Y95.234 E0.01208
G1 X137.297 Y93.399 E0.08213
G1 X136.935 Y93.575 E0.01275
G1 X138.883 Y95.523 E0.08720
G1 X138.634 Y95.812 E0.01208
G1 X136.572 Y93.751 E0.09226
G1 X136.210 Y93.927 E0.01275
G1 X138.385 Y96.101 E0.09733
G1 X138.136 Y96.391 E0.01208
G1 X135.848 Y94.103 E0.10240
G1 X135.486 Y94.279 E0.01275
G1 X137.887 Y96.680 E0.10747
G1 X137.638 Y96.969 E0.01208
G1 X135.124 Y94.455 E0.11254
G1 X134.761 Y94.631 E0.01275
G1 X137.389 Y97.259 E0.11761
G1 X137.140 Y97.548 E0.01208
G1 X134.399 Y94.807 E0.12268
G1 X134.037 Y94.983 E0.01275
G1 X140.176 Y101.122 E0.27477
G1 X139.762 Y101.247 E0.01367
G1 X133.548 Y95.032 E0.27815
G1 X133.271 Y94.755 F10800.000
G1 F1200
G1 X131.628 Y93.112 E0.07353
G1 X131.960 Y92.906 E0.01238
G1 X132.950 Y93.896 E0.04429
G1 X132.837 Y93.245 E0.02090
G1 X132.293 Y92.701 E0.02436
G1 X132.625 Y92.495 E0.01238
G1 X132.933 Y92.803 E0.01376
M106 S255
;BEFORE_LAYER_CHANGE
G92 E0.0
;0.4


G1 E-0.80000 F2100.00000
G1 Z0.800 F10800.000
;AFTER_LAYER_CHANGE
;0.4
M104 S210 ; set temperature
G1 X147.378 Y85.890
G1 Z0.400
G1 E0.80000 F2100.00000
G1 F3000
G1 X148.074 Y86.334 E0.02586
G1 X148.554 Y87.000 E0.02574
G1 X148.755 Y87.796 E0.02574
G1 X148.007 Y107.531 E0.61923
G1 X147.877 Y108.185 E0.02089
G1 X147.392 Y108.960 E0.02867
G1 X132.682 Y123.835 E0.65594
G1 X132.276 Y124.073 E0.01475
G1 X131.832 Y124.217 E0.01464
G1 X130.903 Y124.212 E0.02911
G1 X105.035 Y118.223 E0.83252
G1 X104.350 Y117.919 E0.02349
G1 X103.808 Y117.402 E0.02349
G1 X103.546 Y116.939 E0.01669
G1 X103.403 Y116.422 E0.01680
G1 X101.250 Y100.219 E0.51252
G1 X101.272 Y99.661 E0.01749
G1 X101.435 Y99.128 E0.01749
G1 X101.725 Y98.656 E0.01737
G1 X102.127 Y98.270 E0.01749
G1 X114.581 Y89.450 E0.47849
G1 X115.236 Y89.140 E0.02270
G1 X146.572 Y85.736 E0.98831
G1 X147.319 Y85.879 E0.02386
G1 E-0.80000 F2100.00000
G1 Z1.000 F10800.000
G1 X130.727 Y120.192
G1 Z0.400
G1 E0.80000 F2100.00000
M204 S800
G1 F3000
G1 X123.789 Y111.193 E0.38464
G1 X119.098 Y116.390 E0.23696
G1 X118.284 Y109.738 E0.22685
G1 X108.259 Y114.208 E0.37154
G1 X114.930 Y107.254 E0.32620
G1 X109.893 Y105.898 E0.17658
G1 X115.173 Y103.284 E0.19942
G1 X106.158 Y100.273 E0.32171
G1 X116.700 Y98.750 E0.36053
G1 X116.504 Y92.521 E0.21098
G1 X122.244 Y96.716 E0.24068
G1 X125.353 Y93.897 E0.14205
G1 X126.679 Y95.893 E0.08114
G1 X132.874 Y92.062 E0.24655
G1 X133.388 Y95.034 E0.10210
G1 X144.097 Y89.829 E0.40302
G1 X137.266 Y97.766 E0.35444
G1 X143.462 Y100.381 E0.22764
G1 X136.683 Y102.422 E0.23962
G1 X143.703 Y106.848 E0.28088
G1 X133.848 Y107.054 E0.33365
G1 X136.706 Y113.481 E0.23809
G1 X130.621 Y110.969 E0.22285
G1 X130.726 Y120.132 E0.31020
M204 S1000
G1 X131.148 Y121.405 F10800.000
M204 S800
G1 F2400
G1 X123.764 Y111.827 E0.40935
G1 X118.803 Y117.325 E0.25065
G1 X117.946 Y110.334 E0.23841
G1 X106.526 Y115.427 E0.42328
