; generated by PrusaSlicer 2.0.0+ on 2019-09-02 at 13:32:30

; 

; external perimeters extrusion width = 0.45mm
; perimeters extrusion width = 0.45mm
; infill extrusion width = 0.45mm
; solid infill extrusion width = 0.45mm
; top infill extrusion width = 0.40mm
; first layer extrusion width = 0.42mm

M73 P0 R34
M201 X9000 Y9000 Z500 E10000 ; sets maximum accelerations, mm/sec^2
M203 X500 Y500 Z12 E120 ; sets maximum feedrates, mm/sec
M204 P2000 R1500 T2000 ; sets acceleration (P, T) and retract acceleration (R), mm/sec^2
M205 X10.00 Y10.00 Z0.20 E2.50 ; sets the jerk limits, mm/sec
M205 S0 T0 ; sets the minimum extruding and travel feed rate, mm/sec
M107
M115 U3.7.2 ; tell printer latest fw version
G90 ; use absolute coordinates
M83 ; extruder relative mode
M104 S215 ; set extruder temp
M140 S60 ; set bed temp
Tx
M190 S60 ; wait for bed temp
M109 S215 ; wait for extruder temp
G28 W ; home all without mesh bed level
G80 ; mesh bed leveling

G21 ; set units to millimeters

;go outside print area
G1 Y-3.0 F1000.0
G1 Z0.4 F1000.0
; select extruder
Tc
; purge line
G1 X55.0 F2000.0
G1 Z0.3 F1000.0
G92 E0.0
G1 X240.0 E25.0 F2200.0
M73 P0 R34
G1 Y-2.0 F1000.0
G1 X55.0 E25 F1400.0
G1 Z0.20 F1000.0
G1 X5.0 E4.0 F1000.0
G92 E0.0
M900 K30 ; Filament gcode
G21 ; set units to millimeters
G90 ; use absolute coordinates
M83 ; use relative distances for extrusion
;BEFORE_LAYER_CHANGE
G92 E0.0
;0.2


G1 E-0.80000 F2100.00000
G1 Z0.600 F10800.000
;AFTER_LAYER_CHANGE
;0.2
G1 X106.659 Y95.856
G1 Z0.200
G1 E0.80000 F2100.00000
M204 S1000
G1 F1200
G1 X107.226 Y95.464 E0.02165
G1 X117.525 Y90.322 E0.36089
G1 X118.062 Y90.138 E0.01783
G1 X118.624 Y90.076 E0.01771
G1 X142.152 Y91.150 E0.73848
G1 X142.880 Y91.343 E0.02361
G1 X143.518 Y91.736 E0.02349
G1 X144.014 Y92.297 E0.02349
G1 X144.328 Y92.978 E0.02349
G1 X144.428 Y93.573 E0.01894
G1 X144.388 Y94.172 E0.01882
G1 X141.582 Y108.642 E0.46216
G1 X141.238 Y109.497 E0.02888
G1 X140.602 Y110.184 E0.02936
G1 X128.159 Y119.431 E0.48608
G1 X127.371 Y119.819 E0.02753
G1 X126.558 Y119.922 E0.02570
G1 X125.754 Y119.763 E0.02570
G1 X107.137 Y112.315 E0.62871
G1 X106.644 Y112.039 E0.01771
G1 X106.221 Y111.660 E0.01783
G1 X105.891 Y111.196 E0.01783
G1 X105.673 Y110.675 E0.01771
G1 X105.569 Y109.922 E0.02386
G1 X105.825 Y97.654 E0.38474
G1 X105.937 Y96.996 E0.02091
G1 X106.216 Y96.386 E0.02103
G1 X106.620 Y95.902 E0.01977
G1 X106.907 Y96.141 F10800.000
G1 F1200
G1 X107.399 Y95.799 E0.01878
G1 X117.679 Y90.666 E0.36028
G1 X118.141 Y90.507 E0.01532
G1 X118.623 Y90.453 E0.01521
G1 X142.093 Y91.523 E0.73663
G1 X142.714 Y91.682 E0.02010
G1 X143.262 Y92.014 E0.02010
G1 X143.690 Y92.491 E0.02010
G1 X143.963 Y93.075 E0.02021
G1 X144.052 Y93.589 E0.01635
G1 X144.016 Y94.105 E0.01623
G1 X141.213 Y108.565 E0.46182
G1 X140.918 Y109.296 E0.02473
G1 X140.374 Y109.883 E0.02509
G1 X127.938 Y119.125 E0.48580
G1 X127.274 Y119.455 E0.02326
G1 X126.574 Y119.545 E0.02213
G1 X125.881 Y119.408 E0.02213
G1 X107.291 Y111.970 E0.62781
G1 X106.867 Y111.735 E0.01521
G1 X106.507 Y111.414 E0.01510
G1 X106.225 Y111.020 E0.01521
G1 X106.037 Y110.577 E0.01510
G1 X105.946 Y109.924 E0.02066
G1 X106.202 Y97.672 E0.38424
G1 X106.296 Y97.111 E0.01783
G1 X106.533 Y96.591 E0.01794
G1 X106.869 Y96.187 E0.01646
G1 F8640
G1 X107.399 Y95.799 E-0.15173
G1 X109.756 Y94.622 E-0.60827
G1 E-0.04000 F2100.00000
G1 Z0.800 F10800.000
G1 X110.858 Y98.362
G1 Z0.200
G1 E0.80000 F2100.00000
G1 F1200
G1 X118.504 Y98.436 E0.23974
G1 X119.058 Y93.907 E0.14305
G1 X122.749 Y97.590 E0.16348
G1 X125.352 Y95.871 E0.09782
G1 X126.101 Y97.489 E0.05588
G1 X131.095 Y95.372 E0.17009
G1 X131.136 Y97.625 E0.07065
G1 X139.326 Y95.098 E0.26872
G1 X133.627 Y99.966 E0.23500
G1 X137.803 Y102.541 E0.15380
G1 X132.591 Y103.272 E0.16503
G1 X137.208 Y107.287 E0.19185
G1 X130.056 Y106.335 E0.22622
G1 X131.415 Y111.337 E0.16250
G1 X127.271 Y108.827 E0.15191
G1 X126.314 Y115.537 E0.21251
G1 X122.283 Y108.221 E0.26189
G1 X118.284 Y111.478 E0.16173
G1 X118.439 Y106.530 E0.15522
G1 X110.872 Y108.595 E0.24591
G1 X116.330 Y104.419 E0.21547
G1 X112.837 Y102.876 E0.11976
G1 X117.040 Y101.545 E0.13826
G1 X110.912 Y98.389 E0.21614
G1 F8640
G1 X114.203 Y98.409 E-0.76000
G1 E-0.04000 F2100.00000
G1 Z0.800 F10800.000
G1 X122.797 Y97.106
G1 Z0.200
G1 E0.80000 F2100.00000
G1 F1200
G1 X125.510 Y95.315 E0.10193
G1 X126.289 Y96.999 E0.05819
G1 X131.462 Y94.807 E0.17615
G1 X131.504 Y97.117 E0.07244
G1 X140.957 Y94.200 E0.31018
G1 X134.266 Y99.917 E0.27596
G1 X138.891 Y102.769 E0.17038
G1 X133.463 Y103.530 E0.17188
G1 X138.403 Y107.826 E0.20527
G1 X130.569 Y106.784 E0.24781
G1 X132.026 Y112.148 E0.17428
G1 X127.564 Y109.445 E0.16358
G1 X126.528 Y116.707 E0.22998
G1 X122.171 Y108.799 E0.28309
G1 X117.881 Y112.293 E0.17347
G1 X118.046 Y107.028 E0.16514
G1 X109.114 Y109.466 E0.29030
G1 X115.595 Y104.507 E0.25589
G1 X111.772 Y102.817 E0.13108
G1 X116.055 Y101.461 E0.14086
G1 X109.272 Y97.969 E0.23919
G1 X118.171 Y98.056 E0.27902
G1 X118.777 Y93.095 E0.15671
G1 X122.755 Y97.063 E0.17618
G1 X123.130 Y97.328 F10800.000
G1 F8640
G1 X125.510 Y95.315 E-0.75353
G1 X125.522 Y95.340 E-0.00647
G1 E-0.04000 F2100.00000
G1 Z0.800 F10800.000
G1 X125.788 Y97.082
G1 Z0.200
G1 E0.80000 F2100.00000
G1 F1200
G1 X125.089 Y96.383 E0.03138
G1 X124.764 Y96.598 E0.01239
G1 X134.854 Y106.688 E0.45340
G1 X134.231 Y106.606 E0.01998
G1 X124.438 Y96.813 E0.44002
G1 X124.113 Y97.028 E0.01239
G1 X133.607 Y106.523 E0.42663
G1 X132.984 Y106.440 E0.01998
G1 X123.787 Y97.243 E0.41325
G1 X123.462 Y97.458 E0.01239
G1 X132.361 Y106.357 E0.39987
G1 X131.738 Y106.274 E0.01998
G1 X123.136 Y97.673 E0.38649
G1 X122.811 Y97.887 E0.01239
G1 X131.114 Y106.191 E0.37311
G1 X130.491 Y106.108 E0.01998
G1 X119.228 Y94.845 E0.50609
G1 X119.169 Y95.327 E0.01541
G1 X129.868 Y106.025 E0.48073
G1 X129.671 Y105.999 E0.00629
G1 X129.810 Y106.508 E0.01675
G1 X119.110 Y95.808 E0.48077
G1 X119.051 Y96.290 E0.01541
G1 X130.011 Y107.250 E0.49248
G1 X130.213 Y107.992 E0.02443
G1 X118.992 Y96.771 E0.50419
G1 X118.934 Y97.253 E0.01541
G1 X130.415 Y108.734 E0.51589
G1 X130.616 Y109.476 E0.02443
G1 X118.875 Y97.734 E0.52760
G1 X118.816 Y98.216 E0.01541
G1 X130.818 Y110.218 E0.53931
G1 X130.957 Y110.728 E0.01681
G1 X130.529 Y110.469 E0.01589
G1 X118.757 Y98.697 E0.52897
G1 X118.754 Y98.721 E0.00076
G1 X118.235 Y98.716 E0.01648
G1 X129.662 Y110.142 E0.51344
G1 F8640
G1 X127.334 Y107.815 E-0.76000
G1 E-0.04000 F2100.00000
G1 Z0.800 F10800.000
G1 X128.291 Y109.312
G1 Z0.200
G1 E0.80000 F2100.00000
G1 F1200
G1 X117.690 Y98.711 E0.47638
G1 X117.144 Y98.705 E0.01734
G1 X127.020 Y108.582 E0.44379
G1 X126.953 Y109.055 E0.01518
G1 X116.598 Y98.700 E0.46528
G1 X116.053 Y98.695 E0.01734
G1 X126.886 Y109.528 E0.48677
G1 X126.818 Y110.001 E0.01518
G1 X115.507 Y98.690 E0.50826
G1 X114.961 Y98.684 E0.01734
G1 X126.751 Y110.474 E0.52975
G1 X126.683 Y110.947 E0.01518
G1 X117.449 Y101.712 E0.41495
G1 X117.038 Y101.842 E0.01368
G1 X126.616 Y111.420 E0.43036
G1 X126.548 Y111.893 E0.01518
G1 X116.628 Y101.972 E0.44577
G1 X116.217 Y102.102 E0.01368
G1 X122.112 Y107.996 E0.26486
G1 X121.814 Y108.239 E0.01220
G1 X115.807 Y102.232 E0.26992
M73 P3 R33
G1 X115.396 Y102.362 E0.01368
G1 X121.516 Y108.481 E0.27498
G1 X121.218 Y108.724 E0.01220
G1 X114.986 Y102.492 E0.28004
G1 X114.576 Y102.622 E0.01368
G1 X115.853 Y103.899 E0.05741
G1 X114.885 Y103.472 E0.03363
G1 X114.165 Y102.752 E0.03235
G1 X113.755 Y102.882 E0.01368
G1 X114.249 Y103.376 E0.02222
G1 F8640
G1 X113.755 Y102.882 E-0.16150
G1 X114.165 Y102.752 E-0.09941
G1 X114.885 Y103.472 E-0.23508
G1 X115.853 Y103.899 E-0.24440
G1 X115.793 Y103.839 E-0.01961
G1 E-0.04000 F2100.00000
G1 Z0.800 F10800.000
G1 X116.161 Y100.965
G1 Z0.200
G1 E0.80000 F2100.00000
G1 F1200
G1 X113.870 Y98.674 E0.10294
G1 X114.416 Y98.679 E0.01734
G1 X117.275 Y101.538 E0.12847
G1 F8640
G1 X114.947 Y99.211 E-0.76000
G1 E-0.04000 F2100.00000
G1 Z0.800 F10800.000
G1 X115.047 Y100.391
G1 Z0.200
G1 E0.80000 F2100.00000
G1 F1200
G1 X113.324 Y98.668 E0.07741
G1 X112.779 Y98.663 E0.01734
G1 X113.933 Y99.818 E0.05187
G1 F8640
G1 X112.779 Y98.663 E-0.37699
G1 X113.324 Y98.668 E-0.12601
G1 X114.111 Y99.455 E-0.25701
G1 E-0.04000 F2100.00000
G1 Z0.800 F10800.000
G1 X112.819 Y99.244
G1 Z0.200
G1 E0.80000 F2100.00000
G1 F1200
G1 X112.061 Y98.486 E0.03404
G1 F8640
G1 X112.819 Y99.244 E-0.24739
G1 E-0.55261 F2100.00000
G1 Z0.800 F10800.000
G1 X112.761 Y107.292
G1 Z0.200
G1 E0.80000 F2100.00000
G1 F1200
G1 X113.150 Y107.680 E0.01745
G1 X113.574 Y107.565 E0.01398
G1 X113.189 Y107.179 E0.01733
G1 X113.495 Y106.945 E0.01225
G1 X113.999 Y107.449 E0.02264
G1 X114.423 Y107.333 E0.01398
G1 X113.801 Y106.711 E0.02796
G1 X114.107 Y106.476 E0.01225
G1 X114.848 Y107.217 E0.03328
G1 X115.272 Y107.101 E0.01398
G1 X114.413 Y106.242 E0.03860
G1 X114.719 Y106.008 E0.01225
G1 X115.697 Y106.985 E0.04392
G1 X116.121 Y106.870 E0.01398
G1 X115.026 Y105.774 E0.04924
G1 X115.332 Y105.539 E0.01225
G1 X116.546 Y106.754 E0.05456
G1 X116.971 Y106.638 E0.01398
G1 X115.638 Y105.305 E0.05988
G1 X115.944 Y105.071 E0.01225
G1 X117.395 Y106.522 E0.06520
G1 X117.820 Y106.406 E0.01398
G1 X116.250 Y104.837 E0.07052
G1 X116.556 Y104.603 E0.01225
G1 X118.382 Y106.429 E0.08205
G1 F8640
G1 X116.556 Y104.603 E-0.59627
G1 X116.250 Y104.837 E-0.08901
G1 X116.479 Y105.066 E-0.07472
G1 E-0.04000 F2100.00000
G1 Z0.800 F10800.000
G1 X121.041 Y109.087
G1 Z0.200
G1 E0.80000 F2100.00000
G1 F1200
G1 X118.714 Y106.761 E0.10455
G1 X118.698 Y107.285 E0.01666
G1 X120.623 Y109.209 E0.08648
G1 X120.325 Y109.452 E0.01220
G1 X118.682 Y107.809 E0.07383
G1 X118.665 Y108.333 E0.01666
G1 X120.027 Y109.694 E0.06119
G1 X119.729 Y109.937 E0.01220
G1 X118.649 Y108.857 E0.04854
G1 X118.632 Y109.381 E0.01666
G1 X119.431 Y110.179 E0.03589
G1 X119.133 Y110.422 E0.01220
G1 X118.616 Y109.905 E0.02324
G1 X118.600 Y110.429 E0.01666
G1 X118.956 Y110.785 E0.01602
G1 F8640
G1 X118.600 Y110.429 E-0.11639
G1 X118.616 Y109.905 E-0.12106
G1 X119.133 Y110.422 E-0.16892
G1 X119.431 Y110.179 E-0.08869
G1 X118.632 Y109.381 E-0.26083
G1 X118.633 Y109.363 E-0.00412
G1 E-0.04000 F2100.00000
G1 Z0.800 F10800.000
G1 X122.506 Y108.391
G1 Z0.200
G1 E0.80000 F2100.00000
G1 F1200
G1 X126.631 Y112.516 E0.18535
G1 X126.564 Y112.989 F10800.000
G1 F1200
G1 X123.169 Y109.594 E0.15252
G1 F8640
G1 X125.497 Y111.922 E-0.76000
G1 E-0.04000 F2100.00000
G1 Z0.800 F10800.000
G1 X123.832 Y110.798
G1 Z0.200
G1 E0.80000 F2100.00000
G1 F1200
G1 X126.496 Y113.461 E0.11969
G1 X126.429 Y113.934 F10800.000
G1 F1200
G1 X124.496 Y112.001 E0.08686
G1 F8640
G1 X126.429 Y113.934 E-0.63123
G1 E-0.16877 F2100.00000
G1 Z0.800 F10800.000
G1 X125.159 Y113.205
G1 Z0.200
G1 E0.80000 F2100.00000
G1 F1200
G1 X126.361 Y114.407 E0.05403
G1 F8640
G1 X125.159 Y113.205 E-0.39265
G1 E-0.40735 F2100.00000
G1 Z0.800 F10800.000
G1 X133.186 Y103.940
G1 Z0.200
G1 E0.80000 F2100.00000
G1 F1200
G1 X136.101 Y106.854 E0.13096
G1 X135.477 Y106.771 E0.01998
G1 X126.382 Y97.676 E0.40868
G1 X126.762 Y97.515 E0.01310
G1 X132.277 Y103.030 E0.24781
G1 X132.751 Y102.964 E0.01521
G1 X127.141 Y97.355 E0.25205
G1 X127.521 Y97.194 E0.01310
G1 X133.225 Y102.898 E0.25629
G1 X133.699 Y102.831 E0.01521
G1 X127.900 Y97.033 E0.26053
G1 X128.280 Y96.872 E0.01310
G1 X134.173 Y102.765 E0.26477
G1 X134.646 Y102.698 E0.01521
G1 X128.660 Y96.711 E0.26901
G1 X129.039 Y96.550 E0.01310
G1 X135.120 Y102.632 E0.27325
G1 X135.594 Y102.565 E0.01521
G1 X129.419 Y96.389 E0.27749
G1 X129.798 Y96.229 E0.01310
G1 X130.847 Y97.278 E0.04713
G1 X130.837 Y96.727 E0.01749
G1 X130.178 Y96.068 E0.02963
G1 X130.557 Y95.907 E0.01310
G1 X131.000 Y96.350 E0.01989
G1 F8640
G1 X130.557 Y95.907 E-0.14457
G1 X130.178 Y96.068 E-0.09518
G1 X130.837 Y96.727 E-0.21533
G1 X130.847 Y97.278 E-0.12711
G1 X130.303 Y96.733 E-0.17782
G1 E-0.04000 F2100.00000
G1 Z0.800 F10800.000
G1 X131.271 Y97.702
G1 Z0.200
G1 E0.80000 F2100.00000
G1 F1200
G1 X133.378 Y99.808 E0.09465
G1 X133.669 Y99.559 E0.01218
G1 X131.820 Y97.710 E0.08309
G1 X132.233 Y97.582 E0.01373
G1 X133.960 Y99.310 E0.07763
G1 X134.252 Y99.061 E0.01218
G1 X132.646 Y97.455 E0.07217
G1 X133.059 Y97.328 E0.01373
G1 X134.543 Y98.812 E0.06670
G1 X134.835 Y98.563 E0.01218
G1 X133.472 Y97.200 E0.06124
G1 X133.885 Y97.073 E0.01373
G1 X135.126 Y98.314 E0.05578
G1 X135.417 Y98.065 E0.01218
G1 X134.298 Y96.945 E0.05032
G1 X134.711 Y96.818 E0.01373
G1 X135.709 Y97.816 E0.04486
G1 X136.000 Y97.567 E0.01218
G1 X135.123 Y96.690 E0.03939
G1 X135.536 Y96.563 E0.01373
G1 X136.292 Y97.318 E0.03393
G1 X136.583 Y97.069 E0.01218
G1 X135.949 Y96.436 E0.02847
G1 X136.362 Y96.308 E0.01373
G1 X136.874 Y96.820 E0.02301
G1 X137.166 Y96.571 E0.01218
G1 X136.775 Y96.181 E0.01755
G1 X137.188 Y96.053 E0.01373
G1 X137.457 Y96.322 E0.01209
G1 X137.749 Y96.073 E0.01218
G1 X137.601 Y95.926 E0.00662
G1 X138.014 Y95.798 E0.01373
G1 X138.160 Y95.945 E0.00657
G1 F8640
G1 X138.014 Y95.798 E-0.04774
G1 X137.601 Y95.926 E-0.09979
G1 X137.749 Y96.073 E-0.04813
G1 X137.457 Y96.322 E-0.08850
G1 X137.188 Y96.053 E-0.08783
G1 X136.775 Y96.181 E-0.09979
G1 X137.166 Y96.571 E-0.12752
G1 X136.874 Y96.820 E-0.08850
G1 X136.653 Y96.599 E-0.07220
G1 E-0.04000 F2100.00000
G1 Z0.800 F10800.000
G1 X135.145 Y101.035
G1 Z0.200
G1 E0.80000 F2100.00000
G1 F1200
G1 X136.692 Y102.582 E0.06954
G1 X136.218 Y102.649 F10800.000
G1 F1200
G1 X133.735 Y100.166 E0.11157
G1 F8640
G1 X136.063 Y102.493 E-0.76000
G1 E-0.04000 F2100.00000
G1 Z0.800 F10800.000
G1 X112.462 Y107.808
G1 Z0.200
G1 E0.80000 F2100.00000
G1 F1200
G1 X112.339 Y107.869 E0.00292
G1 X112.216 Y107.930 E0.00245
G1 X112.093 Y107.991 E0.00198
G1 X111.970 Y108.052 E0.00151
G1 X111.847 Y108.113 E0.00104
G1 F8640
G1 X111.970 Y108.052 E-0.03172
G1 E-0.76828 F2100.00000
G1 Z0.800 F10800.000
G1 X110.703 Y108.679
G1 Z0.200
G1 E0.80000 F2100.00000
G1 F1200
G1 X110.580 Y108.740 E0.00292
G1 X110.457 Y108.801 E0.00245
G1 X110.334 Y108.861 E0.00198
G1 X110.211 Y108.922 E0.00151
G1 X110.088 Y108.983 E0.00104
M106 S255
;BEFORE_LAYER_CHANGE
G92 E0.0
;0.4


G1 F8640
G1 X110.211 Y108.922 E-0.03172
G1 E-0.76828 F2100.00000
G1 Z0.800 F10800.000
;AFTER_LAYER_CHANGE
;0.4
G1 X141.238 Y109.497
G1 Z0.400
G1 E0.80000 F2100.00000
G1 F3000
G1 X140.602 Y110.184 E0.02936
G1 X128.159 Y119.431 E0.48608
G1 X127.371 Y119.819 E0.02753
G1 X126.558 Y119.922 E0.02570
G1 X125.754 Y119.763 E0.02570
G1 X107.137 Y112.315 E0.62871
G1 X106.644 Y112.039 E0.01771
G1 X106.221 Y111.660 E0.01783
G1 X105.891 Y111.196 E0.01783
G1 X105.673 Y110.675 E0.01771
G1 X105.569 Y109.922 E0.02386
G1 X105.825 Y97.654 E0.38474
G1 X105.937 Y96.996 E0.02091
G1 X106.216 Y96.386 E0.02103
G1 X106.659 Y95.856 E0.02165
G1 X107.226 Y95.464 E0.02165
G1 X117.525 Y90.322 E0.36089
G1 X118.062 Y90.138 E0.01783
G1 X118.624 Y90.076 E0.01771
G1 X142.152 Y91.150 E0.73848
G1 X142.880 Y91.343 E0.02361
G1 X143.518 Y91.736 E0.02349
G1 X144.014 Y92.297 E0.02349
G1 X144.328 Y92.978 E0.02349
G1 X144.428 Y93.573 E0.01894
G1 X144.388 Y94.172 E0.01882
G1 X141.582 Y108.642 E0.46216
G1 X141.260 Y109.441 E0.02699
G1 F8640
G1 X140.602 Y110.184 E-0.22925
G1 X138.757 Y111.555 E-0.53075
G1 E-0.04000 F2100.00000
G1 Z1.000 F10800.000
G1 X137.065 Y107.223
G1 Z0.400
G1 E0.80000 F2100.00000
M204 S800
G1 F3000
G1 X129.995 Y106.282 E0.24144
G1 X131.342 Y111.240 E0.17391
G1 X127.236 Y108.753 E0.16249
G1 X126.289 Y115.397 E0.22717
G1 X122.297 Y108.152 E0.27999
G1 X118.332 Y111.381 E0.17308
G1 X118.485 Y106.471 E0.16629
G1 X111.082 Y108.491 E0.25975
G1 X116.418 Y104.409 E0.22740
G1 X112.964 Y102.883 E0.12783
G1 X117.158 Y101.555 E0.14892
G1 X111.047 Y98.409 E0.23264
G1 X118.544 Y98.481 E0.25376
G1 X119.091 Y94.004 E0.15267
G1 X122.743 Y97.647 E0.17460
G1 X125.333 Y95.937 E0.10507
G1 X126.078 Y97.547 E0.06003
G1 X131.052 Y95.439 E0.18285
G1 X131.092 Y97.685 E0.07604
G1 X139.131 Y95.205 E0.28475
G1 X133.551 Y99.972 E0.24842
G1 X137.673 Y102.514 E0.16390
G1 X132.487 Y103.241 E0.17727
G1 X137.020 Y107.183 E0.20335
M204 S1000
G1 F8640
G1 X133.755 Y106.764 E-0.76000
G1 E-0.04000 F2100.00000
G1 Z1.000 F10800.000
G1 X122.795 Y97.125
G1 Z0.400
G1 E0.80000 F2100.00000
M204 S800
G1 F2400
G1 X125.504 Y95.337 E0.10986
