; generated by PrusaSlicer 2.2.0+win64 on 2020-09-09 at 16:08:38 UTC

; 

; external perimeters extrusion width = 0.45mm
; perimeters extrusion width = 0.45mm
; infill extrusion width = 0.45mm
; solid infill extrusion width = 0.45mm
; top infill extrusion width = 0.40mm
; support material extrusion width = 0.35mm
; first layer extrusion width = 0.42mm

M73 P0 R173
M201 X9000 Y9000 Z500 E10000 ; sets maximum accelerations, mm/sec^2
M203 X500 Y500 Z12 E120 ; sets maximum feedrates, mm/sec
M204 P2000 R1500 T2000 ; sets acceleration (P, T) and retract acceleration (R), mm/sec^2
M205 X10.00 Y10.00 Z0.20 E2.50 ; sets the jerk limits, mm/sec
M205 S0 T0 ; sets the minimum extruding and travel feed rate, mm/sec
M107
M862.3 P "MK2.5SMMU2S" ; printer model check
M862.1 P0.4 ; nozzle diameter check
M115 U3.8.0 ; tell printer latest fw version
G90 ; use absolute coordinates
M83 ; extruder relative mode
M104 S215 ; set extruder temp
M140 S60 ; set bed temp
Tx
M190 S60 ; wait for bed temp
M109 S215 ; wait for extruder temp
G28 W ; home all without mesh bed level
G80 ; mesh bed leveling

G21 ; set units to millimeters

;go outside print area
G1 Y-3.0 F1000.0
G1 Z0.4 F1000.0
; select extruder
Tc
; purge line
G1 X55.0 F2000.0
G1 Z0.3 F1000.0
G92 E0.0
G1 X240.0 E25.0 F2200.0
M73 P0 R173
G1 Y-2.0 F1000.0
G1 X55.0 E25 F1400.0
G1 Z0.20 F1000.0
G1 X5.0 E4.0 F1000.0
G92 E0.0
G21 ; set units to millimeters
G90 ; use absolute coordinates
M83 ; use relative distances for extrusion
M900 K0.06 ; Filament gcode LA 1.5
M900 K30 ; Filament gcode LA 1.0
;BEFORE_LAYER_CHANGE
G92 E0.0
;0.2


G1 E-0.80000 F2100.00000
G1 Z0.600 F10800.000
;AFTER_LAYER_CHANGE
;0.2
G1 X104.350 Y88.051
G1 Z0.200
G1 E0.80000 F2100.00000
M204 S1000
G1 F1200.000
G1 X106.110 Y86.108 E0.08220
G1 X108.053 Y84.348 E0.08220
G1 X110.159 Y82.786 E0.08220
G1 X112.408 Y81.438 E0.08220
G1 X114.778 Y80.318 E0.08220
G1 X117.246 Y79.435 E0.08220
G1 X119.789 Y78.798 E0.08220
G1 X122.383 Y78.413 E0.08220
G1 X125.005 Y78.285 E0.08232
G1 X127.620 Y78.413 E0.08208
G1 X130.213 Y78.798 E0.08220
G1 X132.756 Y79.435 E0.08220
G1 X135.225 Y80.319 E0.08220
G1 X137.595 Y81.440 E0.08220
G1 X139.843 Y82.788 E0.08220
G1 X141.949 Y84.350 E0.08220
G1 X143.892 Y86.110 E0.08220
G1 X145.652 Y88.053 E0.08220
G1 X147.214 Y90.159 E0.08220
G1 X148.562 Y92.408 E0.08220
G1 X149.682 Y94.778 E0.08220
G1 X150.565 Y97.246 E0.08220
G1 X151.202 Y99.789 E0.08220
G1 X151.587 Y102.383 E0.08220
G1 X151.715 Y105.001 E0.08220
G1 X151.587 Y107.620 E0.08220
G1 X151.202 Y110.213 E0.08220
G1 X150.565 Y112.756 E0.08220
G1 X149.681 Y115.225 E0.08220
G1 X148.560 Y117.595 E0.08220
G1 X147.212 Y119.843 E0.08220
G1 X145.650 Y121.949 E0.08220
G1 X143.890 Y123.892 E0.08220
G1 X141.947 Y125.652 E0.08220
G1 X139.841 Y127.214 E0.08220
G1 X137.592 Y128.562 E0.08220
G1 X135.222 Y129.682 E0.08220
G1 X132.754 Y130.565 E0.08220
G1 X130.211 Y131.202 E0.08220
G1 X127.617 Y131.587 E0.08220
G1 X124.999 Y131.715 E0.08220
G1 X122.380 Y131.587 E0.08221
G1 X119.787 Y131.202 E0.08220
G1 X117.244 Y130.565 E0.08220
G1 X114.775 Y129.681 E0.08220
G1 X112.405 Y128.560 E0.08220
G1 X110.157 Y127.212 E0.08220
G1 X108.051 Y125.650 E0.08220
G1 X106.108 Y123.890 E0.08220
G1 X104.348 Y121.947 E0.08220
G1 X102.786 Y119.841 E0.08220
G1 X101.438 Y117.592 E0.08220
G1 X100.318 Y115.222 E0.08220
G1 X99.435 Y112.754 E0.08220
G1 X98.798 Y110.211 E0.08220
G1 X98.413 Y107.617 E0.08220
G1 X98.285 Y104.999 E0.08220
G1 X98.413 Y102.380 E0.08220
G1 X98.798 Y99.787 E0.08220
G1 X99.435 Y97.244 E0.08220
G1 X100.319 Y94.775 E0.08220
G1 X101.440 Y92.405 E0.08220
G1 X102.788 Y90.157 E0.08220
G1 X104.314 Y88.099 E0.08032
G1 E-0.80000 F2100.00000
G1 Z0.800 F10800.000
G1 X132.533 Y118.797
G1 Z0.200
G1 E0.80000 F2100.00000
G1 F1200.000
G1 X138.304 Y113.027 E0.25586
G1 X138.720 Y112.333 E0.02537
G1 X139.063 Y111.607 E0.02518
G1 X138.981 Y111.525 E0.00363
G1 X139.210 Y111.297 E0.01014
G1 X139.406 Y110.858 E0.01508
G1 X130.858 Y119.406 E0.37905
G1 X129.516 Y119.887 E0.04469
G1 X129.243 Y119.955 E0.00882
G1 X139.955 Y109.243 E0.47500
G1 X140.258 Y108.035 E0.03904
G1 X140.286 Y107.846 E0.00600
G1 X127.846 Y120.286 E0.55161
G1 X126.593 Y120.471 E0.03969
G1 X140.471 Y106.593 E0.61538
G1 X140.534 Y105.465 E0.03545
G1 X125.464 Y120.534 E0.66819
G1 X125.000 Y120.556 E0.01458
G1 X124.404 Y120.527 E0.01870
G1 X140.527 Y104.404 E0.71491
G1 X140.470 Y103.395 E0.03169
G1 X123.395 Y120.470 E0.75710
G1 X122.467 Y120.332 E0.02944
G1 X140.332 Y102.467 E0.79218
G1 X140.258 Y101.965 E0.01590
G1 X140.159 Y101.573 E0.01268
G1 X121.573 Y120.159 E0.82416
G1 X120.720 Y119.946 E0.02757
G1 X139.946 Y100.720 E0.85250
G1 X139.887 Y100.484 E0.00762
G1 X139.683 Y99.916 E0.01893
G1 X119.916 Y119.683 E0.87652
G1 X119.130 Y119.402 E0.02616
G1 X139.402 Y99.130 E0.89889
G1 X139.210 Y98.703 E0.01468
G1 X138.986 Y98.480 E0.00991
G1 X118.400 Y119.066 E0.91284
G1 X117.676 Y118.724 E0.02511
G1 X138.453 Y97.946 E0.92130
G1 X137.920 Y97.413 E0.02365
G1 X117.008 Y118.325 E0.92726
G1 X116.342 Y117.924 E0.02436
G1 X137.386 Y96.880 E0.93312
G1 X136.853 Y96.347 E0.02365
G1 X115.730 Y117.470 E0.93663
G1 X115.119 Y117.014 E0.02390
G1 X136.320 Y95.813 E0.94009
G1 X135.787 Y95.280 E0.02365
G1 X114.559 Y116.507 E0.94125
G1 X114.000 Y116.000 E0.02367
G1 X135.253 Y94.747 E0.94241
G1 X134.720 Y94.213 E0.02365
G1 X113.493 Y115.441 E0.94125
G1 X112.986 Y114.881 E0.02367
G1 X134.187 Y93.680 E0.94009
G1 X133.653 Y93.147 E0.02365
G1 X112.530 Y114.270 E0.93663
G1 X112.076 Y113.658 E0.02390
G1 X133.120 Y92.614 E0.93312
G1 X132.587 Y92.080 E0.02365
G1 X111.675 Y112.992 E0.92726
G1 X111.280 Y112.333 E0.02408
G1 X132.054 Y91.547 E0.92141
G1 X131.520 Y91.014 E0.02365
G1 X110.934 Y111.600 E0.91284
G1 X110.598 Y110.870 E0.02521
G1 X130.870 Y90.598 E0.89889
M73 P0 R172
G1 X130.084 Y90.317 E0.02616
G1 X110.317 Y110.084 E0.87652
G1 X110.113 Y109.516 E0.01893
G1 X110.054 Y109.280 E0.00761
G1 X129.280 Y90.054 E0.85250
G1 X128.427 Y89.841 E0.02757
G1 X109.841 Y108.427 E0.82416
G1 X109.742 Y108.035 E0.01268
G1 X109.668 Y107.533 E0.01590
G1 X127.533 Y89.668 E0.79218
G1 X126.605 Y89.530 E0.02944
G1 X109.530 Y106.605 E0.75711
G1 X109.473 Y105.596 E0.03169
G1 X125.596 Y89.473 E0.71491
G1 X125.000 Y89.444 E0.01870
G1 X124.536 Y89.466 E0.01458
G1 X109.466 Y104.536 E0.66819
G1 X109.529 Y103.407 E0.03545
G1 X123.407 Y89.529 E0.61538
G1 X122.154 Y89.714 E0.03969
G1 X109.714 Y102.154 E0.55161
G1 X109.742 Y101.965 E0.00600
G1 X110.045 Y100.757 E0.03904
G1 X120.757 Y90.045 E0.47500
G1 X120.484 Y90.113 E0.00883
G1 X119.142 Y90.594 E0.04469
G1 X110.594 Y99.142 E0.37905
G1 X110.790 Y98.703 E0.01508
G1 X111.019 Y98.475 E0.01014
G1 X110.937 Y98.393 E0.00363
G1 X111.280 Y97.667 E0.02518
G1 X111.696 Y96.973 E0.02537
G1 X117.467 Y91.203 E0.25586
G1 E-0.80000 F2100.00000
G1 Z0.800 F10800.000
G1 X125.000 Y121.671
G1 Z0.200
G1 E0.80000 F2100.00000
G1 F1200.000
G1 X123.366 Y121.591 E0.05130
G1 X121.748 Y121.351 E0.05130
G1 X120.161 Y120.953 E0.05130
G1 X118.620 Y120.402 E0.05130
G1 X117.141 Y119.702 E0.05130
G1 X115.738 Y118.861 E0.05130
G1 X114.424 Y117.887 E0.05130
G1 X113.212 Y116.788 E0.05130
G1 X112.113 Y115.576 E0.05130
G1 X111.139 Y114.262 E0.05130
G1 X110.298 Y112.859 E0.05130
G1 X109.598 Y111.380 E0.05130
G1 X109.047 Y109.839 E0.05130
G1 X108.649 Y108.252 E0.05130
G1 X108.409 Y106.634 E0.05130
G1 X108.329 Y105.000 E0.05130
G1 X108.409 Y103.366 E0.05130
G1 X108.649 Y101.748 E0.05130
G1 X109.047 Y100.161 E0.05130
G1 X109.598 Y98.620 E0.05130
G1 X110.298 Y97.141 E0.05130
G1 X111.139 Y95.738 E0.05130
G1 X112.113 Y94.424 E0.05130
G1 X113.212 Y93.212 E0.05130
G1 X114.424 Y92.113 E0.05130
G1 X115.738 Y91.139 E0.05130
G1 X117.141 Y90.298 E0.05130
G1 X118.620 Y89.598 E0.05130
G1 X120.161 Y89.047 E0.05130
G1 X121.748 Y88.649 E0.05130
G1 X123.366 Y88.409 E0.05130
G1 X124.925 Y88.333 E0.04895
G1 X126.633 Y88.409 E0.05359
G1 X128.252 Y88.649 E0.05134
G1 X129.839 Y89.047 E0.05130
G1 X131.380 Y89.598 E0.05130
G1 X132.859 Y90.298 E0.05130
G1 X134.262 Y91.139 E0.05130
G1 X135.576 Y92.113 E0.05130
G1 X136.788 Y93.212 E0.05130
G1 X137.887 Y94.424 E0.05130
G1 X138.861 Y95.738 E0.05130
G1 X139.702 Y97.141 E0.05130
G1 X140.402 Y98.620 E0.05130
G1 X140.953 Y100.161 E0.05130
G1 X141.351 Y101.748 E0.05130
G1 X141.591 Y103.366 E0.05130
G1 X141.671 Y105.000 E0.05130
G1 X141.591 Y106.634 E0.05130
G1 X141.351 Y108.252 E0.05130
G1 X140.953 Y109.839 E0.05130
G1 X140.402 Y111.380 E0.05130
G1 X139.702 Y112.859 E0.05130
G1 X138.861 Y114.262 E0.05130
G1 X137.887 Y115.576 E0.05130
G1 X136.788 Y116.788 E0.05130
G1 X135.576 Y117.887 E0.05130
G1 X134.262 Y118.861 E0.05130
G1 X132.859 Y119.702 E0.05130
G1 X131.380 Y120.402 E0.05130
G1 X129.839 Y120.953 E0.05130
G1 X128.252 Y121.351 E0.05130
G1 X126.634 Y121.591 E0.05130
G1 X125.060 Y121.668 E0.04941
G1 X125.000 Y121.293 F10800.000
G1 F1200.000
G1 X123.403 Y121.215 E0.05014
G1 X121.821 Y120.980 E0.05013
G1 X120.270 Y120.592 E0.05013
G1 X118.765 Y120.053 E0.05013
G1 X117.319 Y119.369 E0.05013
G1 X115.948 Y118.547 E0.05013
G1 X114.664 Y117.595 E0.05013
G1 X113.479 Y116.521 E0.05013
G1 X112.405 Y115.336 E0.05013
G1 X111.453 Y114.052 E0.05013
G1 X110.631 Y112.681 E0.05013
G1 X109.947 Y111.235 E0.05013
G1 X109.408 Y109.730 E0.05013
G1 X109.020 Y108.179 E0.05013
G1 X108.785 Y106.597 E0.05013
G1 X108.707 Y105.000 E0.05013
G1 X108.785 Y103.403 E0.05013
G1 X109.020 Y101.821 E0.05013
G1 X109.408 Y100.270 E0.05013
G1 X109.947 Y98.765 E0.05013
G1 X110.631 Y97.319 E0.05013
G1 X111.453 Y95.948 E0.05013
G1 X112.405 Y94.664 E0.05013
G1 X113.479 Y93.479 E0.05013
G1 X114.664 Y92.405 E0.05013
G1 X115.948 Y91.453 E0.05013
G1 X117.319 Y90.631 E0.05013
G1 X118.765 Y89.947 E0.05013
G1 X120.270 Y89.408 E0.05013
G1 X121.821 Y89.020 E0.05013
G1 X123.403 Y88.785 E0.05013
G1 X124.926 Y88.710 E0.04781
G1 X126.597 Y88.785 E0.05243
G1 X128.179 Y89.020 E0.05015
G1 X129.730 Y89.408 E0.05013
G1 X131.235 Y89.947 E0.05013
G1 X132.681 Y90.631 E0.05013
G1 X134.052 Y91.453 E0.05013
G1 X135.336 Y92.405 E0.05013
G1 X136.521 Y93.479 E0.05013
G1 X137.595 Y94.664 E0.05013
G1 X138.547 Y95.948 E0.05013
G1 X139.369 Y97.319 E0.05013
G1 X140.053 Y98.765 E0.05013
G1 X140.592 Y100.270 E0.05013
G1 X140.980 Y101.821 E0.05013
G1 X141.215 Y103.403 E0.05013
G1 X141.293 Y105.000 E0.05013
G1 X141.215 Y106.597 E0.05013
G1 X140.980 Y108.179 E0.05013
G1 X140.592 Y109.730 E0.05013
G1 X140.053 Y111.235 E0.05013
G1 X139.369 Y112.681 E0.05013
G1 X138.547 Y114.052 E0.05013
G1 X137.595 Y115.336 E0.05013
G1 X136.521 Y116.521 E0.05013
G1 X135.336 Y117.595 E0.05013
G1 X134.052 Y118.547 E0.05013
G1 X132.681 Y119.369 E0.05013
G1 X131.235 Y120.053 E0.05013
G1 X129.730 Y120.592 E0.05013
G1 X128.179 Y120.980 E0.05013
G1 X126.597 Y121.215 E0.05013
G1 X125.060 Y121.290 E0.04825
G1 X124.800 Y121.640 F10800.000
G1 E-0.80000 F2100.00000
G1 Z0.800 F10800.000
G1 X125.000 Y128.675
G1 Z0.200
G1 E0.80000 F2100.00000
G1 F1200.000
G1 X122.679 Y128.561 E0.07285
G1 X120.381 Y128.220 E0.07285
G1 X118.127 Y127.656 E0.07285
G1 X115.940 Y126.873 E0.07285
G1 X113.840 Y125.880 E0.07285
G1 X111.847 Y124.685 E0.07285
G1 X109.981 Y123.301 E0.07285
G1 X108.259 Y121.741 E0.07285
G1 X106.699 Y120.019 E0.07285
G1 X105.315 Y118.153 E0.07285
G1 X104.120 Y116.160 E0.07285
G1 X103.127 Y114.060 E0.07285
G1 X102.344 Y111.873 E0.07285
G1 X101.780 Y109.619 E0.07285
G1 X101.439 Y107.321 E0.07285
G1 X101.325 Y105.000 E0.07285
G1 X101.439 Y102.679 E0.07285
G1 X101.780 Y100.381 E0.07285
G1 X102.344 Y98.127 E0.07285
G1 X103.127 Y95.940 E0.07285
G1 X104.120 Y93.840 E0.07285
G1 X105.315 Y91.847 E0.07285
G1 X106.699 Y89.981 E0.07285
G1 X108.259 Y88.259 E0.07285
G1 X109.981 Y86.699 E0.07285
G1 X111.847 Y85.315 E0.07285
G1 X113.840 Y84.120 E0.07285
G1 X115.940 Y83.127 E0.07285
G1 X118.127 Y82.344 E0.07285
G1 X120.381 Y81.780 E0.07285
G1 X122.679 Y81.439 E0.07285
G1 X125.000 Y81.325 E0.07285
G1 X127.321 Y81.439 E0.07285
G1 X129.619 Y81.780 E0.07285
G1 X131.873 Y82.344 E0.07285
G1 X134.060 Y83.127 E0.07285
G1 X136.160 Y84.120 E0.07285
G1 X138.153 Y85.315 E0.07285
G1 X140.019 Y86.699 E0.07285
G1 X141.741 Y88.259 E0.07285
G1 X143.301 Y89.981 E0.07285
G1 X144.685 Y91.847 E0.07285
G1 X145.880 Y93.840 E0.07285
G1 X146.873 Y95.940 E0.07285
G1 X147.656 Y98.127 E0.07285
G1 X148.220 Y100.381 E0.07285
G1 X148.561 Y102.679 E0.07285
G1 X148.675 Y105.000 E0.07285
G1 X148.561 Y107.321 E0.07285
G1 X148.220 Y109.619 E0.07285
G1 X147.656 Y111.873 E0.07285
G1 X146.873 Y114.060 E0.07285
G1 X145.880 Y116.160 E0.07285
G1 X144.685 Y118.153 E0.07285
G1 X143.301 Y120.019 E0.07285
G1 X141.741 Y121.741 E0.07285
G1 X140.019 Y123.301 E0.07285
G1 X138.153 Y124.685 E0.07285
G1 X136.160 Y125.880 E0.07285
G1 X134.060 Y126.873 E0.07285
G1 X131.873 Y127.656 E0.07285
G1 X129.619 Y128.220 E0.07285
G1 X127.321 Y128.561 E0.07285
G1 X125.060 Y128.672 E0.07097
G1 X125.000 Y129.053 F10800.000
G1 F1200.000
G1 X122.642 Y128.937 E0.07401
G1 X120.307 Y128.591 E0.07401
G1 X118.018 Y128.017 E0.07401
G1 X115.795 Y127.222 E0.07401
G1 X113.662 Y126.213 E0.07401
G1 X111.637 Y124.999 E0.07401
G1 X109.741 Y123.593 E0.07401
G1 X107.992 Y122.008 E0.07401
G1 X106.407 Y120.259 E0.07401
G1 X105.001 Y118.363 E0.07401
G1 X103.787 Y116.338 E0.07401
G1 X102.778 Y114.205 E0.07401
G1 X101.983 Y111.982 E0.07401
G1 X101.409 Y109.692 E0.07401
G1 X101.063 Y107.358 E0.07401
G1 X100.947 Y105.000 E0.07401
G1 X101.063 Y102.642 E0.07401
G1 X101.409 Y100.308 E0.07401
G1 X101.983 Y98.018 E0.07401
G1 X102.778 Y95.795 E0.07401
G1 X103.787 Y93.662 E0.07401
G1 X105.001 Y91.637 E0.07401
G1 X106.407 Y89.741 E0.07401
G1 X107.992 Y87.992 E0.07401
G1 X109.741 Y86.407 E0.07401
G1 X111.637 Y85.001 E0.07401
G1 X113.662 Y83.787 E0.07401
G1 X115.795 Y82.778 E0.07401
G1 X118.018 Y81.983 E0.07401
G1 X120.308 Y81.409 E0.07401
G1 X122.642 Y81.063 E0.07401
G1 X125.000 Y80.947 E0.07401
G1 X127.358 Y81.063 E0.07401
G1 X129.692 Y81.409 E0.07401
G1 X131.982 Y81.983 E0.07401
G1 X134.205 Y82.778 E0.07401
G1 X136.338 Y83.787 E0.07401
G1 X138.363 Y85.001 E0.07401
G1 X140.259 Y86.407 E0.07401
G1 X142.008 Y87.992 E0.07401
G1 X143.593 Y89.741 E0.07401
G1 X144.999 Y91.637 E0.07401
G1 X146.213 Y93.662 E0.07401
G1 X147.222 Y95.795 E0.07401
G1 X148.017 Y98.018 E0.07401
G1 X148.591 Y100.308 E0.07401
G1 X148.937 Y102.642 E0.07401
G1 X149.053 Y105.000 E0.07401
G1 X148.937 Y107.358 E0.07401
G1 X148.591 Y109.692 E0.07401
G1 X148.017 Y111.982 E0.07401
G1 X147.222 Y114.205 E0.07401
G1 X146.213 Y116.338 E0.07401
G1 X144.999 Y118.363 E0.07401
G1 X143.593 Y120.259 E0.07401
G1 X142.008 Y122.008 E0.07401
G1 X140.259 Y123.593 E0.07401
G1 X138.363 Y124.999 E0.07401
G1 X136.338 Y126.213 E0.07401
G1 X134.205 Y127.222 E0.07401
G1 X131.982 Y128.017 E0.07401
G1 X129.692 Y128.591 E0.07401
G1 X127.358 Y128.937 E0.07401
G1 X125.060 Y129.050 E0.07213
G1 X124.800 Y128.706 F10800.000
G1 X124.528 Y128.539
G1 F1200.000
G1 X101.640 Y105.651 E1.01547
G1 X101.667 Y106.212 E0.01763
G1 X123.788 Y128.333 E0.98143
G1 X123.227 Y128.305 E0.01763
G1 X101.695 Y106.773 E0.95531
G1 X101.727 Y107.339 E0.01778
G1 X122.661 Y128.273 E0.92876
G1 X122.035 Y128.180 E0.01987
G1 X101.820 Y107.965 E0.89685
G1 X101.913 Y108.592 E0.01987
G1 X121.408 Y128.087 E0.86493
G1 X120.782 Y127.994 E0.01987
G1 X102.006 Y109.218 E0.83301
G1 X102.057 Y109.564 E0.01095
G1 X102.137 Y109.883 E0.01034
G1 X120.117 Y127.863 E0.79769
G1 X119.405 Y127.684 E0.02302
G1 X102.316 Y110.595 E0.75819
G1 X102.494 Y111.307 E0.02302
G1 X118.693 Y127.506 E0.71869
G1 X118.210 Y127.385 E0.01564
G1 X117.943 Y127.289 E0.00888
G1 X102.711 Y112.057 E0.67581
G1 X103.008 Y112.888 E0.02768
G1 X117.112 Y126.992 E0.62576
G1 X116.281 Y126.695 E0.02768
G1 X103.305 Y113.719 E0.57571
G1 X103.389 Y113.952 E0.00776
G1 X103.733 Y114.680 E0.02528
G1 X115.320 Y126.267 E0.51406
G1 X114.307 Y125.788 E0.03513
G1 X104.212 Y115.693 E0.44790
G1 X104.370 Y116.027 E0.01160
G1 X104.905 Y116.919 E0.03263
G1 X113.081 Y125.095 E0.36275
G1 X112.004 Y124.450 E0.03939
G1 X111.609 Y124.157 E0.01544
G1 X105.209 Y117.757 E0.28392
G1 E-0.80000 F2100.00000
G1 Z0.800 F10800.000
G1 X148.558 Y105.081
G1 Z0.200
G1 E0.80000 F2100.00000
M73 P1 R171
G1 F1200.000
G1 X139.155 Y95.677 E0.41719
