; generated by PrusaSlicer 2.1.1+win64 on 2020-01-14 at 16:19:12 UTC

; 

; external perimeters extrusion width = 0.45mm
; perimeters extrusion width = 0.45mm
; infill extrusion width = 0.45mm
; solid infill extrusion width = 0.45mm
; top infill extrusion width = 0.40mm
; first layer extrusion width = 0.42mm

M73 P0 R18
M201 X9000 Y9000 Z500 E10000 ; sets maximum accelerations, mm/sec^2
M203 X500 Y500 Z12 E120 ; sets maximum feedrates, mm/sec
M204 P2000 R1500 T2000 ; sets acceleration (P, T) and retract acceleration (R), mm/sec^2
M205 X10.00 Y10.00 Z0.20 E2.50 ; sets the jerk limits, mm/sec
M205 S0 T0 ; sets the minimum extruding and travel feed rate, mm/sec
M107
M862.3 P "MK2.5SMMU2S" ; printer model check
M862.1 P0.4 ; nozzle diameter check
M115 U3.8.1 ; tell printer latest fw version
G90 ; use absolute coordinates
M83 ; extruder relative mode
M104 S215 ; set extruder temp
M140 S60 ; set bed temp
Tx
M190 S60 ; wait for bed temp
M109 S215 ; wait for extruder temp
G28 W ; home all without mesh bed level
G80 ; mesh bed leveling

;go outside print area
G1 Y-3.0 F1000.0
G1 Z0.4 F1000.0
; select extruder
Tc
; purge line
G1 X55.0 F2000.0
G1 Z0.3 F1000.0
G92 E0.0
G1 X240.0 E25.0 F2200.0
M73 P0 R18
G1 Y-2.0 F1000.0
G1 X55.0 E25 F1400.0
G1 Z0.20 F1000.0
G1 X5.0 E4.0 F1000.0
G92 E0.0
G21 ; set units to millimeters
G90 ; use absolute coordinates
M83 ; use relative distances for extrusion
M900 K30 ; Filament gcode
;BEFORE_LAYER_CHANGE
G92 E0.0
;0.2


G1 E-0.80000 F2100.00000
G1 Z0.600 F10800.000
;AFTER_LAYER_CHANGE
;0.2
G1 X104.673 Y88.320
G1 Z0.200
G1 E0.80000 F2100.00000
M204 S1000
G1 F1200
G1 X106.406 Y86.408 E0.08091
G1 X108.318 Y84.675 E0.08091
G1 X110.390 Y83.138 E0.08091
G1 X112.607 Y81.809 E0.08102
G1 X114.936 Y80.708 E0.08079
G1 X117.366 Y79.838 E0.08091
G1 X119.869 Y79.211 E0.08091
G1 X122.421 Y78.832 E0.08091
G1 X125.002 Y78.705 E0.08102
G1 X127.576 Y78.832 E0.08080
G1 X130.128 Y79.210 E0.08091
G1 X132.632 Y79.837 E0.08091
G1 X135.061 Y80.706 E0.08091
G1 X137.394 Y81.810 E0.08091
G1 X139.607 Y83.136 E0.08091
G1 X141.680 Y84.673 E0.08091
G1 X143.592 Y86.406 E0.08091
G1 X145.325 Y88.318 E0.08091
G1 X146.862 Y90.390 E0.08091
G1 X148.191 Y92.607 E0.08102
G1 X149.292 Y94.936 E0.08079
G1 X150.163 Y97.369 E0.08102
G1 X150.790 Y99.872 E0.08091
G1 X151.168 Y102.421 E0.08079
G1 X151.295 Y105.002 E0.08102
G1 X151.168 Y107.576 E0.08079
G1 X150.789 Y110.132 E0.08102
G1 X150.163 Y112.632 E0.08079
G1 X149.294 Y115.061 E0.08091
G1 X148.190 Y117.394 E0.08091
G1 X146.864 Y119.607 E0.08091
G1 X145.327 Y121.680 E0.08091
G1 X143.594 Y123.592 E0.08091
G1 X141.682 Y125.325 E0.08091
G1 X139.610 Y126.862 E0.08091
G1 X137.393 Y128.191 E0.08102
G1 X135.060 Y129.294 E0.08091
G1 X132.634 Y130.162 E0.08079
G1 X130.128 Y130.790 E0.08102
G1 X127.575 Y131.168 E0.08091
G1 X124.998 Y131.295 E0.08091
G1 X122.420 Y131.168 E0.08091
G1 X119.872 Y130.790 E0.08079
G1 X117.368 Y130.163 E0.08091
G1 X114.939 Y129.294 E0.08091
G1 X112.606 Y128.190 E0.08091
G1 X110.393 Y126.864 E0.08091
G1 X108.320 Y125.327 E0.08091
G1 X106.408 Y123.594 E0.08091
G1 X104.675 Y121.682 E0.08091
G1 X103.138 Y119.610 E0.08091
G1 X101.809 Y117.393 E0.08102
G1 X100.708 Y115.064 E0.08079
G1 X99.838 Y112.634 E0.08091
G1 X99.210 Y110.128 E0.08102
G1 X98.832 Y107.579 E0.08079
G1 X98.705 Y104.998 E0.08102
G1 X98.832 Y102.424 E0.08079
G1 X99.210 Y99.872 E0.08091
G1 X99.837 Y97.368 E0.08091
G1 X100.706 Y94.939 E0.08091
G1 X101.810 Y92.606 E0.08091
G1 X103.136 Y90.393 E0.08091
G1 X104.637 Y88.368 E0.07903
G1 F8640
G1 X106.406 Y86.408 E-0.60961
G1 X106.888 Y85.971 E-0.15039
G1 E-0.04000 F2100.00000
G1 Z0.800 F10800.000
G1 X111.296 Y93.753
G1 Z0.200
G1 E0.80000 F2100.00000
G1 F1200
G1 X112.464 Y92.464 E0.05455
G1 X113.753 Y91.296 E0.05455
G1 X115.151 Y90.260 E0.05455
G1 X116.643 Y89.365 E0.05455
G1 X118.216 Y88.621 E0.05455
G1 X119.854 Y88.035 E0.05455
G1 X121.542 Y87.612 E0.05457
G1 X123.295 Y87.356 E0.05554
G1 X125.000 Y87.272 E0.05353
G1 X126.738 Y87.357 E0.05455
G1 X128.459 Y87.613 E0.05455
G1 X130.146 Y88.035 E0.05455
G1 X131.784 Y88.621 E0.05455
G1 X133.357 Y89.365 E0.05455
G1 X134.849 Y90.260 E0.05455
G1 X136.247 Y91.296 E0.05455
G1 X137.536 Y92.464 E0.05455
G1 X138.704 Y93.753 E0.05455
G1 X139.740 Y95.151 E0.05455
G1 X140.635 Y96.643 E0.05455
G1 X141.379 Y98.216 E0.05455
G1 X141.965 Y99.854 E0.05455
G1 X142.388 Y101.541 E0.05455
G1 X142.643 Y103.262 E0.05455
G1 X142.728 Y105.000 E0.05455
G1 X142.643 Y106.738 E0.05455
G1 X142.387 Y108.459 E0.05455
G1 X141.965 Y110.146 E0.05455
G1 X141.379 Y111.784 E0.05455
G1 X140.635 Y113.357 E0.05455
G1 X139.740 Y114.849 E0.05455
G1 X138.704 Y116.247 E0.05455
G1 X137.536 Y117.536 E0.05455
G1 X136.247 Y118.704 E0.05455
G1 X134.849 Y119.740 E0.05455
G1 X133.357 Y120.635 E0.05455
G1 X131.784 Y121.379 E0.05455
G1 X130.146 Y121.965 E0.05455
G1 X128.459 Y122.387 E0.05455
G1 X126.738 Y122.643 E0.05455
G1 X125.000 Y122.728 E0.05455
G1 X123.262 Y122.643 E0.05455
G1 X121.541 Y122.387 E0.05455
G1 X119.854 Y121.965 E0.05455
G1 X118.216 Y121.379 E0.05455
G1 X116.643 Y120.635 E0.05455
G1 X115.151 Y119.740 E0.05455
G1 X113.753 Y118.704 E0.05455
G1 X112.464 Y117.536 E0.05455
G1 X111.296 Y116.247 E0.05455
G1 X110.260 Y114.849 E0.05455
G1 X109.365 Y113.357 E0.05455
G1 X108.621 Y111.784 E0.05455
G1 X108.035 Y110.146 E0.05455
G1 X107.612 Y108.459 E0.05455
G1 X107.357 Y106.738 E0.05455
G1 X107.272 Y105.000 E0.05455
G1 X107.357 Y103.262 E0.05455
G1 X107.612 Y101.541 E0.05455
G1 X108.035 Y99.854 E0.05455
G1 X108.621 Y98.216 E0.05455
G1 X109.365 Y96.643 E0.05455
G1 X110.260 Y95.151 E0.05455
G1 X111.260 Y93.802 E0.05267
G1 X111.563 Y94.026 F10800.000
G1 F1200
G1 X112.731 Y92.731 E0.05468
G1 X113.993 Y91.588 E0.05339
G1 X115.360 Y90.574 E0.05339
G1 X116.821 Y89.698 E0.05339
G1 X118.360 Y88.970 E0.05339
G1 X119.963 Y88.397 E0.05339
G1 X121.615 Y87.983 E0.05339
G1 X123.331 Y87.731 E0.05438
G1 X125.000 Y87.649 E0.05238
G1 X126.701 Y87.733 E0.05339
G1 X128.385 Y87.983 E0.05339
G1 X130.037 Y88.397 E0.05339
G1 X131.640 Y88.970 E0.05339
G1 X133.179 Y89.698 E0.05339
G1 X134.640 Y90.574 E0.05339
G1 X136.007 Y91.588 E0.05339
G1 X137.269 Y92.731 E0.05339
G1 X138.412 Y93.993 E0.05339
G1 X139.427 Y95.361 E0.05339
G1 X140.302 Y96.821 E0.05339
G1 X141.030 Y98.360 E0.05339
G1 X141.604 Y99.963 E0.05339
G1 X142.017 Y101.615 E0.05339
G1 X142.267 Y103.299 E0.05339
G1 X142.351 Y105.000 E0.05339
G1 X142.267 Y106.701 E0.05339
G1 X142.017 Y108.385 E0.05339
G1 X141.603 Y110.037 E0.05339
G1 X141.030 Y111.640 E0.05339
G1 X140.302 Y113.179 E0.05339
G1 X139.427 Y114.639 E0.05339
G1 X138.412 Y116.007 E0.05339
G1 X137.269 Y117.269 E0.05339
G1 X136.007 Y118.412 E0.05339
G1 X134.639 Y119.426 E0.05339
G1 X133.179 Y120.302 E0.05339
G1 X131.640 Y121.030 E0.05339
G1 X130.037 Y121.603 E0.05339
G1 X128.385 Y122.017 E0.05339
G1 X126.701 Y122.267 E0.05339
G1 X125.000 Y122.351 E0.05339
G1 X123.299 Y122.267 E0.05339
G1 X121.615 Y122.017 E0.05339
G1 X119.963 Y121.603 E0.05339
G1 X118.360 Y121.030 E0.05339
G1 X116.821 Y120.302 E0.05339
G1 X115.360 Y119.426 E0.05339
G1 X113.993 Y118.412 E0.05339
G1 X112.731 Y117.269 E0.05339
G1 X111.588 Y116.007 E0.05339
G1 X110.573 Y114.639 E0.05339
G1 X109.698 Y113.179 E0.05339
G1 X108.970 Y111.640 E0.05339
G1 X108.396 Y110.037 E0.05339
G1 X107.983 Y108.385 E0.05339
G1 X107.733 Y106.701 E0.05339
G1 X107.649 Y105.000 E0.05339
G1 X107.733 Y103.299 E0.05339
G1 X107.983 Y101.615 E0.05339
G1 X108.396 Y99.963 E0.05339
G1 X108.970 Y98.360 E0.05339
G1 X109.698 Y96.821 E0.05339
G1 X110.573 Y95.361 E0.05339
G1 X111.527 Y94.074 E0.05021
G1 X111.422 Y93.652 F10800.000
G1 F8640
G1 X112.731 Y92.731 E-0.41648
G1 X113.834 Y91.732 E-0.34352
G1 E-0.04000 F2100.00000
G1 Z0.800 F10800.000
G1 X106.820 Y90.080
G1 Z0.200
G1 E0.80000 F2100.00000
G1 F1200
G1 X108.370 Y88.370 E0.07236
G1 X110.080 Y86.820 E0.07236
G1 X111.934 Y85.445 E0.07236
G1 X113.914 Y84.259 E0.07236
G1 X116.000 Y83.272 E0.07236
G1 X118.173 Y82.494 E0.07236
G1 X120.412 Y81.934 E0.07236
G1 X122.694 Y81.595 E0.07235
G1 X125.044 Y81.484 E0.07377
G1 X127.305 Y81.595 E0.07098
G1 X129.588 Y81.934 E0.07236
G1 X131.827 Y82.494 E0.07236
G1 X134.000 Y83.272 E0.07236
G1 X136.086 Y84.259 E0.07236
G1 X138.066 Y85.445 E0.07236
G1 X139.920 Y86.820 E0.07236
G1 X141.630 Y88.370 E0.07236
G1 X143.180 Y90.080 E0.07236
G1 X144.555 Y91.934 E0.07236
G1 X145.741 Y93.914 E0.07236
G1 X146.728 Y96.000 E0.07236
G1 X147.506 Y98.173 E0.07236
G1 X148.066 Y100.412 E0.07236
G1 X148.405 Y102.695 E0.07236
G1 X148.518 Y105.000 E0.07236
G1 X148.405 Y107.305 E0.07236
G1 X148.066 Y109.588 E0.07236
G1 X147.506 Y111.827 E0.07236
G1 X146.728 Y114.000 E0.07236
G1 X145.741 Y116.086 E0.07236
G1 X144.555 Y118.066 E0.07236
G1 X143.180 Y119.920 E0.07236
G1 X141.630 Y121.630 E0.07236
G1 X139.920 Y123.180 E0.07236
G1 X138.066 Y124.555 E0.07236
G1 X136.086 Y125.741 E0.07236
G1 X134.000 Y126.728 E0.07236
G1 X131.827 Y127.506 E0.07236
G1 X129.588 Y128.066 E0.07236
G1 X127.305 Y128.405 E0.07236
G1 X125.000 Y128.518 E0.07237
G1 X122.695 Y128.405 E0.07237
G1 X120.412 Y128.066 E0.07236
G1 X118.173 Y127.506 E0.07236
G1 X116.000 Y126.728 E0.07236
G1 X113.914 Y125.741 E0.07236
G1 X111.934 Y124.555 E0.07236
G1 X110.080 Y123.180 E0.07236
G1 X108.370 Y121.630 E0.07236
G1 X106.820 Y119.920 E0.07236
G1 X105.445 Y118.066 E0.07236
G1 X104.259 Y116.086 E0.07236
G1 X103.272 Y114.000 E0.07236
G1 X102.494 Y111.827 E0.07236
G1 X101.934 Y109.588 E0.07236
G1 X101.595 Y107.305 E0.07236
G1 X101.482 Y105.000 E0.07236
G1 X101.595 Y102.695 E0.07236
G1 X101.934 Y100.412 E0.07236
G1 X102.494 Y98.173 E0.07236
G1 X103.272 Y96.000 E0.07236
G1 X104.259 Y93.914 E0.07236
G1 X105.445 Y91.934 E0.07236
G1 X106.784 Y90.128 E0.07048
G1 X106.482 Y89.904 F10800.000
G1 F1200
G1 X108.103 Y88.103 E0.07598
G1 X109.841 Y86.528 E0.07353
G1 X111.724 Y85.131 E0.07353
G1 X113.736 Y83.926 E0.07353
G1 X115.855 Y82.923 E0.07353
G1 X118.063 Y82.133 E0.07353
G1 X120.338 Y81.563 E0.07353
G1 X122.658 Y81.219 E0.07352
G1 X125.045 Y81.106 E0.07493
G1 X127.342 Y81.219 E0.07213
G1 X129.662 Y81.563 E0.07353
G1 X131.937 Y82.133 E0.07353
G1 X134.145 Y82.923 E0.07353
G1 X136.264 Y83.926 E0.07353
G1 X138.276 Y85.131 E0.07353
G1 X140.159 Y86.528 E0.07353
G1 X141.897 Y88.103 E0.07353
G1 X143.472 Y89.841 E0.07353
G1 X144.869 Y91.724 E0.07353
G1 X146.074 Y93.736 E0.07353
G1 X147.077 Y95.856 E0.07353
G1 X147.867 Y98.063 E0.07353
G1 X148.437 Y100.338 E0.07353
G1 X148.781 Y102.658 E0.07353
G1 X148.896 Y105.000 E0.07353
G1 X148.781 Y107.342 E0.07353
G1 X148.437 Y109.662 E0.07353
G1 X147.867 Y111.937 E0.07353
G1 X147.077 Y114.144 E0.07353
G1 X146.074 Y116.264 E0.07353
G1 X144.869 Y118.276 E0.07353
G1 X143.472 Y120.159 E0.07353
G1 X141.897 Y121.897 E0.07353
G1 X140.159 Y123.472 E0.07353
G1 X138.276 Y124.869 E0.07353
G1 X136.264 Y126.074 E0.07353
G1 X134.145 Y127.077 E0.07353
G1 X131.937 Y127.867 E0.07353
G1 X129.662 Y128.437 E0.07353
G1 X127.342 Y128.781 E0.07353
G1 X125.000 Y128.896 E0.07353
G1 X122.658 Y128.781 E0.07353
G1 X120.338 Y128.437 E0.07353
G1 X118.063 Y127.867 E0.07353
G1 X115.855 Y127.077 E0.07353
G1 X113.736 Y126.074 E0.07353
G1 X111.724 Y124.869 E0.07353
G1 X109.841 Y123.472 E0.07353
G1 X108.103 Y121.897 E0.07353
G1 X106.528 Y120.159 E0.07353
G1 X105.131 Y118.276 E0.07353
G1 X103.926 Y116.264 E0.07353
G1 X102.923 Y114.144 E0.07353
G1 X102.133 Y111.937 E0.07353
G1 X101.563 Y109.662 E0.07353
G1 X101.219 Y107.342 E0.07353
G1 X101.104 Y105.000 E0.07353
G1 X101.219 Y102.658 E0.07353
G1 X101.563 Y100.338 E0.07353
G1 X102.133 Y98.063 E0.07353
G1 X102.923 Y95.856 E0.07353
G1 X103.926 Y93.736 E0.07353
G1 X105.131 Y91.724 E0.07353
G1 X106.446 Y89.952 E0.06918
G1 X106.876 Y89.968 F10800.000
G1 F8640
G1 X108.103 Y88.103 E-0.57331
G1 X108.702 Y87.560 E-0.18669
G1 E-0.04000 F2100.00000
G1 Z0.800 F10800.000
G1 X110.447 Y115.292
G1 Z0.200
G1 E0.80000 F2100.00000
G1 F1200
G1 X101.848 Y106.693 E0.38202
G1 X101.820 Y106.131 E0.01767
G1 X109.058 Y113.368 E0.32152
G1 X108.578 Y112.354 E0.03523
G1 X101.793 Y105.569 E0.30145
G1 X101.765 Y105.007 E0.01767
G1 X108.198 Y111.440 E0.28577
G1 X107.900 Y110.608 E0.02776
G1 X101.790 Y104.497 E0.27146
G1 X101.815 Y103.988 E0.01602
G1 X107.667 Y109.840 E0.26001
G1 X107.489 Y109.128 E0.02309
G1 X101.840 Y103.479 E0.25096
G1 X101.865 Y102.969 E0.01602
G1 X107.322 Y108.427 E0.24245
G1 X107.229 Y107.799 E0.01992
G1 X101.912 Y102.483 E0.23619
G1 X101.981 Y102.018 E0.01478
G1 X107.136 Y107.172 E0.22899
G1 X107.075 Y106.765 E0.01291
G1 X107.066 Y106.568 E0.00622
G1 X102.050 Y101.552 E0.22282
G1 X102.119 Y101.087 E0.01478
G1 X107.038 Y106.006 E0.21852
G1 X107.011 Y105.444 E0.01767
G1 X102.188 Y100.622 E0.21423
G1 X102.283 Y100.182 E0.01413
G1 X106.994 Y104.893 E0.20930
G1 X107.019 Y104.384 E0.01602
G1 X102.390 Y99.755 E0.20566
G1 X102.497 Y99.327 E0.01384
G1 X107.044 Y103.874 E0.20202
G1 X107.069 Y103.365 E0.01602
G1 X102.604 Y98.900 E0.19837
G1 X102.711 Y98.473 E0.01384
G1 X107.127 Y102.889 E0.19618
G1 X107.196 Y102.423 E0.01478
G1 X102.835 Y98.062 E0.19376
G1 X102.975 Y97.669 E0.01313
G1 X107.265 Y101.958 E0.19057
G1 X107.334 Y101.493 E0.01478
G1 X103.116 Y97.275 E0.18738
G1 X103.257 Y96.882 E0.01313
G1 X107.440 Y101.065 E0.18586
G1 X107.547 Y100.638 E0.01384
G1 X103.398 Y96.488 E0.18436
G1 X103.540 Y96.096 E0.01311
G1 X107.654 Y100.210 E0.18281
G1 X107.761 Y99.783 E0.01384
G1 X103.711 Y95.733 E0.17994
G1 X103.883 Y95.370 E0.01261
G1 X107.901 Y99.389 E0.17853
G1 X108.042 Y98.995 E0.01313
G1 X104.054 Y95.007 E0.17717
G1 X104.226 Y94.645 E0.01261
G1 X108.183 Y98.602 E0.17580
G1 X108.324 Y98.208 E0.01313
G1 X104.397 Y94.282 E0.17443
G1 X104.579 Y93.929 E0.01246
G1 X108.487 Y97.838 E0.17363
G1 X108.659 Y97.475 E0.01261
G1 X104.779 Y93.595 E0.17236
G1 X104.980 Y93.261 E0.01224
G1 X108.830 Y97.112 E0.17109
G1 X109.002 Y96.749 E0.01261
M73 P6 R17
G1 X105.180 Y92.927 E0.16981
G1 X105.380 Y92.593 E0.01224
G1 X109.183 Y96.396 E0.16897
G1 X109.384 Y96.062 E0.01224
G1 X105.580 Y92.259 E0.16897
G1 X105.794 Y91.939 E0.01210
G1 X109.584 Y95.728 E0.16837
G1 X109.784 Y95.394 E0.01224
G1 X106.022 Y91.632 E0.16715
G1 X106.249 Y91.325 E0.01200
G1 X109.984 Y95.060 E0.16594
G1 X110.206 Y94.748 E0.01204
G1 X106.477 Y91.018 E0.16570
G1 X106.704 Y90.711 E0.01200
G1 X110.434 Y94.441 E0.16570
G1 X110.661 Y94.134 E0.01200
G1 X106.932 Y90.405 E0.16570
G1 X107.039 Y90.260 E0.00566
G1 X107.173 Y90.112 E0.00628
G1 X110.889 Y93.828 E0.16508
G1 X111.121 Y93.525 E0.01197
G1 X107.427 Y89.832 E0.16410
G1 X107.681 Y89.551 E0.01188
G1 X111.375 Y93.245 E0.16410
G1 X111.629 Y92.965 E0.01188
G1 X107.935 Y89.271 E0.16410
G1 X108.189 Y88.991 E0.01188
G1 X111.883 Y92.685 E0.16410
G1 X112.137 Y92.404 E0.01188
G1 X108.443 Y88.710 E0.16410
G1 X108.570 Y88.570 E0.00594
G1 X108.710 Y88.443 E0.00594
G1 X112.404 Y92.137 E0.16410
G1 X112.684 Y91.883 E0.01188
G1 X108.991 Y88.189 E0.16410
G1 X109.271 Y87.935 E0.01188
G1 X112.965 Y91.629 E0.16410
G1 X113.245 Y91.375 E0.01188
G1 X109.551 Y87.681 E0.16410
G1 X109.832 Y87.427 E0.01188
G1 X113.525 Y91.121 E0.16410
G1 X113.827 Y90.889 E0.01197
G1 X110.112 Y87.173 E0.16508
G1 X110.260 Y87.039 E0.00628
G1 X110.405 Y86.932 E0.00566
G1 X114.134 Y90.661 E0.16570
G1 X114.441 Y90.434 E0.01200
G1 X110.711 Y86.704 E0.16570
G1 X111.018 Y86.477 E0.01200
G1 X114.748 Y90.206 E0.16570
G1 X115.060 Y89.984 E0.01204
G1 X111.325 Y86.249 E0.16594
G1 X111.632 Y86.022 E0.01200
G1 X115.394 Y89.784 E0.16715
G1 X115.728 Y89.584 E0.01224
G1 X111.938 Y85.794 E0.16837
G1 X112.259 Y85.580 E0.01210
G1 X116.062 Y89.384 E0.16897
G1 X116.396 Y89.183 E0.01224
G1 X112.593 Y85.380 E0.16897
G1 X112.927 Y85.180 E0.01224
G1 X116.749 Y89.002 E0.16981
G1 X117.112 Y88.831 E0.01261
G1 X113.261 Y84.980 E0.17109
G1 X113.595 Y84.779 E0.01224
G1 X117.475 Y88.659 E0.17236
G1 X117.838 Y88.487 E0.01261
G1 X113.929 Y84.579 E0.17363
G1 X114.282 Y84.397 E0.01246
G1 X118.208 Y88.324 E0.17443
G1 X118.602 Y88.183 E0.01313
G1 X114.645 Y84.226 E0.17580
G1 X115.007 Y84.054 E0.01261
G1 X118.995 Y88.042 E0.17717
G1 X119.389 Y87.901 E0.01313
G1 X115.370 Y83.883 E0.17853
G1 X115.733 Y83.711 E0.01261
G1 X119.783 Y87.761 E0.17994
G1 X120.210 Y87.654 E0.01384
G1 X116.096 Y83.540 E0.18281
