; generated by PrusaSlicer 2.0.0+ on 2019-09-09 at 15:12:25

; 

; external perimeters extrusion width = 0.45mm
; perimeters extrusion width = 0.45mm
; infill extrusion width = 0.45mm
; solid infill extrusion width = 0.45mm
; top infill extrusion width = 0.40mm
; first layer extrusion width = 0.42mm

M73 P0 R51
M201 X9000 Y9000 Z500 E10000 ; sets maximum accelerations, mm/sec^2
M203 X500 Y500 Z12 E120 ; sets maximum feedrates, mm/sec
M204 P2000 R1500 T2000 ; sets acceleration (P, T) and retract acceleration (R), mm/sec^2
M205 X10.00 Y10.00 Z0.20 E2.50 ; sets the jerk limits, mm/sec
M205 S0 T0 ; sets the minimum extruding and travel feed rate, mm/sec
M107
M115 U3.7.2 ; tell printer latest fw version
G90 ; use absolute coordinates
M83 ; extruder relative mode
M104 S230 ; set extruder temp
M140 S60 ; set bed temp
Tx
M190 S60 ; wait for bed temp
M109 S230 ; wait for extruder temp
G28 W ; home all without mesh bed level
G80 ; mesh bed leveling

G21 ; set units to millimeters

;go outside print area
G1 Y-3.0 F1000.0
G1 Z0.4 F1000.0
; select extruder
Tc
; purge line
G1 X55.0 F2000.0
G1 Z0.3 F1000.0
G92 E0.0
G1 X240.0 E25.0 F2200.0
M73 P0 R51
G1 Y-2.0 F1000.0
G1 X55.0 E25 F1400.0
G1 Z0.20 F1000.0
G1 X5.0 E4.0 F1000.0
G92 E0.0
M900 K30 ; Filament gcode
G21 ; set units to millimeters
G90 ; use absolute coordinates
M83 ; use relative distances for extrusion
;BEFORE_LAYER_CHANGE
G92 E0.0
;0.2


G1 E-0.80000 F2100.00000
G1 Z0.600 F10800.000
;AFTER_LAYER_CHANGE
;0.2
G1 X85.495 Y69.420
G1 Z0.200
G1 E0.80000 F2100.00000
M204 S1000
G1 F1200
G1 X87.020 Y69.126 E0.04872
G1 X162.952 Y69.125 E2.38078
G1 X164.434 Y69.392 E0.04723
G1 X165.594 Y70.115 E0.04284
G1 X166.165 Y70.848 E0.02911
G1 X166.474 Y71.626 E0.02627
G1 X166.570 Y72.146 E0.01658
G1 X166.573 Y113.304 E1.29047
G1 X166.493 Y113.852 E0.01737
G1 X166.220 Y114.571 E0.02411
G1 X165.784 Y115.249 E0.02529
G1 X139.380 Y140.282 E1.14079
G1 X138.618 Y140.747 E0.02799
G1 X137.891 Y140.875 E0.02315
G1 X97.298 Y140.875 E1.27275
G1 X96.504 Y140.715 E0.02541
G1 X95.821 Y140.278 E0.02541
G1 X95.339 Y139.609 E0.02586
G1 X83.817 Y114.662 E0.86159
G1 X83.456 Y113.630 E0.03427
G1 X83.427 Y72.230 E1.29809
G1 X83.508 Y71.678 E0.01749
G1 X83.780 Y70.967 E0.02386
G1 X84.216 Y70.289 E0.02529
G1 X84.577 Y69.982 E0.01487
G1 X85.443 Y69.452 E0.03183
G1 F8640
G1 X87.020 Y69.126 E-0.37182
G1 X88.701 Y69.126 E-0.38818
G1 E-0.04000 F2100.00000
G1 Z0.800 F10800.000
G1 X91.237 Y107.172
G1 Z0.200
G1 E0.80000 F2100.00000
G1 F1200
G1 X91.824 Y107.114 E0.01847
G1 X92.437 Y107.175 E0.01933
G1 X93.027 Y107.354 E0.01933
G1 X93.571 Y107.644 E0.01933
G1 X94.047 Y108.035 E0.01933
G1 X94.438 Y108.512 E0.01933
G1 X94.729 Y109.056 E0.01933
G1 X94.908 Y109.645 E0.01933
G1 X94.968 Y110.259 E0.01933
G1 X94.908 Y110.872 E0.01933
G1 X94.729 Y111.462 E0.01933
G1 X94.438 Y112.006 E0.01933
G1 X94.047 Y112.482 E0.01933
G1 X93.571 Y112.873 E0.01933
G1 X93.027 Y113.164 E0.01933
G1 X92.437 Y113.343 E0.01933
G1 X91.824 Y113.403 E0.01933
G1 X91.210 Y113.343 E0.01933
G1 X90.620 Y113.164 E0.01933
G1 X90.077 Y112.873 E0.01933
G1 X89.600 Y112.482 E0.01933
G1 X89.209 Y112.006 E0.01933
G1 X88.919 Y111.462 E0.01933
G1 X88.740 Y110.872 E0.01933
G1 X88.679 Y110.259 E0.01933
G1 X88.740 Y109.645 E0.01933
G1 X88.919 Y109.056 E0.01933
G1 X89.209 Y108.512 E0.01933
G1 X89.600 Y108.035 E0.01933
G1 X90.077 Y107.644 E0.01933
G1 X90.623 Y107.352 E0.01941
G1 X91.180 Y107.189 E0.01820
G1 X91.286 Y107.551 F10800.000
G1 F1200
G1 X91.824 Y107.493 E0.01695
G1 X92.363 Y107.546 E0.01700
G1 X92.882 Y107.704 E0.01700
G1 X93.360 Y107.959 E0.01700
G1 X93.779 Y108.303 E0.01700
G1 X94.123 Y108.722 E0.01700
G1 X94.379 Y109.201 E0.01700
G1 X94.536 Y109.719 E0.01700
G1 X94.589 Y110.259 E0.01700
G1 X94.536 Y110.798 E0.01700
G1 X94.379 Y111.317 E0.01700
G1 X94.123 Y111.795 E0.01700
G1 X93.779 Y112.214 E0.01700
G1 X93.360 Y112.558 E0.01700
G1 X92.882 Y112.814 E0.01700
G1 X92.363 Y112.971 E0.01700
G1 X91.824 Y113.024 E0.01700
G1 X91.284 Y112.971 E0.01700
G1 X90.765 Y112.814 E0.01700
G1 X90.287 Y112.558 E0.01700
G1 X89.868 Y112.214 E0.01700
G1 X89.524 Y111.795 E0.01700
G1 X89.269 Y111.317 E0.01700
G1 X89.111 Y110.798 E0.01700
G1 X89.058 Y110.259 E0.01700
G1 X89.111 Y109.719 E0.01700
G1 X89.269 Y109.201 E0.01700
G1 X89.524 Y108.722 E0.01700
G1 X89.868 Y108.303 E0.01700
G1 X90.287 Y107.959 E0.01700
G1 X90.766 Y107.703 E0.01703
G1 X91.228 Y107.568 E0.01510
G1 X91.413 Y107.172 F10800.000
G1 F8640
G1 X91.824 Y107.493 E-0.13851
G1 X92.363 Y107.546 E-0.12518
G1 X92.882 Y107.704 E-0.12518
G1 X93.360 Y107.959 E-0.12518
G1 X93.779 Y108.303 E-0.12518
G1 X94.111 Y108.708 E-0.12077
G1 E-0.04000 F2100.00000
G1 Z0.800 F10800.000
G1 X91.210 Y104.828
G1 Z0.200
G1 E0.80000 F2100.00000
G1 F1200
G1 X90.620 Y104.649 E0.01933
G1 X90.077 Y104.358 E0.01933
G1 X89.600 Y103.967 E0.01933
G1 X89.209 Y103.491 E0.01933
G1 X88.919 Y102.947 E0.01933
G1 X88.740 Y102.357 E0.01933
G1 X88.679 Y101.744 E0.01933
G1 X88.740 Y101.130 E0.01933
G1 X88.919 Y100.541 E0.01933
G1 X89.209 Y99.997 E0.01933
G1 X89.600 Y99.520 E0.01933
G1 X90.077 Y99.129 E0.01933
G1 X90.623 Y98.838 E0.01941
G1 X91.237 Y98.657 E0.02009
G1 X91.824 Y98.599 E0.01847
G1 X92.437 Y98.660 E0.01933
G1 X93.027 Y98.839 E0.01933
G1 X93.571 Y99.129 E0.01933
G1 X94.047 Y99.520 E0.01933
G1 X94.438 Y99.997 E0.01933
G1 X94.729 Y100.541 E0.01933
G1 X94.908 Y101.130 E0.01933
G1 X94.968 Y101.744 E0.01933
G1 X94.908 Y102.357 E0.01933
G1 X94.729 Y102.947 E0.01933
G1 X94.438 Y103.491 E0.01933
G1 X94.047 Y103.967 E0.01933
G1 X93.571 Y104.358 E0.01933
G1 X93.027 Y104.649 E0.01933
G1 X92.437 Y104.828 E0.01933
G1 X91.824 Y104.888 E0.01933
G1 X91.270 Y104.834 E0.01745
G1 X91.307 Y104.458 F10800.000
G1 F1200
G1 X90.765 Y104.299 E0.01770
G1 X90.287 Y104.043 E0.01700
G1 X89.868 Y103.699 E0.01700
G1 X89.524 Y103.280 E0.01700
G1 X89.269 Y102.802 E0.01700
G1 X89.111 Y102.283 E0.01700
G1 X89.058 Y101.744 E0.01700
G1 X89.111 Y101.204 E0.01700
G1 X89.269 Y100.686 E0.01700
G1 X89.524 Y100.207 E0.01700
G1 X89.868 Y99.788 E0.01700
G1 X90.287 Y99.444 E0.01700
G1 X90.766 Y99.188 E0.01703
G1 X91.310 Y99.029 E0.01776
G1 X91.824 Y98.978 E0.01620
G1 X92.363 Y99.032 E0.01700
G1 X92.882 Y99.189 E0.01700
G1 X93.360 Y99.444 E0.01700
G1 X93.779 Y99.788 E0.01700
G1 X94.123 Y100.207 E0.01700
G1 X94.379 Y100.686 E0.01700
G1 X94.536 Y101.204 E0.01700
G1 X94.589 Y101.744 E0.01700
G1 X94.536 Y102.283 E0.01700
G1 X94.379 Y102.802 E0.01700
G1 X94.123 Y103.280 E0.01700
G1 X93.779 Y103.699 E0.01700
G1 X93.360 Y104.043 E0.01700
G1 X92.882 Y104.299 E0.01700
G1 X92.363 Y104.456 E0.01700
G1 X91.824 Y104.509 E0.01700
G1 X91.367 Y104.464 E0.01440
G1 X91.045 Y104.761 F10800.000
G1 F8640
G1 X90.765 Y104.299 E-0.14399
G1 X90.287 Y104.043 E-0.12518
G1 X89.868 Y103.699 E-0.12518
G1 X89.524 Y103.280 E-0.12518
G1 X89.269 Y102.802 E-0.12518
G1 X89.124 Y102.324 E-0.11529
G1 E-0.04000 F2100.00000
G1 Z0.800 F10800.000
G1 X91.824 Y96.373
G1 Z0.200
G1 E0.80000 F2100.00000
G1 F1200
G1 X91.210 Y96.313 E0.01933
G1 X90.620 Y96.134 E0.01933
G1 X90.077 Y95.843 E0.01933
G1 X89.600 Y95.452 E0.01933
G1 X89.209 Y94.976 E0.01933
G1 X88.919 Y94.432 E0.01933
G1 X88.740 Y93.842 E0.01933
G1 X88.679 Y93.229 E0.01933
G1 X88.740 Y92.615 E0.01933
G1 X88.919 Y92.026 E0.01933
G1 X89.209 Y91.482 E0.01933
G1 X89.600 Y91.005 E0.01933
G1 X90.077 Y90.614 E0.01933
G1 X90.623 Y90.323 E0.01941
G1 X91.237 Y90.142 E0.02009
G1 X91.824 Y90.085 E0.01847
G1 X92.437 Y90.145 E0.01933
G1 X93.027 Y90.324 E0.01933
G1 X93.571 Y90.614 E0.01933
G1 X94.047 Y91.005 E0.01933
G1 X94.438 Y91.482 E0.01933
G1 X94.729 Y92.026 E0.01933
G1 X94.908 Y92.615 E0.01933
G1 X94.968 Y93.229 E0.01933
G1 X94.908 Y93.842 E0.01933
G1 X94.729 Y94.432 E0.01933
G1 X94.438 Y94.976 E0.01933
G1 X94.047 Y95.452 E0.01933
G1 X93.571 Y95.843 E0.01933
G1 X93.027 Y96.134 E0.01933
G1 X92.437 Y96.313 E0.01933
G1 X91.883 Y96.367 E0.01745
G1 X91.846 Y95.992 F10800.000
G1 F1200
G1 X91.284 Y95.941 E0.01770
G1 X90.765 Y95.784 E0.01700
G1 X90.287 Y95.528 E0.01700
G1 X89.868 Y95.184 E0.01700
G1 X89.524 Y94.765 E0.01700
G1 X89.269 Y94.287 E0.01700
G1 X89.111 Y93.768 E0.01700
G1 X89.058 Y93.229 E0.01700
G1 X89.111 Y92.689 E0.01700
G1 X89.269 Y92.171 E0.01700
G1 X89.524 Y91.692 E0.01700
G1 X89.868 Y91.273 E0.01700
G1 X90.287 Y90.929 E0.01700
G1 X90.766 Y90.673 E0.01703
G1 X91.310 Y90.514 E0.01776
G1 X91.824 Y90.463 E0.01620
G1 X92.363 Y90.517 E0.01700
G1 X92.882 Y90.674 E0.01700
G1 X93.360 Y90.929 E0.01700
G1 X93.779 Y91.273 E0.01700
G1 X94.123 Y91.692 E0.01700
G1 X94.379 Y92.171 E0.01700
G1 X94.536 Y92.689 E0.01700
G1 X94.589 Y93.229 E0.01700
G1 X94.536 Y93.768 E0.01700
G1 X94.379 Y94.287 E0.01700
G1 X94.123 Y94.765 E0.01700
G1 X93.779 Y95.184 E0.01700
G1 X93.360 Y95.528 E0.01700
G1 X92.882 Y95.784 E0.01700
G1 X92.363 Y95.941 E0.01700
G1 X91.906 Y95.986 E0.01440
G1 X91.648 Y96.340 F10800.000
G1 F8640
G1 X91.284 Y95.941 E-0.14399
G1 X90.765 Y95.784 E-0.12518
G1 X90.287 Y95.528 E-0.12518
G1 X89.868 Y95.184 E-0.12518
G1 X89.524 Y94.765 E-0.12518
G1 X89.289 Y94.325 E-0.11529
G1 E-0.04000 F2100.00000
G1 Z0.800 F10800.000
G1 X91.824 Y87.858
G1 Z0.200
G1 E0.80000 F2100.00000
G1 F1200
G1 X91.210 Y87.798 E0.01933
G1 X90.620 Y87.619 E0.01933
G1 X90.077 Y87.328 E0.01933
G1 X89.600 Y86.937 E0.01933
G1 X89.209 Y86.461 E0.01933
G1 X88.919 Y85.917 E0.01933
G1 X88.740 Y85.327 E0.01933
G1 X88.679 Y84.714 E0.01933
G1 X88.740 Y84.101 E0.01933
G1 X88.919 Y83.511 E0.01933
G1 X89.209 Y82.967 E0.01933
G1 X89.600 Y82.491 E0.01933
G1 X90.077 Y82.099 E0.01933
G1 X90.623 Y81.808 E0.01941
G1 X91.237 Y81.627 E0.02009
G1 X91.824 Y81.570 E0.01847
G1 X92.437 Y81.630 E0.01933
G1 X93.027 Y81.809 E0.01933
G1 X93.571 Y82.099 E0.01933
G1 X94.047 Y82.491 E0.01933
G1 X94.438 Y82.967 E0.01933
G1 X94.729 Y83.511 E0.01933
G1 X94.908 Y84.101 E0.01933
G1 X94.968 Y84.714 E0.01933
G1 X94.908 Y85.327 E0.01933
G1 X94.729 Y85.917 E0.01933
G1 X94.438 Y86.461 E0.01933
G1 X94.047 Y86.937 E0.01933
G1 X93.571 Y87.328 E0.01933
G1 X93.027 Y87.619 E0.01933
G1 X92.437 Y87.798 E0.01933
G1 X91.883 Y87.852 E0.01745
G1 X91.846 Y87.477 F10800.000
G1 F1200
G1 X91.284 Y87.426 E0.01770
G1 X90.765 Y87.269 E0.01700
G1 X90.287 Y87.013 E0.01700
G1 X89.868 Y86.669 E0.01700
G1 X89.524 Y86.250 E0.01700
G1 X89.269 Y85.772 E0.01700
G1 X89.111 Y85.253 E0.01700
G1 X89.058 Y84.714 E0.01700
G1 X89.111 Y84.174 E0.01700
G1 X89.269 Y83.656 E0.01700
G1 X89.524 Y83.178 E0.01700
G1 X89.868 Y82.758 E0.01700
G1 X90.287 Y82.415 E0.01700
G1 X90.766 Y82.159 E0.01703
G1 X91.310 Y81.999 E0.01776
G1 X91.824 Y81.948 E0.01620
G1 X92.363 Y82.002 E0.01700
G1 X92.882 Y82.159 E0.01700
G1 X93.360 Y82.415 E0.01700
G1 X93.779 Y82.758 E0.01700
G1 X94.123 Y83.178 E0.01700
G1 X94.379 Y83.656 E0.01700
G1 X94.536 Y84.174 E0.01700
G1 X94.589 Y84.714 E0.01700
G1 X94.536 Y85.253 E0.01700
G1 X94.379 Y85.772 E0.01700
G1 X94.123 Y86.250 E0.01700
G1 X93.779 Y86.669 E0.01700
G1 X93.360 Y87.013 E0.01700
G1 X92.882 Y87.269 E0.01700
G1 X92.363 Y87.426 E0.01700
G1 X91.906 Y87.471 E0.01440
G1 X91.648 Y87.825 F10800.000
G1 F8640
G1 X91.284 Y87.426 E-0.14399
G1 X90.765 Y87.269 E-0.12518
G1 X90.287 Y87.013 E-0.12518
G1 X89.868 Y86.669 E-0.12518
G1 X89.524 Y86.250 E-0.12518
G1 X89.289 Y85.810 E-0.11529
G1 E-0.04000 F2100.00000
G1 Z0.800 F10800.000
G1 X91.824 Y79.343
G1 Z0.200
G1 E0.80000 F2100.00000
G1 F1200
G1 X91.210 Y79.283 E0.01933
G1 X90.620 Y79.104 E0.01933
G1 X90.077 Y78.813 E0.01933
G1 X89.600 Y78.422 E0.01933
G1 X89.209 Y77.946 E0.01933
G1 X88.919 Y77.402 E0.01933
G1 X88.740 Y76.812 E0.01933
G1 X88.679 Y76.199 E0.01933
G1 X88.740 Y75.586 E0.01933
G1 X88.919 Y74.996 E0.01933
G1 X89.209 Y74.452 E0.01933
G1 X89.600 Y73.976 E0.01933
G1 X90.077 Y73.585 E0.01933
G1 X90.623 Y73.293 E0.01941
G1 X91.237 Y73.112 E0.02009
G1 X91.824 Y73.055 E0.01847
G1 X92.437 Y73.115 E0.01933
G1 X93.027 Y73.294 E0.01933
G1 X93.571 Y73.585 E0.01933
G1 X94.047 Y73.976 E0.01933
G1 X94.438 Y74.452 E0.01933
G1 X94.729 Y74.996 E0.01933
G1 X94.908 Y75.586 E0.01933
G1 X94.968 Y76.199 E0.01933
G1 X94.908 Y76.812 E0.01933
G1 X94.729 Y77.402 E0.01933
G1 X94.438 Y77.946 E0.01933
G1 X94.047 Y78.422 E0.01933
G1 X93.571 Y78.813 E0.01933
G1 X93.027 Y79.104 E0.01933
G1 X92.437 Y79.283 E0.01933
G1 X91.883 Y79.338 E0.01745
G1 X91.846 Y78.962 F10800.000
G1 F1200
G1 X91.284 Y78.911 E0.01770
G1 X90.765 Y78.754 E0.01700
G1 X90.287 Y78.498 E0.01700
G1 X89.868 Y78.155 E0.01700
G1 X89.524 Y77.735 E0.01700
G1 X89.269 Y77.257 E0.01700
G1 X89.111 Y76.739 E0.01700
G1 X89.058 Y76.199 E0.01700
G1 X89.111 Y75.659 E0.01700
G1 X89.269 Y75.141 E0.01700
G1 X89.524 Y74.663 E0.01700
G1 X89.868 Y74.244 E0.01700
G1 X90.287 Y73.900 E0.01700
G1 X90.766 Y73.644 E0.01703
G1 X91.310 Y73.484 E0.01776
G1 X91.824 Y73.434 E0.01620
G1 X92.363 Y73.487 E0.01700
G1 X92.882 Y73.644 E0.01700
G1 X93.360 Y73.900 E0.01700
G1 X93.779 Y74.244 E0.01700
G1 X94.123 Y74.663 E0.01700
G1 X94.379 Y75.141 E0.01700
G1 X94.536 Y75.659 E0.01700
G1 X94.589 Y76.199 E0.01700
G1 X94.536 Y76.739 E0.01700
G1 X94.379 Y77.257 E0.01700
G1 X94.123 Y77.735 E0.01700
G1 X93.779 Y78.155 E0.01700
G1 X93.360 Y78.498 E0.01700
G1 X92.882 Y78.754 E0.01700
G1 X92.363 Y78.911 E0.01700
G1 X91.906 Y78.956 E0.01440
G1 X91.648 Y79.310 F10800.000
G1 F8640
G1 X91.284 Y78.911 E-0.14399
G1 X90.765 Y78.754 E-0.12518
G1 X90.287 Y78.498 E-0.12518
G1 X89.868 Y78.155 E-0.12518
G1 X89.524 Y77.735 E-0.12518
G1 X89.289 Y77.295 E-0.11529
G1 E-0.04000 F2100.00000
G1 Z0.800 F10800.000
G1 X104.740 Y76.812
G1 Z0.200
G1 E0.80000 F2100.00000
G1 F1200
G1 X104.679 Y76.199 E0.01933
G1 X104.740 Y75.586 E0.01933
G1 X104.919 Y74.996 E0.01933
G1 X105.209 Y74.452 E0.01933
G1 X105.600 Y73.976 E0.01933
G1 X106.077 Y73.585 E0.01933
G1 X106.623 Y73.293 E0.01941
G1 X107.237 Y73.112 E0.02009
G1 X107.824 Y73.055 E0.01847
G1 X108.437 Y73.115 E0.01933
G1 X109.027 Y73.294 E0.01933
G1 X109.571 Y73.585 E0.01933
G1 X110.047 Y73.976 E0.01933
G1 X110.438 Y74.452 E0.01933
G1 X110.729 Y74.996 E0.01933
G1 X110.908 Y75.586 E0.01933
G1 X110.968 Y76.199 E0.01933
G1 X110.908 Y76.812 E0.01933
G1 X110.729 Y77.402 E0.01933
G1 X110.438 Y77.946 E0.01933
G1 X110.047 Y78.422 E0.01933
G1 X109.571 Y78.813 E0.01933
G1 X109.027 Y79.104 E0.01933
G1 X108.437 Y79.283 E0.01933
G1 X107.824 Y79.343 E0.01933
G1 X107.210 Y79.283 E0.01933
G1 X106.620 Y79.104 E0.01933
G1 X106.077 Y78.813 E0.01933
G1 X105.600 Y78.422 E0.01933
G1 X105.209 Y77.946 E0.01933
G1 X104.919 Y77.402 E0.01933
G1 X104.757 Y76.870 E0.01745
G1 X105.118 Y76.760 F10800.000
G1 F1200
G1 X105.058 Y76.199 E0.01770
G1 X105.111 Y75.659 E0.01700
G1 X105.269 Y75.141 E0.01700
G1 X105.524 Y74.663 E0.01700
G1 X105.868 Y74.244 E0.01700
G1 X106.287 Y73.900 E0.01700
G1 X106.766 Y73.644 E0.01703
G1 X107.310 Y73.484 E0.01776
G1 X107.824 Y73.434 E0.01620
G1 X108.363 Y73.487 E0.01700
G1 X108.882 Y73.644 E0.01700
G1 X109.360 Y73.900 E0.01700
G1 X109.779 Y74.244 E0.01700
G1 X110.123 Y74.663 E0.01700
G1 X110.379 Y75.141 E0.01700
G1 X110.536 Y75.659 E0.01700
G1 X110.589 Y76.199 E0.01700
G1 X110.536 Y76.739 E0.01700
G1 X110.379 Y77.257 E0.01700
G1 X110.123 Y77.735 E0.01700
G1 X109.779 Y78.155 E0.01700
G1 X109.360 Y78.498 E0.01700
G1 X108.882 Y78.754 E0.01700
G1 X108.363 Y78.911 E0.01700
G1 X107.824 Y78.965 E0.01700
G1 X107.284 Y78.911 E0.01700
G1 X106.765 Y78.754 E0.01700
G1 X106.287 Y78.498 E0.01700
G1 X105.868 Y78.155 E0.01700
G1 X105.524 Y77.735 E0.01700
G1 X105.269 Y77.257 E0.01700
G1 X105.135 Y76.818 E0.01440
G1 X104.738 Y76.634 F10800.000
G1 F8640
G1 X105.058 Y76.199 E-0.14399
G1 X105.111 Y75.659 E-0.12518
G1 X105.269 Y75.141 E-0.12518
G1 X105.524 Y74.663 E-0.12518
G1 X105.868 Y74.244 E-0.12518
G1 X106.254 Y73.927 E-0.11529
G1 E-0.04000 F2100.00000
G1 Z0.800 F10800.000
G1 X106.623 Y81.808
G1 Z0.200
G1 E0.80000 F2100.00000
G1 F1200
G1 X107.237 Y81.627 E0.02009
G1 X107.824 Y81.570 E0.01847
G1 X108.437 Y81.630 E0.01933
G1 X109.027 Y81.809 E0.01933
G1 X109.571 Y82.099 E0.01933
G1 X110.047 Y82.491 E0.01933
G1 X110.438 Y82.967 E0.01933
G1 X110.729 Y83.511 E0.01933
G1 X110.908 Y84.101 E0.01933
G1 X110.968 Y84.714 E0.01933
G1 X110.908 Y85.327 E0.01933
G1 X110.729 Y85.917 E0.01933
G1 X110.438 Y86.461 E0.01933
G1 X110.047 Y86.937 E0.01933
