; generated by PrusaSlicer 2.0.0+ on 2019-08-26 at 13:15:52

; 

; external perimeters extrusion width = 0.45mm
; perimeters extrusion width = 0.45mm
; infill extrusion width = 0.45mm
; solid infill extrusion width = 0.45mm
; top infill extrusion width = 0.40mm
; first layer extrusion width = 0.42mm

M73 P0 R10
M201 X9000 Y9000 Z500 E10000 ; sets maximum accelerations, mm/sec^2
M203 X500 Y500 Z12 E120 ; sets maximum feedrates, mm/sec
M204 P2000 R1500 T2000 ; sets acceleration (P, T) and retract acceleration (R), mm/sec^2
M205 X10.00 Y10.00 Z0.20 E2.50 ; sets the jerk limits, mm/sec
M205 S0 T0 ; sets the minimum extruding and travel feed rate, mm/sec
M107
M115 U3.7.2 ; tell printer latest fw version
G90 ; use absolute coordinates
M83 ; extruder relative mode
M104 S215 ; set extruder temp
M140 S60 ; set bed temp
Tx
M190 S60 ; wait for bed temp
M109 S215 ; wait for extruder temp
G28 W ; home all without mesh bed level
G80 ; mesh bed leveling

G21 ; set units to millimeters

;go outside print area
G1 Y-3.0 F1000.0
G1 Z0.4 F1000.0
; select extruder
Tc
; purge line
G1 X55.0 F2000.0
G1 Z0.3 F1000.0
G92 E0.0
G1 X240.0 E25.0 F2200.0
M73 P1 R10
G1 Y-2.0 F1000.0
G1 X55.0 E25 F1400.0
G1 Z0.20 F1000.0
G1 X5.0 E4.0 F1000.0
G92 E0.0
M900 K30 ; Filament gcode
G21 ; set units to millimeters
G90 ; use absolute coordinates
M83 ; use relative distances for extrusion
;BEFORE_LAYER_CHANGE
G92 E0.0
;0.2


G1 E-0.80000 F2100.00000
G1 Z0.600 F10800.000
;AFTER_LAYER_CHANGE
;0.2
G1 X109.944 Y84.110
G1 Z0.200
G1 E0.80000 F2100.00000
M204 S1000
G1 F1200
G1 X110.795 Y83.437 E0.03402
G1 X111.699 Y82.999 E0.03150
G1 X112.410 Y82.795 E0.02318
G1 X113.166 Y82.710 E0.02387
G1 X136.660 Y82.703 E0.73662
G1 X137.592 Y82.795 E0.02938
G1 X138.489 Y83.065 E0.02936
G1 X139.319 Y83.506 E0.02947
G1 X140.026 Y84.080 E0.02856
G1 X140.645 Y84.822 E0.03028
G1 X141.082 Y85.625 E0.02866
G1 X141.366 Y86.524 E0.02958
G1 X141.459 Y87.306 E0.02466
G1 X141.469 Y122.528 E1.10437
G1 X141.330 Y123.615 E0.03438
G1 X141.099 Y124.337 E0.02375
G1 X140.724 Y125.054 E0.02536
G1 X140.051 Y125.896 E0.03380
G1 X139.193 Y126.571 E0.03425
G1 X138.504 Y126.929 E0.02433
G1 X137.793 Y127.156 E0.02341
G1 X136.765 Y127.295 E0.03253
G1 X113.282 Y127.297 E0.73629
G1 X112.209 Y127.157 E0.03392
G1 X111.491 Y126.927 E0.02364
G1 X110.775 Y126.552 E0.02536
G1 X109.932 Y125.879 E0.03380
G1 X109.254 Y125.014 E0.03447
G1 X108.900 Y124.332 E0.02410
G1 X108.670 Y123.614 E0.02364
G1 X108.532 Y122.564 E0.03321
G1 X108.531 Y87.473 E1.10026
G1 X108.671 Y86.385 E0.03438
G1 X108.902 Y85.664 E0.02375
G1 X109.276 Y84.947 E0.02536
G1 X109.906 Y84.157 E0.03169
G1 F8640
G1 X110.795 Y83.437 E-0.26405
G1 X111.699 Y82.999 E-0.23196
G1 X112.410 Y82.795 E-0.17071
G1 X112.811 Y82.750 E-0.09328
G1 E-0.04000 F2100.00000
G1 Z0.800 F10800.000
G1 X123.924 Y109.218
G1 Z0.200
G1 E0.80000 F2100.00000
G1 F1200
G1 X124.259 Y109.039 E0.01190
G1 X124.618 Y108.930 E0.01176
G1 X125.039 Y108.895 E0.01324
G1 X125.378 Y108.929 E0.01069
G1 X125.741 Y109.039 E0.01190
G1 X126.076 Y109.218 E0.01190
G1 X126.370 Y109.459 E0.01190
G1 X126.611 Y109.752 E0.01190
G1 X126.790 Y110.087 E0.01191
G1 X126.900 Y110.450 E0.01190
G1 X126.937 Y110.828 E0.01190
G1 X126.900 Y111.206 E0.01190
G1 X126.790 Y111.569 E0.01190
G1 X126.611 Y111.904 E0.01190
G1 X126.370 Y112.198 E0.01190
G1 X126.076 Y112.439 E0.01190
G1 X125.741 Y112.618 E0.01190
G1 X125.378 Y112.728 E0.01190
G1 X125.000 Y112.765 E0.01190
G1 X124.622 Y112.728 E0.01190
G1 X124.259 Y112.618 E0.01190
G1 X123.924 Y112.439 E0.01190
G1 X123.631 Y112.198 E0.01190
G1 X123.390 Y111.904 E0.01190
G1 X123.211 Y111.569 E0.01190
G1 X123.101 Y111.206 E0.01190
G1 X123.063 Y110.828 E0.01190
G1 X123.101 Y110.450 E0.01190
G1 X123.211 Y110.087 E0.01190
G1 X123.390 Y109.752 E0.01190
G1 X123.631 Y109.459 E0.01190
G1 X123.878 Y109.256 E0.01002
G1 X123.714 Y108.903 F10800.000
G1 F1200
G1 X124.114 Y108.689 E0.01423
G1 X124.547 Y108.557 E0.01418
G1 X125.042 Y108.517 E0.01557
G1 X125.452 Y108.557 E0.01292
G1 X125.886 Y108.689 E0.01423
G1 X126.287 Y108.903 E0.01423
G1 X126.638 Y109.191 E0.01423
G1 X126.926 Y109.542 E0.01423
G1 X127.140 Y109.942 E0.01423
G1 X127.271 Y110.376 E0.01423
G1 X127.316 Y110.828 E0.01423
G1 X127.271 Y111.280 E0.01423
G1 X127.140 Y111.714 E0.01423
G1 X126.926 Y112.115 E0.01423
G1 X126.638 Y112.466 E0.01423
G1 X126.287 Y112.754 E0.01423
G1 X125.886 Y112.968 E0.01423
G1 X125.452 Y113.099 E0.01423
G1 X125.000 Y113.144 E0.01423
G1 X124.548 Y113.099 E0.01423
G1 X124.114 Y112.968 E0.01423
G1 X123.714 Y112.754 E0.01423
G1 X123.363 Y112.466 E0.01423
G1 X123.075 Y112.115 E0.01423
G1 X122.861 Y111.714 E0.01423
G1 X122.729 Y111.280 E0.01423
G1 X122.684 Y110.828 E0.01423
G1 X122.729 Y110.376 E0.01423
G1 X122.861 Y109.942 E0.01423
G1 X123.075 Y109.542 E0.01423
G1 X123.363 Y109.191 E0.01423
G1 X123.667 Y108.941 E0.01235
G1 X124.072 Y109.080 F10800.000
G1 F8640
G1 X124.114 Y108.689 E-0.11844
G1 X124.547 Y108.557 E-0.10443
G1 X125.042 Y108.517 E-0.11468
G1 X125.452 Y108.557 E-0.09517
G1 X125.886 Y108.689 E-0.10482
G1 X126.287 Y108.903 E-0.10482
G1 X126.638 Y109.191 E-0.10482
G1 X126.673 Y109.234 E-0.01281
G1 E-0.04000 F2100.00000
G1 Z0.800 F10800.000
G1 X123.287 Y111.431
G1 Z0.200
G1 E0.80000 F2100.00000
G1 F1200
G1 X123.951 Y112.095 E0.03198
G1 X124.082 Y112.202 E0.00576
G1 X124.368 Y112.355 E0.01103
G1 X124.678 Y112.449 E0.01103
G1 X124.907 Y112.472 E0.00783
G1 X123.357 Y110.922 E0.07462
G1 X123.348 Y110.828 E0.00319
G1 X123.379 Y110.506 E0.01103
G1 X123.412 Y110.398 E0.00384
G1 X125.431 Y112.416 E0.09716
G1 X125.633 Y112.355 E0.00719
G1 X125.838 Y112.245 E0.00793
G1 X123.583 Y109.990 E0.10855
G1 X123.626 Y109.910 E0.00309
G1 X123.832 Y109.660 E0.01103
G1 X126.169 Y111.997 E0.11251
G1 X126.374 Y111.746 E0.01103
G1 X126.417 Y111.666 E0.00309
G1 X124.162 Y109.411 E0.10855
G1 X124.368 Y109.301 E0.00794
G1 X124.570 Y109.240 E0.00719
G1 X126.588 Y111.259 E0.09717
G1 X126.621 Y111.151 E0.00384
G1 X126.653 Y110.828 E0.01103
G1 X126.644 Y110.735 E0.00319
G1 X125.093 Y109.185 E0.07463
G1 X125.323 Y109.207 E0.00784
G1 X125.633 Y109.301 E0.01103
G1 X125.918 Y109.454 E0.01103
G1 X126.048 Y109.561 E0.00572
G1 X126.714 Y110.226 E0.03202
G1 F8640
G1 X126.048 Y109.561 E-0.21722
G1 X125.918 Y109.454 E-0.03881
G1 X125.633 Y109.301 E-0.07481
G1 X125.323 Y109.207 E-0.07481
G1 X125.093 Y109.185 E-0.05318
G1 X126.016 Y110.107 E-0.30117
G1 E-0.04000 F2100.00000
G1 Z0.800 F10800.000
G1 X125.378 Y101.072
G1 Z0.200
G1 E0.80000 F2100.00000
G1 F1200
G1 X125.000 Y101.109 E0.01190
G1 X124.622 Y101.072 E0.01190
G1 X124.259 Y100.962 E0.01190
G1 X123.924 Y100.783 E0.01190
G1 X123.631 Y100.542 E0.01190
G1 X123.390 Y100.248 E0.01190
G1 X123.211 Y99.913 E0.01190
G1 X123.101 Y99.550 E0.01190
G1 X123.063 Y99.172 E0.01190
G1 X123.101 Y98.794 E0.01190
G1 X123.211 Y98.431 E0.01190
G1 X123.390 Y98.096 E0.01190
G1 X123.631 Y97.803 E0.01190
G1 X123.924 Y97.562 E0.01190
G1 X124.259 Y97.383 E0.01190
G1 X124.618 Y97.274 E0.01176
G1 X125.039 Y97.239 E0.01324
G1 X125.378 Y97.273 E0.01069
G1 X125.741 Y97.383 E0.01190
G1 X126.076 Y97.562 E0.01190
G1 X126.370 Y97.803 E0.01190
G1 X126.611 Y98.096 E0.01190
G1 X126.790 Y98.431 E0.01191
G1 X126.900 Y98.794 E0.01190
G1 X126.937 Y99.172 E0.01190
G1 X126.900 Y99.550 E0.01190
G1 X126.790 Y99.913 E0.01190
G1 X126.611 Y100.248 E0.01190
G1 X126.370 Y100.542 E0.01190
G1 X126.076 Y100.783 E0.01190
G1 X125.741 Y100.962 E0.01190
G1 X125.435 Y101.054 E0.01002
G1 X125.452 Y101.443 F10800.000
G1 F1200
G1 X125.000 Y101.488 E0.01423
G1 X124.548 Y101.443 E0.01423
G1 X124.114 Y101.312 E0.01423
G1 X123.714 Y101.098 E0.01423
G1 X123.363 Y100.810 E0.01423
G1 X123.075 Y100.459 E0.01423
G1 X122.861 Y100.058 E0.01423
G1 X122.729 Y99.624 E0.01423
G1 X122.684 Y99.172 E0.01423
G1 X122.729 Y98.721 E0.01423
G1 X122.861 Y98.286 E0.01423
G1 X123.075 Y97.886 E0.01423
G1 X123.363 Y97.535 E0.01423
G1 X123.714 Y97.247 E0.01423
G1 X124.114 Y97.033 E0.01423
G1 X124.547 Y96.902 E0.01418
G1 X125.042 Y96.861 E0.01557
G1 X125.452 Y96.901 E0.01292
G1 X125.886 Y97.033 E0.01423
G1 X126.287 Y97.247 E0.01423
G1 X126.638 Y97.535 E0.01423
G1 X126.926 Y97.886 E0.01423
G1 X127.140 Y98.286 E0.01423
G1 X127.271 Y98.721 E0.01423
G1 X127.316 Y99.172 E0.01423
G1 X127.271 Y99.624 E0.01423
G1 X127.140 Y100.058 E0.01423
G1 X126.926 Y100.459 E0.01423
G1 X126.638 Y100.810 E0.01423
G1 X126.287 Y101.098 E0.01423
G1 X125.886 Y101.312 E0.01423
G1 X125.509 Y101.426 E0.01235
G1 X125.188 Y101.143 F10800.000
G1 F8640
G1 X125.000 Y101.488 E-0.11844
G1 X124.548 Y101.443 E-0.10482
G1 X124.114 Y101.312 E-0.10482
G1 X123.714 Y101.098 E-0.10482
G1 X123.363 Y100.810 E-0.10482
G1 X123.075 Y100.459 E-0.10482
G1 X122.861 Y100.058 E-0.10482
G1 X122.845 Y100.006 E-0.01264
G1 E-0.04000 F2100.00000
G1 Z0.800 F10800.000
G1 X123.287 Y99.775
G1 Z0.200
G1 E0.80000 F2100.00000
G1 F1200
G1 X123.951 Y100.439 E0.03198
G1 X124.082 Y100.546 E0.00576
G1 X124.368 Y100.699 E0.01103
G1 X124.678 Y100.793 E0.01103
G1 X124.907 Y100.816 E0.00783
G1 X123.357 Y99.266 E0.07462
G1 X123.348 Y99.172 E0.00319
G1 X123.379 Y98.850 E0.01103
G1 X123.412 Y98.742 E0.00384
G1 X125.431 Y100.760 E0.09716
G1 X125.633 Y100.699 E0.00719
G1 X125.838 Y100.589 E0.00793
G1 X123.583 Y98.334 E0.10855
G1 X123.626 Y98.254 E0.00309
G1 X123.832 Y98.004 E0.01103
G1 X126.169 Y100.341 E0.11251
G1 X126.374 Y100.090 E0.01103
G1 X126.417 Y100.010 E0.00309
G1 X124.162 Y97.755 E0.10855
G1 X124.368 Y97.645 E0.00794
G1 X124.570 Y97.584 E0.00719
G1 X126.588 Y99.603 E0.09717
G1 X126.621 Y99.495 E0.00384
G1 X126.653 Y99.172 E0.01103
G1 X126.644 Y99.079 E0.00319
G1 X125.093 Y97.529 E0.07463
G1 X125.323 Y97.551 E0.00784
G1 X125.633 Y97.645 E0.01103
G1 X125.918 Y97.798 E0.01103
G1 X126.048 Y97.905 E0.00572
G1 X126.714 Y98.570 E0.03202
G1 F8640
G1 X126.048 Y97.905 E-0.21722
G1 X125.918 Y97.798 E-0.03881
G1 X125.633 Y97.645 E-0.07481
G1 X125.323 Y97.551 E-0.07481
G1 X125.093 Y97.529 E-0.05318
G1 X126.016 Y98.451 E-0.30117
G1 E-0.04000 F2100.00000
G1 Z0.800 F10800.000
G1 X125.378 Y89.416
G1 Z0.200
G1 E0.80000 F2100.00000
G1 F1200
G1 X125.000 Y89.453 E0.01190
G1 X124.622 Y89.416 E0.01190
G1 X124.259 Y89.306 E0.01190
G1 X123.924 Y89.127 E0.01190
G1 X123.631 Y88.886 E0.01190
G1 X123.390 Y88.592 E0.01190
G1 X123.211 Y88.258 E0.01190
G1 X123.101 Y87.894 E0.01190
G1 X123.063 Y87.516 E0.01190
G1 X123.101 Y87.139 E0.01190
G1 X123.211 Y86.775 E0.01190
G1 X123.390 Y86.440 E0.01190
G1 X123.631 Y86.147 E0.01190
G1 X123.924 Y85.906 E0.01190
G1 X124.259 Y85.727 E0.01190
G1 X124.618 Y85.618 E0.01176
G1 X125.039 Y85.583 E0.01324
G1 X125.378 Y85.617 E0.01069
G1 X125.741 Y85.727 E0.01190
G1 X126.076 Y85.906 E0.01190
G1 X126.370 Y86.147 E0.01190
G1 X126.611 Y86.440 E0.01190
G1 X126.790 Y86.775 E0.01191
G1 X126.900 Y87.139 E0.01190
G1 X126.937 Y87.516 E0.01190
G1 X126.900 Y87.894 E0.01190
G1 X126.790 Y88.258 E0.01190
G1 X126.611 Y88.592 E0.01190
G1 X126.370 Y88.886 E0.01190
G1 X126.076 Y89.127 E0.01190
G1 X125.741 Y89.306 E0.01190
G1 X125.435 Y89.399 E0.01002
G1 X125.452 Y89.788 F10800.000
G1 F1200
G1 X125.000 Y89.832 E0.01423
G1 X124.548 Y89.788 E0.01423
G1 X124.114 Y89.656 E0.01423
G1 X123.714 Y89.442 E0.01423
G1 X123.363 Y89.154 E0.01423
G1 X123.075 Y88.803 E0.01423
G1 X122.861 Y88.403 E0.01423
G1 X122.729 Y87.968 E0.01423
G1 X122.684 Y87.516 E0.01423
G1 X122.729 Y87.065 E0.01423
G1 X122.861 Y86.630 E0.01423
G1 X123.075 Y86.230 E0.01423
G1 X123.363 Y85.879 E0.01423
G1 X123.714 Y85.591 E0.01423
G1 X124.114 Y85.377 E0.01423
G1 X124.547 Y85.246 E0.01418
G1 X125.042 Y85.205 E0.01557
G1 X125.452 Y85.245 E0.01292
G1 X125.886 Y85.377 E0.01423
G1 X126.287 Y85.591 E0.01423
G1 X126.638 Y85.879 E0.01423
G1 X126.926 Y86.230 E0.01423
G1 X127.140 Y86.630 E0.01423
G1 X127.271 Y87.065 E0.01423
G1 X127.316 Y87.516 E0.01423
G1 X127.271 Y87.968 E0.01423
G1 X127.140 Y88.403 E0.01423
G1 X126.926 Y88.803 E0.01423
G1 X126.638 Y89.154 E0.01423
G1 X126.287 Y89.442 E0.01423
G1 X125.886 Y89.656 E0.01423
G1 X125.509 Y89.770 E0.01235
G1 X125.188 Y89.487 F10800.000
G1 F8640
G1 X125.000 Y89.832 E-0.11844
G1 X124.548 Y89.788 E-0.10482
G1 X124.114 Y89.656 E-0.10482
G1 X123.714 Y89.442 E-0.10482
G1 X123.363 Y89.154 E-0.10482
G1 X123.075 Y88.803 E-0.10482
G1 X122.861 Y88.403 E-0.10482
G1 X122.845 Y88.350 E-0.01264
G1 E-0.04000 F2100.00000
G1 Z0.800 F10800.000
G1 X123.287 Y88.119
G1 Z0.200
G1 E0.80000 F2100.00000
G1 F1200
G1 X123.951 Y88.783 E0.03198
G1 X124.082 Y88.891 E0.00576
G1 X124.368 Y89.043 E0.01103
G1 X124.678 Y89.137 E0.01103
G1 X124.907 Y89.160 E0.00783
G1 X123.357 Y87.610 E0.07462
G1 X123.348 Y87.516 E0.00319
G1 X123.379 Y87.194 E0.01103
G1 X123.412 Y87.086 E0.00384
G1 X125.431 Y89.105 E0.09716
G1 X125.633 Y89.043 E0.00719
G1 X125.838 Y88.933 E0.00793
G1 X123.583 Y86.678 E0.10855
G1 X123.626 Y86.598 E0.00309
G1 X123.832 Y86.348 E0.01103
G1 X126.169 Y88.685 E0.11251
G1 X126.374 Y88.435 E0.01103
G1 X126.417 Y88.354 E0.00309
G1 X124.162 Y86.099 E0.10855
G1 X124.368 Y85.990 E0.00794
G1 X124.570 Y85.928 E0.00719
G1 X126.588 Y87.947 E0.09717
G1 X126.621 Y87.839 E0.00384
G1 X126.653 Y87.516 E0.01103
G1 X126.644 Y87.423 E0.00319
G1 X125.093 Y85.873 E0.07463
G1 X125.323 Y85.895 E0.00784
G1 X125.633 Y85.990 E0.01103
G1 X125.918 Y86.142 E0.01103
G1 X126.048 Y86.249 E0.00572
G1 X126.714 Y86.914 E0.03202
G1 F8640
G1 X126.048 Y86.249 E-0.21722
G1 X125.918 Y86.142 E-0.03881
G1 X125.633 Y85.990 E-0.07481
G1 X125.323 Y85.895 E-0.07481
G1 X125.093 Y85.873 E-0.05318
G1 X126.016 Y86.795 E-0.30117
G1 E-0.04000 F2100.00000
G1 Z0.800 F10800.000
G1 X134.719 Y87.516
G1 Z0.200
G1 E0.80000 F2100.00000
G1 F1200
G1 X134.757 Y87.139 E0.01190
G1 X134.867 Y86.775 E0.01190
G1 X135.046 Y86.440 E0.01190
G1 X135.287 Y86.147 E0.01190
G1 X135.580 Y85.906 E0.01190
G1 X135.915 Y85.727 E0.01190
G1 X136.274 Y85.618 E0.01176
G1 X136.695 Y85.583 E0.01324
G1 X137.034 Y85.617 E0.01069
G1 X137.397 Y85.727 E0.01190
G1 X137.732 Y85.906 E0.01190
G1 X138.026 Y86.147 E0.01190
G1 X138.267 Y86.440 E0.01190
G1 X138.446 Y86.775 E0.01191
G1 X138.556 Y87.139 E0.01190
G1 X138.593 Y87.516 E0.01190
G1 X138.556 Y87.894 E0.01190
G1 X138.446 Y88.258 E0.01190
G1 X138.267 Y88.592 E0.01190
G1 X138.026 Y88.886 E0.01190
G1 X137.732 Y89.127 E0.01190
G1 X137.397 Y89.306 E0.01190
G1 X137.034 Y89.416 E0.01190
G1 X136.656 Y89.453 E0.01190
G1 X136.278 Y89.416 E0.01190
G1 X135.915 Y89.306 E0.01190
G1 X135.580 Y89.127 E0.01190
G1 X135.287 Y88.886 E0.01190
G1 X135.046 Y88.592 E0.01190
G1 X134.867 Y88.258 E0.01190
G1 X134.757 Y87.894 E0.01190
G1 X134.725 Y87.576 E0.01002
G1 X134.340 Y87.516 F10800.000
G1 F1200
G1 X134.385 Y87.065 E0.01423
G1 X134.517 Y86.630 E0.01423
G1 X134.731 Y86.230 E0.01423
G1 X135.019 Y85.879 E0.01423
G1 X135.370 Y85.591 E0.01423
G1 X135.770 Y85.377 E0.01423
G1 X136.203 Y85.246 E0.01418
G1 X136.698 Y85.205 E0.01557
G1 X137.108 Y85.245 E0.01292
G1 X137.542 Y85.377 E0.01423
G1 X137.943 Y85.591 E0.01423
G1 X138.294 Y85.879 E0.01423
G1 X138.582 Y86.230 E0.01423
G1 X138.796 Y86.630 E0.01423
G1 X138.927 Y87.065 E0.01423
G1 X138.972 Y87.516 E0.01423
G1 X138.927 Y87.968 E0.01423
G1 X138.796 Y88.403 E0.01423
G1 X138.582 Y88.803 E0.01423
G1 X138.294 Y89.154 E0.01423
G1 X137.943 Y89.442 E0.01423
G1 X137.542 Y89.656 E0.01423
G1 X137.108 Y89.788 E0.01423
G1 X136.656 Y89.832 E0.01423
G1 X136.204 Y89.788 E0.01423
G1 X135.770 Y89.656 E0.01423
G1 X135.370 Y89.442 E0.01423
G1 X135.019 Y89.154 E0.01423
G1 X134.731 Y88.803 E0.01423
G1 X134.517 Y88.403 E0.01423
G1 X134.385 Y87.968 E0.01423
G1 X134.346 Y87.576 E0.01235
G1 X134.687 Y87.316 F10800.000
G1 X134.943 Y88.119
G1 F1200
G1 X135.607 Y88.783 E0.03198
G1 X135.738 Y88.891 E0.00576
G1 X136.024 Y89.043 E0.01103
G1 X136.334 Y89.137 E0.01103
G1 X136.563 Y89.160 E0.00783
G1 X135.013 Y87.610 E0.07462
G1 X135.003 Y87.516 E0.00319
G1 X135.035 Y87.194 E0.01103
G1 X135.068 Y87.086 E0.00384
G1 X137.086 Y89.105 E0.09716
G1 X137.289 Y89.043 E0.00719
G1 X137.494 Y88.933 E0.00793
G1 X135.239 Y86.678 E0.10855
G1 X135.282 Y86.598 E0.00309
G1 X135.487 Y86.348 E0.01103
G1 X137.825 Y88.685 E0.11251
G1 X138.030 Y88.435 E0.01103
G1 X138.073 Y88.354 E0.00309
G1 X135.818 Y86.099 E0.10855
G1 X136.024 Y85.990 E0.00794
