; generated by PrusaSlicer 2.1.1+win64 on 2020-02-10 at 20:41:57 UTC

; 

; external perimeters extrusion width = 0.45mm
; perimeters extrusion width = 0.45mm
; infill extrusion width = 0.45mm
; solid infill extrusion width = 0.45mm
; top infill extrusion width = 0.40mm
; first layer extrusion width = 0.42mm

M73 P0 R129
M201 X9000 Y9000 Z500 E10000 ; sets maximum accelerations, mm/sec^2
M203 X500 Y500 Z12 E120 ; sets maximum feedrates, mm/sec
M204 P2000 R1500 T2000 ; sets acceleration (P, T) and retract acceleration (R), mm/sec^2
M205 X10.00 Y10.00 Z0.20 E4.50 ; sets the jerk limits, mm/sec
M205 S0 T0 ; sets the minimum extruding and travel feed rate, mm/sec
M107
M862.3 P "MK2.5SMMU2S" ; printer model check
M862.1 P0.4 ; nozzle diameter check
M115 U3.8.1 ; tell printer latest fw version
G90 ; use absolute coordinates
M83 ; extruder relative mode
M104 S215 ; set extruder temp
M140 S60 ; set bed temp
Tx
M190 S60 ; wait for bed temp
M109 S215 ; wait for extruder temp
G28 W ; home all without mesh bed level
G80 ; mesh bed leveling

;go outside print area
G1 Y-3.0 F1000.0
G1 Z0.4 F1000.0
; select extruder
Tc
; purge line
G1 X55.0 F2000.0
G1 Z0.3 F1000.0
G92 E0.0
G1 X240.0 E25.0 F2200.0
M73 P0 R129
G1 Y-2.0 F1000.0
G1 X55.0 E25 F1400.0
G1 Z0.20 F1000.0
G1 X5.0 E4.0 F1000.0
G92 E0.0
G21 ; set units to millimeters
G90 ; use absolute coordinates
M83 ; use relative distances for extrusion
M900 K30 ; Filament gcode
;BEFORE_LAYER_CHANGE
G92 E0.0
;0.2


G1 E-0.80000 F2100.00000
G1 Z0.600 F10800.000
;AFTER_LAYER_CHANGE
;0.2
G1 X110.406 Y55.822
G1 Z0.200
G1 E0.80000 F2100.00000
M204 S1000
G1 F1200
G1 X111.138 Y55.682 E0.02338
G1 X138.766 Y55.678 E0.86625
G1 X139.583 Y55.838 E0.02608
G1 X140.281 Y56.290 E0.02608
G1 X144.932 Y61.612 E0.22160
G1 X166.385 Y102.076 E1.43601
G1 X166.562 Y102.540 E0.01555
G1 X166.631 Y103.031 E0.01555
G1 X166.651 Y108.586 E0.17417
G1 X166.558 Y109.190 E0.01919
G1 X142.202 Y153.230 E1.57795
G1 X141.641 Y153.887 E0.02709
G1 X141.015 Y154.230 E0.02236
G1 X140.313 Y154.354 E0.02236
G1 X109.724 Y154.357 E0.95911
G1 X109.100 Y154.265 E0.01976
G1 X108.370 Y153.883 E0.02586
G1 X107.830 Y153.254 E0.02597
G1 X83.596 Y109.593 E1.56569
G1 X83.432 Y109.145 E0.01498
G1 X83.369 Y108.671 E0.01498
G1 X83.349 Y103.121 E0.17400
G1 X83.442 Y102.516 E0.01919
G1 X104.989 Y61.659 E1.44829
G1 X109.763 Y56.199 E0.22740
G1 X110.354 Y55.852 E0.02150
G1 F8640
G1 X111.138 Y55.682 E-0.18527
G1 X113.628 Y55.682 E-0.57473
G1 E-0.04000 F2100.00000
G1 Z0.800 F10800.000
G1 X134.478 Y123.770
G1 Z0.200
G1 E0.80000 F2100.00000
G1 F1200
G1 X135.084 Y123.634 E0.01945
G1 X135.705 Y123.606 E0.01950
G1 X136.321 Y123.686 E0.01947
G1 X136.914 Y123.872 E0.01948
G1 X137.465 Y124.158 E0.01948
G1 X137.949 Y124.527 E0.01908
G1 X138.186 Y124.764 E0.01051
G1 X138.551 Y125.238 E0.01876
G1 X138.721 Y125.531 E0.01061
G1 X138.952 Y126.088 E0.01891
G1 X139.089 Y126.696 E0.01954
G1 X139.117 Y127.317 E0.01948
G1 X139.037 Y127.932 E0.01945
G1 X138.855 Y128.513 E0.01911
G1 X138.713 Y128.818 E0.01054
G1 X138.395 Y129.320 E0.01862
G1 X138.179 Y129.579 E0.01059
G1 X137.733 Y129.989 E0.01899
G1 X137.210 Y130.324 E0.01947
G1 X136.635 Y130.564 E0.01955
G1 X136.027 Y130.700 E0.01953
G1 X135.406 Y130.729 E0.01947
G1 X134.790 Y130.649 E0.01948
G1 X134.197 Y130.463 E0.01949
G1 X133.646 Y130.177 E0.01947
G1 X133.152 Y129.800 E0.01948
G1 X132.731 Y129.342 E0.01951
G1 X132.397 Y128.819 E0.01947
G1 X132.158 Y128.244 E0.01951
G1 X132.025 Y127.651 E0.01905
G1 X131.995 Y127.316 E0.01053
G1 X132.021 Y126.710 E0.01903
G1 X132.154 Y126.102 E0.01953
G1 X132.390 Y125.530 E0.01940
G1 X132.717 Y125.013 E0.01916
G1 X132.933 Y124.755 E0.01054
G1 X133.381 Y124.343 E0.01908
G1 X133.904 Y124.009 E0.01946
G1 X134.423 Y123.793 E0.01764
G1 X134.568 Y124.141 F10800.000
G1 F1200
G1 X135.134 Y124.009 E0.01821
G1 X135.689 Y123.984 E0.01743
G1 X136.240 Y124.056 E0.01741
G1 X136.770 Y124.222 E0.01741
G1 X137.262 Y124.477 E0.01741
G1 X137.700 Y124.812 E0.01727
G1 X137.902 Y125.014 E0.00896
G1 X138.237 Y125.448 E0.01720
G1 X138.382 Y125.698 E0.00906
G1 X138.592 Y126.202 E0.01711
G1 X138.713 Y126.746 E0.01747
G1 X138.739 Y127.301 E0.01741
G1 X138.667 Y127.850 E0.01738
G1 X138.502 Y128.377 E0.01730
G1 X138.382 Y128.637 E0.00900
G1 X138.090 Y129.097 E0.01708
G1 X137.905 Y129.318 E0.00904
G1 X137.502 Y129.689 E0.01718
G1 X137.034 Y129.989 E0.01741
G1 X136.520 Y130.204 E0.01748
G1 X135.977 Y130.325 E0.01745
G1 X135.422 Y130.350 E0.01740
G1 X134.872 Y130.279 E0.01741
G1 X134.341 Y130.113 E0.01742
G1 X133.849 Y129.857 E0.01740
G1 X133.408 Y129.520 E0.01741
G1 X133.031 Y129.111 E0.01744
G1 X132.732 Y128.643 E0.01740
G1 X132.519 Y128.130 E0.01744
G1 X132.399 Y127.593 E0.01725
G1 X132.373 Y127.308 E0.00898
G1 X132.396 Y126.759 E0.01722
G1 X132.516 Y126.215 E0.01746
G1 X132.726 Y125.704 E0.01733
G1 X133.022 Y125.236 E0.01735
G1 X133.206 Y125.016 E0.00899
G1 X133.612 Y124.643 E0.01727
G1 X134.079 Y124.344 E0.01739
G1 X134.513 Y124.164 E0.01473
G1 X134.652 Y123.750 F10800.000
G1 F8640
G1 X135.134 Y124.009 E-0.14781
G1 X135.689 Y123.984 E-0.12836
G1 X136.240 Y124.056 E-0.12818
G1 X136.770 Y124.222 E-0.12820
G1 X137.262 Y124.477 E-0.12821
G1 X137.604 Y124.738 E-0.09924
G1 E-0.04000 F2100.00000
G1 Z0.800 F10800.000
G1 X139.584 Y71.209
G1 Z0.200
G1 E0.80000 F2100.00000
G1 F1200
G1 X139.616 Y151.579 E2.51995
G1 X131.517 Y151.582 E0.25392
G1 X131.492 Y71.213 E2.51989
G1 X128.957 Y68.787 E0.11001
G1 X128.618 Y62.946 E0.18346
G1 X132.569 Y58.457 E0.18747
G1 X138.498 Y58.454 E0.18591
G1 X142.452 Y62.939 E0.18747
G1 X142.117 Y68.782 E0.18349
G1 X139.627 Y71.167 E0.10810
G1 X139.961 Y71.370 F10800.000
G1 F1200
G1 X139.993 Y151.956 E2.52672
G1 X131.140 Y151.959 E0.27757
G1 X131.115 Y71.374 E2.52667
G1 X128.589 Y68.957 E0.10961
G1 X128.233 Y62.813 E0.19296
G1 X132.398 Y58.080 E0.19767
G1 X138.668 Y58.077 E0.19659
G1 X142.837 Y62.806 E0.19767
G1 X142.485 Y68.951 E0.19300
G1 X140.005 Y71.328 E0.10770
G1 X139.595 Y71.531 F10800.000
G1 F8640
G1 X140.004 Y74.620 E-0.76000
G1 E-0.04000 F2100.00000
G1 Z0.800 F10800.000
G1 X139.474 Y79.033
G1 Z0.200
G1 E0.80000 F2100.00000
G1 F1200
G1 X131.775 Y71.333 E0.34142
G1 X131.775 Y71.867 E0.01673
G1 X139.305 Y79.396 E0.33389
G1 X139.305 Y79.930 E0.01673
G1 X131.775 Y72.400 E0.33390
G1 X131.775 Y72.934 E0.01673
G1 X139.305 Y80.463 E0.33390
G1 X139.305 Y80.997 E0.01673
G1 X131.775 Y73.467 E0.33390
G1 X131.776 Y74.001 E0.01673
G1 X139.305 Y81.530 E0.33390
G1 X139.306 Y82.064 E0.01673
G1 X131.776 Y74.534 E0.33390
G1 X131.776 Y75.068 E0.01673
G1 X139.306 Y82.597 E0.33391
G1 X139.306 Y83.131 E0.01673
G1 X131.776 Y75.601 E0.33391
G1 X131.776 Y76.134 E0.01673
G1 X139.306 Y83.664 E0.33391
G1 X139.306 Y84.198 E0.01673
G1 X131.776 Y76.668 E0.33391
G1 X131.777 Y77.201 E0.01673
G1 X139.307 Y84.731 E0.33391
G1 X139.307 Y85.265 E0.01673
G1 X131.777 Y77.735 E0.33391
G1 X131.777 Y78.268 E0.01673
G1 X139.307 Y85.798 E0.33392
G1 X139.307 Y86.332 E0.01673
G1 X131.777 Y78.802 E0.33392
G1 X131.777 Y79.335 E0.01673
G1 X139.308 Y86.866 E0.33392
M73 P0 R128
G1 X139.308 Y87.399 E0.01673
G1 X131.777 Y79.869 E0.33392
G1 X131.778 Y80.402 E0.01673
G1 X139.308 Y87.933 E0.33392
G1 X139.308 Y88.466 E0.01673
G1 X131.778 Y80.936 E0.33393
G1 X131.778 Y81.469 E0.01673
G1 X139.308 Y89.000 E0.33393
G1 X139.309 Y89.533 E0.01673
G1 X131.778 Y82.003 E0.33393
G1 X131.778 Y82.536 E0.01673
G1 X139.309 Y90.067 E0.33393
G1 X139.309 Y90.600 E0.01673
G1 X131.778 Y83.070 E0.33393
G1 X131.779 Y83.603 E0.01673
G1 X139.309 Y91.134 E0.33393
G1 X139.309 Y91.667 E0.01673
G1 X131.779 Y84.137 E0.33394
G1 X131.779 Y84.670 E0.01673
G1 X139.310 Y92.201 E0.33394
G1 X139.310 Y92.734 E0.01673
G1 X131.779 Y85.203 E0.33394
G1 X131.779 Y85.737 E0.01673
G1 X139.310 Y93.268 E0.33394
G1 X139.310 Y93.801 E0.01673
G1 X131.780 Y86.270 E0.33394
G1 X131.780 Y86.804 E0.01673
G1 X139.310 Y94.335 E0.33395
G1 X139.311 Y94.868 E0.01673
G1 X131.780 Y87.337 E0.33395
G1 X131.780 Y87.871 E0.01673
G1 X139.311 Y95.402 E0.33395
G1 X139.311 Y95.935 E0.01673
G1 X131.780 Y88.404 E0.33395
G1 X131.780 Y88.938 E0.01673
G1 X139.311 Y96.469 E0.33395
G1 X139.312 Y97.002 E0.01673
G1 X131.781 Y89.471 E0.33395
G1 X131.781 Y90.005 E0.01673
G1 X139.312 Y97.536 E0.33396
G1 X139.312 Y98.069 E0.01673
G1 X131.781 Y90.538 E0.33396
G1 X131.781 Y91.072 E0.01673
G1 X139.312 Y98.603 E0.33396
G1 X139.312 Y99.136 E0.01673
G1 X131.781 Y91.605 E0.33396
G1 X131.781 Y92.139 E0.01673
G1 X139.313 Y99.670 E0.33396
G1 X139.313 Y100.203 E0.01673
G1 X131.782 Y92.672 E0.33397
G1 X131.782 Y93.205 E0.01673
G1 X139.313 Y100.737 E0.33397
G1 X139.313 Y101.270 E0.01673
G1 X131.782 Y93.739 E0.33397
G1 X131.782 Y94.272 E0.01673
G1 X139.313 Y101.804 E0.33397
G1 X139.314 Y102.337 E0.01673
G1 X131.782 Y94.806 E0.33397
G1 X131.782 Y95.339 E0.01673
G1 X139.314 Y102.871 E0.33397
G1 X139.314 Y103.404 E0.01673
G1 X131.783 Y95.873 E0.33398
G1 X131.783 Y96.406 E0.01673
G1 X139.314 Y103.938 E0.33398
G1 X139.314 Y104.471 E0.01673
G1 X131.783 Y96.940 E0.33398
G1 X131.783 Y97.473 E0.01673
G1 X139.315 Y105.005 E0.33398
G1 X139.315 Y105.538 E0.01673
G1 X131.783 Y98.007 E0.33398
G1 X131.783 Y98.540 E0.01673
G1 X139.315 Y106.072 E0.33399
G1 X139.315 Y106.605 E0.01673
G1 X131.784 Y99.074 E0.33399
G1 X131.784 Y99.607 E0.01673
G1 X139.316 Y107.139 E0.33399
G1 X139.316 Y107.672 E0.01673
G1 X131.784 Y100.141 E0.33399
G1 X131.784 Y100.674 E0.01673
G1 X139.316 Y108.206 E0.33399
G1 X139.316 Y108.739 E0.01673
G1 X131.784 Y101.207 E0.33399
G1 X131.784 Y101.741 E0.01673
G1 X139.316 Y109.273 E0.33400
G1 X139.317 Y109.806 E0.01673
G1 X131.785 Y102.274 E0.33400
G1 X131.785 Y102.808 E0.01673
G1 X139.317 Y110.340 E0.33400
G1 X139.317 Y110.873 E0.01673
G1 X131.785 Y103.341 E0.33400
G1 X131.785 Y103.875 E0.01673
G1 X139.317 Y111.407 E0.33400
G1 X139.317 Y111.940 E0.01673
G1 X131.785 Y104.408 E0.33401
G1 X131.785 Y104.942 E0.01673
G1 X139.318 Y112.474 E0.33401
G1 X139.318 Y113.007 E0.01673
G1 X131.786 Y105.475 E0.33401
G1 X131.786 Y106.009 E0.01673
G1 X139.318 Y113.541 E0.33401
G1 X139.318 Y114.074 E0.01673
G1 X131.786 Y106.542 E0.33401
G1 X131.786 Y107.076 E0.01673
G1 X139.318 Y114.608 E0.33401
G1 X139.319 Y115.142 E0.01673
G1 X131.786 Y107.609 E0.33402
G1 X131.786 Y108.143 E0.01673
G1 X139.319 Y115.675 E0.33402
G1 X139.319 Y116.209 E0.01673
G1 X131.787 Y108.676 E0.33402
G1 X131.787 Y109.209 E0.01673
G1 X139.319 Y116.742 E0.33402
G1 X139.320 Y117.276 E0.01673
G1 X131.787 Y109.743 E0.33402
G1 X131.787 Y110.276 E0.01673
G1 X139.320 Y117.809 E0.33403
G1 X139.320 Y118.343 E0.01673
G1 X131.787 Y110.810 E0.33403
G1 X131.787 Y111.343 E0.01673
G1 X139.320 Y118.876 E0.33403
G1 X139.320 Y119.410 E0.01673
G1 X131.788 Y111.877 E0.33403
G1 X131.788 Y112.410 E0.01673
G1 X139.321 Y119.943 E0.33403
G1 X139.321 Y120.477 E0.01673
G1 X131.788 Y112.944 E0.33404
G1 X131.788 Y113.477 E0.01673
G1 X139.321 Y121.010 E0.33404
G1 X139.321 Y121.544 E0.01673
G1 X131.788 Y114.011 E0.33404
G1 X131.788 Y114.544 E0.01673
G1 X139.321 Y122.077 E0.33404
G1 X139.322 Y122.611 E0.01673
G1 X131.789 Y115.078 E0.33404
G1 X131.789 Y115.611 E0.01673
G1 X139.322 Y123.144 E0.33404
G1 X139.322 Y123.678 E0.01673
G1 X131.789 Y116.145 E0.33405
G1 X131.789 Y116.678 E0.01673
G1 X139.322 Y124.211 E0.33405
G1 X139.322 Y124.745 E0.01673
G1 X131.789 Y117.212 E0.33405
G1 X131.790 Y117.745 E0.01673
G1 X139.323 Y125.278 E0.33405
G1 X139.323 Y125.664 E0.01209
G1 X139.190 Y125.679 E0.00420
G1 X139.016 Y125.505 E0.00770
G1 X139.268 Y125.954 F10800.000
G1 F1200
G1 X139.320 Y126.421 E0.00885
G1 X139.347 Y126.667 E0.00231
G1 X139.362 Y127.332 E0.00621
G1 X139.341 Y127.658 E0.00421
G1 X139.318 Y128.002 E0.00576
G1 X139.288 Y128.197 E0.00392
G1 X139.258 Y128.391 E0.00455
G1 X139.494 Y129.319 F10800.000
G1 F1200
G1 X139.015 Y128.840 E0.02157
G1 X138.817 Y129.183 E0.01262
G1 X139.324 Y129.691 E0.02287
G1 X139.325 Y130.233 E0.01724
G1 X138.603 Y129.512 E0.03247
G1 X138.353 Y129.803 E0.01222
G1 X139.325 Y130.774 E0.04375
G1 X139.325 Y131.316 E0.01724
G1 X138.071 Y130.062 E0.05645
G1 X137.906 Y130.214 E0.00713
G1 X137.769 Y130.302 E0.00518
G1 X139.325 Y131.858 E0.07006
G1 X139.326 Y132.399 E0.01724
G1 X137.439 Y130.513 E0.08492
G1 X137.342 Y130.576 E0.00368
G1 X137.073 Y130.688 E0.00929
G1 X139.326 Y132.941 E0.10144
G1 X139.326 Y133.483 E0.01724
G1 X136.686 Y130.843 E0.11886
G1 X136.243 Y130.942 E0.01444
G1 X139.326 Y134.024 E0.13879
G1 X139.326 Y134.566 E0.01724
G1 X135.756 Y130.996 E0.16074
G1 X135.395 Y131.012 E0.01152
G1 X135.207 Y130.988 E0.00603
G1 X139.327 Y135.108 E0.18549
G1 X139.327 Y135.649 E0.01724
G1 X134.287 Y130.609 E0.22692
G1 F8640
G1 X136.614 Y132.937 E-0.76000
G1 E-0.04000 F2100.00000
G1 Z0.800 F10800.000
G1 X131.846 Y128.391
G1 Z0.200
G1 E0.80000 F2100.00000
G1 F1200
G1 X131.795 Y127.927 E0.00872
G1 X131.752 Y127.319 E0.00551
G1 X131.766 Y126.671 E0.00736
G1 X131.793 Y126.429 E0.00363
G1 X131.819 Y126.188 E0.00450
G1 X131.845 Y125.946 E0.00536
G1 X132.221 Y125.643 F10800.000
G1 F1200
G1 X131.792 Y125.214 E0.01903
G1 X131.792 Y124.680 E0.01673
G1 X132.282 Y125.171 E0.02176
G1 X132.490 Y124.845 E0.01212
G1 X131.792 Y124.147 E0.03095
G1 X131.791 Y123.613 E0.01673
G1 X132.733 Y124.555 E0.04176
G1 X133.011 Y124.299 E0.01183
G1 X131.791 Y123.080 E0.05408
G1 X131.791 Y122.546 E0.01673
G1 X133.302 Y124.058 E0.06702
G1 X133.628 Y123.850 E0.01211
G1 X131.791 Y122.013 E0.08146
G1 X131.791 Y121.479 E0.01673
G1 X133.982 Y123.670 E0.09715
G1 X134.358 Y123.513 E0.01279
G1 X131.791 Y120.946 E0.11386
G1 X131.790 Y120.412 E0.01673
G1 X134.789 Y123.411 E0.13295
G1 X135.046 Y123.353 E0.00828
G1 X135.255 Y123.343 E0.00654
G1 X131.790 Y119.879 E0.15363
G1 X131.790 Y119.345 E0.01673
G1 X135.775 Y123.330 E0.17669
G1 X136.389 Y123.411 E0.01943
G1 X131.790 Y118.812 E0.20394
G1 X131.790 Y118.278 E0.01673
G1 X137.227 Y123.715 E0.24110
G1 F8640
G1 X134.899 Y121.388 E-0.76000
G1 E-0.04000 F2100.00000
G1 Z0.800 F10800.000
G1 X139.497 Y136.361
G1 Z0.200
G1 E0.80000 F2100.00000
G1 F1200
G1 X131.815 Y128.679 E0.34584
G1 X131.793 Y128.682 E0.00071
G1 X131.793 Y129.199 E0.01646
G1 X139.327 Y136.733 E0.33920
G1 X139.327 Y137.274 E0.01724
G1 X131.793 Y129.740 E0.33920
G1 X131.793 Y130.282 E0.01724
G1 X139.328 Y137.816 E0.33920
G1 X139.328 Y138.358 E0.01724
G1 X131.794 Y130.824 E0.33920
G1 X131.794 Y131.365 E0.01724
G1 X139.328 Y138.899 E0.33920
G1 X139.328 Y139.441 E0.01724
G1 X131.794 Y131.907 E0.33921
G1 X131.794 Y132.448 E0.01724
G1 X139.329 Y139.983 E0.33921
G1 X139.329 Y140.524 E0.01724
G1 X131.794 Y132.990 E0.33921
G1 X131.795 Y133.532 E0.01724
G1 X139.329 Y141.066 E0.33921
G1 X139.329 Y141.608 E0.01724
G1 X131.795 Y134.073 E0.33921
G1 X131.795 Y134.615 E0.01724
G1 X139.329 Y142.149 E0.33921
G1 X139.330 Y142.691 E0.01724
G1 X131.795 Y135.156 E0.33922
G1 X131.795 Y135.698 E0.01724
G1 X139.330 Y143.233 E0.33922
G1 X139.330 Y143.774 E0.01724
G1 X131.795 Y136.240 E0.33922
G1 X131.796 Y136.781 E0.01724
G1 X139.330 Y144.316 E0.33922
G1 X139.330 Y144.858 E0.01724
G1 X131.796 Y137.323 E0.33922
G1 X131.796 Y137.865 E0.01724
G1 X139.331 Y145.399 E0.33923
G1 X139.331 Y145.941 E0.01724
G1 X131.796 Y138.406 E0.33923
G1 X131.796 Y138.948 E0.01724
G1 X139.331 Y146.483 E0.33923
G1 X139.331 Y147.024 E0.01724
G1 X131.796 Y139.489 E0.33923
G1 X131.797 Y140.031 E0.01724
G1 X139.331 Y147.566 E0.33923
G1 X139.332 Y148.108 E0.01724
G1 X131.797 Y140.573 E0.33924
M73 P1 R127
G1 X131.797 Y141.114 E0.01724
G1 X139.332 Y148.649 E0.33924
G1 X139.332 Y149.191 E0.01724
G1 X131.797 Y141.656 E0.33924
G1 X131.797 Y142.198 E0.01724
G1 X139.332 Y149.733 E0.33924
G1 X139.333 Y150.274 E0.01724
G1 X131.797 Y142.739 E0.33924
G1 X131.798 Y143.281 E0.01724
G1 X139.333 Y150.816 E0.33924
G1 X139.333 Y151.296 E0.01529
G1 X139.272 Y151.296 E0.00195
G1 X131.798 Y143.822 E0.33648
G1 X131.798 Y144.364 E0.01724
G1 X138.730 Y151.296 E0.31211
G1 X138.189 Y151.297 E0.01723
G1 X131.798 Y144.906 E0.28773
G1 X131.798 Y145.447 E0.01724
G1 X137.648 Y151.297 E0.26335
G1 X137.107 Y151.297 E0.01723
G1 X131.798 Y145.989 E0.23898
G1 X131.799 Y146.530 E0.01724
G1 X136.565 Y151.297 E0.21460
G1 X136.024 Y151.297 E0.01723
G1 X131.799 Y147.072 E0.19022
