; generated by PrusaSlicer 2.1.1+win64 on 2020-05-14 at 18:10:52 UTC

; 

; external perimeters extrusion width = 0.45mm
; perimeters extrusion width = 0.45mm
; infill extrusion width = 0.45mm
; solid infill extrusion width = 0.45mm
; top infill extrusion width = 0.40mm
; first layer extrusion width = 0.42mm

M73 P0 R70
M201 X9000 Y9000 Z500 E10000 ; sets maximum accelerations, mm/sec^2
M203 X500 Y500 Z12 E120 ; sets maximum feedrates, mm/sec
M204 P2000 R1500 T2000 ; sets acceleration (P, T) and retract acceleration (R), mm/sec^2
M205 X10.00 Y10.00 Z0.20 E4.50 ; sets the jerk limits, mm/sec
M205 S0 T0 ; sets the minimum extruding and travel feed rate, mm/sec
M107
M862.3 P "MK2.5SMMU2S" ; printer model check
M862.1 P0.4 ; nozzle diameter check
M115 U3.8.1 ; tell printer latest fw version
G90 ; use absolute coordinates
M83 ; extruder relative mode
M104 S215 ; set extruder temp
M140 S60 ; set bed temp
Tx
M190 S60 ; wait for bed temp
M109 S215 ; wait for extruder temp
G28 W ; home all without mesh bed level
G80 ; mesh bed leveling

;go outside print area
G1 Y-3.0 F1000.0
G1 Z0.4 F1000.0
; select extruder
Tc
; purge line
G1 X55.0 F2000.0
G1 Z0.3 F1000.0
G92 E0.0
G1 X240.0 E25.0 F2200.0
M73 P0 R70
G1 Y-2.0 F1000.0
G1 X55.0 E25 F1400.0
G1 Z0.20 F1000.0
G1 X5.0 E4.0 F1000.0
G92 E0.0
G21 ; set units to millimeters
G90 ; use absolute coordinates
M83 ; use relative distances for extrusion
M900 K30 ; Filament gcode
;BEFORE_LAYER_CHANGE
G92 E0.0
;0.2


G1 E-0.80000 F2100.00000
G1 Z0.600 F10800.000
;AFTER_LAYER_CHANGE
;0.2
G1 X103.292 Y101.321
G1 Z0.200
G1 E0.80000 F2100.00000
M204 S1000
G1 F1200
G1 X103.780 Y100.577 E0.02790
G1 X107.707 Y96.620 E0.17480
G1 X108.154 Y96.268 E0.01783
G1 X108.667 Y96.023 E0.01783
G1 X109.486 Y95.882 E0.02606
G1 X140.447 Y95.769 E0.97077
G1 X141.416 Y95.960 E0.03095
G1 X142.238 Y96.499 E0.03083
G1 X146.298 Y100.546 E0.17975
G1 X146.720 Y101.258 E0.02594
G1 X146.893 Y102.068 E0.02594
G1 X146.914 Y107.753 E0.17827
G1 X146.844 Y108.266 E0.01623
G1 X146.674 Y108.755 E0.01623
G1 X146.212 Y109.432 E0.02570
G1 X142.284 Y113.388 E0.17480
G1 X141.843 Y113.734 E0.01758
G1 X141.333 Y113.977 E0.01771
G1 X140.510 Y114.118 E0.02619
G1 X109.198 Y114.206 E0.98177
G1 X108.450 Y113.981 E0.02447
G1 X107.805 Y113.542 E0.02447
G1 X103.793 Y109.557 E0.17728
G1 X103.472 Y109.132 E0.01672
G1 X103.246 Y108.649 E0.01672
G1 X103.105 Y107.873 E0.02472
G1 X103.085 Y102.318 E0.17418
G1 X103.139 Y101.807 E0.01610
G1 X103.274 Y101.378 E0.01410
G1 X103.639 Y101.469 F10800.000
G1 F1200
G1 X104.061 Y100.828 E0.02405
G1 X107.973 Y96.887 E0.17412
G1 X108.364 Y96.582 E0.01555
G1 X108.813 Y96.372 E0.01555
G1 X109.492 Y96.259 E0.02157
G1 X140.448 Y96.146 E0.97061
G1 X141.275 Y96.309 E0.02642
G1 X141.978 Y96.773 E0.02642
G1 X145.996 Y100.773 E0.17778
G1 X146.367 Y101.391 E0.02259
G1 X146.517 Y102.099 E0.02270
G1 X146.537 Y107.729 E0.17652
G1 X146.337 Y108.584 E0.02754
G1 X145.934 Y109.177 E0.02247
G1 X142.024 Y113.116 E0.17400
G1 X141.636 Y113.419 E0.01544
G1 X141.187 Y113.628 E0.01555
G1 X140.504 Y113.741 E0.02168
G1 X109.261 Y113.834 E0.97963
G1 X108.612 Y113.640 E0.02123
G1 X108.056 Y113.260 E0.02112
G1 X104.074 Y109.306 E0.17595
G1 X103.791 Y108.930 E0.01475
G1 X103.595 Y108.503 E0.01475
G1 X103.482 Y107.853 E0.02066
G1 X103.462 Y102.318 E0.17354
G1 X103.627 Y101.528 E0.02533
G1 F8640
G1 X104.061 Y100.828 E-0.19010
G1 X105.800 Y99.076 E-0.56990
G1 E-0.04000 F2100.00000
G1 Z0.800 F10800.000
G1 X112.269 Y108.354
G1 Z0.200
G1 E0.80000 F2100.00000
G1 F1200
G1 X109.071 Y108.354 E0.10027
G1 X109.071 Y101.949 E0.20082
G1 X115.471 Y101.949 E0.20065
G1 X115.471 Y108.354 E0.20082
G1 X112.329 Y108.354 E0.09850
G1 X112.269 Y107.977 F10800.000
G1 F1200
G1 X109.448 Y107.977 E0.08845
G1 X109.448 Y102.326 E0.17717
G1 X115.094 Y102.326 E0.17701
G1 X115.094 Y107.977 E0.17717
G1 X112.329 Y107.977 E0.08668
G1 X112.208 Y108.372 F10800.000
G1 F8640
G1 X109.448 Y107.977 E-0.66522
G1 X109.448 Y107.566 E-0.09478
G1 E-0.04000 F2100.00000
G1 Z0.800 F10800.000
G1 X112.143 Y110.786
G1 Z0.200
G1 E0.80000 F2100.00000
G1 F1200
G1 X109.913 Y110.794 E0.06992
G1 X106.539 Y107.444 E0.14906
G1 X106.522 Y102.690 E0.14906
G1 X109.872 Y99.317 E0.14906
G1 X114.626 Y99.300 E0.14906
G1 X117.999 Y102.649 E0.14906
G1 X118.016 Y107.403 E0.14906
G1 X114.667 Y110.777 E0.14906
G1 X112.203 Y110.785 E0.07726
G1 X112.144 Y111.163 F10800.000
G1 F1200
G1 X109.758 Y111.171 E0.07481
G1 X106.163 Y107.602 E0.15885
G1 X106.145 Y102.535 E0.15885
G1 X109.714 Y98.940 E0.15885
G1 X114.781 Y98.922 E0.15885
G1 X118.376 Y102.492 E0.15885
G1 X118.394 Y107.558 E0.15885
G1 X114.824 Y111.153 E0.15885
G1 X112.204 Y111.162 E0.08216
G1 X111.886 Y110.857 F10800.000
G1 F8640
G1 X109.758 Y111.171 E-0.56480
G1 X109.158 Y110.576 E-0.19520
G1 E-0.04000 F2100.00000
G1 Z0.800 F10800.000
G1 X110.184 Y110.679
G1 Z0.200
G1 E0.80000 F2100.00000
G1 F1200
G1 X106.651 Y107.147 E0.16193
G1 F8640
G1 X108.979 Y109.474 E-0.76000
G1 E-0.04000 F2100.00000
G1 Z0.800 F10800.000
G1 X112.707 Y99.420
G1 Z0.200
G1 E0.80000 F2100.00000
G1 F1200
G1 X114.953 Y101.666 E0.10299
G1 X114.402 Y101.666 E0.01787
G1 X112.326 Y99.591 E0.09515
G1 X111.777 Y99.593 E0.01781
G1 X113.851 Y101.666 E0.09506
G1 X113.299 Y101.666 E0.01787
G1 X111.228 Y99.595 E0.09497
G1 X110.678 Y99.596 E0.01781
G1 X112.748 Y101.666 E0.09488
G1 X112.197 Y101.666 E0.01787
G1 X110.129 Y99.598 E0.09479
G1 X109.990 Y99.599 E0.00450
G1 X109.785 Y99.806 E0.00944
G1 X111.646 Y101.666 E0.08530
G1 X111.094 Y101.666 E0.01787
G1 X109.510 Y100.082 E0.07261
G1 X109.236 Y100.359 E0.01264
G1 X110.543 Y101.666 E0.05993
G1 X109.992 Y101.666 E0.01787
G1 X108.961 Y100.636 E0.04725
G1 X108.686 Y100.912 E0.01264
G1 X109.440 Y101.666 E0.03457
G1 X108.889 Y101.666 E0.01787
G1 X108.412 Y101.189 E0.02189
G1 X108.137 Y101.465 E0.01264
G1 X108.789 Y102.117 E0.02987
G1 X108.789 Y102.668 E0.01787
G1 X107.862 Y101.742 E0.04247
G1 X107.588 Y102.019 E0.01264
G1 X108.789 Y103.220 E0.05506
G1 X108.789 Y103.771 E0.01787
G1 X107.313 Y102.295 E0.06765
G1 X107.038 Y102.572 E0.01264
G1 X108.789 Y104.322 E0.08024
G1 X108.789 Y104.874 E0.01787
G1 X106.806 Y102.891 E0.09089
G1 X106.808 Y103.444 E0.01793
G1 X108.789 Y105.425 E0.09080
G1 X108.789 Y105.976 E0.01787
G1 X106.810 Y103.998 E0.09070
G1 X106.812 Y104.551 E0.01793
G1 X108.789 Y106.528 E0.09061
G1 X108.789 Y107.079 E0.01787
G1 X106.814 Y105.104 E0.09052
G1 X106.816 Y105.657 E0.01793
G1 X108.789 Y107.630 E0.09043
G1 X108.789 Y108.181 E0.01787
G1 X106.818 Y106.211 E0.09034
G1 X106.820 Y106.764 E0.01793
G1 X110.564 Y110.508 E0.17165
G1 X111.114 Y110.506 E0.01781
G1 X109.244 Y108.637 E0.08571
G1 X109.795 Y108.637 E0.01787
G1 X111.663 Y110.505 E0.08562
G1 X112.212 Y110.503 E0.01781
G1 X110.346 Y108.637 E0.08553
G1 X110.898 Y108.637 E0.01787
G1 X112.762 Y110.501 E0.08544
G1 X113.311 Y110.499 E0.01781
G1 X111.449 Y108.637 E0.08535
G1 X112.000 Y108.637 E0.01787
G1 X113.860 Y110.497 E0.08526
G1 X114.410 Y110.495 E0.01781
G1 X112.552 Y108.637 E0.08517
G1 X113.103 Y108.637 E0.01787
G1 X114.754 Y110.288 E0.07568
G1 X115.028 Y110.011 E0.01264
G1 X113.654 Y108.637 E0.06299
G1 X114.206 Y108.637 E0.01787
G1 X115.303 Y109.734 E0.05031
G1 X115.578 Y109.458 E0.01264
G1 X114.757 Y108.637 E0.03763
G1 X115.308 Y108.637 E0.01787
G1 X115.852 Y109.181 E0.02495
G1 X116.127 Y108.904 E0.01264
G1 X115.754 Y108.531 E0.01712
G1 X115.754 Y107.980 E0.01787
G1 X116.402 Y108.628 E0.02971
G1 X116.676 Y108.351 E0.01264
G1 X115.754 Y107.428 E0.04231
G1 X115.754 Y106.877 E0.01787
G1 X116.951 Y108.075 E0.05490
G1 X117.226 Y107.798 E0.01264
G1 X115.754 Y106.326 E0.06749
G1 X115.754 Y105.774 E0.01787
G1 X117.500 Y107.521 E0.08008
G1 X117.733 Y107.287 E0.01070
G1 X117.733 Y107.202 E0.00275
G1 X115.754 Y105.223 E0.09073
G1 X115.754 Y104.672 E0.01787
G1 X117.731 Y106.649 E0.09064
G1 X117.729 Y106.096 E0.01793
G1 X115.754 Y104.120 E0.09055
G1 X115.754 Y103.569 E0.01787
G1 X117.727 Y105.542 E0.09046
G1 X117.725 Y104.989 E0.01793
G1 X115.754 Y103.018 E0.09037
G1 X115.754 Y102.467 E0.01787
G1 X117.723 Y104.436 E0.09028
G1 X117.721 Y103.883 E0.01793
G1 X113.425 Y99.587 E0.19693
G1 X113.974 Y99.585 E0.01781
G1 X117.889 Y103.500 E0.17946
G1 X117.887 Y102.946 F10800.000
G1 F1200
G1 X114.355 Y99.414 E0.16194
G1 F8640
G1 X116.682 Y101.741 E-0.76000
G1 E-0.04000 F2100.00000
G1 Z0.800 F10800.000
G1 X137.731 Y108.261
G1 Z0.200
G1 E0.80000 F2100.00000
G1 F1200
G1 X134.533 Y108.261 E0.10027
G1 X134.533 Y101.856 E0.20082
G1 X140.932 Y101.856 E0.20065
G1 X140.932 Y108.261 E0.20082
G1 X137.791 Y108.261 E0.09850
G1 X137.731 Y107.884 F10800.000
G1 F1200
G1 X134.910 Y107.884 E0.08845
G1 X134.910 Y102.233 E0.17717
G1 X140.555 Y102.233 E0.17701
G1 X140.555 Y107.884 E0.17717
G1 X137.791 Y107.884 E0.08668
G1 X137.669 Y108.279 F10800.000
G1 F8640
G1 X134.910 Y107.884 E-0.66522
G1 X134.910 Y107.473 E-0.09478
G1 E-0.04000 F2100.00000
G1 Z0.800 F10800.000
G1 X137.604 Y110.692
G1 Z0.200
G1 E0.80000 F2100.00000
G1 F1200
G1 X135.374 Y110.700 E0.06992
G1 X132.001 Y107.351 E0.14906
G1 X131.984 Y102.597 E0.14906
G1 X135.333 Y99.223 E0.14906
G1 X140.087 Y99.206 E0.14906
G1 X143.461 Y102.556 E0.14906
G1 X143.478 Y107.310 E0.14906
G1 X140.128 Y110.683 E0.14906
G1 X137.664 Y110.692 E0.07726
G1 X137.605 Y111.070 F10800.000
G1 F1200
G1 X135.219 Y111.078 E0.07481
G1 X131.624 Y107.508 E0.15885
G1 X131.606 Y102.442 E0.15885
G1 X135.176 Y98.847 E0.15885
G1 X140.242 Y98.829 E0.15885
G1 X143.837 Y102.398 E0.15885
G1 X143.855 Y107.465 E0.15885
G1 X140.286 Y111.060 E0.15885
G1 X137.665 Y111.069 E0.08216
G1 X137.348 Y110.764 F10800.000
G1 F8640
G1 X135.219 Y111.078 E-0.56480
G1 X134.619 Y110.482 E-0.19520
G1 E-0.04000 F2100.00000
G1 Z0.800 F10800.000
G1 X135.645 Y110.586
G1 Z0.200
G1 E0.80000 F2100.00000
G1 F1200
G1 X132.113 Y107.054 E0.16193
G1 F8640
G1 X134.440 Y109.381 E-0.76000
G1 E-0.04000 F2100.00000
G1 Z0.800 F10800.000
G1 X138.168 Y99.326
G1 Z0.200
G1 E0.80000 F2100.00000
G1 F1200
G1 X140.415 Y101.573 E0.10299
G1 X139.863 Y101.573 E0.01787
G1 X137.788 Y99.497 E0.09515
G1 X137.238 Y99.499 E0.01781
G1 X139.312 Y101.573 E0.09506
G1 X138.761 Y101.573 E0.01787
G1 X136.689 Y99.501 E0.09497
G1 X136.140 Y99.503 E0.01781
G1 X138.209 Y101.573 E0.09488
G1 X137.658 Y101.573 E0.01787
G1 X135.590 Y99.505 E0.09479
G1 X135.451 Y99.506 E0.00450
G1 X135.246 Y99.712 E0.00944
G1 X137.107 Y101.573 E0.08530
G1 X136.556 Y101.573 E0.01787
G1 X134.971 Y99.989 E0.07261
G1 X134.697 Y100.266 E0.01264
G1 X136.004 Y101.573 E0.05993
G1 X135.453 Y101.573 E0.01787
G1 X134.422 Y100.542 E0.04725
G1 X134.147 Y100.819 E0.01264
G1 X134.902 Y101.573 E0.03457
G1 X134.350 Y101.573 E0.01787
G1 X133.873 Y101.096 E0.02189
G1 X133.598 Y101.372 E0.01264
G1 X134.250 Y102.024 E0.02987
G1 X134.250 Y102.575 E0.01787
G1 X133.323 Y101.649 E0.04247
G1 X133.049 Y101.926 E0.01264
G1 X134.250 Y103.127 E0.05506
G1 X134.250 Y103.678 E0.01787
G1 X132.774 Y102.202 E0.06765
G1 X132.499 Y102.479 E0.01264
G1 X134.250 Y104.229 E0.08024
G1 X134.250 Y104.780 E0.01787
G1 X132.267 Y102.798 E0.09089
G1 X132.269 Y103.351 E0.01793
G1 X134.250 Y105.332 E0.09080
G1 X134.250 Y105.883 E0.01787
G1 X132.271 Y103.904 E0.09070
G1 X132.273 Y104.458 E0.01793
G1 X134.250 Y106.434 E0.09061
G1 X134.250 Y106.986 E0.01787
G1 X132.275 Y105.011 E0.09052
G1 X132.277 Y105.564 E0.01793
G1 X134.250 Y107.537 E0.09043
G1 X134.250 Y108.088 E0.01787
G1 X132.279 Y106.118 E0.09034
G1 X132.281 Y106.671 E0.01793
G1 X136.025 Y110.415 E0.17165
G1 X136.575 Y110.413 E0.01781
G1 X134.705 Y108.544 E0.08571
G1 X135.256 Y108.544 E0.01787
G1 X137.124 Y110.411 E0.08562
G1 X137.674 Y110.409 E0.01781
G1 X135.808 Y108.544 E0.08553
G1 X136.359 Y108.544 E0.01787
G1 X138.223 Y110.407 E0.08544
G1 X138.772 Y110.405 E0.01781
G1 X136.910 Y108.544 E0.08535
G1 X137.462 Y108.544 E0.01787
G1 X139.322 Y110.404 E0.08526
G1 X139.871 Y110.402 E0.01781
G1 X138.013 Y108.544 E0.08517
G1 X138.564 Y108.544 E0.01787
G1 X140.215 Y110.194 E0.07568
G1 X140.490 Y109.918 E0.01264
G1 X139.116 Y108.544 E0.06299
G1 X139.667 Y108.544 E0.01787
G1 X140.764 Y109.641 E0.05031
G1 X141.039 Y109.365 E0.01264
G1 X140.218 Y108.544 E0.03763
G1 X140.769 Y108.544 E0.01787
G1 X141.314 Y109.088 E0.02495
G1 X141.588 Y108.811 E0.01264
G1 X141.215 Y108.438 E0.01712
G1 X141.215 Y107.886 E0.01787
G1 X141.863 Y108.535 E0.02971
G1 X142.138 Y108.258 E0.01264
G1 X141.215 Y107.335 E0.04231
G1 X141.215 Y106.784 E0.01787
G1 X142.412 Y107.981 E0.05490
G1 X142.687 Y107.705 E0.01264
G1 X141.215 Y106.233 E0.06749
G1 X141.215 Y105.681 E0.01787
G1 X142.962 Y107.428 E0.08008
G1 X143.194 Y107.194 E0.01070
G1 X143.194 Y107.109 E0.00275
G1 X141.215 Y105.130 E0.09073
G1 X141.215 Y104.579 E0.01787
G1 X143.192 Y106.556 E0.09064
G1 X143.190 Y106.003 E0.01793
G1 X141.215 Y104.027 E0.09055
G1 X141.215 Y103.476 E0.01787
G1 X143.188 Y105.449 E0.09046
G1 X143.186 Y104.896 E0.01793
G1 X141.215 Y102.925 E0.09037
G1 X141.215 Y102.373 E0.01787
G1 X143.184 Y104.343 E0.09028
G1 X143.182 Y103.789 E0.01793
G1 X138.886 Y99.494 E0.19693
G1 X139.436 Y99.492 E0.01781
G1 X143.351 Y103.406 E0.17946
G1 X143.349 Y102.853 F10800.000
G1 F1200
G1 X139.816 Y99.321 E0.16194
M106 S255
;BEFORE_LAYER_CHANGE
G92 E0.0
;0.4


G1 F8640
G1 X142.143 Y101.648 E-0.76000
G1 E-0.04000 F2100.00000
G1 Z0.800 F10800.000
;AFTER_LAYER_CHANGE
;0.4
M104 S210 ; set temperature
G1 X141.416 Y95.960
G1 Z0.400
G1 E0.80000 F2100.00000
G1 F2717
G1 X142.238 Y96.499 E0.03083
G1 X146.298 Y100.546 E0.17975
G1 X146.720 Y101.258 E0.02594
G1 X146.893 Y102.068 E0.02594
G1 X146.914 Y107.753 E0.17827
G1 X146.844 Y108.266 E0.01623
G1 X146.674 Y108.755 E0.01623
G1 X146.212 Y109.432 E0.02570
G1 X142.284 Y113.388 E0.17480
G1 X141.843 Y113.734 E0.01758
G1 X141.333 Y113.977 E0.01771
G1 X140.510 Y114.118 E0.02619
G1 X109.198 Y114.206 E0.98177
G1 X108.450 Y113.981 E0.02447
G1 X107.805 Y113.542 E0.02447
G1 X103.793 Y109.557 E0.17728
G1 X103.472 Y109.132 E0.01672
G1 X103.246 Y108.649 E0.01672
G1 X103.105 Y107.873 E0.02472
G1 X103.085 Y102.318 E0.17418
G1 X103.139 Y101.807 E0.01610
G1 X103.292 Y101.321 E0.01598
G1 X103.780 Y100.577 E0.02790
G1 X107.707 Y96.620 E0.17480
G1 X108.154 Y96.268 E0.01783
G1 X108.667 Y96.023 E0.01783
G1 X109.486 Y95.882 E0.02606
G1 X140.447 Y95.769 E0.97077
G1 X141.357 Y95.948 E0.02907
G1 F8640
G1 X142.238 Y96.499 E-0.23991
G1 X143.833 Y98.089 E-0.52009
G1 E-0.04000 F2100.00000
G1 Z1.000 F10800.000
G1 X112.269 Y108.399
G1 Z0.400
G1 E0.80000 F2100.00000
M73 P1 R69
M204 S800
G1 F1500
G1 X109.026 Y108.399 E0.10977
G1 X109.026 Y101.904 E0.21984
G1 X115.516 Y101.904 E0.21966
G1 X115.516 Y108.399 E0.21984
G1 X112.329 Y108.399 E0.10786
M204 S1000
G1 X112.269 Y107.992 F10800.000
M204 S800
G1 F1500
G1 X109.433 Y107.992 E0.09599
G1 X109.433 Y102.311 E0.19229
G1 X115.109 Y102.311 E0.19210
G1 X115.109 Y107.992 E0.19229
G1 X112.329 Y107.992 E0.09408
M204 S1000
G1 X112.208 Y108.387 F10800.000
G1 F8640
G1 X109.433 Y107.992 E-0.66868
G1 X109.433 Y107.596 E-0.09132
G1 E-0.04000 F2100.00000
G1 Z1.000 F10800.000
G1 X112.143 Y110.938
G1 Z0.400
G1 E0.80000 F2100.00000
M204 S800
G1 F1500
G1 X109.850 Y110.946 E0.07760
G1 X106.387 Y107.508 E0.16519
G1 X106.370 Y102.628 E0.16519
G1 X109.808 Y99.165 E0.16519
G1 X114.688 Y99.147 E0.16519
G1 X118.151 Y102.586 E0.16519
G1 X118.169 Y107.466 E0.16519
G1 X114.730 Y110.929 E0.16519
G1 X112.203 Y110.938 E0.08556
M204 S1000
G1 X112.144 Y111.345 F10800.000
M204 S800
G1 F2400
G1 X109.683 Y111.354 E0.08330
G1 X105.981 Y107.678 E0.17660
G1 X105.962 Y102.460 E0.17660
G1 X109.638 Y98.758 E0.17660
G1 X114.856 Y98.739 E0.17660
G1 X118.558 Y102.415 E0.17660
G1 X118.577 Y107.633 E0.17660
G1 X114.900 Y111.335 E0.17660
G1 X112.204 Y111.345 E0.09127
M204 S1000
G1 X111.886 Y111.039 F10800.000
G1 F8640
G1 X109.683 Y111.354 E-0.58212
G1 X109.136 Y110.811 E-0.17788
G1 E-0.04000 F2100.00000
G1 Z1.000 F10800.000
G1 X113.239 Y110.812
G1 Z0.400
G1 E0.80000 F2100.00000
M204 S2000
G1 F2717
G1 X115.346 Y108.704 E0.10263
G1 X114.761 Y108.704 E0.02017
G1 X112.835 Y110.630 E0.09378
G1 X112.247 Y110.632 E0.02024
G1 X114.175 Y108.704 E0.09389
G1 X113.590 Y108.704 E0.02017
G1 X111.659 Y110.634 E0.09399
G1 X111.072 Y110.636 E0.02024
