; generated by PrusaSlicer 2.2.0+win64 on 2020-09-30 at 21:20:37 UTC

; 

; external perimeters extrusion width = 0.45mm
; perimeters extrusion width = 0.45mm
; infill extrusion width = 0.45mm
; solid infill extrusion width = 0.45mm
; top infill extrusion width = 0.40mm
; support material extrusion width = 0.35mm
; first layer extrusion width = 0.42mm

M73 P0 R100
M201 X9000 Y9000 Z500 E10000 ; sets maximum accelerations, mm/sec^2
M203 X500 Y500 Z12 E120 ; sets maximum feedrates, mm/sec
M204 P2000 R1500 T2000 ; sets acceleration (P, T) and retract acceleration (R), mm/sec^2
M205 X10.00 Y10.00 Z0.20 E4.50 ; sets the jerk limits, mm/sec
M205 S0 T0 ; sets the minimum extruding and travel feed rate, mm/sec
M107
M862.3 P "MK2.5SMMU2S" ; printer model check
M862.1 P0.4 ; nozzle diameter check
M115 U3.9.0 ; tell printer latest fw version
G90 ; use absolute coordinates
M83 ; extruder relative mode
M104 S215 ; set extruder temp
M140 S60 ; set bed temp
Tx
M190 S60 ; wait for bed temp
M109 S215 ; wait for extruder temp
G28 W ; home all without mesh bed level
G80 ; mesh bed leveling

;go outside print area
G1 Y-3.0 F1000.0
G1 Z0.4 F1000.0
; select extruder
Tc
; purge line
G1 X55.0 F2000.0
G1 Z0.3 F1000.0
G92 E0.0
G1 X240.0 E25.0 F2200.0
M73 P0 R100
G1 Y-2.0 F1000.0
G1 X55.0 E25 F1400.0
G1 Z0.20 F1000.0
G1 X5.0 E4.0 F1000.0
G92 E0.0
G21 ; set units to millimeters
G90 ; use absolute coordinates
M83 ; use relative distances for extrusion
M900 K0.06 ; Filament gcode LA 1.5
M900 K30 ; Filament gcode LA 1.0
;BEFORE_LAYER_CHANGE
G92 E0.0
;0.2


G1 E-0.80000 F2100.00000
G1 Z0.600 F10800.000
;AFTER_LAYER_CHANGE
;0.2
G1 X147.712 Y62.024
G1 Z0.200
G1 E0.80000 F2100.00000
M204 S1000
G1 F1200.000
G1 X142.136 Y67.600 E0.24726
G1 X142.669 Y68.133 E0.02365
G1 X147.542 Y63.260 E0.21609
G1 X147.542 Y64.326 E0.03344
G1 X143.202 Y68.667 E0.19245
G1 X143.646 Y69.110 E0.01967
G1 X142.015 Y70.742 E0.07234
G1 X142.104 Y70.831 E0.00397
G1 X147.542 Y65.393 E0.24114
G1 X147.542 Y66.460 E0.03344
G1 X142.637 Y71.364 E0.21749
G1 X143.171 Y71.898 E0.02365
G1 X147.542 Y67.526 E0.19385
G1 X147.542 Y67.991 E0.01457
G1 X147.935 Y68.200 E0.01394
G1 X142.073 Y74.062 E0.25993
G1 X142.606 Y74.596 E0.02365
G1 X149.555 Y67.647 E0.30813
G1 X150.164 Y67.558 E0.01930
G1 X150.727 Y67.541 E0.01766
G1 X143.139 Y75.129 E0.33646
G1 X143.646 Y75.636 E0.02247
G1 X142.015 Y77.267 E0.07234
G1 X142.041 Y77.294 E0.00118
G1 X151.661 Y67.673 E0.42658
G1 X152.067 Y67.799 E0.01330
G1 X152.444 Y67.957 E0.01283
G1 X142.574 Y77.827 E0.43763
G1 X143.108 Y78.360 E0.02365
G1 X153.131 Y68.336 E0.44447
G1 X153.235 Y68.402 E0.00385
G1 X153.463 Y68.572 E0.00891
G1 X153.720 Y68.814 E0.01108
G1 X143.641 Y78.893 E0.44694
G1 X144.174 Y79.427 E0.02365
G1 X147.542 Y76.058 E0.14935
G1 X147.542 Y76.252 E0.00607
G1 X147.573 Y76.448 E0.00620
G1 X147.715 Y76.643 E0.00759
G1 X147.915 Y76.752 E0.00714
G1 X144.707 Y79.960 E0.14224
G1 X145.241 Y80.493 E0.02365
G1 X148.535 Y77.199 E0.14607
G1 X149.131 Y77.669 E0.02381
G1 X145.774 Y81.026 E0.14885
G1 X146.307 Y81.560 E0.02365
G1 X149.720 Y78.147 E0.15133
G1 X150.302 Y78.632 E0.02374
G1 X146.840 Y82.093 E0.15347
G1 X147.374 Y82.626 E0.02365
G1 X150.876 Y79.124 E0.15528
G1 X151.442 Y79.625 E0.02369
G1 X149.538 Y81.528 E0.08440
G1 X150.072 Y82.061 E0.02365
G1 X151.999 Y80.134 E0.08547
G1 X152.547 Y80.653 E0.02365
G1 X150.485 Y82.715 E0.09142
G1 F8640.000
G1 X152.547 Y80.653 E-0.67325
G1 X152.274 Y80.395 E-0.08675
G1 E-0.04000 F2100.00000
G1 Z0.800 F10800.000
G1 X151.570 Y76.296
G1 Z0.200
G1 E0.80000 F2100.00000
G1 F1200.000
G1 X154.768 Y73.099 E0.14180
G1 X154.894 Y72.524 E0.01843
G1 X154.941 Y71.859 E0.02091
G1 X150.566 Y76.235 E0.19402
G1 X150.163 Y76.216 E0.01263
G1 X149.595 Y76.139 E0.01798
G1 X154.828 Y70.906 E0.23204
G1 X154.687 Y70.421 E0.01582
G1 X154.560 Y70.107 E0.01062
G1 X148.757 Y75.911 E0.25733
G1 X148.109 Y75.492 E0.02418
G1 X154.306 Y69.295 E0.27479
G1 F8640.000
G1 X151.979 Y71.622 E-0.76000
G1 E-0.04000 F2100.00000
G1 Z0.800 F10800.000
G1 X150.040 Y61.829
G1 Z0.200
G1 E0.80000 F2100.00000
G1 F1200.000
G1 X150.542 Y61.327 E0.02226
G1 X150.542 Y60.260 E0.03344
G1 X149.472 Y61.330 E0.04745
G1 X148.778 Y60.958 E0.02470
G1 X150.712 Y59.024 E0.08577
G1 F8640.000
G1 X148.778 Y60.958 E-0.63164
G1 X149.268 Y61.221 E-0.12836
G1 E-0.04000 F2100.00000
G1 Z0.800 F10800.000
G1 X128.369 Y148.183
G1 Z0.200
G1 E0.80000 F2100.00000
G1 F1200.000
G1 X127.270 Y148.116 E0.03450
G1 X126.174 Y148.021 E0.03450
G1 X125.080 Y147.900 E0.03450
G1 X123.990 Y147.752 E0.03450
G1 X122.903 Y147.577 E0.03450
G1 X121.822 Y147.376 E0.03450
G1 X120.745 Y147.148 E0.03450
G1 X119.674 Y146.894 E0.03450
G1 X118.610 Y146.613 E0.03450
G1 X117.554 Y146.307 E0.03450
G1 X116.505 Y145.974 E0.03450
G1 X115.464 Y145.616 E0.03450
G1 X114.432 Y145.233 E0.03450
G1 X113.411 Y144.825 E0.03450
G1 X112.399 Y144.391 E0.03450
G1 X111.399 Y143.933 E0.03450
G1 X110.410 Y143.450 E0.03450
G1 X109.433 Y142.943 E0.03450
G1 X108.469 Y142.413 E0.03450
G1 X107.519 Y141.859 E0.03450
G1 X106.582 Y141.281 E0.03450
G1 X105.659 Y140.681 E0.03450
G1 X104.752 Y140.059 E0.03450
G1 X103.860 Y139.414 E0.03450
G1 X102.985 Y138.748 E0.03450
G1 X102.126 Y138.060 E0.03450
G1 X101.283 Y137.352 E0.03450
G1 X100.459 Y136.623 E0.03450
G1 X99.653 Y135.874 E0.03450
G1 X98.865 Y135.106 E0.03450
G1 X98.097 Y134.318 E0.03450
G1 X97.348 Y133.512 E0.03450
G1 X96.619 Y132.687 E0.03450
G1 X95.911 Y131.845 E0.03450
G1 X95.223 Y130.986 E0.03450
G1 X94.557 Y130.110 E0.03450
G1 X93.912 Y129.219 E0.03450
G1 X93.289 Y128.311 E0.03450
G1 X92.689 Y127.389 E0.03450
G1 X92.112 Y126.452 E0.03450
G1 X91.558 Y125.501 E0.03450
G1 X91.028 Y124.537 E0.03450
G1 X90.521 Y123.561 E0.03450
G1 X90.038 Y122.572 E0.03450
G1 X89.580 Y121.571 E0.03450
G1 X89.146 Y120.560 E0.03450
G1 X88.738 Y119.538 E0.03450
G1 X88.354 Y118.507 E0.03450
G1 X87.996 Y117.466 E0.03450
G1 X87.664 Y116.417 E0.03450
G1 X87.358 Y115.360 E0.03450
G1 X87.077 Y114.296 E0.03450
G1 X86.823 Y113.226 E0.03450
G1 X86.595 Y112.149 E0.03450
G1 X86.393 Y111.067 E0.03450
G1 X86.219 Y109.981 E0.03450
G1 X86.071 Y108.891 E0.03450
G1 X85.949 Y107.797 E0.03450
G1 X85.855 Y106.701 E0.03450
G1 X85.787 Y105.602 E0.03450
G1 X85.747 Y104.503 E0.03450
G1 X85.733 Y103.402 E0.03450
G1 X85.747 Y102.302 E0.03450
G1 X85.787 Y101.202 E0.03450
G1 X85.855 Y100.104 E0.03450
G1 X85.949 Y99.008 E0.03450
G1 X86.071 Y97.914 E0.03450
G1 X86.219 Y96.824 E0.03450
G1 X86.393 Y95.737 E0.03450
G1 X86.595 Y94.656 E0.03450
G1 X86.823 Y93.579 E0.03450
G1 X87.077 Y92.508 E0.03450
G1 X87.358 Y91.444 E0.03450
G1 X87.664 Y90.388 E0.03450
G1 X87.996 Y89.338 E0.03450
G1 X88.354 Y88.298 E0.03450
G1 X88.738 Y87.266 E0.03450
G1 X89.146 Y86.245 E0.03450
G1 X89.580 Y85.233 E0.03450
G1 X90.038 Y84.233 E0.03450
G1 X90.521 Y83.244 E0.03450
G1 X91.028 Y82.267 E0.03450
G1 X91.558 Y81.303 E0.03450
G1 X92.112 Y80.353 E0.03450
G1 X92.689 Y79.416 E0.03450
G1 X93.289 Y78.493 E0.03450
G1 X93.912 Y77.586 E0.03450
G1 X94.557 Y76.694 E0.03450
G1 X95.223 Y75.819 E0.03450
G1 X95.911 Y74.959 E0.03450
G1 X96.619 Y74.117 E0.03450
G1 X97.348 Y73.293 E0.03450
G1 X98.097 Y72.487 E0.03450
G1 X98.865 Y71.699 E0.03450
G1 X99.653 Y70.931 E0.03450
G1 X100.459 Y70.182 E0.03450
G1 X101.283 Y69.453 E0.03450
G1 X102.125 Y68.745 E0.03450
G1 X102.984 Y68.057 E0.03450
G1 X103.860 Y67.391 E0.03449
G1 X104.751 Y66.746 E0.03449
G1 X105.658 Y66.124 E0.03449
G1 X106.579 Y65.525 E0.03443
G1 X108.469 Y64.377 E0.06935
G1 X110.399 Y63.283 E0.06956
G1 X112.481 Y62.160 E0.07418
G1 X112.481 Y75.906 E0.43102
G1 X112.049 Y76.219 E0.01673
G1 X110.205 Y77.707 E0.07429
G1 X108.564 Y79.146 E0.06842
G1 X107.415 Y80.244 E0.04986
G1 X106.849 Y80.824 E0.02541
G1 X105.772 Y82.013 E0.05028
G1 X104.752 Y83.255 E0.05040
G1 X103.795 Y84.546 E0.05040
G1 X102.902 Y85.883 E0.05040
G1 X102.075 Y87.261 E0.05040
G1 X101.318 Y88.679 E0.05040
G1 X100.631 Y90.132 E0.05040
G1 X100.015 Y91.617 E0.05040
G1 X99.474 Y93.130 E0.05040
G1 X99.007 Y94.668 E0.05040
G1 X98.618 Y96.224 E0.05028
G1 X98.450 Y97.017 E0.02543
G1 X98.176 Y98.594 E0.05017
G1 X98.067 Y99.397 E0.02543
G1 X97.910 Y100.993 E0.05028
G1 X97.831 Y102.595 E0.05028
G1 X97.831 Y104.210 E0.05062
G1 X97.910 Y105.811 E0.05028
G1 X98.067 Y107.407 E0.05028
G1 X98.176 Y108.211 E0.02543
G1 X98.450 Y109.788 E0.05017
G1 X98.618 Y110.581 E0.02543
G1 X99.007 Y112.136 E0.05028
G1 X99.474 Y113.675 E0.05040
G1 X100.014 Y115.185 E0.05028
G1 X100.315 Y115.938 E0.02543
G1 X100.965 Y117.404 E0.05028
G1 X101.688 Y118.839 E0.05040
G1 X102.480 Y120.238 E0.05040
G1 X103.340 Y121.596 E0.05040
G1 X104.266 Y122.910 E0.05040
G1 X105.254 Y124.177 E0.05040
G1 X106.304 Y125.394 E0.05040
G1 X107.413 Y126.558 E0.05040
G1 X108.577 Y127.666 E0.05040
G1 X109.794 Y128.716 E0.05040
G1 X111.061 Y129.705 E0.05040
G1 X112.375 Y130.631 E0.05040
G1 X113.733 Y131.491 E0.05040
G1 X115.131 Y132.283 E0.05040
G1 X116.567 Y133.006 E0.05040
G1 X118.037 Y133.657 E0.05040
G1 X119.536 Y134.235 E0.05040
G1 X121.062 Y134.739 E0.05040
G1 X122.611 Y135.168 E0.05040
G1 X124.180 Y135.520 E0.05040
G1 X125.763 Y135.795 E0.05040
G1 X127.359 Y135.992 E0.05040
G1 X128.962 Y136.110 E0.05040
G1 X130.568 Y136.150 E0.05040
G1 X132.175 Y136.110 E0.05040
G1 X133.778 Y135.992 E0.05040
G1 X135.373 Y135.795 E0.05040
G1 X136.957 Y135.520 E0.05040
G1 X138.525 Y135.168 E0.05040
G1 X140.074 Y134.739 E0.05040
G1 X141.601 Y134.235 E0.05040
G1 X143.097 Y133.658 E0.05028
G1 X143.842 Y133.339 E0.02543
G1 X145.292 Y132.653 E0.05028
G1 X146.691 Y131.905 E0.04973
G1 X147.407 Y131.489 E0.02597
G1 X148.759 Y130.633 E0.05018
G1 X149.427 Y130.174 E0.02543
G1 X150.716 Y129.218 E0.05028
G1 X151.955 Y128.201 E0.05028
G1 X152.563 Y127.664 E0.02543
G1 X153.722 Y126.561 E0.05017
G1 X154.286 Y125.983 E0.02532
G1 X154.847 Y125.378 E0.02586
G1 X155.882 Y124.177 E0.04973
G1 X156.869 Y122.913 E0.05028
G1 X157.808 Y121.578 E0.05117
G1 X158.655 Y120.241 E0.04963
G1 X159.071 Y119.525 E0.02597
G1 X159.819 Y118.126 E0.04973
G1 X160.505 Y116.676 E0.05028
G1 X160.824 Y115.931 E0.02543
G1 X161.400 Y114.438 E0.05018
G1 X161.669 Y113.654 E0.02597
G1 X162.129 Y112.136 E0.04973
G1 X162.519 Y110.581 E0.05028
G1 X162.687 Y109.787 E0.02543
G1 X162.961 Y108.211 E0.05017
G1 X163.070 Y107.407 E0.02543
G1 X163.227 Y105.811 E0.05028
G1 X163.306 Y104.210 E0.05028
G1 X163.316 Y103.399 E0.02543
G1 X163.276 Y101.799 E0.05018
G1 X163.225 Y100.972 E0.02597
G1 X163.069 Y99.394 E0.04973
G1 X162.834 Y97.807 E0.05028
G1 X162.515 Y96.207 E0.05117
G1 X162.129 Y94.668 E0.04973
G1 X161.669 Y93.150 E0.04973
G1 X161.400 Y92.367 E0.02597
G1 X160.824 Y90.874 E0.05018
G1 X160.505 Y90.129 E0.02543
G1 X159.819 Y88.679 E0.05028
G1 X159.071 Y87.280 E0.04973
G1 X158.655 Y86.564 E0.02597
G1 X157.797 Y85.209 E0.05029
G1 X156.873 Y83.898 E0.05028
G1 X156.382 Y83.252 E0.02543
G1 X155.365 Y82.013 E0.05028
G1 X154.288 Y80.824 E0.05028
G1 X153.148 Y79.684 E0.05056
G1 X152.005 Y78.634 E0.04867
G1 X150.477 Y77.335 E0.06288
G1 X150.855 Y77.343 E0.01184
G1 X151.402 Y77.289 E0.01724
G1 X152.172 Y77.116 E0.02474
G1 X152.690 Y76.931 E0.01727
G1 X153.402 Y76.573 E0.02498
G1 X154.053 Y76.114 E0.02497
G1 X154.461 Y75.745 E0.01727
G1 X154.981 Y75.141 E0.02498
G1 X155.407 Y74.468 E0.02497
G1 X155.643 Y73.971 E0.01727
G1 X155.893 Y73.214 E0.02498
G1 X156.029 Y72.429 E0.02497
G1 X156.056 Y71.887 E0.01704
G1 X156.029 Y71.344 E0.01704
G1 X155.893 Y70.559 E0.02497
G1 X155.641 Y69.797 E0.02515
G1 X155.291 Y69.092 E0.02468
G1 X154.891 Y68.481 E0.02290
G1 X154.475 Y67.986 E0.02027
G1 X153.991 Y67.572 E0.01996
G1 X153.445 Y67.225 E0.02029
G1 X152.708 Y66.854 E0.02590
G1 X152.107 Y66.641 E0.01999
G1 X151.395 Y66.483 E0.02285
G1 X150.595 Y66.423 E0.02515
G1 X149.818 Y66.475 E0.02443
G1 X149.333 Y66.555 E0.01542
G1 X148.655 Y66.734 E0.02196
G1 X148.655 Y62.159 E0.14346
G1 X150.737 Y63.283 E0.07419
G1 X152.670 Y64.378 E0.06965
G1 X153.616 Y64.941 E0.03451
G1 X155.481 Y66.126 E0.06929
G1 X156.385 Y66.746 E0.03439
G1 X157.277 Y67.391 E0.03449
G1 X158.152 Y68.057 E0.03449
G1 X159.011 Y68.745 E0.03450
G1 X159.853 Y69.453 E0.03450
G1 X160.678 Y70.182 E0.03450
G1 X161.484 Y70.931 E0.03450
G1 X162.272 Y71.699 E0.03450
G1 X163.040 Y72.487 E0.03450
G1 X164.267 Y73.834 E0.05712
G1 X164.267 Y132.971 E1.85422
G1 X163.040 Y134.318 E0.05712
G1 X162.272 Y135.105 E0.03450
G1 X161.484 Y135.874 E0.03450
G1 X160.678 Y136.623 E0.03450
G1 X159.853 Y137.352 E0.03450
G1 X159.011 Y138.060 E0.03450
G1 X158.152 Y138.748 E0.03450
G1 X157.277 Y139.414 E0.03450
G1 X156.385 Y140.059 E0.03450
G1 X155.477 Y140.681 E0.03450
G1 X154.555 Y141.281 E0.03450
G1 X153.618 Y141.858 E0.03450
G1 X152.667 Y142.413 E0.03450
G1 X151.703 Y142.943 E0.03450
G1 X150.727 Y143.450 E0.03450
G1 X149.738 Y143.933 E0.03450
G1 X148.737 Y144.391 E0.03450
G1 X147.726 Y144.825 E0.03450
G1 X146.704 Y145.233 E0.03450
G1 X145.673 Y145.616 E0.03450
G1 X144.632 Y145.974 E0.03450
G1 X143.583 Y146.307 E0.03450
G1 X142.526 Y146.613 E0.03450
G1 X141.462 Y146.894 E0.03450
G1 X140.392 Y147.148 E0.03450
G1 X139.315 Y147.376 E0.03450
G1 X138.234 Y147.577 E0.03450
G1 X137.148 Y147.752 E0.03447
G1 X135.903 Y147.917 E0.03937
G1 X133.867 Y148.116 E0.06416
G1 X132.768 Y148.183 E0.03450
G1 X131.669 Y148.224 E0.03450
G1 X130.568 Y148.237 E0.03450
G1 X129.468 Y148.224 E0.03450
G1 X128.428 Y148.185 E0.03262
G1 F8640.000
G1 X127.270 Y148.116 E-0.26794
G1 X126.174 Y148.021 E-0.25409
G1 X125.149 Y147.908 E-0.23798
G1 E-0.04000 F2100.00000
G1 Z0.800 F10800.000
G1 X129.459 Y148.601
G1 Z0.200
G1 E0.80000 F2100.00000
G1 F1200.000
G1 X128.350 Y148.560 E0.03479
G1 X127.242 Y148.492 E0.03479
G1 X126.137 Y148.397 E0.03479
G1 X125.034 Y148.274 E0.03479
G1 X123.934 Y148.125 E0.03479
G1 X122.839 Y147.949 E0.03479
G1 X121.748 Y147.746 E0.03479
G1 X120.662 Y147.516 E0.03479
G1 X119.583 Y147.259 E0.03479
G1 X118.510 Y146.977 E0.03479
G1 X117.444 Y146.667 E0.03479
G1 X116.386 Y146.332 E0.03479
G1 X115.337 Y145.971 E0.03479
G1 X114.297 Y145.585 E0.03479
G1 X113.266 Y145.173 E0.03479
G1 X112.247 Y144.736 E0.03479
G1 X111.238 Y144.274 E0.03479
G1 X110.241 Y143.787 E0.03479
G1 X109.256 Y143.276 E0.03479
G1 X108.284 Y142.741 E0.03479
G1 X107.325 Y142.182 E0.03479
G1 X106.380 Y141.600 E0.03479
G1 X105.450 Y140.995 E0.03479
G1 X104.535 Y140.367 E0.03479
G1 X103.636 Y139.717 E0.03479
G1 X102.753 Y139.045 E0.03479
G1 X101.886 Y138.352 E0.03479
G1 X101.037 Y137.637 E0.03479
G1 X100.206 Y136.902 E0.03479
G1 X99.393 Y136.147 E0.03479
G1 X98.599 Y135.372 E0.03479
G1 X97.824 Y134.578 E0.03479
G1 X97.069 Y133.765 E0.03479
G1 X96.334 Y132.934 E0.03479
G1 X95.619 Y132.085 E0.03479
G1 X94.926 Y131.218 E0.03479
G1 X94.254 Y130.335 E0.03479
G1 X93.604 Y129.436 E0.03479
G1 X92.976 Y128.521 E0.03479
G1 X92.371 Y127.591 E0.03479
G1 X91.789 Y126.646 E0.03479
G1 X91.230 Y125.687 E0.03479
G1 X90.695 Y124.715 E0.03479
G1 X90.184 Y123.730 E0.03479
G1 X89.697 Y122.733 E0.03479
G1 X89.235 Y121.724 E0.03479
G1 X88.798 Y120.704 E0.03479
G1 X88.386 Y119.674 E0.03479
G1 X87.999 Y118.634 E0.03479
G1 X87.638 Y117.585 E0.03479
G1 X87.303 Y116.527 E0.03479
G1 X86.994 Y115.461 E0.03479
G1 X86.711 Y114.388 E0.03479
G1 X86.455 Y113.308 E0.03479
G1 X86.225 Y112.223 E0.03479
G1 X86.022 Y111.132 E0.03479
G1 X85.846 Y110.036 E0.03479
G1 X85.696 Y108.937 E0.03479
G1 X85.574 Y107.834 E0.03479
G1 X85.479 Y106.728 E0.03479
G1 X85.411 Y105.621 E0.03479
G1 X85.370 Y104.512 E0.03479
G1 X85.356 Y103.402 E0.03479
G1 X85.370 Y102.293 E0.03479
G1 X85.411 Y101.184 E0.03479
G1 X85.479 Y100.076 E0.03479
G1 X85.574 Y98.971 E0.03479
G1 X85.696 Y97.868 E0.03479
G1 X85.846 Y96.768 E0.03479
G1 X86.022 Y95.673 E0.03479
G1 X86.225 Y94.582 E0.03479
G1 X86.455 Y93.496 E0.03479
G1 X86.711 Y92.417 E0.03479
G1 X86.994 Y91.344 E0.03479
G1 X87.303 Y90.278 E0.03479
G1 X87.638 Y89.220 E0.03479
G1 X87.999 Y88.171 E0.03479
G1 X88.386 Y87.131 E0.03479
G1 X88.798 Y86.100 E0.03479
G1 X89.235 Y85.081 E0.03479
G1 X89.697 Y84.072 E0.03479
G1 X90.184 Y83.075 E0.03479
G1 X90.695 Y82.090 E0.03479
G1 X91.230 Y81.117 E0.03479
G1 X91.789 Y80.159 E0.03479
G1 X92.371 Y79.214 E0.03479
G1 X92.976 Y78.284 E0.03479
G1 X93.604 Y77.369 E0.03479
G1 X94.254 Y76.470 E0.03479
