; generated by PrusaSlicer 2.2.0+win64 on 2020-09-30 at 21:23:03 UTC

; 

; external perimeters extrusion width = 0.45mm
; perimeters extrusion width = 0.45mm
; infill extrusion width = 0.45mm
; solid infill extrusion width = 0.45mm
; top infill extrusion width = 0.40mm
; support material extrusion width = 0.35mm
; first layer extrusion width = 0.42mm

M73 P0 R45
M201 X9000 Y9000 Z500 E10000 ; sets maximum accelerations, mm/sec^2
M203 X500 Y500 Z12 E120 ; sets maximum feedrates, mm/sec
M204 P2000 R1500 T2000 ; sets acceleration (P, T) and retract acceleration (R), mm/sec^2
M205 X10.00 Y10.00 Z0.20 E4.50 ; sets the jerk limits, mm/sec
M205 S0 T0 ; sets the minimum extruding and travel feed rate, mm/sec
M107
M862.3 P "MK2.5SMMU2S" ; printer model check
M862.1 P0.4 ; nozzle diameter check
M115 U3.9.0 ; tell printer latest fw version
G90 ; use absolute coordinates
M83 ; extruder relative mode
M104 S215 ; set extruder temp
M140 S60 ; set bed temp
Tx
M190 S60 ; wait for bed temp
M109 S215 ; wait for extruder temp
G28 W ; home all without mesh bed level
G80 ; mesh bed leveling

;go outside print area
G1 Y-3.0 F1000.0
G1 Z0.4 F1000.0
; select extruder
Tc
; purge line
G1 X55.0 F2000.0
G1 Z0.3 F1000.0
G92 E0.0
G1 X240.0 E25.0 F2200.0
M73 P0 R45
G1 Y-2.0 F1000.0
G1 X55.0 E25 F1400.0
G1 Z0.20 F1000.0
G1 X5.0 E4.0 F1000.0
G92 E0.0
G21 ; set units to millimeters
G90 ; use absolute coordinates
M83 ; use relative distances for extrusion
M900 K0.06 ; Filament gcode LA 1.5
M900 K30 ; Filament gcode LA 1.0
;BEFORE_LAYER_CHANGE
G92 E0.0
;0.2


G1 E-0.80000 F2100.00000
G1 Z0.600 F10800.000
;AFTER_LAYER_CHANGE
;0.2
G1 X98.191 Y82.746
G1 Z0.200
G1 E0.80000 F2100.00000
M204 S1000
G1 F1200.000
G1 X104.595 Y76.342 E0.28397
G1 F8640.000
G1 X102.268 Y78.669 E-0.76000
G1 E-0.04000 F2100.00000
G1 Z0.800 F10800.000
G1 X109.243 Y68.495
G1 Z0.200
G1 E0.80000 F2100.00000
G1 F1200.000
G1 X108.026 Y69.712 E0.05396
G1 X108.026 Y70.778 E0.03344
G1 X109.656 Y69.148 E0.07229
G1 X110.190 Y69.681 E0.02365
G1 X108.026 Y71.845 E0.09593
G1 X108.026 Y72.911 E0.03344
G1 X110.723 Y70.214 E0.11958
G1 X111.256 Y70.748 E0.02365
G1 X96.437 Y85.567 E0.65712
G1 X96.108 Y86.085 E0.01923
G1 X95.294 Y87.524 E0.05184
G1 X95.037 Y88.033 E0.01787
G1 X111.789 Y71.281 E0.74281
G1 X112.323 Y71.814 E0.02365
G1 X94.084 Y90.053 E0.80875
G1 X93.880 Y90.512 E0.01573
G1 X93.371 Y91.833 E0.04437
G1 X112.856 Y72.348 E0.86400
G1 X113.389 Y72.881 E0.02365
G1 X92.827 Y93.443 E0.91178
G1 X92.405 Y94.932 E0.04850
G1 X113.922 Y73.414 E0.95412
G1 X114.456 Y73.947 E0.02365
G1 X92.077 Y96.326 E0.99232
G1 X91.963 Y96.831 E0.01621
G1 X91.822 Y97.648 E0.02600
G1 X103.570 Y85.900 E0.52092
G1 X104.103 Y86.433 E0.02365
G1 X91.625 Y98.911 E0.55328
G1 X91.477 Y100.126 E0.03838
G1 X104.636 Y86.967 E0.58351
G1 X104.723 Y87.053 E0.00384
G1 X99.829 Y91.947 E0.21701
G1 X100.275 Y92.394 E0.01980
G1 X91.392 Y101.278 E0.39392
G1 X91.357 Y101.750 E0.01484
G1 X91.341 Y102.395 E0.02024
G1 X100.809 Y92.927 E0.41981
G1 X101.342 Y93.460 E0.02365
G1 X91.318 Y103.484 E0.44447
G1 X91.344 Y104.525 E0.03265
G1 X98.612 Y97.256 E0.32230
G1 X99.146 Y97.790 E0.02365
G1 X91.393 Y105.543 E0.34378
G1 X91.466 Y106.536 E0.03123
G1 X99.679 Y98.323 E0.36417
G1 X99.829 Y98.473 E0.00664
G1 X98.197 Y100.104 E0.07234
G1 X98.581 Y100.488 E0.01700
G1 X91.576 Y107.493 E0.31062
G1 X91.697 Y108.438 E0.02988
G1 X99.114 Y101.021 E0.32889
G1 X99.647 Y101.554 E0.02365
G1 X91.855 Y109.347 E0.34554
G1 X92.024 Y110.244 E0.02863
G1 X98.549 Y103.719 E0.28934
G1 X99.083 Y104.252 E0.02365
G1 X92.220 Y111.115 E0.30431
G1 X92.432 Y111.970 E0.02761
G1 X99.616 Y104.785 E0.31856
G1 X99.829 Y104.998 E0.00944
G1 X98.197 Y106.630 E0.07234
G1 X98.518 Y106.950 E0.01421
G1 X92.663 Y112.805 E0.25962
G1 X92.913 Y113.622 E0.02678
G1 X99.051 Y107.483 E0.27219
G1 X99.584 Y108.016 E0.02365
G1 X93.177 Y114.423 E0.28409
G1 X93.461 Y115.206 E0.02611
G1 X98.486 Y110.181 E0.22282
G1 X99.020 Y110.714 E0.02365
G1 X93.758 Y115.976 E0.23330
G1 X94.073 Y116.727 E0.02555
G1 X99.553 Y111.248 E0.24298
G1 X100.086 Y111.781 E0.02365
G1 X94.401 Y117.466 E0.25210
G1 X94.744 Y118.189 E0.02510
G1 X100.619 Y112.314 E0.26051
G1 X101.153 Y112.847 E0.02365
G1 X95.101 Y118.899 E0.26832
G1 X95.472 Y119.595 E0.02473
G1 X100.055 Y115.012 E0.20321
G1 X100.588 Y115.545 E0.02365
G1 X95.857 Y120.276 E0.20976
G1 X96.109 Y120.719 E0.01598
G1 X96.253 Y120.947 E0.00845
G1 X101.121 Y116.079 E0.21587
G1 X101.654 Y116.612 E0.02365
G1 X96.666 Y121.600 E0.22118
G1 X97.085 Y122.247 E0.02418
G1 X102.188 Y117.145 E0.22624
G1 X102.721 Y117.678 E0.02365
G1 X97.526 Y122.873 E0.23034
G1 X97.968 Y123.498 E0.02399
G1 X101.623 Y119.843 E0.16205
G1 X102.156 Y120.376 E0.02365
G1 X98.436 Y124.097 E0.16496
G1 X98.903 Y124.696 E0.02383
G1 X102.689 Y120.910 E0.16788
G1 X103.223 Y121.443 E0.02365
G1 X99.394 Y125.272 E0.16977
G1 X99.888 Y125.844 E0.02371
G1 X103.756 Y121.976 E0.17152
G1 X104.289 Y122.509 E0.02365
G1 X100.400 Y126.399 E0.17246
G1 X100.920 Y126.945 E0.02365
G1 X104.822 Y123.043 E0.17304
G1 X105.356 Y123.576 E0.02365
G1 X101.453 Y127.479 E0.17305
G1 X101.999 Y127.999 E0.02365
G1 X105.889 Y124.109 E0.17247
G1 X106.422 Y124.642 E0.02365
G1 X102.554 Y128.511 E0.17153
G1 X103.127 Y129.005 E0.02371
G1 X106.956 Y125.176 E0.16978
G1 X107.489 Y125.709 E0.02365
G1 X103.702 Y129.496 E0.16790
G1 X104.301 Y129.963 E0.02383
G1 X108.022 Y126.242 E0.16498
G1 X108.555 Y126.776 E0.02365
G1 X104.900 Y130.431 E0.16207
G1 X105.525 Y130.873 E0.02399
G1 X110.720 Y125.677 E0.23037
G1 X111.253 Y126.211 E0.02365
G1 X106.150 Y131.314 E0.22627
G1 X106.797 Y131.733 E0.02418
G1 X111.786 Y126.744 E0.22122
G1 X112.320 Y127.277 E0.02365
G1 X107.450 Y132.147 E0.21591
G1 X108.121 Y132.542 E0.02442
G1 X112.853 Y127.811 E0.20981
G1 X113.386 Y128.344 E0.02365
G1 X108.802 Y132.928 E0.20326
G1 X109.498 Y133.298 E0.02472
G1 X115.551 Y127.246 E0.26838
G1 X116.084 Y127.779 E0.02365
G1 X110.208 Y133.655 E0.26057
G1 X110.930 Y133.999 E0.02509
G1 X116.617 Y128.312 E0.25217
G1 X117.151 Y128.846 E0.02365
G1 X111.669 Y134.327 E0.24305
G1 X112.421 Y134.642 E0.02555
G1 X117.684 Y129.379 E0.23338
G1 X118.217 Y129.912 E0.02365
G1 X113.190 Y134.939 E0.22290
G1 X113.652 Y135.117 E0.01552
G1 X113.973 Y135.223 E0.01059
G1 X120.382 Y128.814 E0.28418
G1 X120.915 Y129.347 E0.02365
G1 X114.775 Y135.488 E0.27228
G1 X115.222 Y135.636 E0.01478
G1 X115.591 Y135.738 E0.01201
G1 X121.448 Y129.881 E0.25972
G1 X121.737 Y130.169 E0.01281
G1 X123.369 Y128.538 E0.07234
G1 X123.613 Y128.783 E0.01084
G1 X116.427 Y135.969 E0.31866
G1 X116.816 Y136.077 E0.01266
G1 X117.281 Y136.181 E0.01495
G1 X124.146 Y129.316 E0.30442
G1 X124.680 Y129.849 E0.02365
G1 X118.152 Y136.377 E0.28945
G1 X119.049 Y136.547 E0.02862
G1 X126.844 Y128.751 E0.34567
G1 X127.377 Y129.284 E0.02365
G1 X119.958 Y136.704 E0.32901
G1 X120.903 Y136.826 E0.02987
G1 X127.911 Y129.818 E0.31075
G1 X128.263 Y130.169 E0.01561
G1 X129.894 Y128.538 E0.07234
G1 X130.075 Y128.719 E0.00804
G1 X121.859 Y136.936 E0.36432
G1 X122.852 Y137.009 E0.03123
G1 X130.609 Y129.253 E0.34393
G1 X131.142 Y129.786 E0.02365
G1 X123.870 Y137.058 E0.32247
G1 X124.910 Y137.084 E0.03265
G1 X134.938 Y127.057 E0.44463
G1 X135.471 Y127.590 E0.02365
G1 X125.999 Y137.062 E0.41999
G1 X126.653 Y137.046 E0.02049
G1 X127.116 Y137.011 E0.01457
G1 X136.004 Y128.123 E0.39412
G1 X136.419 Y128.538 E0.01840
G1 X139.682 Y125.275 E0.14467
G1 X139.800 Y125.394 E0.00524
G1 X128.268 Y136.926 E0.51138
M73 P2 R44
G1 X129.482 Y136.778 E0.03837
G1 X140.334 Y125.927 E0.48116
G1 X140.867 Y126.460 E0.02365
G1 X130.745 Y136.582 E0.44883
G1 X131.571 Y136.439 E0.02631
G1 X132.066 Y136.328 E0.01589
G1 X157.926 Y110.468 E1.14667
G1 X157.598 Y111.862 E0.04490
G1 X133.460 Y136.000 E1.07033
G1 X134.947 Y135.580 E0.04846
G1 X157.177 Y113.349 E0.98573
G1 X156.634 Y114.959 E0.05327
G1 X136.557 Y135.036 E0.89025
G1 X137.890 Y134.522 E0.04481
G1 X138.335 Y134.325 E0.01524
G1 X155.923 Y116.737 E0.77988
G1 X155.450 Y117.804 E0.03659
G1 X154.971 Y118.756 E0.03342
G1 X140.353 Y133.373 E0.64815
G1 X140.878 Y133.109 E0.01843
G1 X142.317 Y132.294 E0.05184
G1 X142.814 Y131.979 E0.01843
G1 X153.577 Y121.216 E0.47727
G1 X153.007 Y122.116 E0.03341
G1 X152.055 Y123.468 E0.05184
G1 X151.038 Y124.771 E0.05184
G1 X150.720 Y125.139 E0.01525
G1 X145.619 Y130.241 E0.22620
G1 F8640.000
G1 X147.946 Y127.913 E-0.76000
G1 E-0.04000 F2100.00000
G1 Z0.800 F10800.000
G1 X147.973 Y119.354
G1 Z0.200
G1 E0.80000 F2100.00000
G1 F1200.000
G1 X158.180 Y109.147 E0.45258
G1 X158.319 Y108.345 E0.02553
G1 X158.376 Y107.885 E0.01453
G1 X147.560 Y118.701 E0.47959
G1 X147.027 Y118.167 E0.02365
G1 X158.524 Y106.670 E0.50980
G1 X158.609 Y105.519 E0.03620
G1 X149.756 Y114.371 E0.39254
G1 X149.223 Y113.838 E0.02365
G1 X158.659 Y104.402 E0.41842
G1 X158.682 Y103.313 E0.03415
G1 X148.690 Y113.305 E0.44306
G1 X148.540 Y113.155 E0.00664
G1 X151.803 Y109.892 E0.14467
G1 X151.419 Y109.509 E0.01700
G1 X158.656 Y102.272 E0.32090
G1 X158.607 Y101.255 E0.03193
G1 X150.886 Y108.975 E0.34235
G1 X150.353 Y108.442 E0.02365
G1 X158.533 Y100.261 E0.36275
G1 X158.423 Y99.305 E0.03019
G1 X151.451 Y106.278 E0.30918
G1 X150.917 Y105.744 E0.02365
G1 X158.302 Y98.360 E0.32744
G1 X158.144 Y97.451 E0.02892
G1 X150.384 Y105.211 E0.34409
G1 X150.171 Y104.998 E0.00944
G1 X151.803 Y103.367 E0.07234
G1 X151.482 Y103.046 E0.01421
G1 X157.974 Y96.554 E0.28788
G1 X157.779 Y95.683 E0.02799
G1 X150.949 Y102.513 E0.30285
G1 X150.416 Y101.980 E0.02365
G1 X157.567 Y94.829 E0.31709
G1 X157.335 Y93.994 E0.02718
G1 X151.514 Y99.815 E0.25814
G1 X150.981 Y99.282 E0.02365
G1 X157.085 Y93.177 E0.27070
G1 X156.821 Y92.375 E0.02647
G1 X150.447 Y98.749 E0.28261
G1 X150.171 Y98.473 E0.01224
G1 X151.803 Y96.841 E0.07234
G1 X151.545 Y96.584 E0.01141
G1 X156.537 Y91.593 E0.22132
G1 X156.240 Y90.823 E0.02587
G1 X151.012 Y96.051 E0.23181
G1 X150.479 Y95.518 E0.02365
G1 X155.925 Y90.072 E0.24148
G1 X155.597 Y89.333 E0.02534
G1 X149.946 Y94.984 E0.25060
G1 X149.412 Y94.451 E0.02365
G1 X155.253 Y88.610 E0.25900
G1 X154.896 Y87.901 E0.02490
G1 X148.879 Y93.918 E0.26681
G1 X148.540 Y93.579 E0.01503
G1 X150.171 Y91.947 E0.07234
G1 X149.977 Y91.753 E0.00861
G1 X154.526 Y87.205 E0.20169
G1 X154.140 Y86.524 E0.02454
G1 X149.444 Y91.220 E0.20823
G1 X148.911 Y90.687 E0.02365
G1 X153.744 Y85.853 E0.21434
G1 X153.331 Y85.200 E0.02424
G1 X148.377 Y90.153 E0.21965
G1 X147.844 Y89.620 E0.02365
G1 X152.911 Y84.553 E0.22470
G1 X152.471 Y83.927 E0.02400
G1 X147.311 Y89.087 E0.22880
G1 X146.777 Y88.553 E0.02365
G1 X152.028 Y83.303 E0.23283
G1 X151.561 Y82.704 E0.02382
G1 X146.244 Y88.020 E0.23574
G1 X145.711 Y87.487 E0.02365
G1 X151.093 Y82.105 E0.23866
G1 X150.602 Y81.529 E0.02372
G1 X146.809 Y85.322 E0.16820
G1 X146.276 Y84.789 E0.02365
G1 X150.108 Y80.956 E0.16994
G1 X149.596 Y80.402 E0.02366
G1 X145.742 Y84.256 E0.17087
G1 X145.209 Y83.723 E0.02365
G1 X149.076 Y79.856 E0.17145
G1 X148.819 Y79.588 E0.01164
G1 X148.540 Y79.325 E0.01201
G1 X144.676 Y83.189 E0.17134
G1 X144.143 Y82.656 E0.02365
G1 X147.994 Y78.805 E0.17076
G1 X147.440 Y78.292 E0.02366
G1 X143.609 Y82.123 E0.16984
G1 X143.076 Y81.589 E0.02365
G1 X146.872 Y77.793 E0.16833
G1 X146.302 Y77.297 E0.02370
G1 X142.543 Y81.056 E0.16668
G1 X142.010 Y80.523 E0.02365
G1 X145.718 Y76.815 E0.16443
G1 X145.127 Y76.338 E0.02378
G1 X141.476 Y79.990 E0.16190
G1 X140.943 Y79.456 E0.02365
G1 X144.528 Y75.872 E0.15895
G1 X143.915 Y75.417 E0.02390
G1 X140.410 Y78.923 E0.15545
G1 X139.876 Y78.390 E0.02365
G1 X143.287 Y74.979 E0.15124
G1 X142.631 Y74.569 E0.02427
G1 X139.343 Y77.857 E0.14577
G1 X138.810 Y77.323 E0.02365
G1 X142.020 Y74.113 E0.14235
G1 X141.974 Y74.032 E0.00294
G1 X141.974 Y73.093 E0.02944
G1 X138.277 Y76.790 E0.16395
G1 X137.743 Y76.257 E0.02365
G1 X141.974 Y72.026 E0.18759
G1 X141.974 Y70.960 E0.03344
G1 X137.210 Y75.723 E0.21124
G1 X136.677 Y75.190 E0.02365
G1 X141.974 Y69.893 E0.23488
G1 X141.968 Y68.833 E0.03325
G1 X136.144 Y74.657 E0.25826
G1 X135.610 Y74.124 E0.02365
G1 X141.555 Y68.179 E0.26358
G1 F8640.000
G1 X139.227 Y70.507 E-0.76000
G1 E-0.04000 F2100.00000
G1 Z0.800 F10800.000
G1 X125.000 Y148.587
G1 Z0.200
G1 E0.80000 F2100.00000
G1 F1200.000
G1 X122.783 Y148.532 E0.06954
G1 X120.571 Y148.369 E0.06954
G1 X118.370 Y148.098 E0.06954
G1 X116.185 Y147.719 E0.06954
G1 X114.021 Y147.233 E0.06954
G1 X111.884 Y146.641 E0.06954
G1 X109.778 Y145.945 E0.06954
G1 X107.709 Y145.147 E0.06953
G1 X105.681 Y144.249 E0.06954
G1 X103.700 Y143.251 E0.06954
G1 X101.771 Y142.158 E0.06954
G1 X99.897 Y140.972 E0.06954
G1 X98.084 Y139.695 E0.06954
G1 X96.335 Y138.330 E0.06954
G1 X94.656 Y136.882 E0.06954
G1 X93.050 Y135.353 E0.06954
G1 X91.521 Y133.746 E0.06954
G1 X90.072 Y132.067 E0.06954
G1 X88.708 Y130.319 E0.06954
G1 X87.430 Y128.506 E0.06954
G1 X86.244 Y126.632 E0.06954
G1 X85.151 Y124.702 E0.06954
G1 X84.154 Y122.721 E0.06954
G1 X83.255 Y120.694 E0.06954
G1 X82.457 Y118.625 E0.06953
G1 X81.761 Y116.519 E0.06954
G1 X81.170 Y114.381 E0.06954
G1 X80.684 Y112.217 E0.06953
G1 X80.305 Y110.032 E0.06954
G1 X80.033 Y107.831 E0.06954
G1 X79.870 Y105.619 E0.06954
G1 X79.815 Y103.402 E0.06953
G1 X79.870 Y101.185 E0.06953
G1 X80.033 Y98.974 E0.06954
G1 X80.305 Y96.772 E0.06954
G1 X80.684 Y94.587 E0.06954
G1 X81.170 Y92.423 E0.06954
G1 X81.761 Y90.286 E0.06954
G1 X82.457 Y88.180 E0.06954
G1 X83.255 Y86.111 E0.06954
G1 X84.154 Y84.084 E0.06954
G1 X85.151 Y82.103 E0.06954
G1 X86.244 Y80.173 E0.06954
G1 X87.430 Y78.299 E0.06954
G1 X88.707 Y76.486 E0.06954
G1 X90.072 Y74.738 E0.06954
G1 X91.521 Y73.058 E0.06954
G1 X93.050 Y71.452 E0.06953
G1 X94.656 Y69.923 E0.06953
G1 X96.337 Y68.474 E0.06959
G1 X98.091 Y67.108 E0.06970
G1 X99.915 Y65.828 E0.06988
G1 X101.810 Y64.634 E0.07024
G1 X103.764 Y63.502 E0.07077
G1 X106.913 Y61.799 E0.11227
G1 X106.913 Y73.582 E0.36946
G1 X106.331 Y73.913 E0.02099
G1 X105.731 Y74.308 E0.02251
G1 X104.972 Y74.857 E0.02940
G1 X103.990 Y75.618 E0.03893
G1 X102.854 Y76.552 E0.04612
G1 X101.633 Y77.624 E0.05095
G1 X100.396 Y78.798 E0.05346
G1 X99.218 Y80.034 E0.05356
G1 X98.102 Y81.327 E0.05355
G1 X97.051 Y82.674 E0.05355
G1 X96.067 Y84.070 E0.05355
G1 X95.153 Y85.513 E0.05355
G1 X94.312 Y86.999 E0.05355
G1 X93.544 Y88.525 E0.05355
G1 X92.851 Y90.086 E0.05355
G1 X92.237 Y91.680 E0.05355
G1 X91.701 Y93.301 E0.05355
G1 X91.246 Y94.947 E0.05355
G1 X90.871 Y96.614 E0.05355
G1 X90.579 Y98.297 E0.05355
G1 X90.370 Y99.992 E0.05355
G1 X90.245 Y101.695 E0.05355
G1 X90.203 Y103.402 E0.05355
G1 X90.245 Y105.110 E0.05355
G1 X90.370 Y106.813 E0.05355
G1 X90.579 Y108.508 E0.05355
G1 X90.871 Y110.191 E0.05355
G1 X91.246 Y111.857 E0.05355
G1 X91.701 Y113.503 E0.05355
G1 X92.237 Y115.125 E0.05355
G1 X92.851 Y116.719 E0.05355
G1 X93.544 Y118.280 E0.05355
G1 X94.312 Y119.806 E0.05355
G1 X95.153 Y121.292 E0.05355
G1 X96.067 Y122.735 E0.05355
G1 X97.051 Y124.131 E0.05355
G1 X98.101 Y125.477 E0.05355
G1 X99.217 Y126.771 E0.05355
G1 X100.395 Y128.008 E0.05355
G1 X101.632 Y129.185 E0.05355
G1 X102.925 Y130.301 E0.05355
G1 X104.271 Y131.352 E0.05355
G1 X105.668 Y132.335 E0.05355
G1 X107.111 Y133.249 E0.05355
G1 X108.597 Y134.091 E0.05355
G1 X110.122 Y134.859 E0.05355
G1 X111.684 Y135.551 E0.05355
G1 X113.277 Y136.165 E0.05355
G1 X114.899 Y136.701 E0.05355
G1 X116.545 Y137.157 E0.05355
G1 X118.211 Y137.531 E0.05355
G1 X119.894 Y137.823 E0.05355
G1 X121.589 Y138.032 E0.05355
G1 X123.293 Y138.158 E0.05355
G1 X125.000 Y138.200 E0.05355
G1 X126.707 Y138.158 E0.05355
G1 X128.411 Y138.032 E0.05355
G1 X130.106 Y137.823 E0.05355
G1 X131.789 Y137.531 E0.05355
G1 X133.455 Y137.157 E0.05355
G1 X135.101 Y136.701 E0.05355
G1 X136.723 Y136.165 E0.05355
G1 X138.316 Y135.551 E0.05355
G1 X139.878 Y134.859 E0.05355
G1 X141.403 Y134.091 E0.05355
G1 X142.889 Y133.249 E0.05355
G1 X144.332 Y132.335 E0.05355
G1 X145.729 Y131.352 E0.05355
G1 X147.075 Y130.301 E0.05355
G1 X148.368 Y129.185 E0.05355
G1 X149.605 Y128.008 E0.05355
G1 X150.783 Y126.771 E0.05355
G1 X151.899 Y125.477 E0.05355
G1 X152.949 Y124.131 E0.05355
G1 X153.933 Y122.735 E0.05355
G1 X154.847 Y121.292 E0.05355
G1 X155.688 Y119.806 E0.05355
G1 X156.456 Y118.280 E0.05355
G1 X157.149 Y116.719 E0.05355
