; generated by PrusaSlicer 2.2.0+win64 on 2020-11-10 at 21:58:28 UTC

; 

; external perimeters extrusion width = 0.60mm
; perimeters extrusion width = 0.43mm
; infill extrusion width = 0.45mm
; solid infill extrusion width = 0.70mm
; top infill extrusion width = 0.43mm
; first layer extrusion width = 0.42mm

M73 P0 R138
M201 X9000 Y9000 Z500 E10000 ; sets maximum accelerations, mm/sec^2
M203 X500 Y500 Z12 E120 ; sets maximum feedrates, mm/sec
M204 P2000 R1500 T2000 ; sets acceleration (P, T) and retract acceleration (R), mm/sec^2
M205 X10.00 Y10.00 Z0.20 E2.50 ; sets the jerk limits, mm/sec
M205 S0 T0 ; sets the minimum extruding and travel feed rate, mm/sec
M107
M862.3 P "MK2.5SMMU2S" ; printer model check
M862.1 P0.4 ; nozzle diameter check
M115 U3.8.0 ; tell printer latest fw version
G90 ; use absolute coordinates
M83 ; extruder relative mode
M104 S215 ; set extruder temp
M140 S60 ; set bed temp
Tx
M190 S60 ; wait for bed temp
M109 S215 ; wait for extruder temp
G28 W ; home all without mesh bed level
G80 ; mesh bed leveling

G21 ; set units to millimeters

;go outside print area
G1 Y-3.0 F1000.0
G1 Z0.4 F1000.0
; select extruder
Tc
; purge line
G1 X55.0 F2000.0
G1 Z0.3 F1000.0
G92 E0.0
G1 X240.0 E25.0 F2200.0
M73 P0 R138
G1 Y-2.0 F1000.0
G1 X55.0 E25 F1400.0
G1 Z0.20 F1000.0
G1 X5.0 E4.0 F1000.0
G92 E0.0
G21 ; set units to millimeters
G90 ; use absolute coordinates
M83 ; use relative distances for extrusion
M900 K0.06 ; Filament gcode LA 1.5
M900 K30 ; Filament gcode LA 1.0
;BEFORE_LAYER_CHANGE
G92 E0.0
;0.2


G1 E-0.80000 F2100.00000
G1 Z0.600 F10800.000
;AFTER_LAYER_CHANGE
;0.2
G1 X18.233 Y2.430
G1 Z0.200
G1 E0.80000 F2100.00000
M204 S1000
G1 F1200.000
G1 X18.646 Y1.719 E0.02579
G1 X19.018 Y1.365 E0.01609
G1 X19.456 Y1.098 E0.01609
G1 X19.942 Y0.932 E0.01609
G1 X20.452 Y0.874 E0.01609
G1 X193.694 Y0.874 E5.43191
G1 X194.279 Y0.948 E0.01846
G1 X194.830 Y1.165 E0.01858
G1 X195.308 Y1.509 E0.01846
G1 X195.687 Y1.960 E0.01846
G1 X231.552 Y59.127 E2.11597
G1 X231.856 Y59.870 E0.02520
G1 X231.913 Y60.384 E0.01621
G1 X231.913 Y168.670 E3.39522
G1 X231.767 Y169.479 E0.02579
G1 X231.354 Y170.190 E0.02579
G1 X195.409 Y208.392 E1.64466
G1 X194.817 Y208.842 E0.02331
G1 X194.115 Y209.088 E0.02331
G1 X20.456 Y209.126 E5.44495
G1 X19.643 Y208.980 E0.02590
G1 X18.932 Y208.567 E0.02579
G1 X18.576 Y208.193 E0.01621
G1 X18.310 Y207.754 E0.01609
G1 X18.143 Y207.264 E0.01621
G1 X18.087 Y206.754 E0.01609
G1 X18.087 Y3.243 E6.38094
G1 X18.223 Y2.489 E0.02402
G1 E-0.80000 F2100.00000
G1 Z0.800 F10800.000
G1 X200.478 Y61.174
G1 Z0.200
G1 E0.80000 F2100.00000
G1 F1200.000
G1 X228.749 Y61.174 E0.88642
G1 X228.749 Y72.645 E0.35967
G1 X200.478 Y72.645 E0.88642
G1 X200.478 Y61.234 E0.35779
G1 X200.101 Y60.797 F10800.000
G1 F1200.000
G1 X229.126 Y60.797 E0.91007
G1 X229.126 Y73.022 E0.38332
G1 X200.101 Y73.022 E0.91007
M73 P0 R137
G1 X200.101 Y60.857 E0.38143
G1 X200.497 Y60.850 F10800.000
G1 E-0.80000 F2100.00000
G1 Z0.800 F10800.000
G1 X228.636 Y62.058
G1 Z0.200
G1 E0.80000 F2100.00000
G1 F1200.000
G1 X228.034 Y61.457 E0.02697
G1 X227.495 Y61.457 E0.01710
G1 X228.466 Y62.428 E0.04354
G1 X228.466 Y62.967 E0.01710
G1 X226.956 Y61.457 E0.06772
G1 X226.416 Y61.457 E0.01710
G1 X228.466 Y63.506 E0.09190
G1 X228.466 Y64.045 E0.01710
G1 X225.877 Y61.457 E0.11608
G1 X225.338 Y61.457 E0.01710
G1 X228.466 Y64.585 E0.14026
G1 X228.466 Y65.124 E0.01710
G1 X224.799 Y61.457 E0.16444
G1 X224.259 Y61.457 E0.01710
G1 X228.466 Y65.663 E0.18862
G1 X228.466 Y66.202 E0.01710
G1 X223.720 Y61.457 E0.21280
G1 X223.181 Y61.457 E0.01710
G1 X228.466 Y66.742 E0.23698
G1 X228.466 Y67.281 E0.01710
G1 X222.642 Y61.457 E0.26116
G1 X222.102 Y61.457 E0.01710
G1 X228.466 Y67.820 E0.28534
G1 X228.466 Y68.359 E0.01710
G1 X221.563 Y61.457 E0.30952
G1 X221.024 Y61.457 E0.01710
G1 X228.466 Y68.899 E0.33370
G1 X228.466 Y69.438 E0.01710
G1 X220.485 Y61.457 E0.35787
G1 X219.945 Y61.457 E0.01710
G1 X228.466 Y69.977 E0.38205
G1 X228.466 Y70.516 E0.01710
G1 X219.406 Y61.457 E0.40623
G1 X218.867 Y61.457 E0.01710
G1 X228.466 Y71.056 E0.43041
G1 X228.466 Y71.595 E0.01710
G1 X218.328 Y61.457 E0.45459
G1 X217.788 Y61.457 E0.01710
G1 X228.466 Y72.134 E0.47877
G1 X228.466 Y72.362 E0.00723
G1 X228.155 Y72.362 E0.00987
G1 X217.249 Y61.457 E0.48899
G1 X216.710 Y61.457 E0.01710
G1 X227.615 Y72.362 E0.48899
G1 X227.076 Y72.362 E0.01710
G1 X216.171 Y61.457 E0.48899
G1 X215.631 Y61.457 E0.01710
G1 X226.537 Y72.362 E0.48899
G1 X225.998 Y72.362 E0.01710
G1 X215.092 Y61.457 E0.48899
G1 X214.553 Y61.457 E0.01710
G1 X225.458 Y72.362 E0.48899
G1 X224.919 Y72.362 E0.01710
G1 X214.014 Y61.457 E0.48899
G1 X213.474 Y61.457 E0.01710
G1 X224.380 Y72.362 E0.48899
G1 X223.841 Y72.362 E0.01710
G1 X212.935 Y61.457 E0.48899
G1 X212.396 Y61.457 E0.01710
G1 X223.301 Y72.362 E0.48899
G1 X222.762 Y72.362 E0.01710
G1 X211.857 Y61.457 E0.48899
G1 X211.317 Y61.457 E0.01710
G1 X222.223 Y72.362 E0.48899
G1 X221.684 Y72.362 E0.01710
G1 X210.778 Y61.457 E0.48899
G1 X210.239 Y61.457 E0.01710
G1 X221.144 Y72.362 E0.48899
G1 X220.605 Y72.362 E0.01710
G1 X209.700 Y61.457 E0.48899
G1 X209.160 Y61.457 E0.01710
G1 X220.066 Y72.362 E0.48899
G1 X219.527 Y72.362 E0.01710
G1 X208.621 Y61.457 E0.48899
G1 X208.082 Y61.457 E0.01710
G1 X218.987 Y72.362 E0.48899
G1 X218.448 Y72.362 E0.01710
G1 X207.543 Y61.457 E0.48899
G1 X207.003 Y61.457 E0.01710
G1 X217.909 Y72.362 E0.48899
G1 X217.370 Y72.362 E0.01710
G1 X206.464 Y61.457 E0.48899
G1 X205.925 Y61.457 E0.01710
G1 X216.830 Y72.362 E0.48899
G1 X216.291 Y72.362 E0.01710
G1 X205.386 Y61.457 E0.48899
G1 X204.846 Y61.457 E0.01710
G1 X215.752 Y72.362 E0.48899
G1 X215.213 Y72.362 E0.01710
G1 X204.307 Y61.457 E0.48899
G1 X203.768 Y61.457 E0.01710
G1 X214.673 Y72.362 E0.48899
G1 X214.134 Y72.362 E0.01710
G1 X203.229 Y61.457 E0.48899
G1 X202.689 Y61.457 E0.01710
G1 X213.595 Y72.362 E0.48899
G1 X213.056 Y72.362 E0.01710
G1 X202.150 Y61.457 E0.48899
G1 X201.611 Y61.457 E0.01710
G1 X212.516 Y72.362 E0.48899
G1 X211.977 Y72.362 E0.01710
G1 X201.072 Y61.457 E0.48899
G1 X200.760 Y61.457 E0.00987
G1 X200.760 Y61.685 E0.00723
G1 X211.438 Y72.362 E0.47877
G1 X210.899 Y72.362 E0.01710
G1 X200.760 Y62.224 E0.45459
G1 X200.760 Y62.763 E0.01710
G1 X210.359 Y72.362 E0.43041
G1 X209.820 Y72.362 E0.01710
G1 X200.760 Y63.302 E0.40623
G1 X200.760 Y63.842 E0.01710
G1 X209.281 Y72.362 E0.38205
G1 X208.742 Y72.362 E0.01710
G1 X200.760 Y64.381 E0.35787
G1 X200.760 Y64.920 E0.01710
G1 X208.202 Y72.362 E0.33369
G1 X207.663 Y72.362 E0.01710
G1 X200.760 Y65.459 E0.30951
G1 X200.760 Y65.999 E0.01710
G1 X207.124 Y72.362 E0.28533
G1 X206.585 Y72.362 E0.01710
G1 X200.760 Y66.538 E0.26115
G1 X200.760 Y67.077 E0.01710
G1 X206.045 Y72.362 E0.23697
G1 X205.506 Y72.362 E0.01710
G1 X200.760 Y67.616 E0.21279
G1 X200.760 Y68.156 E0.01710
G1 X204.967 Y72.362 E0.18861
G1 X204.428 Y72.362 E0.01710
G1 X200.760 Y68.695 E0.16444
G1 X200.760 Y69.234 E0.01710
G1 X203.888 Y72.362 E0.14026
G1 X203.349 Y72.362 E0.01710
G1 X200.760 Y69.773 E0.11608
G1 X200.760 Y70.313 E0.01710
G1 X202.810 Y72.362 E0.09190
G1 X202.271 Y72.362 E0.01710
G1 X200.760 Y70.852 E0.06772
G1 X200.760 Y71.391 E0.01710
G1 X201.731 Y72.362 E0.04354
G1 X201.192 Y72.362 E0.01710
G1 X200.591 Y71.761 E0.02697
G1 E-0.80000 F2100.00000
G1 Z0.800 F10800.000
G1 X200.591 Y80.219
G1 Z0.200
G1 E0.80000 F2100.00000
G1 F1200.000
G1 X228.749 Y80.219 E0.88288
G1 X228.749 Y91.690 E0.35967
G1 X200.478 Y91.690 E0.88642
G1 X200.478 Y80.219 E0.35967
G1 X200.531 Y80.219 E0.00167
G1 X200.101 Y79.842 F10800.000
G1 F1200.000
G1 X229.126 Y79.842 E0.91007
G1 X229.126 Y92.067 E0.38332
G1 X200.101 Y92.067 E0.91007
G1 X200.101 Y79.902 E0.38143
G1 X200.497 Y79.895 F10800.000
G1 E-0.80000 F2100.00000
G1 Z0.800 F10800.000
G1 X228.636 Y81.103
G1 Z0.200
G1 E0.80000 F2100.00000
G1 F1200.000
G1 X228.034 Y80.502 E0.02697
G1 X227.495 Y80.502 E0.01710
G1 X228.466 Y81.473 E0.04354
G1 X228.466 Y82.012 E0.01710
G1 X226.956 Y80.502 E0.06772
G1 X226.416 Y80.502 E0.01710
G1 X228.466 Y82.552 E0.09190
G1 X228.466 Y83.091 E0.01710
G1 X225.877 Y80.502 E0.11608
G1 X225.338 Y80.502 E0.01710
G1 X228.466 Y83.630 E0.14026
G1 X228.466 Y84.169 E0.01710
G1 X224.799 Y80.502 E0.16444
G1 X224.259 Y80.502 E0.01710
G1 X228.466 Y84.709 E0.18862
G1 X228.466 Y85.248 E0.01710
G1 X223.720 Y80.502 E0.21280
G1 X223.181 Y80.502 E0.01710
G1 X228.466 Y85.787 E0.23698
G1 X228.466 Y86.326 E0.01710
G1 X222.642 Y80.502 E0.26116
G1 X222.102 Y80.502 E0.01710
G1 X228.466 Y86.866 E0.28534
G1 X228.466 Y87.405 E0.01710
G1 X221.563 Y80.502 E0.30952
G1 X221.024 Y80.502 E0.01710
G1 X228.466 Y87.944 E0.33370
G1 X228.466 Y88.483 E0.01710
G1 X220.485 Y80.502 E0.35787
G1 X219.945 Y80.502 E0.01710
G1 X228.466 Y89.023 E0.38205
G1 X228.466 Y89.562 E0.01710
G1 X219.406 Y80.502 E0.40623
G1 X218.867 Y80.502 E0.01710
G1 X228.466 Y90.101 E0.43041
G1 X228.466 Y90.640 E0.01710
G1 X218.328 Y80.502 E0.45459
M73 P1 R136
G1 X217.788 Y80.502 E0.01710
G1 X228.466 Y91.180 E0.47877
G1 X228.466 Y91.407 E0.00723
G1 X228.155 Y91.407 E0.00987
G1 X217.249 Y80.502 E0.48899
G1 X216.710 Y80.502 E0.01710
G1 X227.615 Y91.407 E0.48899
G1 X227.076 Y91.407 E0.01710
G1 X216.171 Y80.502 E0.48899
G1 X215.631 Y80.502 E0.01710
G1 X226.537 Y91.407 E0.48899
G1 X225.998 Y91.407 E0.01710
G1 X215.092 Y80.502 E0.48899
G1 X214.553 Y80.502 E0.01710
G1 X225.458 Y91.407 E0.48899
G1 X224.919 Y91.407 E0.01710
G1 X214.014 Y80.502 E0.48899
G1 X213.474 Y80.502 E0.01710
G1 X224.380 Y91.407 E0.48899
G1 X223.841 Y91.407 E0.01710
G1 X212.935 Y80.502 E0.48899
G1 X212.396 Y80.502 E0.01710
G1 X223.301 Y91.407 E0.48899
G1 X222.762 Y91.407 E0.01710
G1 X211.857 Y80.502 E0.48899
G1 X211.317 Y80.502 E0.01710
G1 X222.223 Y91.407 E0.48899
G1 X221.684 Y91.407 E0.01710
G1 X210.778 Y80.502 E0.48899
G1 X210.239 Y80.502 E0.01710
G1 X221.144 Y91.407 E0.48899
G1 X220.605 Y91.407 E0.01710
G1 X209.700 Y80.502 E0.48899
G1 X209.160 Y80.502 E0.01710
G1 X220.066 Y91.407 E0.48899
G1 X219.527 Y91.407 E0.01710
G1 X208.621 Y80.502 E0.48899
G1 X208.082 Y80.502 E0.01710
G1 X218.987 Y91.407 E0.48899
G1 X218.448 Y91.407 E0.01710
G1 X207.543 Y80.502 E0.48899
G1 X207.003 Y80.502 E0.01710
G1 X217.909 Y91.407 E0.48899
G1 X217.370 Y91.407 E0.01710
G1 X206.464 Y80.502 E0.48899
G1 X205.925 Y80.502 E0.01710
G1 X216.830 Y91.407 E0.48899
G1 X216.291 Y91.407 E0.01710
G1 X205.386 Y80.502 E0.48899
G1 X204.846 Y80.502 E0.01710
G1 X215.752 Y91.407 E0.48899
G1 X215.213 Y91.407 E0.01710
G1 X204.307 Y80.502 E0.48899
G1 X203.768 Y80.502 E0.01710
G1 X214.673 Y91.407 E0.48899
G1 X214.134 Y91.407 E0.01710
G1 X203.229 Y80.502 E0.48899
G1 X202.689 Y80.502 E0.01710
G1 X213.595 Y91.407 E0.48899
G1 X213.056 Y91.407 E0.01710
G1 X202.150 Y80.502 E0.48899
G1 X201.611 Y80.502 E0.01710
G1 X212.516 Y91.407 E0.48899
G1 X211.977 Y91.407 E0.01710
G1 X201.072 Y80.502 E0.48899
G1 X200.760 Y80.502 E0.00987
G1 X200.760 Y80.730 E0.00723
G1 X211.438 Y91.407 E0.47877
G1 X210.899 Y91.407 E0.01710
G1 X200.760 Y81.269 E0.45459
G1 X200.760 Y81.808 E0.01710
G1 X210.359 Y91.407 E0.43041
G1 X209.820 Y91.407 E0.01710
G1 X200.760 Y82.348 E0.40623
G1 X200.760 Y82.887 E0.01710
G1 X209.281 Y91.407 E0.38205
G1 X208.742 Y91.407 E0.01710
G1 X200.760 Y83.426 E0.35787
G1 X200.760 Y83.965 E0.01710
G1 X208.202 Y91.407 E0.33369
G1 X207.663 Y91.407 E0.01710
G1 X200.760 Y84.505 E0.30951
G1 X200.760 Y85.044 E0.01710
G1 X207.124 Y91.407 E0.28533
G1 X206.585 Y91.407 E0.01710
G1 X200.760 Y85.583 E0.26115
G1 X200.760 Y86.122 E0.01710
G1 X206.045 Y91.407 E0.23697
G1 X205.506 Y91.407 E0.01710
G1 X200.760 Y86.662 E0.21279
G1 X200.760 Y87.201 E0.01710
G1 X204.967 Y91.407 E0.18861
G1 X204.428 Y91.407 E0.01710
G1 X200.760 Y87.740 E0.16444
G1 X200.760 Y88.279 E0.01710
G1 X203.888 Y91.407 E0.14026
G1 X203.349 Y91.407 E0.01710
G1 X200.760 Y88.819 E0.11608
G1 X200.760 Y89.358 E0.01710
G1 X202.810 Y91.407 E0.09190
G1 X202.271 Y91.407 E0.01710
G1 X200.760 Y89.897 E0.06772
G1 X200.760 Y90.436 E0.01710
G1 X201.731 Y91.407 E0.04354
G1 X201.192 Y91.407 E0.01710
G1 X200.591 Y90.806 E0.02697
G1 E-0.80000 F2100.00000
G1 Z0.800 F10800.000
G1 X200.591 Y99.264
G1 Z0.200
G1 E0.80000 F2100.00000
G1 F1200.000
G1 X228.749 Y99.264 E0.88288
G1 X228.749 Y110.736 E0.35967
G1 X200.478 Y110.736 E0.88642
G1 X200.478 Y99.264 E0.35967
G1 X200.531 Y99.264 E0.00167
G1 X200.101 Y98.887 F10800.000
G1 F1200.000
G1 X229.126 Y98.887 E0.91007
G1 X229.126 Y111.113 E0.38332
G1 X200.101 Y111.113 E0.91007
G1 X200.101 Y98.947 E0.38143
G1 X200.497 Y98.940 F10800.000
G1 E-0.80000 F2100.00000
G1 Z0.800 F10800.000
G1 X228.636 Y100.149
G1 Z0.200
G1 E0.80000 F2100.00000
G1 F1200.000
G1 X228.034 Y99.547 E0.02697
G1 X227.495 Y99.547 E0.01710
G1 X228.466 Y100.518 E0.04354
G1 X228.466 Y101.058 E0.01710
G1 X226.956 Y99.547 E0.06772
G1 X226.416 Y99.547 E0.01710
G1 X228.466 Y101.597 E0.09190
G1 X228.466 Y102.136 E0.01710
G1 X225.877 Y99.547 E0.11608
G1 X225.338 Y99.547 E0.01710
G1 X228.466 Y102.675 E0.14026
G1 X228.466 Y103.215 E0.01710
G1 X224.799 Y99.547 E0.16444
G1 X224.259 Y99.547 E0.01710
G1 X228.466 Y103.754 E0.18862
G1 X228.466 Y104.293 E0.01710
G1 X223.720 Y99.547 E0.21280
G1 X223.181 Y99.547 E0.01710
G1 X228.466 Y104.832 E0.23698
G1 X228.466 Y105.372 E0.01710
G1 X222.642 Y99.547 E0.26116
G1 X222.102 Y99.547 E0.01710
G1 X228.466 Y105.911 E0.28534
G1 X228.466 Y106.450 E0.01710
G1 X221.563 Y99.547 E0.30952
G1 X221.024 Y99.547 E0.01710
G1 X228.466 Y106.989 E0.33370
G1 X228.466 Y107.529 E0.01710
G1 X220.485 Y99.547 E0.35787
G1 X219.945 Y99.547 E0.01710
G1 X228.466 Y108.068 E0.38205
G1 X228.466 Y108.607 E0.01710
G1 X219.406 Y99.547 E0.40623
G1 X218.867 Y99.547 E0.01710
G1 X228.466 Y109.146 E0.43041
G1 X228.466 Y109.686 E0.01710
G1 X218.328 Y99.547 E0.45459
G1 X217.788 Y99.547 E0.01710
G1 X228.466 Y110.225 E0.47877
G1 X228.466 Y110.453 E0.00723
G1 X228.155 Y110.453 E0.00987
G1 X217.249 Y99.547 E0.48899
G1 X216.710 Y99.547 E0.01710
G1 X227.615 Y110.453 E0.48899
G1 X227.076 Y110.453 E0.01710
G1 X216.171 Y99.547 E0.48899
G1 X215.631 Y99.547 E0.01710
G1 X226.537 Y110.453 E0.48899
G1 X225.998 Y110.453 E0.01710
G1 X215.092 Y99.547 E0.48899
G1 X214.553 Y99.547 E0.01710
G1 X225.458 Y110.453 E0.48899
G1 X224.919 Y110.453 E0.01710
G1 X214.014 Y99.547 E0.48899
G1 X213.474 Y99.547 E0.01710
G1 X224.380 Y110.453 E0.48899
G1 X223.841 Y110.453 E0.01710
G1 X212.935 Y99.547 E0.48899
G1 X212.396 Y99.547 E0.01710
G1 X223.301 Y110.453 E0.48899
M73 P2 R135
G1 X222.762 Y110.453 E0.01710
G1 X211.857 Y99.547 E0.48899
G1 X211.317 Y99.547 E0.01710
G1 X222.223 Y110.453 E0.48899
G1 X221.684 Y110.453 E0.01710
G1 X210.778 Y99.547 E0.48899
G1 X210.239 Y99.547 E0.01710
G1 X221.144 Y110.453 E0.48899
G1 X220.605 Y110.453 E0.01710
G1 X209.700 Y99.547 E0.48899
G1 X209.160 Y99.547 E0.01710
G1 X220.066 Y110.453 E0.48899
G1 X219.527 Y110.453 E0.01710
G1 X208.621 Y99.547 E0.48899
G1 X208.082 Y99.547 E0.01710
G1 X218.987 Y110.453 E0.48899
G1 X218.448 Y110.453 E0.01710
G1 X207.543 Y99.547 E0.48899
G1 X207.003 Y99.547 E0.01710
G1 X217.909 Y110.453 E0.48899
G1 X217.370 Y110.453 E0.01710
G1 X206.464 Y99.547 E0.48899
G1 X205.925 Y99.547 E0.01710
G1 X216.830 Y110.453 E0.48899
G1 X216.291 Y110.453 E0.01710
G1 X205.386 Y99.547 E0.48899
G1 X204.846 Y99.547 E0.01710
G1 X215.752 Y110.453 E0.48899
G1 X215.213 Y110.453 E0.01710
G1 X204.307 Y99.547 E0.48899
G1 X203.768 Y99.547 E0.01710
G1 X214.673 Y110.453 E0.48899
G1 X214.134 Y110.453 E0.01710
G1 X203.229 Y99.547 E0.48899
G1 X202.689 Y99.547 E0.01710
G1 X213.595 Y110.453 E0.48899
G1 X213.056 Y110.453 E0.01710
G1 X202.150 Y99.547 E0.48899
G1 X201.611 Y99.547 E0.01710
G1 X212.516 Y110.453 E0.48899
G1 X211.977 Y110.453 E0.01710
G1 X201.072 Y99.547 E0.48899
G1 X200.760 Y99.547 E0.00987
G1 X200.760 Y99.775 E0.00723
G1 X211.438 Y110.453 E0.47877
G1 X210.899 Y110.453 E0.01710
G1 X200.760 Y100.315 E0.45459
G1 X200.760 Y100.854 E0.01710
G1 X210.359 Y110.453 E0.43041
G1 X209.820 Y110.453 E0.01710
G1 X200.760 Y101.393 E0.40623
G1 X200.760 Y101.932 E0.01710
G1 X209.281 Y110.453 E0.38205
G1 X208.742 Y110.453 E0.01710
G1 X200.760 Y102.472 E0.35787
G1 X200.760 Y103.011 E0.01710
G1 X208.202 Y110.453 E0.33369
G1 X207.663 Y110.453 E0.01710
G1 X200.760 Y103.550 E0.30951
