; generated by PrusaSlicer 2.2.0+win64 on 2020-11-09 at 23:54:48 UTC

; 

; external perimeters extrusion width = 0.45mm
; perimeters extrusion width = 0.45mm
; infill extrusion width = 0.45mm
; solid infill extrusion width = 0.45mm
; top infill extrusion width = 0.40mm
; first layer extrusion width = 0.42mm

M73 P0 R39
M201 X9000 Y9000 Z500 E10000 ; sets maximum accelerations, mm/sec^2
M203 X500 Y500 Z12 E120 ; sets maximum feedrates, mm/sec
M204 P2000 R1500 T2000 ; sets acceleration (P, T) and retract acceleration (R), mm/sec^2
M205 X10.00 Y10.00 Z0.20 E2.50 ; sets the jerk limits, mm/sec
M205 S0 T0 ; sets the minimum extruding and travel feed rate, mm/sec
M107
M862.3 P "MK2.5SMMU2S" ; printer model check
M862.1 P0.4 ; nozzle diameter check
M115 U3.8.0 ; tell printer latest fw version
G90 ; use absolute coordinates
M83 ; extruder relative mode
M104 S215 ; set extruder temp
M140 S60 ; set bed temp
Tx
M190 S60 ; wait for bed temp
M109 S215 ; wait for extruder temp
G28 W ; home all without mesh bed level
G80 ; mesh bed leveling

G21 ; set units to millimeters

;go outside print area
G1 Y-3.0 F1000.0
G1 Z0.4 F1000.0
; select extruder
Tc
; purge line
G1 X55.0 F2000.0
G1 Z0.3 F1000.0
G92 E0.0
G1 X240.0 E25.0 F2200.0
M73 P0 R39
G1 Y-2.0 F1000.0
G1 X55.0 E25 F1400.0
G1 Z0.20 F1000.0
G1 X5.0 E4.0 F1000.0
G92 E0.0
G21 ; set units to millimeters
G90 ; use absolute coordinates
M83 ; use relative distances for extrusion
M900 K0.06 ; Filament gcode LA 1.5
M900 K30 ; Filament gcode LA 1.0
;BEFORE_LAYER_CHANGE
G92 E0.0
;0.2


G1 E-0.80000 F2100.00000
G1 Z0.600 F10800.000
;AFTER_LAYER_CHANGE
;0.2
G1 X86.986 Y59.494
G1 Z0.200
G1 E0.80000 F2100.00000
M204 S1000
G1 F1200.000
G1 X87.803 Y58.335 E0.04446
G1 X88.585 Y57.428 E0.03755
G1 X89.448 Y56.604 E0.03743
G1 X90.558 Y55.733 E0.04422
G1 X91.688 Y55.030 E0.04172
G1 X92.958 Y54.417 E0.04422
G1 X94.078 Y54.005 E0.03743
G1 X95.233 Y53.703 E0.03743
G1 X96.615 Y53.482 E0.04387
G1 X97.940 Y53.413 E0.04160
G1 X152.050 Y53.413 E1.69659
G1 X153.350 Y53.479 E0.04081
G1 X154.635 Y53.676 E0.04077
G1 X155.902 Y54.003 E0.04101
G1 X157.026 Y54.415 E0.03754
G1 X158.405 Y55.090 E0.04815
G1 X159.429 Y55.733 E0.03790
G1 X160.454 Y56.527 E0.04065
G1 X161.397 Y57.422 E0.04077
G1 X162.187 Y58.337 E0.03790
G1 X163.064 Y59.599 E0.04818
G1 X163.642 Y60.647 E0.03752
G1 X164.157 Y61.849 E0.04101
G1 X164.544 Y63.086 E0.04065
G1 X164.806 Y64.352 E0.04053
G1 X164.944 Y65.786 E0.04518
G1 X164.943 Y120.822 E1.72563
G1 X164.810 Y122.188 E0.04303
G1 X164.548 Y123.466 E0.04089
G1 X164.156 Y124.721 E0.04124
G1 X163.673 Y125.855 E0.03862
G1 X162.946 Y127.160 E0.04684
G1 X162.257 Y128.144 E0.03766
G1 X161.482 Y129.052 E0.03743
G1 X160.458 Y130.038 E0.04458
G1 X159.335 Y130.898 E0.04434
G1 X117.672 Y154.997 E1.50912
G1 X116.544 Y155.547 E0.03933
G1 X115.222 Y156.026 E0.04410
G1 X114.066 Y156.323 E0.03743
G1 X112.894 Y156.505 E0.03719
G1 X111.577 Y156.584 E0.04136
G1 X110.176 Y156.522 E0.04398
G1 X108.875 Y156.323 E0.04125
G1 X107.602 Y155.994 E0.04125
G1 X106.344 Y155.526 E0.04208
G1 X105.208 Y154.967 E0.03969
G1 X104.190 Y154.337 E0.03754
G1 X103.060 Y153.473 E0.04458
G1 X102.033 Y152.485 E0.04470
G1 X101.255 Y151.574 E0.03754
G1 X100.537 Y150.546 E0.03934
G1 X86.924 Y126.969 E0.85361
G1 X86.350 Y125.928 E0.03728
G1 X85.872 Y124.822 E0.03778
G1 X85.419 Y123.374 E0.04756
G1 X85.177 Y122.178 E0.03826
G1 X85.045 Y120.793 E0.04363
G1 X85.045 Y65.757 E1.72563
G1 X85.179 Y64.379 E0.04339
G1 X85.440 Y63.102 E0.04089
G1 X85.833 Y61.846 E0.04125
G1 X86.316 Y60.713 E0.03862
G1 X86.957 Y59.546 E0.04175
G1 E-0.80000 F2100.00000
G1 Z0.800 F10800.000
G1 X116.830 Y136.240
G1 Z0.200
G1 E0.80000 F2100.00000
G1 F1200.000
G1 X117.971 Y137.279 E0.04838
G1 X118.635 Y138.032 E0.03147
G1 X119.211 Y138.854 E0.03147
G1 X119.694 Y139.734 E0.03147
G1 X120.303 Y141.207 E0.04999
G1 X118.830 Y141.716 E0.04887
G1 X117.808 Y141.986 E0.03314
G1 X116.757 Y142.181 E0.03352
G1 X115.685 Y142.298 E0.03380
G1 X114.600 Y142.336 E0.03404
G1 X112.586 Y142.259 E0.06318
G1 X113.788 Y140.056 E0.07869
G1 X114.402 Y139.090 E0.03587
G1 X115.045 Y138.205 E0.03431
G1 X115.755 Y137.360 E0.03462
G1 X116.789 Y136.284 E0.04679
G1 E-0.80000 F2100.00000
G1 Z0.800 F10800.000
G1 X113.209 Y141.906
G1 Z0.200
G1 E0.80000 F2100.00000
G1 F1200.000
G1 X114.113 Y140.247 E0.05921
G1 X114.714 Y139.303 E0.03510
G1 X115.343 Y138.438 E0.03353
G1 X116.036 Y137.612 E0.03381
G1 X116.848 Y136.766 E0.03676
G1 X117.702 Y137.544 E0.03621
G1 X118.338 Y138.266 E0.03017
G1 X118.891 Y139.053 E0.03017
G1 X119.353 Y139.897 E0.03017
G1 X119.802 Y140.981 E0.03679
G1 X118.720 Y141.355 E0.03589
G1 X117.725 Y141.618 E0.03226
G1 X116.702 Y141.808 E0.03264
G1 X115.658 Y141.922 E0.03292
G1 X114.601 Y141.959 E0.03317
G1 X113.269 Y141.908 E0.04179
G1 X112.831 Y141.774 F10800.000
G1 E-0.80000 F2100.00000
G1 Z0.800 F10800.000
G1 X111.563 Y152.797
G1 Z0.200
G1 E0.80000 F2100.00000
G1 F1200.000
G1 X110.505 Y152.752 E0.03320
G1 X110.501 Y152.799 E0.00147
G1 X110.246 Y152.741 E0.00819
G1 X109.988 Y152.730 E0.00812
G1 X109.994 Y152.684 E0.00146
G1 X109.034 Y152.467 E0.03085
G1 X108.213 Y152.197 E0.02710
G1 X107.421 Y151.850 E0.02710
G1 X106.666 Y151.431 E0.02710
G1 X106.051 Y151.008 E0.02338
G1 X106.017 Y151.098 E0.00300
G1 X105.646 Y150.730 E0.01640
G1 X105.571 Y150.678 E0.00286
G1 X105.578 Y150.663 E0.00054
G1 X104.722 Y149.815 E0.03776
G1 X104.122 Y149.083 E0.02970
G1 X103.601 Y148.292 E0.02970
G1 X103.164 Y147.451 E0.02970
G1 X102.818 Y146.570 E0.02970
G1 X102.564 Y145.657 E0.02970
G1 X102.407 Y144.723 E0.02970
G1 X102.347 Y143.781 E0.02958
G1 X102.306 Y143.776 E0.00130
G1 X102.331 Y143.519 E0.00808
G1 X102.299 Y143.021 E0.01563
G1 X102.377 Y143.039 E0.00249
G1 X102.440 Y142.370 E0.02107
G1 X102.608 Y141.506 E0.02762
G1 X102.859 Y140.661 E0.02762
G1 X103.190 Y139.845 E0.02762
G1 X103.539 Y139.177 E0.02364
G1 X103.480 Y139.149 E0.00205
G1 X103.727 Y138.817 E0.01297
G1 X103.868 Y138.549 E0.00949
G1 X103.909 Y138.573 E0.00151
G1 X104.435 Y137.867 E0.02760
G1 X105.051 Y137.193 E0.02861
G1 X105.730 Y136.585 E0.02861
G1 X106.467 Y136.047 E0.02861
G1 X107.856 Y135.233 E0.05046
G1 X108.370 Y136.790 E0.05142
G1 X108.533 Y137.553 E0.02443
G1 X108.637 Y138.383 E0.02625
G1 X108.681 Y139.465 E0.03393
G1 X108.720 Y138.447 E0.03192
G1 X108.697 Y137.454 E0.03116
G1 X108.614 Y136.523 E0.02930
G1 X108.376 Y135.051 E0.04676
G1 X109.789 Y134.710 E0.04557
G1 X110.720 Y134.585 E0.02946
G1 X111.614 Y134.557 E0.02804
G1 X112.595 Y134.624 E0.03083
G1 X113.522 Y134.788 E0.02951
G1 X114.425 Y135.047 E0.02946
G1 X115.986 Y135.673 E0.05272
G1 X115.180 Y136.728 E0.04161
G1 X114.670 Y137.483 E0.02859
G1 X114.177 Y138.330 E0.03071
G1 X113.694 Y139.289 E0.03368
G1 X113.210 Y140.395 E0.03785
G1 X112.524 Y142.217 E0.06105
G1 X111.971 Y142.108 E0.01765
G1 X112.507 Y142.269 E0.01754
G1 X112.227 Y143.247 E0.03189
G1 X112.612 Y142.286 E0.03247
G1 X114.036 Y142.577 E0.04558
G1 X115.200 Y142.763 E0.03697
G1 X116.371 Y142.881 E0.03690
G1 X117.554 Y142.926 E0.03711
G1 X118.743 Y142.896 E0.03728
G1 X120.595 Y142.736 E0.05828
G1 X120.568 Y144.301 E0.04907
G1 X120.455 Y145.238 E0.02961
G1 X120.245 Y146.159 E0.02961
G1 X119.941 Y147.053 E0.02961
G1 X119.547 Y147.911 E0.02961
G1 X119.066 Y148.724 E0.02961
G1 X118.503 Y149.482 E0.02961
G1 X117.491 Y150.586 E0.04694
G1 X115.958 Y149.199 E0.06483
G1 X115.009 Y148.463 E0.03766
G1 X113.966 Y147.754 E0.03955
G1 X112.823 Y147.078 E0.04163
G1 X111.908 Y146.605 E0.03230
G1 X112.564 Y147.037 E0.02463
G1 X113.423 Y147.660 E0.03326
G1 X114.209 Y148.303 E0.03186
G1 X114.964 Y149.022 E0.03268
G1 X115.675 Y149.813 E0.03336
G1 X116.740 Y151.192 E0.05464
G1 X115.299 Y151.954 E0.05111
G1 X114.404 Y152.312 E0.03023
G1 X113.476 Y152.574 E0.03023
G1 X112.525 Y152.736 E0.03023
G1 X111.623 Y152.793 E0.02835
G1 E-0.80000 F2100.00000
G1 Z0.800 F10800.000
G1 X117.466 Y150.055
G1 Z0.200
G1 E0.80000 F2100.00000
G1 F1200.000
G1 X116.200 Y148.910 E0.05352
G1 X115.231 Y148.157 E0.03849
G1 X114.168 Y147.436 E0.04029
G1 X113.006 Y146.748 E0.04233
G1 X111.624 Y146.033 E0.04877
G1 X112.271 Y144.149 E0.06247
G1 X112.845 Y142.718 E0.04833
G1 X113.968 Y142.948 E0.03596
G1 X115.152 Y143.137 E0.03757
G1 X116.345 Y143.258 E0.03761
G1 X117.552 Y143.303 E0.03785
G1 X118.764 Y143.273 E0.03801
G1 X120.211 Y143.148 E0.04554
G1 X120.192 Y144.275 E0.03535
G1 X120.083 Y145.173 E0.02839
G1 X119.882 Y146.056 E0.02839
G1 X119.591 Y146.913 E0.02839
G1 X119.212 Y147.736 E0.02839
G1 X118.751 Y148.515 E0.02839
G1 X118.212 Y149.242 E0.02839
G1 X117.507 Y150.011 E0.03270
G1 X117.202 Y150.355 F10800.000
G1 E-0.80000 F2100.00000
G1 Z0.800 F10800.000
G1 X111.162 Y145.818
G1 Z0.200
G1 E0.80000 F2100.00000
G1 F1200.000
G1 X109.651 Y145.195 E0.05125
G1 X108.167 Y144.659 E0.04947
G1 X108.550 Y143.031 E0.05241
G1 X108.847 Y141.470 E0.04983
G1 X110.442 Y142.043 E0.05315
G1 X112.042 Y142.523 E0.05236
G1 X111.576 Y144.145 E0.05290
G1 X111.176 Y145.760 E0.05216
G1 X111.025 Y146.194 F10800.000
G1 E-0.80000 F2100.00000
G1 Z0.800 F10800.000
G1 X110.166 Y152.336
G1 Z0.200
G1 E0.80000 F2100.00000
G1 F1200.000
G1 X109.135 Y152.103 E0.03315
G1 X108.348 Y151.844 E0.02598
G1 X107.589 Y151.512 E0.02598
G1 X106.865 Y151.110 E0.02598
G1 X106.045 Y150.547 E0.03119
G1 X106.370 Y149.830 E0.02467
G1 X106.976 Y148.357 E0.04995
G1 X107.506 Y146.859 E0.04981
G1 X108.053 Y145.082 E0.05832
G1 X109.845 Y145.886 E0.06159
G1 X111.015 Y146.499 E0.04141
G1 X110.558 Y149.021 E0.08037
G1 X110.322 Y150.705 E0.05333
G1 X110.172 Y152.276 E0.04949
G1 X110.092 Y152.729 F10800.000
G1 X111.559 Y152.419
G1 F1200.000
G1 X110.417 Y152.371 E0.03585
G1 X110.788 Y149.639 E0.08645
G1 X111.046 Y148.380 E0.04029
G1 X111.425 Y146.738 E0.05284
G1 X112.349 Y147.347 E0.03470
G1 X113.192 Y147.958 E0.03265
G1 X113.959 Y148.586 E0.03107
G1 X114.693 Y149.285 E0.03178
G1 X115.386 Y150.054 E0.03245
G1 X116.168 Y151.068 E0.04015
G1 X115.140 Y151.611 E0.03645
G1 X114.282 Y151.955 E0.02898
G1 X113.393 Y152.205 E0.02898
G1 X112.482 Y152.361 E0.02898
G1 X111.619 Y152.415 E0.02710
G1 X111.363 Y152.768 F10800.000
G1 E-0.80000 F2100.00000
G1 Z0.800 F10800.000
G1 X105.869 Y150.420
G1 Z0.200
G1 E0.80000 F2100.00000
G1 F1200.000
G1 X105.001 Y149.561 E0.03829
G1 X104.426 Y148.859 E0.02847
G1 X103.926 Y148.101 E0.02847
G1 X103.508 Y147.295 E0.02847
G1 X103.176 Y146.450 E0.02847
G1 X102.933 Y145.575 E0.02847
G1 X102.782 Y144.680 E0.02847
G1 X102.708 Y143.503 E0.03697
G1 X104.602 Y143.942 E0.06098
G1 X106.051 Y144.368 E0.04737
G1 X107.651 Y144.927 E0.05314
G1 X107.101 Y146.949 E0.06572
G1 X106.616 Y148.431 E0.04889
G1 X105.890 Y150.364 E0.06475
G1 X105.632 Y150.743 F10800.000
G1 E-0.80000 F2100.00000
G1 Z0.800 F10800.000
G1 X107.743 Y144.523
G1 Z0.200
G1 E0.80000 F2100.00000
G1 F1200.000
G1 X106.947 Y144.289 E0.02601
G1 X105.602 Y143.946 E0.04353
G1 X104.265 Y143.678 E0.04275
G1 X102.716 Y143.454 E0.04909
G1 X102.814 Y142.424 E0.03243
G1 X102.975 Y141.595 E0.02647
G1 X103.215 Y140.786 E0.02647
G1 X103.533 Y140.004 E0.02647
G1 X104.020 Y139.071 E0.03300
G1 X105.291 Y139.799 E0.04594
G1 X106.647 Y140.498 E0.04781
G1 X108.246 Y141.221 E0.05503
G1 X108.042 Y142.885 E0.05255
G1 X107.754 Y144.464 E0.05035
G1 X107.647 Y144.912 F10800.000
G1 E-0.80000 F2100.00000
G1 Z0.800 F10800.000
G1 X108.281 Y140.821
G1 Z0.200
G1 E0.80000 F2100.00000
G1 F1200.000
G1 X107.006 Y140.347 E0.04265
G1 X105.787 Y139.828 E0.04152
G1 X104.057 Y139.006 E0.06006
G1 X104.726 Y138.107 E0.03512
G1 X105.316 Y137.462 E0.02742
G1 X105.968 Y136.878 E0.02742
G1 X106.674 Y136.363 E0.02742
G1 X107.644 Y135.794 E0.03524
G1 X108.006 Y136.889 E0.03615
G1 X108.161 Y137.615 E0.02328
G1 X108.261 Y138.416 E0.02530
G1 X108.306 Y139.315 E0.02822
G1 X108.282 Y140.761 E0.04533
G1 X108.188 Y141.210 F10800.000
G1 E-0.80000 F2100.00000
G1 Z0.800 F10800.000
G1 X112.283 Y141.785
G1 Z0.200
G1 E0.80000 F2100.00000
G1 F1200.000
G1 X110.400 Y141.415 E0.06017
G1 X108.911 Y141.019 E0.04833
G1 X109.055 Y139.534 E0.04677
G1 X109.097 Y138.450 E0.03401
G1 X109.074 Y137.433 E0.03191
G1 X108.989 Y136.476 E0.03012
G1 X108.804 Y135.335 E0.03623
G1 X109.859 Y135.081 E0.03400
G1 X110.751 Y134.961 E0.02824
G1 X111.607 Y134.935 E0.02685
G1 X112.550 Y134.999 E0.02961
G1 X113.437 Y135.156 E0.02826
G1 X114.303 Y135.404 E0.02824
G1 X115.385 Y135.838 E0.03656
G1 X114.874 Y136.508 E0.02641
G1 X114.351 Y137.283 E0.02932
G1 X113.845 Y138.150 E0.03146
G1 X113.352 Y139.128 E0.03436
G1 X112.861 Y140.253 E0.03848
G1 X112.305 Y141.729 E0.04947
G1 X112.182 Y142.172 F10800.000
G1 E-0.80000 F2100.00000
G1 Z0.800 F10800.000
G1 X111.468 Y153.622
G1 Z0.200
G1 E0.80000 F2100.00000
G1 F1200.000
G1 X110.462 Y153.571 E0.03159
G1 X109.466 Y153.418 E0.03159
G1 X108.491 Y153.165 E0.03159
G1 X107.546 Y152.816 E0.03159
G1 X106.758 Y152.429 E0.02751
G1 X105.784 Y151.837 E0.03575
G1 X104.990 Y151.222 E0.03149
G1 X104.259 Y150.528 E0.03159
G1 X103.603 Y149.764 E0.03159
G1 X103.028 Y148.937 E0.03159
G1 X102.539 Y148.056 E0.03159
G1 X102.141 Y147.130 E0.03159
G1 X101.840 Y146.169 E0.03159
G1 X101.637 Y145.182 E0.03159
G1 X101.535 Y144.179 E0.03159
G1 X101.535 Y143.172 E0.03159
G1 X101.637 Y142.170 E0.03159
G1 X101.840 Y141.183 E0.03159
G1 X102.141 Y140.221 E0.03159
G1 X102.539 Y139.296 E0.03159
G1 X103.028 Y138.415 E0.03159
G1 X103.603 Y137.588 E0.03159
G1 X104.259 Y136.823 E0.03159
G1 X104.990 Y136.129 E0.03159
G1 X105.786 Y135.512 E0.03159
G1 X106.641 Y134.979 E0.03159
G1 X107.546 Y134.536 E0.03159
G1 X108.491 Y134.186 E0.03159
G1 X109.466 Y133.933 E0.03159
G1 X110.462 Y133.781 E0.03159
G1 X111.468 Y133.730 E0.03159
G1 X112.344 Y133.774 E0.02751
G1 X113.473 Y133.934 E0.03575
G1 X114.446 Y134.186 E0.03149
G1 X115.390 Y134.536 E0.03159
G1 X116.295 Y134.979 E0.03159
G1 X117.150 Y135.512 E0.03159
G1 X117.947 Y136.129 E0.03159
G1 X118.677 Y136.823 E0.03159
G1 X119.333 Y137.588 E0.03159
G1 X119.909 Y138.415 E0.03159
G1 X120.398 Y139.296 E0.03159
G1 X120.795 Y140.221 E0.03159
G1 X121.097 Y141.183 E0.03159
G1 X121.299 Y142.170 E0.03159
G1 X121.401 Y143.172 E0.03159
G1 X121.401 Y144.179 E0.03159
G1 X121.299 Y145.182 E0.03159
G1 X121.097 Y146.169 E0.03159
G1 X120.795 Y147.130 E0.03159
G1 X120.398 Y148.056 E0.03159
G1 X119.909 Y148.937 E0.03159
G1 X119.333 Y149.764 E0.03159
G1 X118.677 Y150.528 E0.03159
G1 X117.947 Y151.222 E0.03159
G1 X117.150 Y151.839 E0.03159
G1 X116.295 Y152.372 E0.03159
G1 X115.390 Y152.816 E0.03159
G1 X114.446 Y153.165 E0.03159
G1 X113.470 Y153.418 E0.03159
G1 X112.474 Y153.571 E0.03159
G1 X111.528 Y153.619 E0.02971
G1 X111.468 Y153.999 F10800.000
G1 F1200.000
G1 X110.424 Y153.946 E0.03279
G1 X109.390 Y153.788 E0.03279
G1 X108.378 Y153.526 E0.03279
G1 X107.397 Y153.163 E0.03279
G1 X106.577 Y152.760 E0.02864
G1 X105.570 Y152.148 E0.03695
G1 X104.744 Y151.509 E0.03275
G1 X103.986 Y150.788 E0.03279
G1 X103.305 Y149.995 E0.03279
G1 X102.707 Y149.136 E0.03279
G1 X102.200 Y148.222 E0.03279
G1 X101.787 Y147.261 E0.03279
G1 X101.474 Y146.263 E0.03279
G1 X101.264 Y145.239 E0.03279
G1 X101.158 Y144.199 E0.03279
G1 X101.158 Y143.153 E0.03279
G1 X101.264 Y142.112 E0.03279
G1 X101.474 Y141.088 E0.03279
G1 X101.787 Y140.090 E0.03279
G1 X102.200 Y139.129 E0.03279
G1 X102.707 Y138.215 E0.03279
G1 X103.305 Y137.357 E0.03279
G1 X103.986 Y136.563 E0.03279
G1 X104.744 Y135.843 E0.03279
G1 X105.571 Y135.203 E0.03279
G1 X106.458 Y134.649 E0.03279
G1 X107.397 Y134.189 E0.03279
G1 X108.378 Y133.826 E0.03279
G1 X109.390 Y133.563 E0.03279
G1 X110.424 Y133.405 E0.03279
G1 X111.468 Y133.352 E0.03279
G1 X112.381 Y133.398 E0.02864
G1 X113.547 Y133.564 E0.03695
G1 X114.559 Y133.826 E0.03275
G1 X115.539 Y134.189 E0.03279
G1 X116.478 Y134.649 E0.03279
G1 X117.366 Y135.203 E0.03279
G1 X118.193 Y135.843 E0.03279
G1 X118.951 Y136.563 E0.03279
G1 X119.632 Y137.357 E0.03279
G1 X120.229 Y138.215 E0.03279
G1 X120.737 Y139.129 E0.03279
G1 X121.149 Y140.090 E0.03279
G1 X121.462 Y141.088 E0.03279
G1 X121.673 Y142.112 E0.03279
G1 X121.778 Y143.153 E0.03279
G1 X121.778 Y144.199 E0.03279
G1 X121.673 Y145.239 E0.03279
G1 X121.462 Y146.263 E0.03279
G1 X121.149 Y147.261 E0.03279
G1 X120.737 Y148.222 E0.03279
G1 X120.229 Y149.136 E0.03279
