; generated by PrusaSlicer 2.2.0+win64 on 2020-11-09 at 23:55:05 UTC

; 

; external perimeters extrusion width = 0.45mm
; perimeters extrusion width = 0.45mm
; infill extrusion width = 0.45mm
; solid infill extrusion width = 0.45mm
; top infill extrusion width = 0.40mm
; first layer extrusion width = 0.42mm

M73 P0 R78
M201 X9000 Y9000 Z500 E10000 ; sets maximum accelerations, mm/sec^2
M203 X500 Y500 Z12 E120 ; sets maximum feedrates, mm/sec
M204 P2000 R1500 T2000 ; sets acceleration (P, T) and retract acceleration (R), mm/sec^2
M205 X10.00 Y10.00 Z0.20 E2.50 ; sets the jerk limits, mm/sec
M205 S0 T0 ; sets the minimum extruding and travel feed rate, mm/sec
M107
M862.3 P "MK2.5SMMU2S" ; printer model check
M862.1 P0.4 ; nozzle diameter check
M115 U3.8.0 ; tell printer latest fw version
G90 ; use absolute coordinates
M83 ; extruder relative mode
M104 S215 ; set extruder temp
M140 S60 ; set bed temp
Tx
M190 S60 ; wait for bed temp
M109 S215 ; wait for extruder temp
G28 W ; home all without mesh bed level
G80 ; mesh bed leveling

G21 ; set units to millimeters

;go outside print area
G1 Y-3.0 F1000.0
G1 Z0.4 F1000.0
; select extruder
Tc
; purge line
G1 X55.0 F2000.0
G1 Z0.3 F1000.0
G92 E0.0
G1 X240.0 E25.0 F2200.0
M73 P0 R78
G1 Y-2.0 F1000.0
G1 X55.0 E25 F1400.0
G1 Z0.20 F1000.0
G1 X5.0 E4.0 F1000.0
G92 E0.0
G21 ; set units to millimeters
G90 ; use absolute coordinates
M83 ; use relative distances for extrusion
M900 K0.06 ; Filament gcode LA 1.5
M900 K30 ; Filament gcode LA 1.0
;BEFORE_LAYER_CHANGE
G92 E0.0
;0.2


G1 E-0.80000 F2100.00000
G1 Z0.600 F10800.000
;AFTER_LAYER_CHANGE
;0.2
G1 X61.120 Y72.357
G1 Z0.200
G1 E0.80000 F2100.00000
M204 S1000
G1 F1200.000
G1 X61.802 Y71.140 E0.04375
G1 X62.511 Y70.128 E0.03874
G1 X63.388 Y69.112 E0.04208
G1 X90.492 Y42.101 E1.19978
G1 X91.356 Y41.284 E0.03728
G1 X92.292 Y40.556 E0.03719
G1 X93.399 Y39.852 E0.04112
G1 X94.654 Y39.225 E0.04398
G1 X95.811 Y38.792 E0.03874
G1 X97.272 Y38.415 E0.04732
G1 X98.464 Y38.236 E0.03778
G1 X99.740 Y38.170 E0.04005
G1 X153.873 Y38.170 E1.69731
G1 X155.295 Y38.252 E0.04465
G1 X156.477 Y38.436 E0.03752
G1 X157.725 Y38.759 E0.04041
G1 X159.062 Y39.263 E0.04482
G1 X160.136 Y39.793 E0.03755
G1 X161.151 Y40.422 E0.03743
G1 X162.280 Y41.286 E0.04458
G1 X163.304 Y42.272 E0.04458
G1 X164.080 Y43.179 E0.03743
G1 X164.768 Y44.164 E0.03766
G1 X165.489 Y45.455 E0.04637
G1 X165.991 Y46.638 E0.04029
G1 X189.403 Y113.986 E2.23560
G1 X189.802 Y115.295 E0.04292
G1 X190.038 Y116.460 E0.03728
G1 X190.164 Y117.678 E0.03838
G1 X190.170 Y119.073 E0.04375
G1 X190.016 Y120.488 E0.04461
G1 X189.774 Y121.652 E0.03728
G1 X189.417 Y122.799 E0.03766
G1 X188.835 Y124.162 E0.04649
G1 X164.780 Y165.819 E1.50826
G1 X164.003 Y166.915 E0.04213
G1 X163.226 Y167.815 E0.03728
G1 X162.363 Y168.640 E0.03743
G1 X161.256 Y169.508 E0.04410
G1 X160.137 Y170.206 E0.04136
G1 X158.949 Y170.789 E0.04148
G1 X157.627 Y171.269 E0.04410
G1 X156.470 Y171.565 E0.03743
G1 X155.295 Y171.748 E0.03731
G1 X153.959 Y171.828 E0.04195
G1 X72.652 Y171.829 E2.54933
G1 X71.409 Y171.764 E0.03902
G1 X70.229 Y171.586 E0.03743
G1 X68.846 Y171.237 E0.04470
G1 X67.516 Y170.735 E0.04458
G1 X66.442 Y170.205 E0.03754
G1 X65.367 Y169.536 E0.03969
G1 X64.305 Y168.717 E0.04208
G1 X63.349 Y167.808 E0.04136
G1 X62.495 Y166.812 E0.04113
G1 X61.695 Y165.645 E0.04437
G1 X61.121 Y164.604 E0.03728
G1 X60.650 Y163.515 E0.03719
G1 X60.243 Y162.256 E0.04148
G1 X59.952 Y160.884 E0.04398
G1 X59.817 Y159.537 E0.04244
G1 X59.816 Y77.454 E2.57367
G1 X59.969 Y75.983 E0.04637
G1 X60.213 Y74.807 E0.03766
G1 X60.567 Y73.670 E0.03731
G1 X61.097 Y72.412 E0.04282
G1 E-0.80000 F2100.00000
G1 Z0.800 F10800.000
G1 X178.394 Y116.997
G1 Z0.200
G1 E0.80000 F2100.00000
G1 F1200.000
G1 X179.595 Y114.794 E0.07869
G1 X180.209 Y113.829 E0.03587
G1 X180.853 Y112.944 E0.03431
G1 X181.563 Y112.098 E0.03462
G1 X182.638 Y110.979 E0.04867
G1 X183.779 Y112.017 E0.04838
G1 X184.442 Y112.771 E0.03147
G1 X185.019 Y113.592 E0.03147
G1 X185.502 Y114.472 E0.03147
G1 X186.110 Y115.945 E0.04999
G1 X184.637 Y116.454 E0.04887
G1 X183.615 Y116.725 E0.03314
G1 X182.564 Y116.920 E0.03352
G1 X181.493 Y117.037 E0.03380
G1 X180.408 Y117.074 E0.03404
G1 X178.454 Y117.000 E0.06130
G1 X179.016 Y116.644 F10800.000
G1 F1200.000
G1 X179.920 Y114.986 E0.05921
G1 X180.521 Y114.041 E0.03510
G1 X181.150 Y113.176 E0.03353
G1 X181.843 Y112.350 E0.03381
G1 X182.656 Y111.505 E0.03676
G1 X183.510 Y112.282 E0.03621
G1 X184.145 Y113.004 E0.03017
G1 X184.698 Y113.792 E0.03017
G1 X185.161 Y114.635 E0.03017
G1 X185.609 Y115.719 E0.03679
G1 X184.527 Y116.093 E0.03589
G1 X183.533 Y116.357 E0.03226
G1 X182.509 Y116.546 E0.03264
G1 X181.465 Y116.660 E0.03292
G1 X180.408 Y116.697 E0.03317
G1 X179.076 Y116.646 E0.04179
G1 X178.638 Y116.512 F10800.000
G1 E-0.80000 F2100.00000
G1 Z0.800 F10800.000
G1 X177.371 Y127.535
G1 Z0.200
G1 E0.80000 F2100.00000
G1 F1200.000
G1 X176.313 Y127.490 E0.03320
G1 X176.309 Y127.537 E0.00147
G1 X176.054 Y127.479 E0.00819
G1 X175.795 Y127.468 E0.00812
G1 X175.801 Y127.422 E0.00146
G1 X174.842 Y127.205 E0.03085
G1 X174.021 Y126.935 E0.02710
G1 X173.229 Y126.589 E0.02710
G1 X172.473 Y126.169 E0.02710
G1 X171.859 Y125.747 E0.02338
G1 X171.825 Y125.836 E0.00300
G1 X171.453 Y125.468 E0.01640
G1 X171.378 Y125.417 E0.00286
G1 X171.385 Y125.401 E0.00054
G1 X170.530 Y124.554 E0.03776
G1 X169.929 Y123.821 E0.02970
G1 X169.408 Y123.030 E0.02970
G1 X168.972 Y122.189 E0.02970
G1 X168.625 Y121.308 E0.02970
G1 X168.372 Y120.395 E0.02970
G1 X168.214 Y119.461 E0.02970
G1 X168.155 Y118.520 E0.02958
G1 X168.114 Y118.514 E0.00130
G1 X168.138 Y118.257 E0.00808
G1 X168.107 Y117.760 E0.01563
G1 X168.184 Y117.778 E0.00249
G1 X168.248 Y117.109 E0.02107
G1 X168.416 Y116.244 E0.02762
G1 X168.667 Y115.400 E0.02762
G1 X168.998 Y114.583 E0.02762
G1 X169.347 Y113.915 E0.02364
G1 X169.288 Y113.887 E0.00205
G1 X169.535 Y113.555 E0.01297
G1 X169.675 Y113.287 E0.00949
G1 X169.717 Y113.311 E0.00151
G1 X170.243 Y112.605 E0.02760
G1 X170.858 Y111.932 E0.02861
G1 X171.538 Y111.323 E0.02861
G1 X172.275 Y110.785 E0.02861
G1 X173.663 Y109.972 E0.05046
G1 X174.178 Y111.529 E0.05142
G1 X174.340 Y112.291 E0.02443
G1 X174.445 Y113.121 E0.02625
G1 X174.488 Y114.203 E0.03393
G1 X174.527 Y113.186 E0.03192
G1 X174.505 Y112.192 E0.03116
G1 X174.422 Y111.261 E0.02930
G1 X174.184 Y109.789 E0.04676
G1 X175.597 Y109.448 E0.04557
G1 X176.528 Y109.323 E0.02946
G1 X177.422 Y109.296 E0.02804
G1 X178.403 Y109.362 E0.03083
G1 X179.330 Y109.527 E0.02951
G1 X180.233 Y109.785 E0.02946
G1 X181.793 Y110.411 E0.05272
G1 X180.988 Y111.466 E0.04161
G1 X180.478 Y112.222 E0.02859
G1 X179.985 Y113.068 E0.03071
G1 X179.501 Y114.027 E0.03368
G1 X179.018 Y115.133 E0.03785
G1 X178.331 Y116.955 E0.06105
G1 X177.779 Y116.847 E0.01765
G1 X178.315 Y117.008 E0.01754
G1 X178.034 Y117.985 E0.03189
G1 X178.420 Y117.024 E0.03247
G1 X179.844 Y117.316 E0.04558
G1 X181.008 Y117.502 E0.03697
G1 X182.179 Y117.620 E0.03690
G1 X183.362 Y117.664 E0.03711
G1 X184.550 Y117.635 E0.03728
G1 X186.402 Y117.474 E0.05828
G1 X186.376 Y119.039 E0.04907
G1 X186.263 Y119.976 E0.02961
G1 X186.053 Y120.897 E0.02961
G1 X185.749 Y121.792 E0.02961
G1 X185.354 Y122.650 E0.02961
G1 X184.873 Y123.462 E0.02961
G1 X184.310 Y124.221 E0.02961
G1 X183.299 Y125.324 E0.04694
G1 X181.766 Y123.938 E0.06483
G1 X180.817 Y123.201 E0.03766
G1 X179.773 Y122.493 E0.03955
G1 X178.631 Y121.816 E0.04163
G1 X177.716 Y121.343 E0.03230
G1 X178.372 Y121.775 E0.02463
G1 X179.230 Y122.398 E0.03326
G1 X180.016 Y123.042 E0.03186
G1 X180.771 Y123.760 E0.03268
G1 X181.483 Y124.551 E0.03336
G1 X182.548 Y125.931 E0.05464
G1 X181.106 Y126.692 E0.05111
G1 X180.211 Y127.050 E0.03023
G1 X179.283 Y127.312 E0.03023
G1 X178.333 Y127.474 E0.03023
G1 X177.431 Y127.531 E0.02835
G1 E-0.80000 F2100.00000
G1 Z0.800 F10800.000
G1 X183.274 Y124.793
G1 Z0.200
G1 E0.80000 F2100.00000
G1 F1200.000
G1 X182.008 Y123.648 E0.05352
G1 X181.038 Y122.896 E0.03849
G1 X179.975 Y122.174 E0.04029
G1 X178.814 Y121.486 E0.04233
G1 X177.432 Y120.772 E0.04877
G1 X178.079 Y118.887 E0.06247
G1 X178.652 Y117.457 E0.04833
G1 X179.776 Y117.687 E0.03596
G1 X180.959 Y117.876 E0.03757
G1 X182.153 Y117.996 E0.03761
G1 X183.359 Y118.041 E0.03785
G1 X184.571 Y118.011 E0.03801
G1 X186.018 Y117.886 E0.04554
G1 X185.999 Y119.013 E0.03535
G1 X185.891 Y119.912 E0.02839
G1 X185.690 Y120.795 E0.02839
G1 X185.398 Y121.652 E0.02839
G1 X185.020 Y122.474 E0.02839
G1 X184.559 Y123.253 E0.02839
G1 X184.019 Y123.980 E0.02839
G1 X183.315 Y124.749 E0.03270
G1 X183.010 Y125.094 F10800.000
G1 E-0.80000 F2100.00000
G1 Z0.800 F10800.000
G1 X176.969 Y120.556
G1 Z0.200
G1 E0.80000 F2100.00000
G1 F1200.000
G1 X175.458 Y119.933 E0.05125
G1 X173.974 Y119.397 E0.04947
G1 X174.357 Y117.770 E0.05241
G1 X174.655 Y116.209 E0.04983
G1 X176.250 Y116.782 E0.05315
G1 X177.850 Y117.262 E0.05236
G1 X177.384 Y118.883 E0.05290
G1 X176.984 Y120.498 E0.05216
G1 X176.833 Y120.932 F10800.000
G1 E-0.80000 F2100.00000
G1 Z0.800 F10800.000
G1 X175.974 Y127.075
G1 Z0.200
G1 E0.80000 F2100.00000
G1 F1200.000
G1 X174.943 Y126.841 E0.03315
G1 X174.156 Y126.582 E0.02598
G1 X173.396 Y126.250 E0.02598
G1 X172.672 Y125.848 E0.02598
G1 X171.852 Y125.285 E0.03119
G1 X172.178 Y124.569 E0.02467
G1 X172.784 Y123.095 E0.04995
G1 X173.314 Y121.598 E0.04981
G1 X173.861 Y119.820 E0.05832
G1 X175.653 Y120.624 E0.06159
G1 X176.823 Y121.237 E0.04141
G1 X176.366 Y123.759 E0.08037
G1 X176.129 Y125.444 E0.05333
G1 X175.980 Y127.015 E0.04949
G1 X175.899 Y127.468 F10800.000
G1 X177.367 Y127.158
G1 F1200.000
G1 X176.225 Y127.109 E0.03585
G1 X176.595 Y124.377 E0.08645
G1 X176.853 Y123.118 E0.04029
G1 X177.233 Y121.476 E0.05284
G1 X178.157 Y122.085 E0.03470
G1 X179.000 Y122.697 E0.03265
G1 X179.767 Y123.325 E0.03107
G1 X180.501 Y124.023 E0.03178
G1 X181.193 Y124.793 E0.03245
G1 X181.976 Y125.806 E0.04015
G1 X180.948 Y126.350 E0.03645
G1 X180.090 Y126.693 E0.02898
G1 X179.200 Y126.944 E0.02898
G1 X178.289 Y127.099 E0.02898
G1 X177.427 Y127.154 E0.02710
G1 X177.171 Y127.506 F10800.000
G1 E-0.80000 F2100.00000
G1 Z0.800 F10800.000
G1 X171.677 Y125.159
G1 Z0.200
G1 E0.80000 F2100.00000
G1 F1200.000
G1 X170.809 Y124.299 E0.03829
G1 X170.233 Y123.597 E0.02847
G1 X169.734 Y122.839 E0.02847
G1 X169.316 Y122.033 E0.02847
G1 X168.983 Y121.188 E0.02847
G1 X168.740 Y120.313 E0.02847
G1 X168.589 Y119.418 E0.02847
G1 X168.515 Y118.241 E0.03697
G1 X170.410 Y118.680 E0.06098
G1 X171.859 Y119.106 E0.04737
G1 X173.459 Y119.665 E0.05314
G1 X172.908 Y121.687 E0.06572
G1 X172.423 Y123.169 E0.04889
G1 X171.698 Y125.103 E0.06475
G1 X171.440 Y125.481 F10800.000
G1 E-0.80000 F2100.00000
G1 Z0.800 F10800.000
G1 X173.551 Y119.262
G1 Z0.200
G1 E0.80000 F2100.00000
G1 F1200.000
G1 X172.755 Y119.028 E0.02601
G1 X171.410 Y118.684 E0.04353
G1 X170.073 Y118.417 E0.04275
G1 X168.523 Y118.192 E0.04909
G1 X168.622 Y117.163 E0.03243
G1 X168.783 Y116.334 E0.02647
G1 X169.023 Y115.524 E0.02647
G1 X169.340 Y114.742 E0.02647
G1 X169.828 Y113.809 E0.03300
G1 X171.099 Y114.538 E0.04594
G1 X172.454 Y115.237 E0.04781
G1 X174.053 Y115.959 E0.05503
G1 X173.850 Y117.623 E0.05255
G1 X173.561 Y119.203 E0.05035
G1 X173.455 Y119.650 F10800.000
G1 E-0.80000 F2100.00000
G1 Z0.800 F10800.000
G1 X174.088 Y115.559
G1 Z0.200
G1 E0.80000 F2100.00000
G1 F1200.000
G1 X172.813 Y115.085 E0.04265
G1 X171.595 Y114.566 E0.04152
G1 X169.865 Y113.744 E0.06006
G1 X170.534 Y112.846 E0.03512
G1 X171.124 Y112.200 E0.02742
G1 X171.775 Y111.617 E0.02742
G1 X172.482 Y111.101 E0.02742
G1 X173.452 Y110.533 E0.03524
G1 X173.813 Y111.628 E0.03615
G1 X173.968 Y112.354 E0.02328
G1 X174.069 Y113.154 E0.02530
G1 X174.114 Y114.053 E0.02822
G1 X174.089 Y115.499 E0.04533
G1 X173.995 Y115.948 F10800.000
G1 E-0.80000 F2100.00000
G1 Z0.800 F10800.000
G1 X178.091 Y116.524
G1 Z0.200
G1 E0.80000 F2100.00000
G1 F1200.000
G1 X176.208 Y116.154 E0.06017
G1 X174.718 Y115.757 E0.04833
G1 X174.863 Y114.272 E0.04677
G1 X174.904 Y113.188 E0.03401
G1 X174.881 Y112.171 E0.03191
G1 X174.796 Y111.214 E0.03012
G1 X174.612 Y110.074 E0.03623
G1 X175.666 Y109.819 E0.03400
G1 X176.559 Y109.699 E0.02824
G1 X177.415 Y109.673 E0.02685
G1 X178.357 Y109.737 E0.02961
G1 X179.245 Y109.895 E0.02826
G1 X180.111 Y110.142 E0.02824
G1 X181.193 Y110.577 E0.03656
G1 X180.682 Y111.246 E0.02641
G1 X180.158 Y112.021 E0.02932
G1 X179.653 Y112.888 E0.03146
G1 X179.160 Y113.867 E0.03436
G1 X178.668 Y114.991 E0.03848
G1 X178.112 Y116.468 E0.04947
G1 X177.989 Y116.911 F10800.000
G1 E-0.80000 F2100.00000
G1 Z0.800 F10800.000
G1 X177.276 Y128.360
G1 Z0.200
G1 E0.80000 F2100.00000
G1 F1200.000
G1 X176.269 Y128.309 E0.03159
G1 X175.274 Y128.156 E0.03159
G1 X174.298 Y127.904 E0.03159
G1 X173.353 Y127.554 E0.03159
G1 X172.566 Y127.168 E0.02751
G1 X171.591 Y126.575 E0.03575
G1 X170.797 Y125.961 E0.03149
G1 X170.067 Y125.266 E0.03159
G1 X169.411 Y124.502 E0.03159
G1 X168.835 Y123.675 E0.03159
G1 X168.346 Y122.794 E0.03159
G1 X167.949 Y121.868 E0.03159
G1 X167.647 Y120.907 E0.03159
G1 X167.444 Y119.920 E0.03159
G1 X167.343 Y118.918 E0.03159
G1 X167.343 Y117.910 E0.03159
G1 X167.444 Y116.908 E0.03159
G1 X167.647 Y115.921 E0.03159
G1 X167.949 Y114.960 E0.03159
G1 X168.346 Y114.034 E0.03159
G1 X168.835 Y113.153 E0.03159
G1 X169.411 Y112.326 E0.03159
G1 X170.067 Y111.562 E0.03159
G1 X170.797 Y110.867 E0.03159
G1 X171.594 Y110.251 E0.03159
G1 X172.449 Y109.718 E0.03159
G1 X173.353 Y109.274 E0.03159
G1 X174.298 Y108.924 E0.03159
G1 X175.274 Y108.672 E0.03159
G1 X176.269 Y108.519 E0.03159
G1 X177.276 Y108.468 E0.03159
G1 X178.152 Y108.513 E0.02751
G1 X179.281 Y108.673 E0.03575
G1 X180.253 Y108.924 E0.03149
G1 X181.198 Y109.274 E0.03159
G1 X182.103 Y109.718 E0.03159
G1 X182.958 Y110.251 E0.03159
G1 X183.754 Y110.867 E0.03159
G1 X184.484 Y111.562 E0.03159
G1 X185.141 Y112.326 E0.03159
G1 X185.716 Y113.153 E0.03159
G1 X186.205 Y114.034 E0.03159
G1 X186.603 Y114.960 E0.03159
G1 X186.904 Y115.921 E0.03159
G1 X187.107 Y116.908 E0.03159
G1 X187.209 Y117.910 E0.03159
G1 X187.209 Y118.918 E0.03159
G1 X187.107 Y119.920 E0.03159
G1 X186.904 Y120.907 E0.03159
G1 X186.603 Y121.868 E0.03159
G1 X186.205 Y122.794 E0.03159
G1 X185.716 Y123.675 E0.03159
G1 X185.141 Y124.502 E0.03159
G1 X184.484 Y125.266 E0.03159
G1 X183.754 Y125.961 E0.03159
G1 X182.958 Y126.577 E0.03159
G1 X182.103 Y127.110 E0.03159
G1 X181.198 Y127.554 E0.03159
G1 X180.253 Y127.904 E0.03159
G1 X179.278 Y128.156 E0.03159
G1 X178.282 Y128.309 E0.03159
G1 X177.336 Y128.357 E0.02971
G1 X177.276 Y128.738 F10800.000
G1 F1200.000
G1 X176.231 Y128.685 E0.03279
G1 X175.198 Y128.526 E0.03279
G1 X174.185 Y128.264 E0.03279
G1 X173.205 Y127.901 E0.03279
G1 X172.384 Y127.499 E0.02864
G1 X171.377 Y126.886 E0.03695
G1 X170.551 Y126.247 E0.03275
G1 X169.793 Y125.527 E0.03279
G1 X169.112 Y124.733 E0.03279
G1 X168.515 Y123.875 E0.03279
G1 X168.007 Y122.960 E0.03279
G1 X167.595 Y121.999 E0.03279
G1 X167.282 Y121.002 E0.03279
G1 X167.071 Y119.977 E0.03279
G1 X166.965 Y118.937 E0.03279
G1 X166.965 Y117.891 E0.03279
G1 X167.071 Y116.851 E0.03279
G1 X167.282 Y115.826 E0.03279
G1 X167.595 Y114.829 E0.03279
G1 X168.007 Y113.868 E0.03279
G1 X168.515 Y112.953 E0.03279
G1 X169.112 Y112.095 E0.03279
G1 X169.793 Y111.301 E0.03279
G1 X170.551 Y110.581 E0.03279
G1 X171.378 Y109.941 E0.03279
G1 X172.266 Y109.388 E0.03279
G1 X173.205 Y108.927 E0.03279
G1 X174.185 Y108.564 E0.03279
G1 X175.198 Y108.302 E0.03279
G1 X176.231 Y108.143 E0.03279
G1 X177.276 Y108.091 E0.03279
G1 X178.188 Y108.137 E0.02864
G1 X179.355 Y108.302 E0.03695
G1 X180.366 Y108.564 E0.03275
G1 X181.347 Y108.927 E0.03279
G1 X182.286 Y109.388 E0.03279
G1 X183.173 Y109.941 E0.03279
G1 X184.000 Y110.581 E0.03279
G1 X184.758 Y111.301 E0.03279
G1 X185.439 Y112.095 E0.03279
G1 X186.037 Y112.953 E0.03279
G1 X186.544 Y113.868 E0.03279
G1 X186.957 Y114.829 E0.03279
G1 X187.270 Y115.826 E0.03279
G1 X187.480 Y116.851 E0.03279
G1 X187.586 Y117.891 E0.03279
G1 X187.586 Y118.937 E0.03279
G1 X187.480 Y119.977 E0.03279
G1 X187.270 Y121.002 E0.03279
G1 X186.957 Y121.999 E0.03279
G1 X186.544 Y122.960 E0.03279
G1 X186.037 Y123.875 E0.03279
G1 X185.439 Y124.733 E0.03279
