; generated by PrusaSlicer 2.2.0+win64 on 2020-11-10 at 00:01:08 UTC

; 

; external perimeters extrusion width = 0.60mm
; perimeters extrusion width = 0.43mm
; infill extrusion width = 0.45mm
; solid infill extrusion width = 0.70mm
; top infill extrusion width = 0.43mm
; first layer extrusion width = 0.42mm

M73 P0 R90
M201 X9000 Y9000 Z500 E10000 ; sets maximum accelerations, mm/sec^2
M203 X500 Y500 Z12 E120 ; sets maximum feedrates, mm/sec
M204 P2000 R1500 T2000 ; sets acceleration (P, T) and retract acceleration (R), mm/sec^2
M205 X10.00 Y10.00 Z0.20 E2.50 ; sets the jerk limits, mm/sec
M205 S0 T0 ; sets the minimum extruding and travel feed rate, mm/sec
M107
M862.3 P "MK2.5SMMU2S" ; printer model check
M862.1 P0.4 ; nozzle diameter check
M115 U3.8.0 ; tell printer latest fw version
G90 ; use absolute coordinates
M83 ; extruder relative mode
M104 S215 ; set extruder temp
M140 S60 ; set bed temp
Tx
M190 S60 ; wait for bed temp
M109 S215 ; wait for extruder temp
G28 W ; home all without mesh bed level
G80 ; mesh bed leveling

G21 ; set units to millimeters

;go outside print area
G1 Y-3.0 F1000.0
G1 Z0.4 F1000.0
; select extruder
Tc
; purge line
G1 X55.0 F2000.0
G1 Z0.3 F1000.0
G92 E0.0
G1 X240.0 E25.0 F2200.0
M73 P0 R90
G1 Y-2.0 F1000.0
G1 X55.0 E25 F1400.0
G1 Z0.20 F1000.0
G1 X5.0 E4.0 F1000.0
G92 E0.0
G21 ; set units to millimeters
G90 ; use absolute coordinates
M83 ; use relative distances for extrusion
M900 K0.06 ; Filament gcode LA 1.5
M900 K30 ; Filament gcode LA 1.0
;BEFORE_LAYER_CHANGE
G92 E0.0
;0.2


G1 E-0.80000 F2100.00000
G1 Z0.600 F10800.000
;AFTER_LAYER_CHANGE
;0.2
G1 X19.394 Y62.154
G1 Z0.200
G1 E0.80000 F2100.00000
M204 S1000
G1 F1200.000
G1 X19.920 Y62.154 E0.01649
G1 X19.920 Y77.400 E0.47803
G1 X18.918 Y79.136 E0.06287
G1 X19.420 Y79.735 E0.02451
G1 X19.420 Y81.099 E0.04278
G1 X18.394 Y81.099 E0.03216
G1 X18.394 Y63.814 E0.54199
G1 X19.394 Y63.814 E0.03135
G1 X19.394 Y62.214 E0.05017
G1 E-0.80000 F2100.00000
G1 Z0.800 F10800.000
G1 X4.520 Y63.814
G1 Z0.200
G1 E0.80000 F2100.00000
G1 F1200.000
G1 X4.520 Y81.099 E0.54199
G1 X3.494 Y81.099 E0.03216
G1 X3.494 Y79.735 E0.04278
G1 X3.997 Y79.136 E0.02451
G1 X2.994 Y77.400 E0.06287
G1 X2.994 Y62.154 E0.47803
G1 X3.520 Y62.154 E0.01649
G1 X3.520 Y63.814 E0.05205
G1 X4.460 Y63.814 E0.02947
G1 X3.897 Y63.436 F10800.000
G1 F1200.000
G1 X4.696 Y63.436 E0.02505
G1 X4.897 Y63.676 E0.00981
G1 X4.897 Y80.936 E0.54118
G1 X18.017 Y80.936 E0.41137
G1 X18.017 Y63.676 E0.54118
G1 X18.218 Y63.436 E0.00981
G1 X19.017 Y63.436 E0.02505
G1 X19.017 Y61.776 E0.05205
G1 X20.297 Y61.776 E0.04013
G1 X20.297 Y77.501 E0.49302
G1 X19.376 Y79.096 E0.05776
G1 X19.797 Y79.598 E0.02054
G1 X19.797 Y81.476 E0.05890
G1 X3.117 Y81.476 E0.52299
G1 X3.117 Y79.598 E0.05890
G1 X3.538 Y79.096 E0.02053
G1 X2.617 Y77.501 E0.05776
G1 X2.617 Y61.776 E0.49302
G1 X3.897 Y61.776 E0.04013
G1 X3.897 Y63.376 E0.05017
G1 X3.984 Y63.827 F10800.000
G1 X3.257 Y64.002
G1 F1200.000
G1 X3.257 Y62.342 E0.02053
G1 E-0.80000 F2100.00000
G1 Z0.800 F10800.000
G1 X4.407 Y64.704
G1 Z0.200
G1 E0.80000 F2100.00000
G1 F1200.000
G1 X3.799 Y64.096 E0.02747
G1 X3.636 Y64.096 E0.00522
G1 X3.636 Y64.285 E0.00602
G1 X3.444 Y64.285 E0.00612
G1 X4.237 Y65.078 E0.03584
G1 X4.237 Y65.621 E0.01737
G1 X3.277 Y64.661 E0.04339
G1 X3.277 Y65.205 E0.01737
G1 X4.237 Y66.165 E0.04339
G1 X4.237 Y66.708 E0.01737
G1 X3.277 Y65.748 E0.04339
G1 X3.277 Y66.292 E0.01737
G1 X4.237 Y67.252 E0.04339
G1 X4.237 Y67.795 E0.01737
G1 X3.277 Y66.835 E0.04339
G1 X3.277 Y67.379 E0.01737
G1 X4.237 Y68.339 E0.04339
G1 X4.237 Y68.882 E0.01737
G1 X3.277 Y67.922 E0.04339
G1 X3.277 Y68.466 E0.01737
G1 X4.237 Y69.426 E0.04339
G1 X4.237 Y69.969 E0.01737
G1 X3.277 Y69.009 E0.04339
G1 X3.277 Y69.552 E0.01737
G1 X4.237 Y70.513 E0.04339
G1 X4.237 Y71.056 E0.01737
G1 X3.277 Y70.096 E0.04339
G1 X3.277 Y70.639 E0.01737
G1 X4.237 Y71.600 E0.04339
G1 X4.237 Y72.143 E0.01737
G1 X3.277 Y71.183 E0.04339
G1 X3.277 Y71.726 E0.01737
G1 X4.237 Y72.687 E0.04339
G1 X4.237 Y73.230 E0.01737
G1 X3.277 Y72.270 E0.04339
G1 X3.277 Y72.813 E0.01737
G1 X4.237 Y73.774 E0.04339
G1 X4.237 Y74.317 E0.01737
G1 X3.277 Y73.357 E0.04339
G1 X3.277 Y73.900 E0.01737
G1 X4.237 Y74.861 E0.04339
G1 X4.237 Y75.404 E0.01737
G1 X3.277 Y74.444 E0.04339
G1 X3.277 Y74.987 E0.01737
G1 X4.237 Y75.947 E0.04339
G1 X4.237 Y76.491 E0.01737
G1 X3.277 Y75.531 E0.04339
G1 X3.277 Y76.074 E0.01737
G1 X4.237 Y77.034 E0.04339
G1 X4.237 Y77.578 E0.01737
G1 X3.277 Y76.618 E0.04339
G1 X3.277 Y77.161 E0.01737
G1 X4.237 Y78.121 E0.04339
G1 X4.237 Y78.665 E0.01737
G1 X3.333 Y77.761 E0.04085
G1 E-0.80000 F2100.00000
G1 Z0.800 F10800.000
G1 X3.607 Y80.209
G1 Z0.200
G1 E0.80000 F2100.00000
G1 F1200.000
G1 X4.215 Y80.817 E0.02746
G1 X4.237 Y80.817 E0.00071
G1 X4.237 Y80.295 E0.01666
G1 X3.778 Y79.836 E0.02074
G1 X4.026 Y79.541 E0.01233
G1 X4.407 Y79.921 E0.01720
G1 X4.709 Y81.206 F10800.000
G1 F1200.000
G1 X18.206 Y81.206 E0.18284
G1 X18.507 Y80.219 F10800.000
G1 F1200.000
G1 X19.105 Y80.817 E0.02666
G1 X19.137 Y80.817 E0.00102
G1 X19.137 Y80.312 E0.01591
G1 X18.677 Y79.852 E0.02054
G1 X18.677 Y79.315 E0.01693
G1 X19.307 Y79.945 E0.02811
G1 X18.507 Y78.609 F10800.000
G1 F1200.000
G1 X18.753 Y78.855 E0.01098
G1 X18.950 Y78.515 E0.01240
G1 X18.677 Y78.242 E0.01217
G1 X18.677 Y77.705 E0.01693
G1 X19.146 Y78.175 E0.02093
G1 X19.343 Y77.834 E0.01240
G1 X18.677 Y77.169 E0.02970
G1 X18.677 Y76.632 E0.01693
G1 X19.539 Y77.494 E0.03846
G1 X19.637 Y77.324 E0.00620
G1 X19.637 Y77.056 E0.00846
G1 X18.677 Y76.096 E0.04285
G1 X18.677 Y75.559 E0.01693
G1 X19.637 Y76.519 E0.04285
G1 X19.637 Y75.982 E0.01693
G1 X18.677 Y75.022 E0.04285
G1 X18.677 Y74.486 E0.01693
G1 X19.637 Y75.446 E0.04285
G1 X19.637 Y74.909 E0.01693
G1 X18.677 Y73.949 E0.04285
G1 X18.677 Y73.412 E0.01693
G1 X19.637 Y74.373 E0.04285
G1 X19.637 Y73.836 E0.01693
G1 X18.677 Y72.876 E0.04285
G1 X18.677 Y72.339 E0.01693
G1 X19.637 Y73.299 E0.04285
G1 X19.637 Y72.763 E0.01693
G1 X18.677 Y71.802 E0.04285
G1 X18.677 Y71.266 E0.01693
G1 X19.637 Y72.226 E0.04285
G1 X19.637 Y71.689 E0.01693
G1 X18.677 Y70.729 E0.04285
G1 X18.677 Y70.192 E0.01693
G1 X19.637 Y71.153 E0.04285
G1 X19.637 Y70.616 E0.01693
G1 X18.677 Y69.656 E0.04285
G1 X18.677 Y69.119 E0.01693
G1 X19.637 Y70.079 E0.04285
G1 X19.637 Y69.543 E0.01693
G1 X18.677 Y68.582 E0.04285
G1 X18.677 Y68.046 E0.01693
G1 X19.637 Y69.006 E0.04285
G1 X19.637 Y68.469 E0.01693
G1 X18.677 Y67.509 E0.04285
G1 X18.677 Y66.972 E0.01693
G1 X19.637 Y67.933 E0.04285
G1 X19.637 Y67.396 E0.01693
G1 X18.677 Y66.436 E0.04285
G1 X18.677 Y65.899 E0.01693
G1 X19.637 Y66.859 E0.04285
G1 X19.637 Y66.323 E0.01693
G1 X18.677 Y65.362 E0.04285
G1 X18.677 Y64.826 E0.01693
G1 X19.637 Y65.786 E0.04285
G1 X19.637 Y65.249 E0.01693
G1 X18.677 Y64.289 E0.04285
G1 X18.677 Y64.096 E0.00609
G1 X19.021 Y64.096 E0.01085
G1 X19.807 Y64.882 E0.03508
G1 X19.657 Y64.002 F10800.000
G1 F1200.000
G1 X19.657 Y62.342 E0.02053
G1 E-0.80000 F2100.00000
G1 Z0.800 F10800.000
G1 X8.096 Y77.232
G1 Z0.200
G1 E0.80000 F2100.00000
G1 F1200.000
G1 X8.096 Y78.402 E0.03668
G1 X7.819 Y78.402 E0.00867
G1 X7.643 Y77.402 E0.03184
G1 X7.570 Y77.402 E0.00229
G1 X7.570 Y60.936 E0.51627
G1 X9.096 Y60.936 E0.04784
G1 X9.096 Y77.232 E0.51094
G1 X8.156 Y77.232 E0.02947
G1 E-0.80000 F2100.00000
G1 Z0.800 F10800.000
G1 X22.970 Y77.232
G1 Z0.200
G1 E0.80000 F2100.00000
G1 F1200.000
G1 X22.970 Y60.936 E0.51094
G1 X24.496 Y60.936 E0.04784
G1 X24.496 Y77.402 E0.51627
G1 X24.423 Y77.402 E0.00229
G1 X24.246 Y78.402 E0.03184
G1 X23.970 Y78.402 E0.00867
G1 X23.970 Y77.232 E0.03668
G1 X23.030 Y77.232 E0.02947
G1 E-0.80000 F2100.00000
G1 Z0.800 F10800.000
G1 X22.970 Y60.064
G1 Z0.200
G1 E0.80000 F2100.00000
G1 F1200.000
G1 X22.970 Y59.936 E0.00400
G1 X22.992 Y59.936 E0.00070
G1 X22.980 Y60.005 E0.00218
G1 E-0.80000 F2100.00000
G1 Z0.800 F10800.000
G1 X9.096 Y60.005
G1 Z0.200
G1 E0.80000 F2100.00000
G1 F1200.000
G1 X9.096 Y60.064 E0.00185
G1 X9.073 Y59.936 E0.00406
G1 X9.096 Y59.945 E0.00075
G1 E-0.80000 F2100.00000
G1 Z0.800 F10800.000
G1 X23.265 Y60.559
G1 Z0.200
G1 E0.80000 F2100.00000
G1 F1200.000
G1 X24.873 Y60.559 E0.05040
G1 X24.873 Y77.779 E0.53992
G1 X24.739 Y77.779 E0.00419
G1 X24.563 Y78.779 E0.03184
G1 X24.123 Y78.779 E0.01380
G1 X24.123 Y79.279 E0.01568
G1 X23.593 Y79.279 E0.01662
G1 X23.593 Y77.609 E0.05236
G1 X22.794 Y77.609 E0.02505
G1 X22.593 Y77.369 E0.00981
G1 X22.593 Y60.109 E0.54118
G1 X9.473 Y60.109 E0.41137
G1 X9.473 Y77.369 E0.54118
G1 X9.272 Y77.609 E0.00981
G1 X8.473 Y77.609 E0.02505
G1 X8.473 Y79.279 E0.05236
G1 X7.943 Y79.279 E0.01662
G1 X7.943 Y78.779 E0.01568
G1 X7.503 Y78.779 E0.01380
G1 X7.326 Y77.779 E0.03184
G1 X7.193 Y77.779 E0.00419
G1 X7.193 Y60.559 E0.53992
G1 X8.800 Y60.559 E0.05040
G1 X8.624 Y59.559 E0.03184
G1 X23.442 Y59.559 E0.46460
G1 X23.276 Y60.500 E0.02996
G1 X23.457 Y60.910 F10800.000
G1 X22.781 Y59.834
G1 F1200.000
G1 X9.284 Y59.834 E0.19407
G1 E-0.80000 F2100.00000
G1 Z0.800 F10800.000
G1 X8.983 Y61.828
G1 Z0.200
G1 E0.80000 F2100.00000
G1 F1200.000
G1 X8.374 Y61.219 E0.02755
G1 X7.853 Y61.219 E0.01667
G1 X7.853 Y61.242 E0.00074
G1 X8.813 Y62.202 E0.04345
G1 X8.813 Y62.747 E0.01741
G1 X7.853 Y61.786 E0.04345
G1 X7.853 Y62.331 E0.01741
G1 X8.813 Y63.291 E0.04345
G1 X8.813 Y63.835 E0.01741
G1 X7.853 Y62.875 E0.04345
G1 X7.853 Y63.419 E0.01741
G1 X8.813 Y64.379 E0.04345
G1 X8.813 Y64.923 E0.01741
G1 X7.853 Y63.963 E0.04345
G1 X7.853 Y64.507 E0.01741
G1 X8.813 Y65.468 E0.04345
G1 X8.813 Y66.012 E0.01741
G1 X7.853 Y65.051 E0.04345
G1 X7.853 Y65.596 E0.01741
G1 X8.813 Y66.556 E0.04345
G1 X8.813 Y67.100 E0.01741
G1 X7.853 Y66.140 E0.04345
G1 X7.853 Y66.684 E0.01741
G1 X8.813 Y67.644 E0.04345
G1 X8.813 Y68.188 E0.01741
G1 X7.853 Y67.228 E0.04345
G1 X7.853 Y67.772 E0.01741
G1 X8.813 Y68.733 E0.04345
G1 X8.813 Y69.277 E0.01741
G1 X7.853 Y68.317 E0.04345
G1 X7.853 Y68.861 E0.01741
G1 X8.813 Y69.821 E0.04345
G1 X8.813 Y70.365 E0.01741
G1 X7.853 Y69.405 E0.04345
G1 X7.853 Y69.949 E0.01741
G1 X8.813 Y70.909 E0.04345
G1 X8.813 Y71.454 E0.01741
G1 X7.853 Y70.493 E0.04345
G1 X7.853 Y71.037 E0.01741
G1 X8.813 Y71.998 E0.04345
G1 X8.813 Y72.542 E0.01741
G1 X7.853 Y71.582 E0.04345
G1 X7.853 Y72.126 E0.01741
G1 X8.813 Y73.086 E0.04345
G1 X8.813 Y73.630 E0.01741
G1 X7.853 Y72.670 E0.04345
G1 X7.853 Y73.214 E0.01741
G1 X8.813 Y74.174 E0.04345
G1 X8.813 Y74.719 E0.01741
G1 X7.853 Y73.758 E0.04345
G1 X7.853 Y74.302 E0.01741
G1 X8.813 Y75.263 E0.04345
G1 X8.813 Y75.807 E0.01741
G1 X7.853 Y74.847 E0.04345
G1 X7.853 Y75.391 E0.01741
G1 X8.813 Y76.351 E0.04345
G1 X8.813 Y76.895 E0.01741
G1 X7.853 Y75.935 E0.04345
G1 X7.853 Y76.479 E0.01741
G1 X8.492 Y77.119 E0.02895
G1 X7.833 Y77.146 F10800.000
G1 F1200.000
G1 X7.854 Y77.204 E0.00040
G1 X7.884 Y77.553 E0.00229
G1 X8.208 Y78.591 F10800.000
G1 F1200.000
G1 X8.208 Y79.091 E0.00636
G1 E-0.80000 F2100.00000
G1 Z0.800 F10800.000
G1 X23.858 Y79.091
G1 Z0.200
G1 E0.80000 F2100.00000
G1 F1200.000
G1 X23.858 Y78.591 E0.00636
G1 X24.181 Y77.553 F10800.000
G1 F1200.000
G1 X24.197 Y77.379 E0.00115
G1 X24.212 Y77.204 E0.00156
G1 X24.233 Y77.146 E0.00076
G1 X23.863 Y77.119 F10800.000
G1 F1200.000
G1 X23.253 Y76.509 E0.02766
G1 X23.253 Y75.964 E0.01747
G1 X24.080 Y76.791 E0.03749
G1 X24.213 Y76.839 E0.00454
G1 X24.213 Y76.379 E0.01474
G1 X23.253 Y75.418 E0.04353
G1 X23.253 Y74.873 E0.01747
G1 X24.213 Y75.834 E0.04353
G1 X24.213 Y75.288 E0.01747
G1 X23.253 Y74.328 E0.04353
G1 X23.253 Y73.783 E0.01747
G1 X24.213 Y74.743 E0.04353
G1 X24.213 Y74.198 E0.01747
G1 X23.253 Y73.238 E0.04353
G1 X23.253 Y72.693 E0.01747
G1 X24.213 Y73.653 E0.04353
G1 X24.213 Y73.108 E0.01747
G1 X23.253 Y72.148 E0.04353
G1 X23.253 Y71.602 E0.01747
G1 X24.213 Y72.563 E0.04353
G1 X24.213 Y72.017 E0.01747
G1 X23.253 Y71.057 E0.04353
G1 X23.253 Y70.512 E0.01747
G1 X24.213 Y71.472 E0.04353
G1 X24.213 Y70.927 E0.01747
G1 X23.253 Y69.967 E0.04353
G1 X23.253 Y69.422 E0.01747
G1 X24.213 Y70.382 E0.04353
G1 X24.213 Y69.837 E0.01747
G1 X23.253 Y68.877 E0.04353
G1 X23.253 Y68.331 E0.01747
G1 X24.213 Y69.292 E0.04353
G1 X24.213 Y68.747 E0.01747
G1 X23.253 Y67.786 E0.04353
G1 X23.253 Y67.241 E0.01747
G1 X24.213 Y68.201 E0.04353
G1 X24.213 Y67.656 E0.01747
G1 X23.253 Y66.696 E0.04353
G1 X23.253 Y66.151 E0.01747
G1 X24.213 Y67.111 E0.04353
G1 X24.213 Y66.566 E0.01747
G1 X23.253 Y65.606 E0.04353
G1 X23.253 Y65.061 E0.01747
G1 X24.213 Y66.021 E0.04353
G1 X24.213 Y65.476 E0.01747
G1 X23.253 Y64.515 E0.04353
G1 X23.253 Y63.970 E0.01747
G1 X24.213 Y64.931 E0.04353
G1 X24.213 Y64.385 E0.01747
G1 X23.253 Y63.425 E0.04353
G1 X23.253 Y62.880 E0.01747
G1 X24.213 Y63.840 E0.04353
G1 X24.213 Y63.295 E0.01747
G1 X23.253 Y62.335 E0.04353
G1 X23.253 Y61.790 E0.01747
G1 X24.213 Y62.750 E0.04353
G1 X24.213 Y62.205 E0.01747
G1 X23.253 Y61.245 E0.04353
G1 X23.253 Y61.219 E0.00082
G1 X23.772 Y61.219 E0.01665
G1 X24.383 Y61.829 E0.02767
G1 E-0.80000 F2100.00000
G1 Z0.800 F10800.000
G1 X42.894 Y63.814
G1 Z0.200
G1 E0.80000 F2100.00000
G1 F1200.000
G1 X43.894 Y63.814 E0.03135
G1 X43.894 Y62.154 E0.05205
G1 X44.420 Y62.154 E0.01649
G1 X44.420 Y77.400 E0.47803
G1 X43.418 Y79.136 E0.06287
G1 X43.920 Y79.735 E0.02451
G1 X43.920 Y81.099 E0.04278
G1 X42.894 Y81.099 E0.03216
G1 X42.894 Y63.874 E0.54010
G1 E-0.80000 F2100.00000
G1 Z0.800 F10800.000
G1 X29.020 Y63.874
G1 Z0.200
G1 E0.80000 F2100.00000
G1 F1200.000
G1 X29.020 Y81.099 E0.54010
G1 X27.994 Y81.099 E0.03216
G1 X27.994 Y79.735 E0.04278
G1 X28.497 Y79.136 E0.02451
G1 X27.494 Y77.400 E0.06287
G1 X27.494 Y62.154 E0.47803
G1 X28.020 Y62.154 E0.01649
G1 X28.020 Y63.814 E0.05205
G1 X29.020 Y63.814 E0.03135
G1 X28.397 Y63.436 F10800.000
G1 F1200.000
G1 X29.196 Y63.436 E0.02505
G1 X29.397 Y63.676 E0.00981
G1 X29.397 Y80.936 E0.54118
G1 X42.517 Y80.936 E0.41137
G1 X42.517 Y63.676 E0.54118
G1 X42.718 Y63.436 E0.00981
G1 X43.517 Y63.436 E0.02505
G1 X43.517 Y61.776 E0.05205
G1 X44.797 Y61.776 E0.04013
G1 X44.797 Y77.501 E0.49302
G1 X43.876 Y79.096 E0.05776
G1 X44.297 Y79.598 E0.02054
G1 X44.297 Y81.476 E0.05890
G1 X27.617 Y81.476 E0.52299
G1 X27.617 Y79.598 E0.05890
G1 X28.038 Y79.096 E0.02053
G1 X27.117 Y77.501 E0.05776
G1 X27.117 Y61.776 E0.49302
M73 P1 R89
G1 X28.397 Y61.776 E0.04013
G1 X28.397 Y63.376 E0.05017
G1 X28.484 Y63.827 F10800.000
G1 X27.757 Y64.002
G1 F1200.000
G1 X27.757 Y62.342 E0.02053
G1 E-0.80000 F2100.00000
G1 Z0.800 F10800.000
G1 X28.907 Y64.704
G1 Z0.200
G1 E0.80000 F2100.00000
G1 F1200.000
G1 X28.299 Y64.096 E0.02747
G1 X28.136 Y64.096 E0.00522
G1 X28.136 Y64.285 E0.00602
G1 X27.944 Y64.285 E0.00612
G1 X28.737 Y65.078 E0.03584
G1 X28.737 Y65.621 E0.01737
G1 X27.777 Y64.661 E0.04339
G1 X27.777 Y65.205 E0.01737
G1 X28.737 Y66.165 E0.04339
G1 X28.737 Y66.708 E0.01737
G1 X27.777 Y65.748 E0.04339
G1 X27.777 Y66.292 E0.01737
G1 X28.737 Y67.252 E0.04339
G1 X28.737 Y67.795 E0.01737
G1 X27.777 Y66.835 E0.04339
G1 X27.777 Y67.379 E0.01737
G1 X28.737 Y68.339 E0.04339
G1 X28.737 Y68.882 E0.01737
G1 X27.777 Y67.922 E0.04339
G1 X27.777 Y68.466 E0.01737
G1 X28.737 Y69.426 E0.04339
G1 X28.737 Y69.969 E0.01737
G1 X27.777 Y69.009 E0.04339
G1 X27.777 Y69.552 E0.01737
G1 X28.737 Y70.513 E0.04339
G1 X28.737 Y71.056 E0.01737
G1 X27.777 Y70.096 E0.04339
G1 X27.777 Y70.639 E0.01737
G1 X28.737 Y71.600 E0.04339
G1 X28.737 Y72.143 E0.01737
G1 X27.777 Y71.183 E0.04339
G1 X27.777 Y71.726 E0.01737
G1 X28.737 Y72.687 E0.04339
G1 X28.737 Y73.230 E0.01737
G1 X27.777 Y72.270 E0.04339
G1 X27.777 Y72.813 E0.01737
G1 X28.737 Y73.774 E0.04339
G1 X28.737 Y74.317 E0.01737
G1 X27.777 Y73.357 E0.04339
G1 X27.777 Y73.900 E0.01737
G1 X28.737 Y74.861 E0.04339
G1 X28.737 Y75.404 E0.01737
G1 X27.777 Y74.444 E0.04339
G1 X27.777 Y74.987 E0.01737
G1 X28.737 Y75.947 E0.04339
G1 X28.737 Y76.491 E0.01737
G1 X27.777 Y75.531 E0.04339
G1 X27.777 Y76.074 E0.01737
G1 X28.737 Y77.034 E0.04339
G1 X28.737 Y77.578 E0.01737
G1 X27.777 Y76.618 E0.04339
G1 X27.777 Y77.161 E0.01737
G1 X28.737 Y78.121 E0.04339
G1 X28.737 Y78.665 E0.01737
G1 X27.833 Y77.761 E0.04085
G1 E-0.80000 F2100.00000
G1 Z0.800 F10800.000
G1 X28.107 Y80.209
G1 Z0.200
G1 E0.80000 F2100.00000
G1 F1200.000
G1 X28.715 Y80.817 E0.02746
