; generated by PrusaSlicer 2.2.0+win64 on 2020-11-10 at 00:00:36 UTC

; 

; external perimeters extrusion width = 0.60mm
; perimeters extrusion width = 0.43mm
; infill extrusion width = 0.45mm
; solid infill extrusion width = 0.70mm
; top infill extrusion width = 0.43mm
; first layer extrusion width = 0.42mm

M73 P0 R180
M201 X9000 Y9000 Z500 E10000 ; sets maximum accelerations, mm/sec^2
M203 X500 Y500 Z12 E120 ; sets maximum feedrates, mm/sec
M204 P2000 R1500 T2000 ; sets acceleration (P, T) and retract acceleration (R), mm/sec^2
M205 X10.00 Y10.00 Z0.20 E2.50 ; sets the jerk limits, mm/sec
M205 S0 T0 ; sets the minimum extruding and travel feed rate, mm/sec
M107
M862.3 P "MK2.5SMMU2S" ; printer model check
M862.1 P0.4 ; nozzle diameter check
M115 U3.8.0 ; tell printer latest fw version
G90 ; use absolute coordinates
M83 ; extruder relative mode
M104 S215 ; set extruder temp
M140 S60 ; set bed temp
Tx
M190 S60 ; wait for bed temp
M109 S215 ; wait for extruder temp
G28 W ; home all without mesh bed level
G80 ; mesh bed leveling

G21 ; set units to millimeters

;go outside print area
G1 Y-3.0 F1000.0
G1 Z0.4 F1000.0
; select extruder
Tc
; purge line
G1 X55.0 F2000.0
G1 Z0.3 F1000.0
G92 E0.0
G1 X240.0 E25.0 F2200.0
M73 P0 R180
G1 Y-2.0 F1000.0
G1 X55.0 E25 F1400.0
G1 Z0.20 F1000.0
G1 X5.0 E4.0 F1000.0
G92 E0.0
G21 ; set units to millimeters
G90 ; use absolute coordinates
M83 ; use relative distances for extrusion
M900 K0.06 ; Filament gcode LA 1.5
M900 K30 ; Filament gcode LA 1.0
;BEFORE_LAYER_CHANGE
G92 E0.0
;0.2


G1 E-0.80000 F2100.00000
G1 Z0.600 F10800.000
;AFTER_LAYER_CHANGE
;0.2
G1 X230.814 Y183.787
G1 Z0.200
G1 E0.80000 F2100.00000
M204 S1000
G1 F1200.000
G1 X232.340 Y183.787 E0.04784
G1 X232.340 Y200.083 E0.51094
G1 X231.340 Y200.083 E0.03135
G1 X231.340 Y201.253 E0.03668
G1 X231.063 Y201.253 E0.00867
G1 X230.887 Y200.253 E0.03184
G1 X230.814 Y200.253 E0.00229
G1 X230.814 Y183.847 E0.51439
G1 E-0.80000 F2100.00000
G1 Z0.800 F10800.000
G1 X246.214 Y183.847
G1 Z0.200
G1 E0.80000 F2100.00000
G1 F1200.000
G1 X246.214 Y183.787 E0.00188
G1 X247.740 Y183.787 E0.04784
G1 X247.740 Y200.253 E0.51627
G1 X247.667 Y200.253 E0.00229
G1 X247.490 Y201.253 E0.03184
G1 X247.214 Y201.253 E0.00867
G1 X247.214 Y200.083 E0.03668
G1 X246.214 Y200.083 E0.03135
G1 X246.214 Y183.907 E0.50718
G1 X246.214 Y182.915 F10800.000
G1 F1200.000
G1 X246.214 Y182.787 E0.00400
G1 X246.236 Y182.787 E0.00070
G1 X246.224 Y182.856 E0.00218
G1 E-0.80000 F2100.00000
G1 Z0.800 F10800.000
G1 X232.340 Y182.856
G1 Z0.200
G1 E0.80000 F2100.00000
G1 F1200.000
G1 X232.340 Y182.915 E0.00185
G1 X232.317 Y182.787 E0.00406
G1 X232.340 Y182.796 E0.00075
G1 E-0.80000 F2100.00000
G1 Z0.800 F10800.000
G1 X246.509 Y183.410
G1 Z0.200
G1 E0.80000 F2100.00000
G1 F1200.000
G1 X248.117 Y183.410 E0.05040
G1 X248.117 Y200.630 E0.53992
G1 X247.983 Y200.630 E0.00419
G1 X247.807 Y201.630 E0.03184
G1 X247.367 Y201.630 E0.01380
G1 X247.367 Y202.130 E0.01568
G1 X246.837 Y202.130 E0.01662
G1 X246.837 Y200.460 E0.05236
G1 X246.038 Y200.460 E0.02505
G1 X245.837 Y200.220 E0.00981
G1 X245.837 Y182.960 E0.54118
G1 X232.717 Y182.960 E0.41137
G1 X232.717 Y200.220 E0.54118
G1 X232.516 Y200.460 E0.00981
G1 X231.717 Y200.460 E0.02505
G1 X231.717 Y202.130 E0.05236
G1 X231.187 Y202.130 E0.01662
G1 X231.187 Y201.630 E0.01568
G1 X230.747 Y201.630 E0.01380
G1 X230.570 Y200.630 E0.03184
G1 X230.437 Y200.630 E0.00419
G1 X230.437 Y183.410 E0.53992
G1 X232.044 Y183.410 E0.05040
G1 X231.868 Y182.410 E0.03184
G1 X246.686 Y182.410 E0.46460
G1 X246.520 Y183.351 E0.02996
G1 X246.701 Y183.761 F10800.000
G1 X246.025 Y182.685
G1 F1200.000
G1 X232.528 Y182.685 E0.19407
G1 E-0.80000 F2100.00000
G1 Z0.800 F10800.000
G1 X232.227 Y184.679
G1 Z0.200
G1 E0.80000 F2100.00000
G1 F1200.000
G1 X231.618 Y184.070 E0.02755
G1 X231.097 Y184.070 E0.01667
G1 X231.097 Y184.093 E0.00074
G1 X232.057 Y185.053 E0.04345
G1 X232.057 Y185.598 E0.01741
G1 X231.097 Y184.637 E0.04345
G1 X231.097 Y185.182 E0.01741
G1 X232.057 Y186.142 E0.04345
G1 X232.057 Y186.686 E0.01741
G1 X231.097 Y185.726 E0.04345
G1 X231.097 Y186.270 E0.01741
G1 X232.057 Y187.230 E0.04345
G1 X232.057 Y187.774 E0.01741
G1 X231.097 Y186.814 E0.04345
G1 X231.097 Y187.358 E0.01741
G1 X232.057 Y188.319 E0.04345
G1 X232.057 Y188.863 E0.01741
G1 X231.097 Y187.902 E0.04345
G1 X231.097 Y188.447 E0.01741
G1 X232.057 Y189.407 E0.04345
G1 X232.057 Y189.951 E0.01741
G1 X231.097 Y188.991 E0.04345
G1 X231.097 Y189.535 E0.01741
G1 X232.057 Y190.495 E0.04345
G1 X232.057 Y191.039 E0.01741
G1 X231.097 Y190.079 E0.04345
G1 X231.097 Y190.623 E0.01741
G1 X232.057 Y191.584 E0.04345
G1 X232.057 Y192.128 E0.01741
G1 X231.097 Y191.168 E0.04345
G1 X231.097 Y191.712 E0.01741
G1 X232.057 Y192.672 E0.04345
G1 X232.057 Y193.216 E0.01741
G1 X231.097 Y192.256 E0.04345
G1 X231.097 Y192.800 E0.01741
G1 X232.057 Y193.760 E0.04345
G1 X232.057 Y194.305 E0.01741
G1 X231.097 Y193.344 E0.04345
G1 X231.097 Y193.888 E0.01741
G1 X232.057 Y194.849 E0.04345
G1 X232.057 Y195.393 E0.01741
G1 X231.097 Y194.433 E0.04345
G1 X231.097 Y194.977 E0.01741
G1 X232.057 Y195.937 E0.04345
G1 X232.057 Y196.481 E0.01741
G1 X231.097 Y195.521 E0.04345
G1 X231.097 Y196.065 E0.01741
G1 X232.057 Y197.025 E0.04345
G1 X232.057 Y197.570 E0.01741
G1 X231.097 Y196.609 E0.04345
G1 X231.097 Y197.154 E0.01741
G1 X232.057 Y198.114 E0.04345
G1 X232.057 Y198.658 E0.01741
G1 X231.097 Y197.698 E0.04345
G1 X231.097 Y198.242 E0.01741
G1 X232.057 Y199.202 E0.04345
G1 X232.057 Y199.746 E0.01741
G1 X231.097 Y198.786 E0.04345
G1 X231.097 Y199.330 E0.01741
G1 X231.736 Y199.970 E0.02895
G1 X231.077 Y199.997 F10800.000
G1 F1200.000
G1 X231.098 Y200.055 E0.00040
G1 X231.128 Y200.404 E0.00229
G1 X231.452 Y201.442 F10800.000
G1 F1200.000
G1 X231.452 Y201.942 E0.00636
G1 E-0.80000 F2100.00000
G1 Z0.800 F10800.000
G1 X247.102 Y201.942
G1 Z0.200
G1 E0.80000 F2100.00000
G1 F1200.000
G1 X247.102 Y201.442 E0.00636
G1 X247.425 Y200.404 F10800.000
G1 F1200.000
G1 X247.441 Y200.230 E0.00115
G1 X247.456 Y200.055 E0.00156
G1 X247.477 Y199.997 E0.00076
G1 X247.107 Y199.970 F10800.000
G1 F1200.000
G1 X246.497 Y199.360 E0.02766
G1 X246.497 Y198.815 E0.01747
G1 X247.324 Y199.642 E0.03749
G1 X247.457 Y199.690 E0.00454
G1 X247.457 Y199.230 E0.01474
G1 X246.497 Y198.269 E0.04353
G1 X246.497 Y197.724 E0.01747
G1 X247.457 Y198.685 E0.04353
G1 X247.457 Y198.139 E0.01747
G1 X246.497 Y197.179 E0.04353
G1 X246.497 Y196.634 E0.01747
G1 X247.457 Y197.594 E0.04353
G1 X247.457 Y197.049 E0.01747
G1 X246.497 Y196.089 E0.04353
G1 X246.497 Y195.544 E0.01747
G1 X247.457 Y196.504 E0.04353
G1 X247.457 Y195.959 E0.01747
G1 X246.497 Y194.999 E0.04353
G1 X246.497 Y194.453 E0.01747
G1 X247.457 Y195.414 E0.04353
G1 X247.457 Y194.868 E0.01747
G1 X246.497 Y193.908 E0.04353
G1 X246.497 Y193.363 E0.01747
G1 X247.457 Y194.323 E0.04353
G1 X247.457 Y193.778 E0.01747
G1 X246.497 Y192.818 E0.04353
G1 X246.497 Y192.273 E0.01747
G1 X247.457 Y193.233 E0.04353
G1 X247.457 Y192.688 E0.01747
G1 X246.497 Y191.728 E0.04353
G1 X246.497 Y191.183 E0.01747
G1 X247.457 Y192.143 E0.04353
G1 X247.457 Y191.598 E0.01747
G1 X246.497 Y190.637 E0.04353
G1 X246.497 Y190.092 E0.01747
G1 X247.457 Y191.052 E0.04353
G1 X247.457 Y190.507 E0.01747
G1 X246.497 Y189.547 E0.04353
G1 X246.497 Y189.002 E0.01747
G1 X247.457 Y189.962 E0.04353
G1 X247.457 Y189.417 E0.01747
G1 X246.497 Y188.457 E0.04353
G1 X246.497 Y187.912 E0.01747
G1 X247.457 Y188.872 E0.04353
G1 X247.457 Y188.327 E0.01747
G1 X246.497 Y187.366 E0.04353
G1 X246.497 Y186.821 E0.01747
G1 X247.457 Y187.782 E0.04353
G1 X247.457 Y187.236 E0.01747
G1 X246.497 Y186.276 E0.04353
G1 X246.497 Y185.731 E0.01747
G1 X247.457 Y186.691 E0.04353
G1 X247.457 Y186.146 E0.01747
G1 X246.497 Y185.186 E0.04353
G1 X246.497 Y184.641 E0.01747
G1 X247.457 Y185.601 E0.04353
G1 X247.457 Y185.056 E0.01747
G1 X246.497 Y184.096 E0.04353
G1 X246.497 Y184.070 E0.00082
G1 X247.016 Y184.070 E0.01665
G1 X247.627 Y184.680 E0.02767
G1 E-0.80000 F2100.00000
G1 Z0.800 F10800.000
G1 X243.164 Y185.005
G1 Z0.200
G1 E0.80000 F2100.00000
G1 F1200.000
G1 X243.164 Y200.251 E0.47803
G1 X242.162 Y201.987 E0.06287
G1 X242.664 Y202.586 E0.02451
G1 X242.664 Y203.950 E0.04278
G1 X241.638 Y203.950 E0.03216
G1 X241.638 Y186.665 E0.54199
G1 X242.638 Y186.665 E0.03135
G1 X242.638 Y185.005 E0.05205
G1 X243.104 Y185.005 E0.01461
G1 E-0.80000 F2100.00000
G1 Z0.800 F10800.000
G1 X227.764 Y186.665
G1 Z0.200
G1 E0.80000 F2100.00000
G1 F1200.000
G1 X227.764 Y203.950 E0.54199
G1 X226.738 Y203.950 E0.03216
G1 X226.738 Y202.586 E0.04278
G1 X227.241 Y201.987 E0.02451
G1 X226.238 Y200.251 E0.06287
G1 X226.238 Y185.005 E0.47803
G1 X226.764 Y185.005 E0.01649
G1 X226.764 Y186.665 E0.05205
G1 X227.704 Y186.665 E0.02947
G1 X227.141 Y186.287 F10800.000
G1 F1200.000
G1 X227.940 Y186.287 E0.02505
G1 X228.141 Y186.527 E0.00981
G1 X228.141 Y203.787 E0.54118
G1 X241.261 Y203.787 E0.41137
G1 X241.261 Y186.527 E0.54118
G1 X241.462 Y186.287 E0.00981
G1 X242.261 Y186.287 E0.02505
G1 X242.261 Y184.627 E0.05205
G1 X243.541 Y184.627 E0.04013
G1 X243.541 Y200.352 E0.49302
G1 X242.620 Y201.947 E0.05776
G1 X243.041 Y202.449 E0.02054
G1 X243.041 Y204.327 E0.05890
G1 X226.361 Y204.327 E0.52299
G1 X226.361 Y202.449 E0.05890
G1 X226.782 Y201.947 E0.02053
G1 X225.861 Y200.352 E0.05776
G1 X225.861 Y184.627 E0.49302
G1 X227.141 Y184.627 E0.04013
G1 X227.141 Y186.227 E0.05017
G1 X227.228 Y186.678 F10800.000
G1 X226.501 Y186.853
G1 F1200.000
G1 X226.501 Y185.193 E0.02053
G1 E-0.80000 F2100.00000
G1 Z0.800 F10800.000
G1 X227.651 Y187.555
G1 Z0.200
G1 E0.80000 F2100.00000
G1 F1200.000
G1 X227.043 Y186.947 E0.02747
G1 X226.880 Y186.947 E0.00522
G1 X226.880 Y187.136 E0.00602
G1 X226.688 Y187.136 E0.00612
G1 X227.481 Y187.929 E0.03584
G1 X227.481 Y188.472 E0.01737
G1 X226.521 Y187.512 E0.04339
G1 X226.521 Y188.056 E0.01737
G1 X227.481 Y189.016 E0.04339
G1 X227.481 Y189.559 E0.01737
G1 X226.521 Y188.599 E0.04339
G1 X226.521 Y189.143 E0.01737
G1 X227.481 Y190.103 E0.04339
G1 X227.481 Y190.646 E0.01737
G1 X226.521 Y189.686 E0.04339
G1 X226.521 Y190.230 E0.01737
G1 X227.481 Y191.190 E0.04339
G1 X227.481 Y191.733 E0.01737
G1 X226.521 Y190.773 E0.04339
G1 X226.521 Y191.317 E0.01737
G1 X227.481 Y192.277 E0.04339
G1 X227.481 Y192.820 E0.01737
G1 X226.521 Y191.860 E0.04339
G1 X226.521 Y192.403 E0.01737
G1 X227.481 Y193.364 E0.04339
G1 X227.481 Y193.907 E0.01737
G1 X226.521 Y192.947 E0.04339
G1 X226.521 Y193.490 E0.01737
G1 X227.481 Y194.451 E0.04339
G1 X227.481 Y194.994 E0.01737
G1 X226.521 Y194.034 E0.04339
G1 X226.521 Y194.577 E0.01737
G1 X227.481 Y195.538 E0.04339
G1 X227.481 Y196.081 E0.01737
G1 X226.521 Y195.121 E0.04339
G1 X226.521 Y195.664 E0.01737
G1 X227.481 Y196.625 E0.04339
G1 X227.481 Y197.168 E0.01737
G1 X226.521 Y196.208 E0.04339
G1 X226.521 Y196.751 E0.01737
G1 X227.481 Y197.712 E0.04339
G1 X227.481 Y198.255 E0.01737
G1 X226.521 Y197.295 E0.04339
G1 X226.521 Y197.838 E0.01737
G1 X227.481 Y198.798 E0.04339
G1 X227.481 Y199.342 E0.01737
G1 X226.521 Y198.382 E0.04339
G1 X226.521 Y198.925 E0.01737
G1 X227.481 Y199.885 E0.04339
G1 X227.481 Y200.429 E0.01737
G1 X226.521 Y199.469 E0.04339
G1 X226.521 Y200.012 E0.01737
G1 X227.481 Y200.972 E0.04339
G1 X227.481 Y201.516 E0.01737
G1 X226.577 Y200.612 E0.04085
G1 E-0.80000 F2100.00000
G1 Z0.800 F10800.000
G1 X226.851 Y203.060
G1 Z0.200
G1 E0.80000 F2100.00000
G1 F1200.000
G1 X227.459 Y203.668 E0.02746
G1 X227.481 Y203.668 E0.00071
G1 X227.481 Y203.146 E0.01666
G1 X227.022 Y202.687 E0.02074
G1 X227.270 Y202.392 E0.01233
G1 X227.651 Y202.773 E0.01720
G1 X227.953 Y204.057 F10800.000
G1 F1200.000
G1 X241.450 Y204.057 E0.18284
G1 X241.751 Y203.070 F10800.000
G1 F1200.000
G1 X242.349 Y203.668 E0.02666
G1 X242.381 Y203.668 E0.00102
G1 X242.381 Y203.163 E0.01591
G1 X241.921 Y202.703 E0.02054
G1 X241.921 Y202.166 E0.01693
G1 X242.551 Y202.796 E0.02811
G1 X241.751 Y201.460 F10800.000
G1 F1200.000
G1 X241.997 Y201.706 E0.01098
G1 X242.194 Y201.366 E0.01240
G1 X241.921 Y201.093 E0.01217
G1 X241.921 Y200.556 E0.01693
G1 X242.390 Y201.026 E0.02093
G1 X242.587 Y200.685 E0.01240
G1 X241.921 Y200.020 E0.02970
G1 X241.921 Y199.483 E0.01693
G1 X242.783 Y200.345 E0.03846
G1 X242.881 Y200.175 E0.00620
G1 X242.881 Y199.907 E0.00846
G1 X241.921 Y198.947 E0.04285
G1 X241.921 Y198.410 E0.01693
G1 X242.881 Y199.370 E0.04285
G1 X242.881 Y198.833 E0.01693
G1 X241.921 Y197.873 E0.04285
G1 X241.921 Y197.337 E0.01693
G1 X242.881 Y198.297 E0.04285
G1 X242.881 Y197.760 E0.01693
G1 X241.921 Y196.800 E0.04285
G1 X241.921 Y196.263 E0.01693
G1 X242.881 Y197.224 E0.04285
G1 X242.881 Y196.687 E0.01693
G1 X241.921 Y195.727 E0.04285
G1 X241.921 Y195.190 E0.01693
G1 X242.881 Y196.150 E0.04285
G1 X242.881 Y195.614 E0.01693
G1 X241.921 Y194.653 E0.04285
G1 X241.921 Y194.117 E0.01693
G1 X242.881 Y195.077 E0.04285
G1 X242.881 Y194.540 E0.01693
G1 X241.921 Y193.580 E0.04285
G1 X241.921 Y193.043 E0.01693
G1 X242.881 Y194.004 E0.04285
G1 X242.881 Y193.467 E0.01693
G1 X241.921 Y192.507 E0.04285
G1 X241.921 Y191.970 E0.01693
G1 X242.881 Y192.930 E0.04285
G1 X242.881 Y192.394 E0.01693
G1 X241.921 Y191.433 E0.04285
G1 X241.921 Y190.897 E0.01693
G1 X242.881 Y191.857 E0.04285
G1 X242.881 Y191.320 E0.01693
G1 X241.921 Y190.360 E0.04285
G1 X241.921 Y189.823 E0.01693
G1 X242.881 Y190.784 E0.04285
G1 X242.881 Y190.247 E0.01693
G1 X241.921 Y189.287 E0.04285
G1 X241.921 Y188.750 E0.01693
G1 X242.881 Y189.710 E0.04285
G1 X242.881 Y189.174 E0.01693
G1 X241.921 Y188.213 E0.04285
G1 X241.921 Y187.677 E0.01693
G1 X242.881 Y188.637 E0.04285
G1 X242.881 Y188.100 E0.01693
G1 X241.921 Y187.140 E0.04285
G1 X241.921 Y186.947 E0.00609
G1 X242.265 Y186.947 E0.01085
G1 X243.051 Y187.733 E0.03508
G1 X242.901 Y186.853 F10800.000
G1 F1200.000
G1 X242.901 Y185.193 E0.02053
G1 E-0.80000 F2100.00000
G1 Z0.800 F10800.000
G1 X206.840 Y200.083
G1 Z0.200
G1 E0.80000 F2100.00000
G1 F1200.000
G1 X206.840 Y201.253 E0.03668
G1 X206.563 Y201.253 E0.00867
G1 X206.387 Y200.253 E0.03184
G1 X206.314 Y200.253 E0.00229
G1 X206.314 Y183.787 E0.51627
G1 X207.840 Y183.787 E0.04784
G1 X207.840 Y200.083 E0.51094
G1 X206.900 Y200.083 E0.02947
G1 E-0.80000 F2100.00000
G1 Z0.800 F10800.000
G1 X221.714 Y200.083
G1 Z0.200
G1 E0.80000 F2100.00000
G1 F1200.000
G1 X221.714 Y183.787 E0.51094
G1 X223.240 Y183.787 E0.04784
G1 X223.240 Y200.253 E0.51627
G1 X223.167 Y200.253 E0.00229
G1 X222.990 Y201.253 E0.03184
G1 X222.714 Y201.253 E0.00867
G1 X222.714 Y200.083 E0.03668
G1 X221.774 Y200.083 E0.02947
G1 E-0.80000 F2100.00000
G1 Z0.800 F10800.000
G1 X221.714 Y182.915
G1 Z0.200
G1 E0.80000 F2100.00000
G1 F1200.000
G1 X221.714 Y182.787 E0.00400
G1 X221.736 Y182.787 E0.00070
G1 X221.724 Y182.856 E0.00218
G1 E-0.80000 F2100.00000
G1 Z0.800 F10800.000
G1 X207.840 Y182.856
G1 Z0.200
G1 E0.80000 F2100.00000
G1 F1200.000
G1 X207.840 Y182.915 E0.00185
G1 X207.817 Y182.787 E0.00406
G1 X207.840 Y182.796 E0.00075
G1 E-0.80000 F2100.00000
G1 Z0.800 F10800.000
G1 X222.009 Y183.410
G1 Z0.200
G1 E0.80000 F2100.00000
G1 F1200.000
G1 X223.617 Y183.410 E0.05040
G1 X223.617 Y200.630 E0.53992
G1 X223.483 Y200.630 E0.00419
G1 X223.307 Y201.630 E0.03184
G1 X222.867 Y201.630 E0.01380
G1 X222.867 Y202.130 E0.01568
G1 X222.337 Y202.130 E0.01662
G1 X222.337 Y200.460 E0.05236
G1 X221.538 Y200.460 E0.02505
G1 X221.337 Y200.220 E0.00981
G1 X221.337 Y182.960 E0.54118
G1 X208.217 Y182.960 E0.41137
G1 X208.217 Y200.220 E0.54118
M73 P0 R179
G1 X208.016 Y200.460 E0.00981
G1 X207.217 Y200.460 E0.02505
G1 X207.217 Y202.130 E0.05236
G1 X206.687 Y202.130 E0.01662
G1 X206.687 Y201.630 E0.01568
G1 X206.247 Y201.630 E0.01380
G1 X206.070 Y200.630 E0.03184
G1 X205.937 Y200.630 E0.00419
G1 X205.937 Y183.410 E0.53992
G1 X207.544 Y183.410 E0.05040
G1 X207.368 Y182.410 E0.03184
G1 X222.186 Y182.410 E0.46460
G1 X222.020 Y183.351 E0.02996
G1 X222.201 Y183.761 F10800.000
G1 X221.525 Y182.685
G1 F1200.000
G1 X208.028 Y182.685 E0.19407
G1 E-0.80000 F2100.00000
G1 Z0.800 F10800.000
G1 X207.727 Y184.679
G1 Z0.200
G1 E0.80000 F2100.00000
G1 F1200.000
G1 X207.118 Y184.070 E0.02755
G1 X206.597 Y184.070 E0.01667
G1 X206.597 Y184.093 E0.00074
G1 X207.557 Y185.053 E0.04345
