; generated by PrusaSlicer 2.2.0+win64 on 2021-03-30 at 20:22:53 UTC

; 

; external perimeters extrusion width = 0.45mm
; perimeters extrusion width = 0.45mm
; infill extrusion width = 0.45mm
; solid infill extrusion width = 0.45mm
; top infill extrusion width = 0.40mm
; first layer extrusion width = 0.42mm

M73 P0 R74
M201 X9000 Y9000 Z500 E10000 ; sets maximum accelerations, mm/sec^2
M203 X500 Y500 Z12 E120 ; sets maximum feedrates, mm/sec
M204 P2000 R1500 T2000 ; sets acceleration (P, T) and retract acceleration (R), mm/sec^2
M205 X10.00 Y10.00 Z0.20 E2.50 ; sets the jerk limits, mm/sec
M205 S0 T0 ; sets the minimum extruding and travel feed rate, mm/sec
M107
M862.3 P "MK2.5SMMU2S" ; printer model check
M862.1 P0.4 ; nozzle diameter check
M115 U3.8.0 ; tell printer latest fw version
G90 ; use absolute coordinates
M83 ; extruder relative mode
M104 S215 ; set extruder temp
M140 S60 ; set bed temp
Tx
M190 S60 ; wait for bed temp
M109 S215 ; wait for extruder temp
G28 W ; home all without mesh bed level
G80 ; mesh bed leveling

G21 ; set units to millimeters

;go outside print area
G1 Y-3.0 F1000.0
G1 Z0.4 F1000.0
; select extruder
Tc
; purge line
G1 X55.0 F2000.0
G1 Z0.3 F1000.0
G92 E0.0
G1 X240.0 E25.0 F2200.0
M73 P0 R74
G1 Y-2.0 F1000.0
G1 X55.0 E25 F1400.0
G1 Z0.20 F1000.0
G1 X5.0 E4.0 F1000.0
G92 E0.0
G21 ; set units to millimeters
G90 ; use absolute coordinates
M83 ; use relative distances for extrusion
M900 K0.05 ; Filament gcode LA 1.5
M900 K30 ; Filament gcode LA 1.0
;BEFORE_LAYER_CHANGE
G92 E0.0
;0.2


G1 E-0.80000 F2100.00000
G1 Z0.600 F10800.000
;AFTER_LAYER_CHANGE
;0.2
G1 X77.661 Y59.190
G1 Z0.200
G1 E0.80000 F2100.00000
M204 S1000
G1 F1200.000
G1 X78.520 Y59.023 E0.02743
G1 X171.468 Y59.023 E2.91431
G1 X172.366 Y59.201 E0.02872
G1 X173.131 Y59.705 E0.02872
G1 X173.648 Y60.462 E0.02872
G1 X173.840 Y61.357 E0.02872
G1 X173.841 Y144.973 E2.62171
G1 X173.636 Y145.915 E0.03024
G1 X173.076 Y146.696 E0.03013
G1 X170.139 Y148.548 E0.10886
G1 X169.626 Y148.749 E0.01728
G1 X169.077 Y148.826 E0.01740
G1 X80.975 Y148.827 E2.76236
G1 X80.395 Y148.754 E0.01835
G1 X79.850 Y148.542 E0.01835
G1 X77.244 Y146.945 E0.09581
G1 X76.791 Y146.564 E0.01858
G1 X76.327 Y145.826 E0.02731
G1 X76.159 Y144.968 E0.02743
G1 X76.159 Y61.396 E2.62032
G1 X76.210 Y60.912 E0.01526
G1 X76.359 Y60.445 E0.01538
G1 X76.600 Y60.022 E0.01526
G1 X76.924 Y59.654 E0.01538
G1 X77.610 Y59.222 E0.02543
G1 E-0.80000 F2100.00000
G1 Z0.800 F10800.000
G1 X75.971 Y105.862
G1 Z0.200
G1 E0.80000 F2100.00000
G1 F1200.000
G1 X75.921 Y105.888 E0.00177
G1 X74.575 Y107.234 E0.05968
G1 X74.121 Y108.118 E0.03116
G1 X73.823 Y109.340 E0.03945
G1 X73.823 Y145.459 E1.13248
G1 X74.139 Y146.729 E0.04102
G1 X74.678 Y147.705 E0.03498
G1 X75.886 Y148.888 E0.05302
G1 X76.630 Y149.300 E0.02664
G1 X77.284 Y149.534 E0.02180
G1 X77.453 Y149.565 E0.00538
G1 X78.373 Y150.415 E0.03925
G1 X79.403 Y150.929 E0.03611
G1 X80.569 Y151.165 E0.03731
G1 X81.719 Y151.132 E0.03605
G1 X82.528 Y150.939 E0.02608
G1 X82.914 Y150.760 E0.01335
G1 X84.200 Y151.134 E0.04200
G1 X85.729 Y151.123 E0.04793
G1 X86.550 Y150.910 E0.02658
G1 X86.895 Y150.750 E0.01194
G1 X87.282 Y150.926 E0.01332
G1 X88.206 Y151.141 E0.02975
G1 X89.416 Y151.154 E0.03795
G1 X90.378 Y150.951 E0.03082
G1 X90.836 Y150.739 E0.01585
G1 X91.306 Y150.955 E0.01621
G1 X92.218 Y151.150 E0.02922
G1 X93.479 Y151.139 E0.03955
G1 X94.433 Y150.911 E0.03076
G1 X94.784 Y150.745 E0.01217
G1 X95.204 Y150.940 E0.01453
G1 X96.022 Y151.133 E0.02634
G1 X97.227 Y151.161 E0.03780
G1 X98.366 Y150.914 E0.03653
G1 X98.726 Y150.745 E0.01248
G1 X99.145 Y150.939 E0.01448
G1 X99.954 Y151.132 E0.02608
G1 X101.234 Y151.153 E0.04014
G1 X102.276 Y150.926 E0.03345
G1 X103.258 Y150.443 E0.03432
G1 X104.245 Y149.542 E0.04191
G1 X104.765 Y149.410 E0.01680
G1 X105.496 Y149.015 E0.02606
G1 X106.059 Y148.638 F10800.000
G1 F1200.000
G1 X107.136 Y147.512 E0.04885
G1 X107.537 Y146.721 E0.02781
G1 X107.772 Y145.800 E0.02980
G1 X108.064 Y145.800 E0.00918
G1 X108.302 Y146.729 E0.03006
G1 X108.809 Y147.662 E0.03330
G1 X109.789 Y148.638 E0.04338
G1 X110.289 Y149.015 F10800.000
G1 F1200.000
G1 X110.794 Y149.300 E0.01817
G1 X111.448 Y149.534 E0.02178
G1 X111.617 Y149.565 E0.00538
G1 X112.537 Y150.415 E0.03925
G1 X113.567 Y150.929 E0.03611
G1 X114.733 Y151.165 E0.03731
G1 X115.882 Y151.132 E0.03605
G1 X116.691 Y150.939 E0.02608
G1 X117.078 Y150.760 E0.01335
G1 X118.364 Y151.134 E0.04200
G1 X119.893 Y151.123 E0.04793
G1 X120.713 Y150.910 E0.02658
G1 X121.059 Y150.750 E0.01194
G1 X121.445 Y150.926 E0.01332
G1 X122.369 Y151.141 E0.02975
G1 X123.580 Y151.154 E0.03795
G1 X124.541 Y150.951 E0.03082
G1 X125.000 Y150.739 E0.01585
G1 X125.470 Y150.955 E0.01621
G1 X126.381 Y151.150 E0.02922
G1 X127.643 Y151.139 E0.03955
G1 X128.597 Y150.911 E0.03076
G1 X128.948 Y150.745 E0.01217
G1 X129.368 Y150.940 E0.01453
G1 X130.186 Y151.133 E0.02634
G1 X131.391 Y151.161 E0.03780
G1 X132.530 Y150.914 E0.03653
G1 X132.890 Y150.745 E0.01248
G1 X133.309 Y150.939 E0.01448
G1 X134.118 Y151.132 E0.02608
G1 X135.398 Y151.153 E0.04014
G1 X136.440 Y150.926 E0.03345
G1 X137.422 Y150.443 E0.03432
G1 X138.409 Y149.542 E0.04191
G1 X138.929 Y149.410 E0.01680
G1 X139.661 Y149.015 E0.02607
G1 X140.223 Y148.638 F10800.000
G1 F1200.000
G1 X141.299 Y147.512 E0.04884
G1 X141.701 Y146.721 E0.02781
G1 X141.935 Y145.800 E0.02980
G1 X142.228 Y145.800 E0.00918
G1 X142.466 Y146.729 E0.03006
G1 X142.973 Y147.662 E0.03330
G1 X143.953 Y148.638 E0.04336
G1 X144.452 Y149.015 F10800.000
G1 F1200.000
G1 X144.958 Y149.300 E0.01819
G1 X145.612 Y149.534 E0.02178
G1 X145.781 Y149.565 E0.00538
G1 X146.700 Y150.415 E0.03925
G1 X147.731 Y150.929 E0.03612
G1 X148.856 Y151.162 E0.03600
G1 X150.046 Y151.132 E0.03735
G1 X150.855 Y150.939 E0.02606
G1 X151.242 Y150.760 E0.01335
G1 X152.528 Y151.134 E0.04200
G1 X154.057 Y151.123 E0.04793
G1 X154.877 Y150.910 E0.02658
G1 X155.222 Y150.750 E0.01194
G1 X155.609 Y150.926 E0.01331
G1 X156.574 Y151.146 E0.03103
G1 X157.784 Y151.150 E0.03794
G1 X158.705 Y150.951 E0.02955
G1 X159.164 Y150.739 E0.01586
G1 X159.634 Y150.955 E0.01621
G1 X160.545 Y151.150 E0.02922
G1 X161.806 Y151.139 E0.03955
G1 X162.761 Y150.911 E0.03076
G1 X163.111 Y150.745 E0.01217
G1 X163.532 Y150.940 E0.01453
G1 X164.349 Y151.133 E0.02634
G1 X165.555 Y151.161 E0.03780
G1 X166.693 Y150.914 E0.03653
G1 X167.054 Y150.745 E0.01248
G1 X167.472 Y150.939 E0.01446
G1 X168.322 Y151.137 E0.02735
G1 X169.518 Y151.158 E0.03751
G1 X170.647 Y150.911 E0.03623
G1 X171.629 Y150.414 E0.03451
G1 X172.572 Y149.542 E0.04029
G1 X173.092 Y149.410 E0.01682
G1 X174.241 Y148.791 E0.04091
G1 X175.463 Y147.513 E0.05545
G1 X175.879 Y146.683 E0.02911
G1 X176.177 Y145.460 E0.03947
G1 X176.177 Y109.339 E1.13255
G1 X175.816 Y107.956 E0.04481
G1 X175.026 Y106.738 E0.04551
G1 X174.029 Y105.902 E0.04080
G1 X173.652 Y105.648 F10800.000
G1 F1200.000
G1 X172.898 Y105.324 E0.02572
G1 X171.950 Y105.140 E0.03028
G1 X146.309 Y105.142 E0.80396
G1 X145.132 Y105.434 E0.03803
G1 X144.248 Y105.888 E0.03116
G1 X142.868 Y107.282 E0.06149
G1 X142.463 Y108.078 E0.02802
G1 X142.225 Y109.012 E0.03020
G1 X141.935 Y109.015 E0.00910
G1 X141.629 Y107.903 E0.03616
G1 X140.862 Y106.739 E0.04369
G1 X139.643 Y105.715 E0.04992
G1 X138.735 Y105.324 E0.03101
G1 X137.787 Y105.140 E0.03028
G1 X112.146 Y105.142 E0.80396
G1 X110.968 Y105.434 E0.03803
G1 X110.084 Y105.888 E0.03116
G1 X108.704 Y107.282 E0.06149
G1 X108.299 Y108.078 E0.02802
G1 X108.062 Y109.012 E0.03020
G1 X107.771 Y109.015 E0.00910
G1 X107.465 Y107.903 E0.03616
G1 X106.699 Y106.739 E0.04369
G1 X105.479 Y105.715 E0.04993
G1 X104.609 Y105.336 E0.02976
G1 X103.659 Y105.144 E0.03039
G1 X78.027 Y105.136 E0.80365
G1 X76.765 Y105.449 E0.04078
G1 X76.348 Y105.666 E0.01475
G1 E-0.80000 F2100.00000
G1 Z0.800 F10800.000
G1 X146.378 Y105.514
G1 Z0.200
G1 E0.80000 F2100.00000
G1 F1200.000
G1 X171.932 Y105.517 E0.80122
G1 X172.805 Y105.690 E0.02791
G1 X173.652 Y106.068 E0.02909
G1 X174.029 Y106.388 F10800.000
G1 F1200.000
G1 X174.761 Y107.008 E0.03007
G1 X175.460 Y108.082 E0.04018
G1 X175.800 Y109.363 E0.04157
G1 X175.800 Y145.436 E1.13104
G1 X175.518 Y146.570 E0.03664
G1 X175.140 Y147.316 E0.02622
G1 X173.991 Y148.507 E0.05188
G1 X172.938 Y149.065 E0.03736
G1 X172.389 Y149.198 E0.01771
G1 X171.393 Y150.118 E0.04253
G1 X170.500 Y150.563 E0.03127
G1 X169.503 Y150.780 E0.03202
G1 X168.349 Y150.761 E0.03617
G1 X167.580 Y150.577 E0.02478
G1 X167.051 Y150.325 E0.01838
G1 X166.588 Y150.551 E0.01616
G1 X165.539 Y150.783 E0.03370
G1 X164.416 Y150.762 E0.03520
G1 X163.639 Y150.578 E0.02504
G1 X163.109 Y150.325 E0.01843
G1 X162.651 Y150.549 E0.01598
G1 X161.740 Y150.768 E0.02937
G1 X160.565 Y150.772 E0.03684
G1 X159.736 Y150.592 E0.02659
G1 X159.164 Y150.320 E0.01987
G1 X158.603 Y150.588 E0.01947
G1 X157.725 Y150.777 E0.02817
G1 X156.598 Y150.769 E0.03533
G1 X155.715 Y150.564 E0.02842
G1 X155.222 Y150.332 E0.01709
G1 X154.761 Y150.551 E0.01598
G1 X154.029 Y150.747 E0.02376
G1 X152.554 Y150.757 E0.04626
G1 X151.422 Y150.420 E0.03703
G1 X151.257 Y150.334 E0.00582
G1 X150.747 Y150.577 E0.01770
G1 X149.978 Y150.761 E0.02479
G1 X148.909 Y150.788 E0.03354
G1 X147.874 Y150.579 E0.03308
G1 X146.936 Y150.119 E0.03279
G1 X145.951 Y149.209 E0.04204
G1 X145.720 Y149.172 E0.00732
G1 X145.281 Y149.015 E0.01461
G1 X144.540 Y148.638 F10800.000
G1 F1200.000
G1 X144.420 Y148.572 E0.00428
G1 X143.291 Y147.457 E0.04975
G1 X142.809 Y146.571 E0.03164
G1 X142.527 Y145.436 E0.03665
G1 X142.527 Y109.364 E1.13103
G1 X142.809 Y108.230 E0.03664
G1 X143.190 Y107.479 E0.02639
G1 X144.493 Y106.177 E0.05777
G1 X145.243 Y105.795 E0.02639
G1 X146.378 Y105.514 E0.03665
G1 E-0.80000 F2100.00000
G1 Z0.800 F10800.000
G1 X171.912 Y105.894
G1 Z0.200
G1 E0.80000 F2100.00000
G1 F1200.000
G1 X172.709 Y106.055 E0.02550
G1 X173.452 Y106.383 E0.02545
G1 X173.652 Y106.554 E0.00826
G1 X174.029 Y106.877 F10800.000
G1 F1200.000
G1 X174.494 Y107.276 E0.01918
G1 X175.126 Y108.260 E0.03669
G1 X175.423 Y109.388 E0.03655
G1 X175.423 Y145.412 E1.12953
G1 X175.158 Y146.456 E0.03376
G1 X174.818 Y147.118 E0.02334
G1 X173.743 Y148.221 E0.04831
G1 X172.787 Y148.718 E0.03378
G1 X172.206 Y148.852 E0.01870
G1 X171.200 Y149.793 E0.04319
G1 X170.354 Y150.215 E0.02963
G1 X169.446 Y150.407 E0.02910
G1 X168.417 Y150.389 E0.03228
G1 X167.689 Y150.216 E0.02346
G1 X167.049 Y149.903 E0.02234
G1 X166.481 Y150.189 E0.01993
G1 X165.521 Y150.406 E0.03085
G1 X164.483 Y150.390 E0.03257
G1 X163.747 Y150.216 E0.02370
G1 X163.106 Y149.903 E0.02238
G1 X162.541 Y150.188 E0.01984
G1 X161.674 Y150.396 E0.02794
G1 X160.587 Y150.395 E0.03410
G1 X159.841 Y150.229 E0.02395
G1 X159.163 Y149.900 E0.02363
G1 X158.498 Y150.225 E0.02319
G1 X157.704 Y150.400 E0.02550
G1 X156.662 Y150.397 E0.03267
G1 X155.822 Y150.201 E0.02706
G1 X155.221 Y149.912 E0.02090
G1 X154.646 Y150.191 E0.02004
G1 X153.956 Y150.376 E0.02240
G1 X152.582 Y150.380 E0.04308
G1 X151.557 Y150.067 E0.03360
G1 X151.275 Y149.905 E0.01019
G1 X150.639 Y150.216 E0.02221
G1 X149.911 Y150.389 E0.02347
G1 X148.921 Y150.411 E0.03102
G1 X148.018 Y150.230 E0.02887
G1 X147.127 Y149.793 E0.03112
G1 X146.296 Y149.015 E0.03569
G1 X145.347 Y148.638 F10800.000
G1 F1200.000
G1 X145.242 Y148.600 E0.00351
G1 X144.628 Y148.256 E0.02207
G1 X143.577 Y147.210 E0.04649
G1 X143.169 Y146.455 E0.02690
G1 X142.904 Y145.412 E0.03373
G1 X142.904 Y109.388 E1.12953
M73 P1 R73
G1 X143.169 Y108.344 E0.03376
G1 X143.512 Y107.678 E0.02348
G1 X144.692 Y106.498 E0.05234
G1 X145.358 Y106.155 E0.02348
G1 X146.402 Y105.891 E0.03377
G1 X171.912 Y105.894 E0.79987
G1 E-0.80000 F2100.00000
G1 Z0.800 F10800.000
G1 X173.652 Y107.045
G1 Z0.200
G1 E0.80000 F2100.00000
G1 F1200.000
G1 X173.272 Y106.715 E0.01578
G1 X172.612 Y106.420 E0.02266
G1 X171.893 Y106.271 E0.02304
G1 X146.426 Y106.268 E0.79848
G1 X145.474 Y106.515 E0.03083
G1 X144.893 Y106.819 E0.02058
G1 X143.832 Y107.879 E0.04702
G1 X143.528 Y108.461 E0.02058
G1 X143.282 Y109.412 E0.03083
G1 X143.282 Y145.388 E1.12799
G1 X143.528 Y146.338 E0.03079
G1 X143.864 Y146.964 E0.02226
G1 X144.837 Y147.941 E0.04323
G1 X145.384 Y148.251 E0.01973
G1 X145.932 Y148.447 E0.01825
G1 X146.287 Y148.489 E0.01121
G1 X146.445 Y148.638 E0.00680
G1 X146.843 Y149.015 F10800.000
G1 F1200.000
G1 X147.322 Y149.468 E0.02066
G1 X148.119 Y149.866 E0.02794
G1 X148.936 Y150.033 E0.02616
G1 X149.843 Y150.017 E0.02844
G1 X150.530 Y149.854 E0.02212
G1 X151.295 Y149.473 E0.02681
G1 X151.694 Y149.715 E0.01464
G1 X152.612 Y150.003 E0.03017
G1 X153.883 Y150.005 E0.03984
G1 X154.530 Y149.832 E0.02101
G1 X155.221 Y149.491 E0.02416
G1 X155.929 Y149.839 E0.02473
G1 X156.726 Y150.024 E0.02567
G1 X157.682 Y150.023 E0.02997
G1 X158.392 Y149.862 E0.02283
G1 X159.162 Y149.478 E0.02699
G1 X159.948 Y149.867 E0.02748
G1 X160.610 Y150.019 E0.02130
G1 X161.609 Y150.023 E0.03131
G1 X162.430 Y149.827 E0.02647
G1 X163.102 Y149.479 E0.02374
G1 X163.856 Y149.854 E0.02640
G1 X164.549 Y150.018 E0.02233
G1 X165.502 Y150.029 E0.02989
G1 X166.371 Y149.827 E0.02798
G1 X167.045 Y149.479 E0.02378
G1 X167.798 Y149.854 E0.02637
G1 X168.484 Y150.017 E0.02212
G1 X169.391 Y150.033 E0.02844
G1 X170.208 Y149.866 E0.02616
G1 X171.006 Y149.468 E0.02794
G1 X172.023 Y148.506 E0.04391
G1 X172.636 Y148.372 E0.01967
G1 X173.542 Y147.901 E0.03201
G1 X174.497 Y146.919 E0.04295
G1 X174.799 Y146.339 E0.02049
G1 X175.046 Y145.388 E0.03082
G1 X175.046 Y109.413 E1.12797
G1 X174.770 Y108.387 E0.03331
G1 X174.226 Y107.542 E0.03149
G1 X174.029 Y107.372 E0.00817
G1 X173.652 Y107.540 F10800.000
G1 F1200.000
G1 X173.092 Y107.047 E0.02340
G1 X172.477 Y106.773 E0.02110
G1 X171.873 Y106.648 E0.01932
G1 X146.451 Y106.645 E0.79710
G1 X145.593 Y106.873 E0.02784
G1 X145.095 Y107.138 E0.01770
G1 X144.152 Y108.081 E0.04182
G1 X143.887 Y108.579 E0.01770
G1 X143.659 Y109.437 E0.02783
G1 X143.659 Y145.363 E1.12642
G1 X143.887 Y146.221 E0.02783
G1 X144.152 Y146.719 E0.01771
G1 X145.047 Y147.627 E0.03996
G1 X145.527 Y147.902 E0.01736
G1 X146.036 Y148.084 E0.01694
G1 X146.453 Y148.125 E0.01315
G1 X146.989 Y148.638 E0.02324
G1 X147.382 Y149.015 F10800.000
G1 F1200.000
G1 X147.518 Y149.145 E0.00590
G1 X148.222 Y149.502 E0.02475
G1 X148.953 Y149.656 E0.02343
G1 X149.779 Y149.645 E0.02590
G1 X150.382 Y149.506 E0.01939
G1 X151.067 Y149.165 E0.02399
G1 X151.247 Y149.015 E0.00734
G1 X151.278 Y149.015 F10800.000
G1 F1200.000
G1 X151.834 Y149.364 E0.02059
G1 X152.645 Y149.626 E0.02671
G1 X153.810 Y149.634 E0.03654
G1 X154.414 Y149.473 E0.01958
G1 X154.962 Y149.198 E0.01923
G1 X155.178 Y149.015 E0.00888
G1 X155.264 Y149.015 F10800.000
G1 F1200.000
G1 X155.479 Y149.197 E0.00883
G1 X156.036 Y149.477 E0.01957
G1 X156.789 Y149.652 E0.02423
G1 X157.659 Y149.646 E0.02726
G1 X158.244 Y149.514 E0.01882
G1 X158.973 Y149.151 E0.02553
G1 X159.141 Y149.015 E0.00678
G1 X159.190 Y149.015 F10800.000
G1 F1200.000
G1 X159.363 Y149.157 E0.00702
G1 X160.094 Y149.518 E0.02557
G1 X160.670 Y149.646 E0.01851
G1 X161.585 Y149.646 E0.02868
G1 X162.316 Y149.467 E0.02360
G1 X162.927 Y149.144 E0.02165
G1 X163.086 Y149.015 E0.00643
G1 X163.138 Y149.015 F10800.000
G1 F1200.000
G1 X163.318 Y149.165 E0.00735
G1 X164.003 Y149.506 E0.02402
G1 X164.612 Y149.646 E0.01958
G1 X165.481 Y149.652 E0.02725
G1 X166.259 Y149.466 E0.02510
G1 X166.869 Y149.144 E0.02162
G1 X167.029 Y149.015 E0.00643
G1 X167.081 Y149.015 F10800.000
G1 F1200.000
G1 X167.261 Y149.165 E0.00735
G1 X167.946 Y149.506 E0.02400
G1 X168.548 Y149.645 E0.01939
G1 X169.374 Y149.656 E0.02590
G1 X170.105 Y149.502 E0.02343
G1 X170.810 Y149.145 E0.02475
G1 X171.841 Y148.158 E0.04477
G1 X172.490 Y148.024 E0.02076
G1 X173.296 Y147.614 E0.02835
G1 X174.177 Y146.717 E0.03944
G1 X174.441 Y146.221 E0.01762
G1 X174.669 Y145.363 E0.02783
G1 X174.669 Y109.437 E1.12642
G1 X174.436 Y108.564 E0.02835
G1 X174.029 Y107.922 E0.02382
G1 X173.652 Y108.041 F10800.000
G1 F1200.000
G1 X172.909 Y107.378 E0.03123
G1 X172.378 Y107.137 E0.01829
G1 X171.853 Y107.026 E0.01681
G1 X146.477 Y107.022 E0.79565
G1 X145.715 Y107.230 E0.02477
G1 X145.299 Y107.456 E0.01484
G1 X144.470 Y108.285 E0.03678
G1 X144.244 Y108.701 E0.01483
G1 X144.036 Y109.463 E0.02477
