; generated by PrusaSlicer 2.2.0+win64 on 2020-08-26 at 17:24:51 UTC

; 

; external perimeters extrusion width = 0.45mm
; perimeters extrusion width = 0.45mm
; infill extrusion width = 0.45mm
; solid infill extrusion width = 0.45mm
; top infill extrusion width = 0.40mm
; first layer extrusion width = 0.42mm

M73 P0 R110
M201 X9000 Y9000 Z500 E10000 ; sets maximum accelerations, mm/sec^2
M203 X500 Y500 Z12 E120 ; sets maximum feedrates, mm/sec
M204 P2000 R1500 T2000 ; sets acceleration (P, T) and retract acceleration (R), mm/sec^2
M205 X10.00 Y10.00 Z0.20 E2.50 ; sets the jerk limits, mm/sec
M205 S0 T0 ; sets the minimum extruding and travel feed rate, mm/sec
M107
M862.3 P "MK2.5SMMU2S" ; printer model check
M862.1 P0.4 ; nozzle diameter check
M115 U3.8.0 ; tell printer latest fw version
G90 ; use absolute coordinates
M83 ; extruder relative mode
M104 S215 ; set extruder temp
M140 S60 ; set bed temp
Tx
M190 S60 ; wait for bed temp
M109 S215 ; wait for extruder temp
G28 W ; home all without mesh bed level
G80 ; mesh bed leveling

G21 ; set units to millimeters

;go outside print area
G1 Y-3.0 F1000.0
G1 Z0.4 F1000.0
; select extruder
Tc
; purge line
G1 X55.0 F2000.0
G1 Z0.3 F1000.0
G92 E0.0
G1 X240.0 E25.0 F2200.0
M73 P0 R110
G1 Y-2.0 F1000.0
G1 X55.0 E25 F1400.0
G1 Z0.20 F1000.0
G1 X5.0 E4.0 F1000.0
G92 E0.0
G21 ; set units to millimeters
G90 ; use absolute coordinates
M83 ; use relative distances for extrusion
M900 K0.06 ; Filament gcode LA 1.5
M900 K30 ; Filament gcode LA 1.0
;BEFORE_LAYER_CHANGE
G92 E0.0
;0.2


G1 E-0.80000 F2100.00000
G1 Z0.600 F10800.000
;AFTER_LAYER_CHANGE
;0.2
G1 X102.398 Y102.431
G1 Z0.200
G1 E0.80000 F2100.00000
M204 S1000
G1 F1200.000
G1 X103.244 Y102.295 E0.02689
G1 X146.765 Y102.295 E1.36455
G1 X147.494 Y102.395 E0.02307
G1 X148.171 Y102.683 E0.02307
G1 X148.747 Y103.141 E0.02307
G1 X149.181 Y103.735 E0.02307
G1 X149.447 Y104.443 E0.02371
G1 X150.342 Y108.888 E0.14215
G1 X150.312 Y117.271 E0.26285
G1 X150.085 Y117.975 E0.02320
G1 X149.679 Y118.593 E0.02320
G1 X149.122 Y119.081 E0.02320
G1 X148.456 Y119.403 E0.02320
G1 X147.610 Y119.540 E0.02689
G1 X102.301 Y119.538 E1.42063
G1 X101.478 Y119.381 E0.02625
G1 X100.741 Y118.985 E0.02625
G1 X100.159 Y118.388 E0.02612
G1 X99.781 Y117.641 E0.02625
G1 X99.645 Y116.815 E0.02625
G1 X99.685 Y108.755 E0.25271
G1 X100.560 Y104.466 E0.13726
G1 X100.721 Y103.963 E0.01656
G1 X101.005 Y103.456 E0.01822
G1 X101.393 Y103.017 E0.01835
G1 X101.864 Y102.670 E0.01835
G1 X102.343 Y102.455 E0.01647
G1 E-0.80000 F2100.00000
G1 Z0.800 F10800.000
G1 X101.052 Y104.148
G1 Z0.200
G1 E0.80000 F2100.00000
G1 F1200.000
G1 X101.299 Y103.693 E0.01621
G1 X101.639 Y103.303 E0.01621
G1 X102.054 Y102.996 E0.01621
G1 X102.530 Y102.784 E0.01633
G1 X103.246 Y102.672 E0.02272
G1 X146.765 Y102.672 E1.36450
G1 X147.408 Y102.762 E0.02036
G1 X148.003 Y103.022 E0.02036
G1 X148.505 Y103.434 E0.02036
G1 X148.877 Y103.966 E0.02036
G1 X149.082 Y104.538 E0.01906
G1 X149.967 Y108.936 E0.14065
G1 X149.947 Y117.168 E0.25813
G1 X149.754 Y117.792 E0.02048
G1 X149.399 Y118.340 E0.02048
G1 X148.908 Y118.771 E0.02048
G1 X148.322 Y119.051 E0.02036
G1 X147.606 Y119.163 E0.02272
G1 X102.323 Y119.161 E1.41980
G1 X101.607 Y119.027 E0.02284
G1 X100.966 Y118.682 E0.02284
G1 X100.459 Y118.158 E0.02284
G1 X100.134 Y117.506 E0.02284
G1 X100.022 Y116.809 E0.02213
G1 X100.053 Y108.837 E0.24996
G1 X101.040 Y104.206 E0.14846
G1 E-0.80000 F2100.00000
G1 Z0.800 F10800.000
G1 X112.200 Y115.843
G1 Z0.200
G1 E0.80000 F2100.00000
G1 F1200.000
G1 X106.112 Y115.843 E0.19086
G1 X106.112 Y110.162 E0.17813
G1 X118.287 Y110.162 E0.38172
G1 X118.287 Y115.843 E0.17813
G1 X112.260 Y115.843 E0.18898
G1 X112.200 Y115.466 F10800.000
G1 F1200.000
G1 X106.489 Y115.466 E0.17904
G1 X106.489 Y110.539 E0.15448
G1 X117.910 Y110.539 E0.35808
G1 X117.910 Y115.466 E0.15448
G1 X112.260 Y115.466 E0.17716
G1 X112.087 Y115.850 F10800.000
G1 X112.200 Y116.198
G1 F1200.000
G1 X102.986 Y116.198 E0.28887
G1 X102.986 Y109.280 E0.21693
G1 X103.703 Y105.773 E0.11222
G1 X109.242 Y105.773 E0.17368
G1 X109.929 Y106.161 E0.02472
G1 X110.341 Y106.331 E0.01399
G1 X110.814 Y106.478 E0.01554
G1 X111.256 Y106.575 E0.01419
G1 X111.734 Y106.638 E0.01511
G1 X112.200 Y106.658 E0.01461
G1 X112.665 Y106.638 E0.01461
G1 X113.143 Y106.575 E0.01511
G1 X113.585 Y106.478 E0.01419
G1 X114.058 Y106.330 E0.01554
G1 X114.466 Y106.163 E0.01384
G1 X114.919 Y105.929 E0.01599
G1 X115.160 Y105.773 E0.00901
G1 X120.709 Y105.773 E0.17396
G1 X121.413 Y109.219 E0.11027
G1 X121.413 Y116.198 E0.21884
G1 X112.260 Y116.198 E0.28700
G1 X112.200 Y116.575 F10800.000
G1 F1200.000
G1 X102.609 Y116.575 E0.30070
G1 X102.609 Y109.241 E0.22995
G1 X103.395 Y105.396 E0.12306
G1 X109.351 Y105.396 E0.18675
G1 X110.091 Y105.820 E0.02675
G1 X110.469 Y105.975 E0.01282
G1 X110.911 Y106.114 E0.01451
G1 X111.321 Y106.204 E0.01316
G1 X111.767 Y106.262 E0.01409
G1 X112.200 Y106.280 E0.01359
G1 X112.632 Y106.262 E0.01359
G1 X113.078 Y106.204 E0.01409
G1 X113.488 Y106.114 E0.01316
G1 X113.930 Y105.975 E0.01451
G1 X114.308 Y105.820 E0.01281
G1 X114.730 Y105.602 E0.01490
G1 X115.049 Y105.396 E0.01192
G1 X121.017 Y105.396 E0.18710
G1 X121.790 Y109.181 E0.12112
G1 X121.790 Y116.575 E0.23186
G1 X112.260 Y116.575 E0.29882
G1 X111.929 Y116.281 F10800.000
G1 E-0.80000 F2100.00000
G1 Z0.800 F10800.000
G1 X118.400 Y115.659
G1 Z0.200
G1 E0.80000 F2100.00000
G1 F1200.000
G1 X118.656 Y115.916 E0.01139
G1 X119.191 Y115.916 E0.01679
G1 X118.570 Y115.295 E0.02759
G1 X118.570 Y114.760 E0.01679
G1 X119.725 Y115.916 E0.05134
G1 X120.259 Y115.916 E0.01679
G1 X118.570 Y114.226 E0.07508
G1 X118.570 Y113.691 E0.01679
G1 X120.794 Y115.916 E0.09883
G1 X121.130 Y115.916 E0.01057
G1 X121.130 Y115.718 E0.00622
G1 X118.570 Y113.157 E0.11377
G1 X118.570 Y112.623 E0.01679
G1 X121.130 Y115.183 E0.11377
G1 X121.130 Y114.649 E0.01679
G1 X118.570 Y112.088 E0.11377
G1 X118.570 Y111.554 E0.01679
G1 X121.130 Y114.114 E0.11377
G1 X121.130 Y113.580 E0.01679
G1 X118.570 Y111.020 E0.11377
G1 X118.570 Y110.485 E0.01679
G1 X121.300 Y113.215 E0.12131
G1 E-0.80000 F2100.00000
G1 Z0.800 F10800.000
G1 X120.814 Y106.851
G1 Z0.200
G1 E0.80000 F2100.00000
G1 F1200.000
G1 X120.019 Y106.056 E0.03532
G1 X119.484 Y106.056 E0.01679
G1 X120.733 Y107.305 E0.05549
G1 X120.870 Y107.976 E0.02154
G1 X118.950 Y106.056 E0.08533
G1 X118.416 Y106.056 E0.01679
G1 X121.008 Y108.648 E0.11518
G1 X121.130 Y109.305 E0.02099
G1 X117.881 Y106.056 E0.14437
G1 X117.347 Y106.056 E0.01679
G1 X121.130 Y109.839 E0.16811
G1 X121.130 Y110.374 E0.01679
G1 X116.812 Y106.056 E0.19185
G1 X116.278 Y106.056 E0.01679
G1 X121.130 Y110.908 E0.21560
G1 X121.130 Y111.442 E0.01679
G1 X115.744 Y106.056 E0.23934
G1 X115.244 Y106.056 E0.01570
G1 X115.223 Y106.070 E0.00079
G1 X121.130 Y111.977 E0.26248
G1 X121.130 Y112.511 E0.01679
G1 X114.884 Y106.265 E0.27753
G1 X114.528 Y106.443 E0.01252
G1 X117.964 Y109.880 E0.15269
G1 X117.430 Y109.880 E0.01679
G1 X114.149 Y106.598 E0.14579
G1 X113.741 Y106.726 E0.01340
G1 X116.895 Y109.880 E0.14014
G1 X116.361 Y109.880 E0.01679
G1 X113.310 Y106.828 E0.13558
G1 X112.846 Y106.899 E0.01473
G1 X115.827 Y109.880 E0.13242
G1 X115.292 Y109.880 E0.01679
G1 X112.347 Y106.935 E0.13086
G1 X111.802 Y106.924 E0.01713
G1 X114.758 Y109.880 E0.13133
G1 X114.223 Y109.880 E0.01679
G1 X111.195 Y106.852 E0.13454
G1 X110.742 Y106.752 E0.01460
G1 X110.479 Y106.670 E0.00863
G1 X113.689 Y109.880 E0.14261
G1 X113.155 Y109.880 E0.01679
G1 X109.553 Y106.278 E0.16002
G1 X109.161 Y106.056 E0.01418
G1 X108.797 Y106.056 E0.01144
G1 X112.620 Y109.880 E0.16990
G1 X112.086 Y109.880 E0.01679
G1 X108.262 Y106.056 E0.16990
G1 X107.728 Y106.056 E0.01679
G1 X111.551 Y109.880 E0.16990
G1 X111.017 Y109.880 E0.01679
G1 X107.194 Y106.056 E0.16990
G1 X106.659 Y106.056 E0.01679
G1 X110.483 Y109.880 E0.16990
G1 X109.948 Y109.880 E0.01679
G1 X106.125 Y106.056 E0.16990
G1 X105.590 Y106.056 E0.01679
G1 X109.414 Y109.880 E0.16990
G1 X108.880 Y109.880 E0.01679
G1 X105.056 Y106.056 E0.16990
G1 X104.522 Y106.056 E0.01679
G1 X108.345 Y109.880 E0.16990
G1 X107.811 Y109.880 E0.01679
G1 X103.987 Y106.056 E0.16990
G1 X103.934 Y106.056 E0.00168
G1 X103.852 Y106.455 E0.01281
G1 X107.276 Y109.880 E0.15215
G1 X106.742 Y109.880 E0.01679
G1 X103.761 Y106.899 E0.13244
G1 X103.671 Y107.343 E0.01423
G1 X106.208 Y109.880 E0.11272
G1 X105.830 Y109.880 E0.01188
G1 X105.830 Y110.036 E0.00491
G1 X103.580 Y107.786 E0.09995
G1 X103.489 Y108.230 E0.01423
G1 X105.830 Y110.570 E0.10398
G1 X105.830 Y111.105 E0.01679
G1 X103.399 Y108.674 E0.10801
G1 X103.308 Y109.117 E0.01423
G1 X105.830 Y111.639 E0.11204
G1 X105.830 Y112.173 E0.01679
G1 X103.269 Y109.613 E0.11377
G1 X103.269 Y110.147 E0.01679
G1 X105.830 Y112.708 E0.11377
G1 X105.830 Y113.242 E0.01679
G1 X103.269 Y110.682 E0.11377
G1 X103.269 Y111.216 E0.01679
G1 X105.830 Y113.776 E0.11377
G1 X105.830 Y114.311 E0.01679
G1 X103.269 Y111.750 E0.11377
G1 X103.269 Y112.285 E0.01679
G1 X105.830 Y114.845 E0.11377
G1 X105.830 Y115.380 E0.01679
G1 X103.269 Y112.819 E0.11377
G1 X103.269 Y113.354 E0.01679
G1 X105.830 Y115.914 E0.11377
G1 X105.297 Y115.916 E0.01674
G1 X103.269 Y113.888 E0.09009
G1 X103.269 Y114.422 E0.01679
G1 X104.762 Y115.916 E0.06635
G1 X104.228 Y115.916 E0.01679
G1 X103.269 Y114.957 E0.04260
G1 X103.269 Y115.491 E0.01679
G1 X103.863 Y116.085 E0.02640
G1 E-0.80000 F2100.00000
G1 Z0.800 F10800.000
G1 X137.800 Y115.843
G1 Z0.200
G1 E0.80000 F2100.00000
G1 F1200.000
G1 X131.713 Y115.843 E0.19086
G1 X131.713 Y110.162 E0.17813
G1 X143.888 Y110.162 E0.38172
G1 X143.888 Y115.843 E0.17813
G1 X137.860 Y115.843 E0.18898
G1 X137.800 Y115.466 F10800.000
G1 F1200.000
G1 X132.090 Y115.466 E0.17904
G1 X132.090 Y110.539 E0.15448
G1 X143.511 Y110.539 E0.35808
G1 X143.511 Y115.466 E0.15448
G1 X137.860 Y115.466 E0.17716
G1 X137.687 Y115.850 F10800.000
G1 X137.800 Y116.198
G1 F1200.000
G1 X128.587 Y116.198 E0.28887
G1 X128.587 Y109.280 E0.21693
G1 X129.304 Y105.773 E0.11222
G1 X134.843 Y105.773 E0.17368
G1 X135.530 Y106.161 E0.02472
G1 X135.942 Y106.331 E0.01399
G1 X136.415 Y106.478 E0.01554
G1 X136.857 Y106.575 E0.01419
G1 X137.335 Y106.638 E0.01511
G1 X137.800 Y106.658 E0.01461
G1 X138.266 Y106.638 E0.01461
G1 X138.744 Y106.575 E0.01511
G1 X139.186 Y106.478 E0.01419
G1 X139.659 Y106.330 E0.01554
G1 X140.067 Y106.163 E0.01384
G1 X140.520 Y105.929 E0.01599
G1 X140.761 Y105.773 E0.00901
G1 X146.310 Y105.773 E0.17396
G1 X147.014 Y109.219 E0.11027
G1 X147.014 Y116.198 E0.21884
G1 X137.860 Y116.198 E0.28700
G1 X137.800 Y116.575 F10800.000
G1 F1200.000
G1 X128.210 Y116.575 E0.30070
G1 X128.210 Y109.241 E0.22995
G1 X128.996 Y105.396 E0.12306
G1 X134.952 Y105.396 E0.18675
G1 X135.692 Y105.820 E0.02675
G1 X136.070 Y105.975 E0.01282
G1 X136.512 Y106.114 E0.01451
G1 X136.922 Y106.204 E0.01316
G1 X137.367 Y106.262 E0.01409
G1 X137.800 Y106.280 E0.01359
G1 X138.233 Y106.262 E0.01359
G1 X138.679 Y106.204 E0.01409
G1 X139.089 Y106.114 E0.01316
G1 X139.530 Y105.975 E0.01451
G1 X139.909 Y105.820 E0.01281
G1 X140.331 Y105.602 E0.01490
G1 X140.650 Y105.396 E0.01192
G1 X146.617 Y105.396 E0.18710
G1 X147.391 Y109.181 E0.12112
G1 X147.391 Y116.575 E0.23186
G1 X137.860 Y116.575 E0.29882
M73 P1 R109
G1 X137.530 Y116.281 F10800.000
G1 E-0.80000 F2100.00000
G1 Z0.800 F10800.000
G1 X144.001 Y115.659
G1 Z0.200
G1 E0.80000 F2100.00000
G1 F1200.000
G1 X144.257 Y115.916 E0.01139
G1 X144.791 Y115.916 E0.01679
G1 X144.171 Y115.295 E0.02759
G1 X144.171 Y114.760 E0.01679
G1 X145.326 Y115.916 E0.05134
G1 X145.860 Y115.916 E0.01679
G1 X144.171 Y114.226 E0.07508
G1 X144.171 Y113.691 E0.01679
G1 X146.395 Y115.916 E0.09883
G1 X146.731 Y115.916 E0.01057
G1 X146.731 Y115.718 E0.00622
G1 X144.171 Y113.157 E0.11377
G1 X144.171 Y112.623 E0.01679
G1 X146.731 Y115.183 E0.11377
G1 X146.731 Y114.649 E0.01679
G1 X144.171 Y112.088 E0.11377
G1 X144.171 Y111.554 E0.01679
G1 X146.731 Y114.114 E0.11377
G1 X146.731 Y113.580 E0.01679
G1 X144.171 Y111.020 E0.11377
G1 X144.171 Y110.485 E0.01679
G1 X146.901 Y113.215 E0.12131
G1 E-0.80000 F2100.00000
G1 Z0.800 F10800.000
G1 X146.414 Y106.851
G1 Z0.200
G1 E0.80000 F2100.00000
G1 F1200.000
G1 X145.619 Y106.056 E0.03532
G1 X145.085 Y106.056 E0.01679
G1 X146.334 Y107.305 E0.05549
G1 X146.471 Y107.976 E0.02154
G1 X144.551 Y106.056 E0.08533
G1 X144.016 Y106.056 E0.01679
G1 X146.608 Y108.648 E0.11518
G1 X146.731 Y109.305 E0.02099
G1 X143.482 Y106.056 E0.14437
G1 X142.948 Y106.056 E0.01679
G1 X146.731 Y109.839 E0.16811
G1 X146.731 Y110.374 E0.01679
G1 X142.413 Y106.056 E0.19185
G1 X141.879 Y106.056 E0.01679
G1 X146.731 Y110.908 E0.21560
G1 X146.731 Y111.442 E0.01679
G1 X141.344 Y106.056 E0.23934
G1 X140.845 Y106.056 E0.01570
G1 X140.824 Y106.070 E0.00079
G1 X146.731 Y111.977 E0.26248
G1 X146.731 Y112.511 E0.01679
G1 X140.485 Y106.265 E0.27753
G1 X140.129 Y106.443 E0.01252
G1 X143.565 Y109.880 E0.15269
G1 X143.030 Y109.880 E0.01679
G1 X139.749 Y106.598 E0.14579
G1 X139.342 Y106.726 E0.01340
G1 X142.496 Y109.880 E0.14014
G1 X141.962 Y109.880 E0.01679
G1 X138.911 Y106.828 E0.13558
G1 X138.447 Y106.899 E0.01473
G1 X141.427 Y109.880 E0.13242
G1 X140.893 Y109.880 E0.01679
G1 X137.948 Y106.935 E0.13086
G1 X137.403 Y106.924 E0.01713
G1 X140.359 Y109.880 E0.13133
G1 X139.824 Y109.880 E0.01679
G1 X136.796 Y106.852 E0.13454
G1 X136.342 Y106.752 E0.01460
G1 X136.080 Y106.670 E0.00863
G1 X139.290 Y109.880 E0.14261
G1 X138.755 Y109.880 E0.01679
G1 X135.154 Y106.278 E0.16002
G1 X134.761 Y106.056 E0.01418
G1 X134.397 Y106.056 E0.01144
G1 X138.221 Y109.880 E0.16990
G1 X137.687 Y109.880 E0.01679
G1 X133.863 Y106.056 E0.16990
G1 X133.329 Y106.056 E0.01679
G1 X137.152 Y109.880 E0.16990
G1 X136.618 Y109.880 E0.01679
G1 X132.794 Y106.056 E0.16990
G1 X132.260 Y106.056 E0.01679
G1 X136.083 Y109.880 E0.16990
G1 X135.549 Y109.880 E0.01679
G1 X131.726 Y106.056 E0.16990
G1 X131.191 Y106.056 E0.01679
G1 X135.015 Y109.880 E0.16990
G1 X134.480 Y109.880 E0.01679
G1 X130.657 Y106.056 E0.16990
G1 X130.122 Y106.056 E0.01679
G1 X133.946 Y109.880 E0.16990
G1 X133.412 Y109.880 E0.01679
G1 X129.588 Y106.056 E0.16990
G1 X129.535 Y106.056 E0.00168
G1 X129.453 Y106.455 E0.01281
G1 X132.877 Y109.880 E0.15215
G1 X132.343 Y109.880 E0.01679
G1 X129.362 Y106.899 E0.13244
G1 X129.272 Y107.343 E0.01423
G1 X131.808 Y109.880 E0.11272
G1 X131.430 Y109.880 E0.01188
G1 X131.430 Y110.036 E0.00491
G1 X129.181 Y107.786 E0.09995
G1 X129.090 Y108.230 E0.01423
G1 X131.430 Y110.570 E0.10398
G1 X131.430 Y111.105 E0.01679
G1 X129.000 Y108.674 E0.10801
G1 X128.909 Y109.117 E0.01423
G1 X131.430 Y111.639 E0.11204
G1 X131.430 Y112.173 E0.01679
G1 X128.870 Y109.613 E0.11377
G1 X128.870 Y110.147 E0.01679
G1 X131.430 Y112.708 E0.11377
G1 X131.430 Y113.242 E0.01679
G1 X128.870 Y110.682 E0.11377
G1 X128.870 Y111.216 E0.01679
G1 X131.430 Y113.776 E0.11377
G1 X131.430 Y114.311 E0.01679
G1 X128.870 Y111.750 E0.11377
G1 X128.870 Y112.285 E0.01679
G1 X131.430 Y114.845 E0.11377
G1 X131.430 Y115.380 E0.01679
G1 X128.870 Y112.819 E0.11377
G1 X128.870 Y113.354 E0.01679
G1 X131.430 Y115.914 E0.11377
G1 X130.898 Y115.916 E0.01674
G1 X128.870 Y113.888 E0.09009
G1 X128.870 Y114.422 E0.01679
G1 X130.363 Y115.916 E0.06635
G1 X129.829 Y115.916 E0.01679
G1 X128.870 Y114.957 E0.04260
G1 X128.870 Y115.491 E0.01679
G1 X129.464 Y116.085 E0.02640
M106 S168.3
;BEFORE_LAYER_CHANGE
G92 E0.0
;0.4


G1 E-0.80000 F2100.00000
G1 Z0.800 F10800.000
;AFTER_LAYER_CHANGE
;0.4
G1 X150.312 Y117.271
G1 Z0.400
G1 E0.80000 F2100.00000
G1 F3000.000
G1 X150.085 Y117.975 E0.02320
G1 X149.679 Y118.593 E0.02320
G1 X149.122 Y119.081 E0.02320
G1 X148.456 Y119.403 E0.02320
G1 X147.610 Y119.540 E0.02689
G1 X102.301 Y119.538 E1.42063
G1 X101.478 Y119.381 E0.02625
G1 X100.741 Y118.985 E0.02625
G1 X100.159 Y118.388 E0.02612
G1 X99.781 Y117.641 E0.02625
G1 X99.645 Y116.815 E0.02625
G1 X99.685 Y108.755 E0.25271
G1 X100.560 Y104.466 E0.13726
G1 X100.721 Y103.963 E0.01656
G1 X101.005 Y103.456 E0.01822
G1 X101.393 Y103.017 E0.01835
G1 X101.864 Y102.670 E0.01835
G1 X102.398 Y102.431 E0.01835
G1 X103.244 Y102.295 E0.02689
G1 X146.765 Y102.295 E1.36455
G1 X147.494 Y102.395 E0.02307
G1 X148.171 Y102.683 E0.02307
