; generated by PrusaSlicer 2.2.0+win64 on 2020-11-09 at 23:54:21 UTC

; 

; external perimeters extrusion width = 0.45mm
; perimeters extrusion width = 0.45mm
; infill extrusion width = 0.45mm
; solid infill extrusion width = 0.45mm
; top infill extrusion width = 0.40mm
; first layer extrusion width = 0.42mm

M73 P0 R5
M201 X9000 Y9000 Z500 E10000 ; sets maximum accelerations, mm/sec^2
M203 X500 Y500 Z12 E120 ; sets maximum feedrates, mm/sec
M204 P2000 R1500 T2000 ; sets acceleration (P, T) and retract acceleration (R), mm/sec^2
M205 X10.00 Y10.00 Z0.20 E2.50 ; sets the jerk limits, mm/sec
M205 S0 T0 ; sets the minimum extruding and travel feed rate, mm/sec
M107
M862.3 P "MK2.5SMMU2S" ; printer model check
M862.1 P0.4 ; nozzle diameter check
M115 U3.8.0 ; tell printer latest fw version
G90 ; use absolute coordinates
M83 ; extruder relative mode
M104 S215 ; set extruder temp
M140 S60 ; set bed temp
Tx
M190 S60 ; wait for bed temp
M109 S215 ; wait for extruder temp
G28 W ; home all without mesh bed level
G80 ; mesh bed leveling

G21 ; set units to millimeters

;go outside print area
G1 Y-3.0 F1000.0
G1 Z0.4 F1000.0
; select extruder
Tc
; purge line
G1 X55.0 F2000.0
G1 Z0.3 F1000.0
G92 E0.0
G1 X240.0 E25.0 F2200.0
M73 P2 R5
G1 Y-2.0 F1000.0
G1 X55.0 E25 F1400.0
G1 Z0.20 F1000.0
G1 X5.0 E4.0 F1000.0
G92 E0.0
G21 ; set units to millimeters
G90 ; use absolute coordinates
M83 ; use relative distances for extrusion
M900 K0.06 ; Filament gcode LA 1.5
M900 K30 ; Filament gcode LA 1.0
;BEFORE_LAYER_CHANGE
G92 E0.0
;0.2


G1 E-0.80000 F2100.00000
G1 Z0.600 F10800.000
;AFTER_LAYER_CHANGE
;0.2
G1 X114.502 Y96.976
G1 Z0.200
G1 E0.80000 F2100.00000
M204 S1000
G1 F1200.000
G1 X115.456 Y95.881 E0.04554
G1 X116.354 Y95.032 E0.03873
G1 X117.419 Y94.209 E0.04220
G1 X118.555 Y93.502 E0.04195
G1 X119.771 Y92.907 E0.04246
G1 X121.022 Y92.444 E0.04182
G1 X122.325 Y92.107 E0.04220
G1 X123.656 Y91.903 E0.04220
G1 X125.004 Y91.835 E0.04233
G1 X126.344 Y91.903 E0.04208
G1 X127.675 Y92.107 E0.04220
G1 X128.978 Y92.444 E0.04221
G1 X130.240 Y92.912 E0.04220
G1 X131.449 Y93.504 E0.04220
G1 X132.591 Y94.216 E0.04220
G1 X133.655 Y95.040 E0.04220
G1 X134.622 Y95.959 E0.04182
G1 X135.508 Y96.989 E0.04259
G1 X136.274 Y98.090 E0.04208
G1 X136.930 Y99.271 E0.04233
G1 X137.456 Y100.496 E0.04182
G1 X137.863 Y101.788 E0.04246
G1 X138.133 Y103.098 E0.04195
G1 X138.270 Y104.437 E0.04220
G1 X138.274 Y105.656 E0.03822
G1 X138.110 Y107.272 E0.05093
G1 X137.856 Y108.481 E0.03872
G1 X137.409 Y109.867 E0.04567
G1 X136.923 Y110.989 E0.03834
G1 X136.262 Y112.176 E0.04259
G1 X135.498 Y113.269 E0.04182
G1 X134.541 Y114.368 E0.04567
G1 X133.646 Y115.213 E0.03861
G1 X132.581 Y116.036 E0.04220
G1 X131.445 Y116.743 E0.04195
G1 X130.229 Y117.338 E0.04246
G1 X128.978 Y117.801 E0.04182
G1 X127.675 Y118.139 E0.04220
G1 X126.344 Y118.342 E0.04220
G1 X125.000 Y118.411 E0.04220
G1 X123.656 Y118.342 E0.04220
G1 X122.325 Y118.139 E0.04220
G1 X121.022 Y117.801 E0.04220
G1 X119.760 Y117.334 E0.04220
G1 X118.551 Y116.741 E0.04220
G1 X117.409 Y116.029 E0.04220
G1 X116.345 Y115.205 E0.04220
G1 X115.378 Y114.287 E0.04182
G1 X114.492 Y113.256 E0.04259
G1 X113.726 Y112.155 E0.04208
G1 X113.070 Y110.975 E0.04233
G1 X112.545 Y109.753 E0.04169
G1 X112.137 Y108.457 E0.04259
G1 X111.868 Y107.151 E0.04182
G1 X111.730 Y105.808 E0.04233
G1 X111.726 Y104.589 E0.03822
G1 X111.861 Y103.139 E0.04566
G1 X112.105 Y101.928 E0.03873
G1 X112.591 Y100.378 E0.05093
G1 X113.077 Y99.256 E0.03834
G1 X113.738 Y98.070 E0.04259
G1 X114.468 Y97.025 E0.03994
G1 X114.777 Y97.241 F10800.000
G1 F1200.000
G1 X115.719 Y96.151 E0.04517
G1 X116.597 Y95.321 E0.03790
G1 X117.632 Y94.521 E0.04101
G1 X118.736 Y93.833 E0.04077
G1 X119.917 Y93.255 E0.04124
G1 X121.136 Y92.803 E0.04077
G1 X122.402 Y92.476 E0.04101
G1 X123.695 Y92.278 E0.04101
G1 X125.005 Y92.212 E0.04113
G1 X126.308 Y92.278 E0.04089
G1 X127.600 Y92.476 E0.04101
G1 X128.866 Y92.804 E0.04101
G1 X130.093 Y93.259 E0.04101
G1 X131.267 Y93.835 E0.04101
G1 X132.374 Y94.525 E0.04089
G1 X133.408 Y95.325 E0.04101
G1 X134.351 Y96.220 E0.04077
G1 X135.208 Y97.218 E0.04125
G1 X135.955 Y98.291 E0.04101
G1 X136.590 Y99.435 E0.04101
G1 X137.104 Y100.629 E0.04077
G1 X137.498 Y101.884 E0.04125
G1 X137.760 Y103.158 E0.04077
G1 X137.894 Y104.459 E0.04101
G1 X137.897 Y105.656 E0.03754
G1 X137.741 Y107.196 E0.04854
G1 X137.493 Y108.379 E0.03787
G1 X137.063 Y109.718 E0.04413
G1 X136.587 Y110.817 E0.03752
G1 X135.946 Y111.969 E0.04136
G1 X135.202 Y113.036 E0.04077
G1 X134.281 Y114.094 E0.04398
G1 X133.403 Y114.925 E0.03790
G1 X132.368 Y115.725 E0.04101
G1 X131.264 Y116.412 E0.04077
G1 X130.083 Y116.991 E0.04125
G1 X128.864 Y117.442 E0.04077
G1 X127.598 Y117.770 E0.04101
G1 X126.305 Y117.967 E0.04101
G1 X124.999 Y118.034 E0.04101
G1 X123.692 Y117.967 E0.04101
G1 X122.400 Y117.769 E0.04101
G1 X121.134 Y117.441 E0.04101
G1 X119.911 Y116.988 E0.04089
G1 X118.733 Y116.411 E0.04113
G1 X117.626 Y115.721 E0.04089
G1 X116.592 Y114.920 E0.04101
G1 X115.649 Y114.025 E0.04077
G1 X114.792 Y113.027 E0.04124
G1 X114.045 Y111.954 E0.04101
G1 X113.410 Y110.811 E0.04101
G1 X112.898 Y109.620 E0.04065
G1 X112.502 Y108.361 E0.04136
G1 X112.240 Y107.088 E0.04077
G1 X112.106 Y105.787 E0.04101
G1 X112.103 Y104.589 E0.03754
G1 X112.235 Y103.189 E0.04410
G1 X112.474 Y102.004 E0.03790
G1 X112.937 Y100.527 E0.04854
G1 X113.413 Y99.429 E0.03752
G1 X114.054 Y98.276 E0.04136
G1 X114.742 Y97.290 E0.03769
G1 E-0.80000 F2100.00000
G1 Z0.800 F10800.000
G1 X126.461 Y103.719
G1 Z0.200
G1 E0.80000 F2100.00000
G1 F1200.000
G1 X126.118 Y103.706 E0.01077
G1 X127.320 Y101.503 E0.07869
G1 X127.934 Y100.537 E0.03587
G1 X128.577 Y99.652 E0.03431
G1 X129.287 Y98.807 E0.03462
G1 X130.362 Y97.687 E0.04867
G1 X131.503 Y98.726 E0.04838
G1 X132.166 Y99.479 E0.03147
G1 X132.743 Y100.301 E0.03147
G1 X133.226 Y101.180 E0.03147
G1 X133.835 Y102.654 E0.04999
G1 X132.361 Y103.163 E0.04887
G1 X131.340 Y103.433 E0.03314
G1 X130.288 Y103.628 E0.03352
G1 X129.217 Y103.745 E0.03380
G1 X128.132 Y103.783 E0.03404
G1 X126.521 Y103.722 E0.05053
G1 X126.741 Y103.353 F10800.000
G1 F1200.000
G1 X127.645 Y101.694 E0.05921
G1 X128.245 Y100.750 E0.03510
G1 X128.875 Y99.885 E0.03353
G1 X129.568 Y99.059 E0.03381
G1 X130.380 Y98.213 E0.03676
G1 X131.234 Y98.991 E0.03621
G1 X131.870 Y99.713 E0.03017
G1 X132.422 Y100.500 E0.03017
G1 X132.885 Y101.344 E0.03017
G1 X133.333 Y102.428 E0.03679
G1 X132.251 Y102.802 E0.03589
G1 X131.257 Y103.065 E0.03226
G1 X130.233 Y103.255 E0.03264
G1 X129.190 Y103.369 E0.03292
G1 X128.132 Y103.406 E0.03317
G1 X126.800 Y103.355 E0.04179
G1 X126.363 Y103.221 F10800.000
G1 E-0.80000 F2100.00000
G1 Z0.800 F10800.000
G1 X125.095 Y114.244
G1 Z0.200
G1 E0.80000 F2100.00000
G1 F1200.000
G1 X124.037 Y114.199 E0.03320
G1 X124.033 Y114.246 E0.00147
G1 X123.778 Y114.188 E0.00819
G1 X123.520 Y114.177 E0.00812
G1 X123.526 Y114.131 E0.00146
G1 X122.566 Y113.913 E0.03085
G1 X121.745 Y113.644 E0.02710
G1 X120.953 Y113.297 E0.02710
G1 X120.198 Y112.878 E0.02710
G1 X119.583 Y112.455 E0.02338
G1 X119.549 Y112.545 E0.00300
G1 X119.178 Y112.177 E0.01640
G1 X119.103 Y112.125 E0.00286
G1 X119.110 Y112.110 E0.00054
G1 X118.254 Y111.262 E0.03776
G1 X117.654 Y110.530 E0.02970
G1 X117.133 Y109.739 E0.02970
G1 X116.696 Y108.898 E0.02970
G1 X116.350 Y108.017 E0.02970
G1 X116.096 Y107.104 E0.02970
G1 X115.939 Y106.170 E0.02970
G1 X115.879 Y105.228 E0.02958
G1 X115.838 Y105.222 E0.00130
G1 X115.863 Y104.966 E0.00808
G1 X115.831 Y104.468 E0.01563
G1 X115.908 Y104.486 E0.00249
G1 X115.972 Y103.817 E0.02107
G1 X116.140 Y102.953 E0.02762
G1 X116.391 Y102.108 E0.02762
G1 X116.722 Y101.292 E0.02762
G1 X117.071 Y100.624 E0.02364
G1 X117.012 Y100.596 E0.00205
G1 X117.259 Y100.264 E0.01297
G1 X117.399 Y99.996 E0.00949
G1 X117.441 Y100.020 E0.00151
G1 X117.967 Y99.314 E0.02760
G1 X118.583 Y98.640 E0.02861
G1 X119.262 Y98.032 E0.02861
G1 X119.999 Y97.494 E0.02861
G1 X121.388 Y96.680 E0.05046
G1 X121.902 Y98.237 E0.05142
G1 X122.065 Y99.000 E0.02443
G1 X122.169 Y99.830 E0.02625
G1 X122.213 Y100.911 E0.03393
G1 X122.251 Y99.894 E0.03192
G1 X122.229 Y98.901 E0.03116
G1 X122.146 Y97.970 E0.02930
G1 X121.908 Y96.498 E0.04676
G1 X123.321 Y96.157 E0.04557
G1 X124.252 Y96.032 E0.02946
G1 X125.146 Y96.004 E0.02804
G1 X126.127 Y96.071 E0.03083
G1 X127.054 Y96.235 E0.02951
G1 X127.957 Y96.494 E0.02946
G1 X129.518 Y97.120 E0.05272
G1 X128.712 Y98.175 E0.04161
G1 X128.202 Y98.930 E0.02859
G1 X127.709 Y99.777 E0.03071
G1 X127.226 Y100.736 E0.03368
G1 X126.742 Y101.842 E0.03785
G1 X126.056 Y103.664 E0.06105
G1 X125.503 Y103.555 E0.01765
G1 X126.039 Y103.716 E0.01754
G1 X125.758 Y104.694 E0.03189
G1 X126.144 Y103.733 E0.03247
G1 X127.568 Y104.024 E0.04558
G1 X128.732 Y104.210 E0.03697
G1 X129.903 Y104.328 E0.03690
G1 X131.086 Y104.373 E0.03711
G1 X132.275 Y104.343 E0.03728
G1 X134.126 Y104.183 E0.05828
G1 X134.100 Y105.748 E0.04907
G1 X133.987 Y106.685 E0.02961
G1 X133.777 Y107.606 E0.02961
G1 X133.473 Y108.500 E0.02961
G1 X133.079 Y109.358 E0.02961
G1 X132.597 Y110.171 E0.02961
G1 X132.035 Y110.929 E0.02961
G1 X131.023 Y112.033 E0.04694
G1 X129.490 Y110.646 E0.06483
G1 X128.541 Y109.910 E0.03766
G1 X127.497 Y109.201 E0.03955
G1 X126.355 Y108.525 E0.04163
G1 X125.440 Y108.052 E0.03230
G1 X126.096 Y108.484 E0.02463
G1 X126.954 Y109.107 E0.03326
G1 X127.741 Y109.750 E0.03186
G1 X128.496 Y110.469 E0.03268
G1 X129.207 Y111.260 E0.03336
G1 X130.272 Y112.639 E0.05464
G1 X128.831 Y113.401 E0.05111
G1 X127.936 Y113.759 E0.03023
G1 X127.008 Y114.021 E0.03023
G1 X126.057 Y114.183 E0.03023
G1 X125.155 Y114.240 E0.02835
G1 E-0.80000 F2100.00000
G1 Z0.800 F10800.000
G1 X130.998 Y111.502
G1 Z0.200
G1 E0.80000 F2100.00000
G1 F1200.000
G1 X129.732 Y110.357 E0.05352
G1 X128.763 Y109.604 E0.03849
G1 X127.700 Y108.883 E0.04029
G1 X126.538 Y108.195 E0.04233
G1 X125.156 Y107.480 E0.04877
G1 X125.803 Y105.596 E0.06247
G1 X126.377 Y104.165 E0.04833
G1 X127.500 Y104.395 E0.03596
G1 X128.684 Y104.584 E0.03757
G1 X129.877 Y104.705 E0.03761
G1 X131.083 Y104.750 E0.03785
G1 X132.295 Y104.720 E0.03801
G1 X133.742 Y104.595 E0.04554
G1 X133.724 Y105.722 E0.03535
G1 X133.615 Y106.620 E0.02839
G1 X133.414 Y107.503 E0.02839
G1 X133.123 Y108.360 E0.02839
G1 X132.744 Y109.183 E0.02839
G1 X132.283 Y109.962 E0.02839
G1 X131.744 Y110.689 E0.02839
G1 X131.039 Y111.458 E0.03270
G1 X130.734 Y111.802 F10800.000
G1 E-0.80000 F2100.00000
G1 Z0.800 F10800.000
G1 X124.694 Y107.265
G1 Z0.200
G1 E0.80000 F2100.00000
G1 F1200.000
G1 X123.183 Y106.642 E0.05125
G1 X121.699 Y106.105 E0.04947
G1 X122.082 Y104.478 E0.05241
G1 X122.379 Y102.917 E0.04983
G1 X123.974 Y103.490 E0.05315
G1 X125.574 Y103.970 E0.05236
G1 X125.108 Y105.592 E0.05290
G1 X124.708 Y107.207 E0.05216
G1 X124.557 Y107.641 F10800.000
G1 E-0.80000 F2100.00000
G1 Z0.800 F10800.000
G1 X123.698 Y113.783
G1 Z0.200
G1 E0.80000 F2100.00000
G1 F1200.000
G1 X122.667 Y113.550 E0.03315
G1 X121.880 Y113.291 E0.02598
G1 X121.121 Y112.959 E0.02598
G1 X120.396 Y112.557 E0.02598
G1 X119.577 Y111.994 E0.03119
G1 X119.902 Y111.277 E0.02467
G1 X120.508 Y109.804 E0.04995
G1 X121.038 Y108.306 E0.04981
G1 X121.585 Y106.529 E0.05832
G1 X123.377 Y107.333 E0.06159
G1 X124.547 Y107.946 E0.04141
G1 X124.090 Y110.468 E0.08037
G1 X123.853 Y112.152 E0.05333
G1 X123.704 Y113.723 E0.04949
G1 X123.623 Y114.176 F10800.000
G1 X125.091 Y113.866
G1 F1200.000
G1 X123.949 Y113.818 E0.03585
G1 X124.320 Y111.086 E0.08645
G1 X124.578 Y109.827 E0.04029
G1 X124.957 Y108.185 E0.05284
G1 X125.881 Y108.794 E0.03470
G1 X126.724 Y109.405 E0.03265
G1 X127.491 Y110.033 E0.03107
G1 X128.225 Y110.732 E0.03178
G1 X128.917 Y111.501 E0.03245
G1 X129.700 Y112.515 E0.04015
G1 X128.672 Y113.058 E0.03645
G1 X127.814 Y113.402 E0.02898
G1 X126.925 Y113.652 E0.02898
G1 X126.014 Y113.808 E0.02898
G1 X125.151 Y113.862 E0.02710
G1 X124.895 Y114.215 F10800.000
G1 E-0.80000 F2100.00000
G1 Z0.800 F10800.000
G1 X119.401 Y111.867
G1 Z0.200
G1 E0.80000 F2100.00000
G1 F1200.000
G1 X118.533 Y111.008 E0.03829
G1 X117.958 Y110.306 E0.02847
G1 X117.458 Y109.548 E0.02847
G1 X117.040 Y108.742 E0.02847
G1 X116.708 Y107.897 E0.02847
G1 X116.465 Y107.022 E0.02847
G1 X116.314 Y106.127 E0.02847
G1 X116.239 Y104.950 E0.03697
G1 X118.134 Y105.389 E0.06098
G1 X119.583 Y105.815 E0.04737
G1 X121.183 Y106.374 E0.05314
G1 X120.633 Y108.396 E0.06572
G1 X120.148 Y109.878 E0.04889
G1 X119.422 Y111.811 E0.06475
G1 X119.164 Y112.190 F10800.000
G1 E-0.80000 F2100.00000
G1 Z0.800 F10800.000
G1 X121.275 Y105.970
G1 Z0.200
G1 E0.80000 F2100.00000
G1 F1200.000
G1 X120.479 Y105.736 E0.02601
G1 X119.134 Y105.393 E0.04353
G1 X117.797 Y105.125 E0.04275
G1 X116.248 Y104.901 E0.04909
G1 X116.346 Y103.871 E0.03243
G1 X116.507 Y103.042 E0.02647
G1 X116.747 Y102.233 E0.02647
G1 X117.064 Y101.451 E0.02647
G1 X117.552 Y100.518 E0.03300
G1 X118.823 Y101.246 E0.04594
G1 X120.178 Y101.945 E0.04781
G1 X121.778 Y102.668 E0.05503
G1 X121.574 Y104.332 E0.05255
G1 X121.286 Y105.911 E0.05035
G1 X121.179 Y106.359 F10800.000
G1 E-0.80000 F2100.00000
G1 Z0.800 F10800.000
G1 X121.813 Y102.268
G1 Z0.200
G1 E0.80000 F2100.00000
G1 F1200.000
G1 X120.538 Y101.793 E0.04265
G1 X119.319 Y101.275 E0.04152
G1 X117.589 Y100.453 E0.06006
G1 X118.258 Y99.554 E0.03512
G1 X118.848 Y98.909 E0.02742
G1 X119.500 Y98.325 E0.02742
G1 X120.206 Y97.810 E0.02742
G1 X121.176 Y97.241 E0.03524
G1 X121.538 Y98.336 E0.03615
G1 X121.693 Y99.062 E0.02328
G1 X121.793 Y99.863 E0.02530
G1 X121.838 Y100.762 E0.02822
G1 X121.814 Y102.208 E0.04533
G1 X121.720 Y102.657 F10800.000
G1 E-0.80000 F2100.00000
G1 Z0.800 F10800.000
G1 X125.815 Y103.232
G1 Z0.200
G1 E0.80000 F2100.00000
G1 F1200.000
G1 X123.932 Y102.862 E0.06017
G1 X122.443 Y102.466 E0.04833
G1 X122.587 Y100.981 E0.04677
G1 X122.629 Y99.897 E0.03401
G1 X122.606 Y98.880 E0.03191
G1 X122.521 Y97.923 E0.03012
G1 X122.336 Y96.782 E0.03623
G1 X123.390 Y96.528 E0.03400
G1 X124.283 Y96.408 E0.02824
G1 X125.139 Y96.382 E0.02685
G1 X126.081 Y96.446 E0.02961
G1 X126.969 Y96.603 E0.02826
G1 X127.835 Y96.851 E0.02824
G1 X128.917 Y97.285 E0.03656
G1 X128.406 Y97.955 E0.02641
G1 X127.882 Y98.730 E0.02932
G1 X127.377 Y99.597 E0.03146
G1 X126.884 Y100.575 E0.03436
G1 X126.393 Y101.700 E0.03848
G1 X125.836 Y103.176 E0.04947
G1 X125.714 Y103.619 F10800.000
G1 E-0.80000 F2100.00000
G1 Z0.800 F10800.000
G1 X125.000 Y115.069
G1 Z0.200
G1 E0.80000 F2100.00000
G1 F1200.000
G1 X123.994 Y115.018 E0.03159
G1 X122.998 Y114.865 E0.03159
G1 X122.023 Y114.612 E0.03159
G1 X121.078 Y114.263 E0.03159
G1 X120.290 Y113.876 E0.02751
G1 X119.316 Y113.284 E0.03575
G1 X118.521 Y112.669 E0.03149
G1 X117.791 Y111.975 E0.03159
G1 X117.135 Y111.211 E0.03159
G1 X116.559 Y110.384 E0.03159
G1 X116.070 Y109.503 E0.03159
G1 X115.673 Y108.577 E0.03159
G1 X115.372 Y107.616 E0.03159
G1 X115.169 Y106.629 E0.03159
G1 X115.067 Y105.626 E0.03159
G1 X115.067 Y104.619 E0.03159
G1 X115.169 Y103.617 E0.03159
G1 X115.372 Y102.630 E0.03159
G1 X115.673 Y101.668 E0.03159
G1 X116.070 Y100.743 E0.03159
G1 X116.559 Y99.862 E0.03159
G1 X117.135 Y99.035 E0.03159
G1 X117.791 Y98.270 E0.03159
G1 X118.521 Y97.576 E0.03159
G1 X119.318 Y96.959 E0.03159
G1 X120.173 Y96.426 E0.03159
G1 X121.078 Y95.983 E0.03159
G1 X122.023 Y95.633 E0.03159
G1 X122.998 Y95.380 E0.03159
G1 X123.994 Y95.228 E0.03159
G1 X125.000 Y95.177 E0.03159
G1 X125.876 Y95.221 E0.02751
G1 X127.005 Y95.381 E0.03575
G1 X127.977 Y95.633 E0.03149
G1 X128.922 Y95.983 E0.03159
G1 X129.827 Y96.426 E0.03159
G1 X130.682 Y96.959 E0.03159
G1 X131.479 Y97.576 E0.03159
G1 X132.209 Y98.270 E0.03159
G1 X132.865 Y99.035 E0.03159
G1 X133.441 Y99.862 E0.03159
G1 X133.930 Y100.743 E0.03159
G1 X134.327 Y101.668 E0.03159
G1 X134.628 Y102.630 E0.03159
G1 X134.831 Y103.617 E0.03159
G1 X134.933 Y104.619 E0.03159
G1 X134.933 Y105.626 E0.03159
G1 X134.831 Y106.629 E0.03159
G1 X134.628 Y107.616 E0.03159
G1 X134.327 Y108.577 E0.03159
G1 X133.930 Y109.503 E0.03159
G1 X133.441 Y110.384 E0.03159
G1 X132.865 Y111.211 E0.03159
G1 X132.209 Y111.975 E0.03159
G1 X131.479 Y112.669 E0.03159
G1 X130.682 Y113.286 E0.03159
G1 X129.827 Y113.819 E0.03159
G1 X128.922 Y114.263 E0.03159
