; generated by PrusaSlicer 2.2.0+win64 on 2020-11-23 at 23:34:11 UTC

; 

; external perimeters extrusion width = 0.45mm
; perimeters extrusion width = 0.45mm
; infill extrusion width = 0.45mm
; solid infill extrusion width = 0.45mm
; top infill extrusion width = 0.40mm
; first layer extrusion width = 0.42mm

M73 P0 R203
M201 X9000 Y9000 Z500 E10000 ; sets maximum accelerations, mm/sec^2
M203 X500 Y500 Z12 E120 ; sets maximum feedrates, mm/sec
M204 P2000 R1500 T2000 ; sets acceleration (P, T) and retract acceleration (R), mm/sec^2
M205 X10.00 Y10.00 Z0.20 E2.50 ; sets the jerk limits, mm/sec
M205 S0 T0 ; sets the minimum extruding and travel feed rate, mm/sec
M107
M862.3 P "MK2.5SMMU2S" ; printer model check
M862.1 P0.4 ; nozzle diameter check
M115 U3.8.0 ; tell printer latest fw version
G90 ; use absolute coordinates
M83 ; extruder relative mode
M104 S215 ; set extruder temp
M140 S60 ; set bed temp
Tx
M190 S60 ; wait for bed temp
M109 S215 ; wait for extruder temp
G28 W ; home all without mesh bed level
G80 ; mesh bed leveling

G21 ; set units to millimeters

;go outside print area
G1 Y-3.0 F1000.0
G1 Z0.4 F1000.0
; select extruder
Tc
; purge line
G1 X55.0 F2000.0
G1 Z0.3 F1000.0
G92 E0.0
G1 X240.0 E25.0 F2200.0
M73 P0 R203
G1 Y-2.0 F1000.0
G1 X55.0 E25 F1400.0
G1 Z0.20 F1000.0
G1 X5.0 E4.0 F1000.0
G92 E0.0
G21 ; set units to millimeters
G90 ; use absolute coordinates
M83 ; use relative distances for extrusion
M900 K0.06 ; Filament gcode LA 1.5
M900 K30 ; Filament gcode LA 1.0
;BEFORE_LAYER_CHANGE
G92 E0.0
;0.2


G1 E-0.80000 F2100.00000
G1 Z0.600 F10800.000
;AFTER_LAYER_CHANGE
;0.2
G1 X96.540 Y99.065
G1 Z0.200
G1 E0.80000 F2100.00000
M204 S1000
G1 F1200.000
G1 X96.790 Y98.642 E0.01538
G1 X97.118 Y98.283 E0.01526
G1 X97.515 Y97.996 E0.01538
G1 X97.964 Y97.797 E0.01538
G1 X102.478 Y96.372 E0.14842
G1 X103.081 Y96.274 E0.01917
G1 X146.847 Y96.273 E1.37224
G1 X147.523 Y96.372 E0.02142
G1 X152.282 Y97.892 E0.15665
G1 X152.706 Y98.140 E0.01538
G1 X153.072 Y98.472 E0.01550
G1 X153.359 Y98.869 E0.01538
G1 X153.560 Y99.321 E0.01550
G1 X154.867 Y104.091 E0.15508
G1 X154.877 Y113.726 E0.30209
G1 X154.750 Y114.447 E0.02296
G1 X154.410 Y115.095 E0.02296
G1 X153.888 Y115.609 E0.02296
G1 X153.235 Y115.940 E0.02296
G1 X152.520 Y116.057 E0.02272
G1 X140.023 Y116.057 E0.39183
G1 X97.384 Y114.724 E1.33758
G1 X96.685 Y114.583 E0.02237
G1 X96.059 Y114.240 E0.02237
G1 X95.563 Y113.728 E0.02237
G1 X95.240 Y113.087 E0.02249
G1 X95.123 Y112.372 E0.02272
G1 X95.160 Y103.890 E0.26595
G1 X96.523 Y99.122 E0.15548
G1 E-0.80000 F2100.00000
G1 Z0.800 F10800.000
G1 X130.826 Y111.137
G1 Z0.200
G1 E0.80000 F2100.00000
G1 F1200.000
G1 X130.826 Y107.963 E0.09952
G1 X142.400 Y107.963 E0.36290
G1 X142.400 Y111.137 E0.09952
G1 X130.886 Y111.137 E0.36102
G1 X131.203 Y110.760 F10800.000
G1 F1200.000
G1 X131.203 Y108.340 E0.07588
G1 X142.023 Y108.340 E0.33925
G1 X142.023 Y110.760 E0.07588
G1 X131.263 Y110.760 E0.33737
G1 X130.804 Y110.789 F10800.000
G1 E-0.80000 F2100.00000
G1 Z0.800 F10800.000
G1 X117.457 Y111.137
G1 Z0.200
G1 E0.80000 F2100.00000
G1 F1200.000
G1 X105.883 Y111.137 E0.36290
G1 X105.883 Y107.963 E0.09952
G1 X117.457 Y107.963 E0.36290
G1 X117.457 Y111.077 E0.09764
G1 X117.080 Y110.760 F10800.000
G1 F1200.000
G1 X106.260 Y110.760 E0.33925
G1 X106.260 Y108.340 E0.07588
G1 X117.080 Y108.340 E0.33925
G1 X117.080 Y110.700 E0.07400
G1 X117.254 Y111.120 F10800.000
G1 E-0.80000 F2100.00000
G1 Z0.800 F10800.000
G1 X125.000 Y111.763
G1 Z0.200
G1 E0.80000 F2100.00000
G1 F1200.000
G1 X98.087 Y111.763 E0.84384
G1 X98.087 Y104.550 E0.22616
G1 X103.400 Y99.237 E0.23559
G1 X146.600 Y99.237 E1.35450
G1 X151.913 Y104.550 E0.23559
G1 X151.913 Y112.693 E0.25531
G1 X140.660 Y112.693 E0.35284
G1 X140.660 Y111.763 E0.02916
G1 X125.060 Y111.763 E0.48912
G1 X125.000 Y112.140 F10800.000
G1 F1200.000
G1 X97.710 Y112.140 E0.85566
G1 X97.710 Y104.394 E0.24288
G1 X103.244 Y98.860 E0.24538
G1 X146.756 Y98.860 E1.36430
G1 X152.290 Y104.394 E0.24538
G1 X152.290 Y113.070 E0.27204
G1 X140.283 Y113.070 E0.37648
G1 X140.283 Y112.140 E0.02916
G1 X125.060 Y112.140 E0.47730
G1 X124.807 Y111.790 F10800.000
G1 E-0.80000 F2100.00000
G1 Z0.800 F10800.000
G1 X130.638 Y111.450
G1 Z0.200
G1 E0.80000 F2100.00000
G1 F1200.000
G1 X140.848 Y111.450 E0.21120
G1 X141.272 Y112.580 F10800.000
G1 F1200.000
G1 X140.943 Y112.250 E0.01471
G1 X140.943 Y111.879 E0.01175
G1 X141.108 Y111.879 E0.00523
G1 X141.639 Y112.410 E0.02375
G1 X142.177 Y112.410 E0.01698
G1 X141.187 Y111.420 E0.04424
G1 X141.724 Y111.420 E0.01698
G1 X142.714 Y112.410 E0.04424
G1 X143.251 Y112.410 E0.01698
G1 X142.261 Y111.420 E0.04424
G1 X142.683 Y111.420 E0.01333
G1 X142.683 Y111.305 E0.00364
G1 X143.789 Y112.410 E0.04939
G1 X144.326 Y112.410 E0.01698
G1 X142.683 Y110.767 E0.07340
G1 X142.683 Y110.230 E0.01698
G1 X144.863 Y112.410 E0.09740
G1 X145.401 Y112.410 E0.01698
G1 X142.683 Y109.693 E0.12141
G1 X142.683 Y109.155 E0.01698
G1 X145.938 Y112.410 E0.14542
G1 X146.475 Y112.410 E0.01698
G1 X142.683 Y108.618 E0.16942
G1 X142.683 Y108.081 E0.01698
G1 X147.182 Y112.580 E0.20101
G1 E-0.80000 F2100.00000
G1 Z0.800 F10800.000
G1 X151.800 Y104.839
G1 Z0.200
G1 E0.80000 F2100.00000
G1 F1200.000
G1 X146.481 Y99.520 E0.23765
G1 X145.943 Y99.520 E0.01698
G1 X151.630 Y105.207 E0.25407
G1 X151.630 Y105.744 E0.01698
G1 X145.406 Y99.520 E0.27808
G1 X144.869 Y99.520 E0.01698
G1 X151.630 Y106.281 E0.30208
G1 X151.630 Y106.819 E0.01698
G1 X144.331 Y99.520 E0.32609
G1 X143.794 Y99.520 E0.01698
G1 X151.630 Y107.356 E0.35010
G1 X151.630 Y107.893 E0.01698
G1 X143.257 Y99.520 E0.37410
G1 X142.720 Y99.520 E0.01698
G1 X151.630 Y108.430 E0.39811
G1 X151.630 Y108.968 E0.01698
G1 X142.182 Y99.520 E0.42212
G1 X141.645 Y99.520 E0.01698
G1 X151.630 Y109.505 E0.44612
G1 X151.630 Y110.042 E0.01698
G1 X141.108 Y99.520 E0.47013
G1 X140.570 Y99.520 E0.01698
G1 X151.630 Y110.580 E0.49414
G1 X151.630 Y111.117 E0.01698
G1 X140.033 Y99.520 E0.51814
G1 X139.496 Y99.520 E0.01698
G1 X151.630 Y111.654 E0.54215
G1 X151.630 Y112.192 E0.01698
G1 X138.958 Y99.520 E0.56615
G1 X138.421 Y99.520 E0.01698
G1 X151.311 Y112.410 E0.57591
G1 X150.774 Y112.410 E0.01698
G1 X137.884 Y99.520 E0.57591
G1 X137.346 Y99.520 E0.01698
G1 X150.237 Y112.410 E0.57591
G1 X149.699 Y112.410 E0.01698
G1 X136.809 Y99.520 E0.57591
G1 X136.272 Y99.520 E0.01698
G1 X149.162 Y112.410 E0.57591
G1 X148.625 Y112.410 E0.01698
G1 X135.734 Y99.520 E0.57591
G1 X135.197 Y99.520 E0.01698
G1 X148.087 Y112.410 E0.57591
G1 X147.550 Y112.410 E0.01698
G1 X134.660 Y99.520 E0.57591
M73 P0 R202
G1 X134.122 Y99.520 E0.01698
G1 X142.283 Y107.680 E0.36458
G1 X141.745 Y107.680 E0.01698
G1 X133.585 Y99.520 E0.36458
G1 X133.048 Y99.520 E0.01698
G1 X141.208 Y107.680 E0.36458
G1 X140.671 Y107.680 E0.01698
G1 X132.510 Y99.520 E0.36458
G1 X131.973 Y99.520 E0.01698
G1 X140.133 Y107.680 E0.36458
G1 X139.596 Y107.680 E0.01698
G1 X131.436 Y99.520 E0.36458
G1 X130.899 Y99.520 E0.01698
G1 X139.059 Y107.680 E0.36458
G1 X138.521 Y107.680 E0.01698
G1 X130.361 Y99.520 E0.36458
G1 X129.824 Y99.520 E0.01698
G1 X137.984 Y107.680 E0.36458
G1 X137.447 Y107.680 E0.01698
G1 X129.287 Y99.520 E0.36458
G1 X128.749 Y99.520 E0.01698
G1 X136.909 Y107.680 E0.36458
G1 X136.372 Y107.680 E0.01698
G1 X128.212 Y99.520 E0.36458
G1 X127.675 Y99.520 E0.01698
G1 X135.835 Y107.680 E0.36458
G1 X135.298 Y107.680 E0.01698
G1 X127.137 Y99.520 E0.36458
G1 X126.600 Y99.520 E0.01698
G1 X134.760 Y107.680 E0.36458
G1 X134.223 Y107.680 E0.01698
G1 X126.063 Y99.520 E0.36458
G1 X125.525 Y99.520 E0.01698
G1 X133.686 Y107.680 E0.36458
G1 X133.148 Y107.680 E0.01698
G1 X124.988 Y99.520 E0.36458
G1 X124.451 Y99.520 E0.01698
G1 X132.611 Y107.680 E0.36458
G1 X132.074 Y107.680 E0.01698
G1 X123.913 Y99.520 E0.36458
G1 X123.376 Y99.520 E0.01698
G1 X131.536 Y107.680 E0.36458
G1 X130.999 Y107.680 E0.01698
G1 X122.839 Y99.520 E0.36458
G1 X122.301 Y99.520 E0.01698
G1 X130.544 Y107.762 E0.36824
G1 X130.544 Y108.299 E0.01698
G1 X121.764 Y99.520 E0.39225
G1 X121.227 Y99.520 E0.01698
G1 X130.544 Y108.837 E0.41625
G1 X130.544 Y109.374 E0.01698
G1 X120.689 Y99.520 E0.44026
G1 X120.152 Y99.520 E0.01698
G1 X130.544 Y109.911 E0.46427
G1 X130.544 Y110.449 E0.01698
G1 X119.615 Y99.520 E0.48827
G1 X119.078 Y99.520 E0.01698
G1 X130.544 Y110.986 E0.51228
G1 X130.544 Y111.021 E0.00112
G1 X130.355 Y111.021 E0.00596
G1 X130.355 Y111.335 E0.00990
G1 X118.540 Y99.520 E0.52786
G1 X118.003 Y99.520 E0.01698
G1 X129.963 Y111.480 E0.53436
G1 X129.426 Y111.480 E0.01698
G1 X117.466 Y99.520 E0.53436
G1 X116.928 Y99.520 E0.01698
G1 X128.889 Y111.480 E0.53436
G1 X128.351 Y111.480 E0.01698
G1 X116.391 Y99.520 E0.53436
G1 X115.854 Y99.520 E0.01698
G1 X127.814 Y111.480 E0.53436
G1 X127.277 Y111.480 E0.01698
G1 X115.316 Y99.520 E0.53436
G1 X114.779 Y99.520 E0.01698
G1 X126.739 Y111.480 E0.53436
G1 X126.202 Y111.480 E0.01698
G1 X114.242 Y99.520 E0.53436
G1 X113.704 Y99.520 E0.01698
G1 X125.665 Y111.480 E0.53436
G1 X125.127 Y111.480 E0.01698
G1 X113.167 Y99.520 E0.53436
G1 X112.630 Y99.520 E0.01698
G1 X124.590 Y111.480 E0.53436
G1 X124.053 Y111.480 E0.01698
G1 X112.092 Y99.520 E0.53436
G1 X111.555 Y99.520 E0.01698
G1 X123.515 Y111.480 E0.53436
G1 X122.978 Y111.480 E0.01698
G1 X111.018 Y99.520 E0.53436
G1 X110.480 Y99.520 E0.01698
G1 X122.441 Y111.480 E0.53436
G1 X121.903 Y111.480 E0.01698
G1 X109.943 Y99.520 E0.53436
G1 X109.406 Y99.520 E0.01698
G1 X121.366 Y111.480 E0.53436
G1 X120.829 Y111.480 E0.01698
G1 X117.740 Y108.391 E0.13800
G1 X117.740 Y108.929 E0.01698
G1 X120.291 Y111.480 E0.11399
G1 X119.754 Y111.480 E0.01698
G1 X117.740 Y109.466 E0.08999
G1 X117.740 Y110.003 E0.01698
G1 X119.217 Y111.480 E0.06598
G1 X118.679 Y111.480 E0.01698
G1 X117.740 Y110.541 E0.04197
G1 X117.740 Y111.021 E0.01519
G1 X117.929 Y111.021 E0.00596
G1 X117.929 Y111.267 E0.00775
G1 X118.312 Y111.650 E0.01712
G1 X117.646 Y111.450 F10800.000
G1 F1200.000
G1 X105.695 Y111.450 E0.24721
G1 E-0.80000 F2100.00000
G1 Z0.800 F10800.000
G1 X98.968 Y111.650
G1 Z0.200
G1 E0.80000 F2100.00000
G1 F1200.000
G1 X98.370 Y111.051 E0.02674
G1 X98.370 Y110.514 E0.01698
G1 X99.336 Y111.480 E0.04317
G1 X99.873 Y111.480 E0.01698
G1 X98.370 Y109.977 E0.06717
G1 X98.370 Y109.439 E0.01698
G1 X100.411 Y111.480 E0.09118
G1 X100.948 Y111.480 E0.01698
G1 X98.370 Y108.902 E0.11519
G1 X98.370 Y108.365 E0.01698
G1 X101.485 Y111.480 E0.13919
G1 X102.023 Y111.480 E0.01698
G1 X98.370 Y107.827 E0.16320
G1 X98.370 Y107.290 E0.01698
G1 X102.560 Y111.480 E0.18720
G1 X103.097 Y111.480 E0.01698
G1 X98.370 Y106.753 E0.21121
G1 X98.370 Y106.215 E0.01698
G1 X103.635 Y111.480 E0.23522
G1 X104.172 Y111.480 E0.01698
G1 X98.370 Y105.678 E0.25922
G1 X98.370 Y105.141 E0.01698
G1 X104.709 Y111.480 E0.28323
G1 X105.247 Y111.480 E0.01698
G1 X98.402 Y104.635 E0.30581
G1 X98.670 Y104.367 E0.01200
G1 X105.412 Y111.108 E0.30119
G1 X105.412 Y111.021 E0.00274
G1 X105.600 Y111.021 E0.00596
G1 X105.600 Y110.759 E0.00828
G1 X98.939 Y104.098 E0.29761
G1 X99.208 Y103.829 E0.01200
G1 X105.600 Y110.222 E0.28561
G1 X105.600 Y109.685 E0.01698
G1 X99.476 Y103.561 E0.27361
G1 X99.745 Y103.292 E0.01200
G1 X105.600 Y109.147 E0.26160
G1 X105.600 Y108.610 E0.01698
G1 X100.014 Y103.023 E0.24960
G1 X100.282 Y102.755 E0.01200
G1 X105.600 Y108.073 E0.23760
G1 X105.600 Y107.680 E0.01240
G1 X105.745 Y107.680 E0.00457
G1 X100.551 Y102.486 E0.23206
G1 X100.820 Y102.217 E0.01200
G1 X106.282 Y107.680 E0.24406
G1 X106.820 Y107.680 E0.01698
G1 X101.088 Y101.949 E0.25607
G1 X101.357 Y101.680 E0.01200
G1 X107.357 Y107.680 E0.26807
G1 X107.894 Y107.680 E0.01698
G1 X101.626 Y101.411 E0.28007
G1 X101.894 Y101.143 E0.01200
G1 X108.432 Y107.680 E0.29208
G1 X108.969 Y107.680 E0.01698
G1 X102.163 Y100.874 E0.30408
G1 X102.432 Y100.605 E0.01200
G1 X109.506 Y107.680 E0.31608
G1 X110.044 Y107.680 E0.01698
G1 X102.700 Y100.337 E0.32809
G1 X102.969 Y100.068 E0.01200
G1 X110.581 Y107.680 E0.34009
G1 X111.118 Y107.680 E0.01698
G1 X103.238 Y99.799 E0.35209
G1 X103.506 Y99.531 E0.01200
G1 X111.656 Y107.680 E0.36410
G1 X112.193 Y107.680 E0.01698
G1 X104.033 Y99.520 E0.36458
G1 X104.570 Y99.520 E0.01698
G1 X112.730 Y107.680 E0.36458
G1 X113.268 Y107.680 E0.01698
G1 X105.107 Y99.520 E0.36458
G1 X105.645 Y99.520 E0.01698
G1 X113.805 Y107.680 E0.36458
G1 X114.342 Y107.680 E0.01698
G1 X106.182 Y99.520 E0.36458
G1 X106.719 Y99.520 E0.01698
G1 X114.879 Y107.680 E0.36458
G1 X115.417 Y107.680 E0.01698
G1 X107.257 Y99.520 E0.36458
G1 X107.794 Y99.520 E0.01698
G1 X115.954 Y107.680 E0.36458
G1 X116.491 Y107.680 E0.01698
G1 X108.331 Y99.520 E0.36458
G1 X108.868 Y99.520 E0.01698
G1 X117.198 Y107.850 E0.37217
M106 S153
;BEFORE_LAYER_CHANGE
G92 E0.0
;0.4


G1 E-0.80000 F2100.00000
G1 Z0.800 F10800.000
;AFTER_LAYER_CHANGE
;0.4
G1 X154.410 Y115.095
G1 Z0.400
G1 E0.80000 F2100.00000
G1 F3000.000
G1 X153.888 Y115.609 E0.02296
G1 X153.235 Y115.940 E0.02296
G1 X152.520 Y116.057 E0.02272
G1 X140.023 Y116.057 E0.39183
G1 X97.384 Y114.724 E1.33758
G1 X96.685 Y114.583 E0.02237
G1 X96.059 Y114.240 E0.02237
G1 X95.563 Y113.728 E0.02237
G1 X95.240 Y113.087 E0.02249
G1 X95.123 Y112.372 E0.02272
G1 X95.160 Y103.890 E0.26595
G1 X96.540 Y99.065 E0.15737
G1 X96.790 Y98.642 E0.01538
G1 X97.118 Y98.283 E0.01526
G1 X97.515 Y97.996 E0.01538
G1 X97.964 Y97.797 E0.01538
G1 X102.478 Y96.372 E0.14842
G1 X103.081 Y96.274 E0.01917
G1 X146.847 Y96.273 E1.37224
G1 X147.523 Y96.372 E0.02142
G1 X152.282 Y97.892 E0.15665
G1 X152.706 Y98.140 E0.01538
G1 X153.072 Y98.472 E0.01550
G1 X153.359 Y98.869 E0.01538
G1 X153.560 Y99.321 E0.01550
G1 X154.867 Y104.091 E0.15508
G1 X154.877 Y113.726 E0.30209
G1 X154.750 Y114.447 E0.02296
G1 X154.438 Y115.042 E0.02108
G1 E-0.80000 F2100.00000
G1 Z1.000 F10800.000
G1 X130.781 Y111.182
G1 Z0.400
G1 E0.80000 F2100.00000
M204 S800
G1 F1500.000
G1 X130.781 Y107.918 E0.11049
G1 X142.445 Y107.918 E0.39482
M73 P1 R201
G1 X142.445 Y111.182 E0.11049
G1 X130.841 Y111.182 E0.39279
M204 S1000
G1 X131.188 Y110.775 F10800.000
M204 S800
G1 F1500.000
G1 X131.188 Y108.325 E0.08293
G1 X142.038 Y108.325 E0.36726
G1 X142.038 Y110.775 E0.08293
G1 X131.248 Y110.775 E0.36523
M204 S1000
G1 X130.790 Y110.805 F10800.000
G1 E-0.80000 F2100.00000
G1 Z1.000 F10800.000
G1 X117.502 Y111.182
G1 Z0.400
G1 E0.80000 F2100.00000
M204 S800
G1 F1500.000
G1 X105.838 Y111.182 E0.39482
G1 X105.838 Y107.918 E0.11049
G1 X117.502 Y107.918 E0.39482
G1 X117.502 Y111.122 E0.10846
M204 S1000
G1 X117.095 Y110.775 F10800.000
M204 S800
G1 F1500.000
G1 X106.245 Y110.775 E0.36726
G1 X106.245 Y108.325 E0.08293
G1 X117.095 Y108.325 E0.36726
G1 X117.095 Y110.715 E0.08090
M204 S1000
G1 X117.269 Y111.135 F10800.000
G1 E-0.80000 F2100.00000
G1 Z1.000 F10800.000
G1 X125.000 Y111.718
G1 Z0.400
G1 E0.80000 F2100.00000
M204 S800
G1 F3000.000
G1 X98.132 Y111.718 E0.90945
G1 X98.132 Y104.569 E0.24199
G1 X103.419 Y99.282 E0.25307
G1 X146.581 Y99.282 E1.46100
G1 X151.868 Y104.569 E0.25307
G1 X151.868 Y112.848 E0.28024
G1 X140.705 Y112.848 E0.37786
G1 X140.705 Y111.718 E0.03825
G1 X125.060 Y111.718 E0.52956
M204 S1000
G1 X125.000 Y112.125 F10800.000
M204 S800
G1 F2400.000
G1 X97.725 Y112.125 E0.92323
G1 X97.725 Y104.400 E0.26148
G1 X103.250 Y98.875 E0.26448
G1 X146.750 Y98.875 E1.47242
G1 X152.275 Y104.400 E0.26448
G1 X152.275 Y113.255 E0.29973
G1 X140.298 Y113.255 E0.40542
G1 X140.298 Y112.125 E0.03825
G1 X125.060 Y112.125 E0.51578
M204 S1000
G1 X124.809 Y111.774 F10800.000
G1 X126.693 Y111.596
M204 S2000
G1 F3000.000
G1 X138.702 Y99.587 E0.57547
G1 X138.125 Y99.587 E0.01953
G1 X126.300 Y111.413 E0.56669
G1 X125.724 Y111.413 E0.01953
G1 X137.549 Y99.587 E0.56669
G1 X136.973 Y99.587 E0.01953
G1 X125.148 Y111.413 E0.56669
G1 X124.571 Y111.413 E0.01953
G1 X136.396 Y99.587 E0.56669
G1 X135.820 Y99.587 E0.01953
G1 X123.995 Y111.413 E0.56669
G1 X123.419 Y111.413 E0.01953
G1 X135.244 Y99.587 E0.56669
G1 X134.667 Y99.587 E0.01953
G1 X122.842 Y111.413 E0.56669
G1 X122.266 Y111.413 E0.01953
G1 X134.091 Y99.587 E0.56669
G1 X133.515 Y99.587 E0.01953
G1 X121.690 Y111.413 E0.56669
G1 X121.113 Y111.413 E0.01953
G1 X132.938 Y99.587 E0.56669
G1 X132.362 Y99.587 E0.01953
G1 X120.537 Y111.413 E0.56669
