; generated by PrusaSlicer 2.2.0+win64 on 2020-11-09 at 23:56:43 UTC

; 

; external perimeters extrusion width = 0.45mm
; perimeters extrusion width = 0.45mm
; infill extrusion width = 0.45mm
; solid infill extrusion width = 0.45mm
; top infill extrusion width = 0.40mm
; first layer extrusion width = 0.42mm

M73 P0 R183
M201 X9000 Y9000 Z500 E10000 ; sets maximum accelerations, mm/sec^2
M203 X500 Y500 Z12 E120 ; sets maximum feedrates, mm/sec
M204 P2000 R1500 T2000 ; sets acceleration (P, T) and retract acceleration (R), mm/sec^2
M205 X10.00 Y10.00 Z0.20 E2.50 ; sets the jerk limits, mm/sec
M205 S0 T0 ; sets the minimum extruding and travel feed rate, mm/sec
M107
M862.3 P "MK2.5SMMU2S" ; printer model check
M862.1 P0.4 ; nozzle diameter check
M115 U3.8.0 ; tell printer latest fw version
G90 ; use absolute coordinates
M83 ; extruder relative mode
M104 S215 ; set extruder temp
M140 S60 ; set bed temp
Tx
M190 S60 ; wait for bed temp
M109 S215 ; wait for extruder temp
G28 W ; home all without mesh bed level
G80 ; mesh bed leveling

G21 ; set units to millimeters

;go outside print area
G1 Y-3.0 F1000.0
G1 Z0.4 F1000.0
; select extruder
Tc
; purge line
G1 X55.0 F2000.0
G1 Z0.3 F1000.0
G92 E0.0
G1 X240.0 E25.0 F2200.0
M73 P0 R183
G1 Y-2.0 F1000.0
G1 X55.0 E25 F1400.0
G1 Z0.20 F1000.0
G1 X5.0 E4.0 F1000.0
G92 E0.0
G21 ; set units to millimeters
G90 ; use absolute coordinates
M83 ; use relative distances for extrusion
M900 K0.06 ; Filament gcode LA 1.5
M900 K30 ; Filament gcode LA 1.0
;BEFORE_LAYER_CHANGE
G92 E0.0
;0.2


G1 E-0.80000 F2100.00000
G1 Z0.600 F10800.000
;AFTER_LAYER_CHANGE
;0.2
G1 X95.340 Y93.364
G1 Z0.200
G1 E0.80000 F2100.00000
M204 S1000
G1 F1200.000
G1 X95.737 Y92.762 E0.02260
G1 X101.678 Y86.839 E0.26301
G1 X102.361 Y86.460 E0.02449
G1 X103.130 Y86.323 E0.02449
G1 X146.847 Y86.323 E1.37072
G1 X147.731 Y86.495 E0.02825
G1 X148.488 Y86.984 E0.02825
G1 X154.260 Y92.759 E0.25599
G1 X154.647 Y93.336 E0.02178
G1 X154.850 Y94.000 E0.02178
G1 X154.876 Y103.306 E0.29180
G1 X153.873 Y124.937 E0.67894
G1 X153.793 Y125.428 E0.01562
G1 X153.610 Y125.896 E0.01574
G1 X153.335 Y126.311 E0.01562
G1 X152.980 Y126.660 E0.01562
G1 X152.293 Y127.041 E0.02461
G1 X151.524 Y127.177 E0.02449
G1 X98.485 Y127.177 E1.66302
G1 X97.960 Y127.115 E0.01657
G1 X97.462 Y126.938 E0.01657
G1 X97.012 Y126.654 E0.01668
G1 X96.640 Y126.280 E0.01657
G1 X96.275 Y125.636 E0.02319
G1 X96.126 Y124.911 E0.02319
G1 X95.124 Y102.476 E0.70416
G1 X95.142 Y94.057 E0.26397
G1 X95.324 Y93.421 E0.02072
G1 E-0.80000 F2100.00000
G1 Z0.800 F10800.000
G1 X116.291 Y124.213
G1 Z0.200
G1 E0.80000 F2100.00000
G1 F1200.000
G1 X99.087 Y124.213 E0.53941
G1 X99.087 Y117.414 E0.21317
G1 X103.814 Y112.687 E0.20961
G1 X106.158 Y112.687 E0.07349
G1 X106.158 Y111.487 E0.03763
G1 X143.842 Y111.487 E1.18155
G1 X143.842 Y112.687 E0.03763
G1 X146.186 Y112.687 E0.07349
G1 X150.913 Y117.414 E0.20961
G1 X150.913 Y124.213 E0.21317
G1 X133.711 Y124.213 E0.53936
G1 X133.333 Y123.017 E0.03931
G1 X132.679 Y121.293 E0.05782
G1 X131.954 Y119.717 E0.05440
G1 X131.165 Y118.303 E0.05079
G1 X130.314 Y117.063 E0.04715
G1 X129.406 Y116.008 E0.04363
G1 X128.445 Y115.150 E0.04041
G1 X127.334 Y114.437 E0.04137
G1 X122.669 Y114.437 E0.14628
G1 X121.678 Y115.058 E0.03669
G1 X120.712 Y115.889 E0.03993
G1 X119.797 Y116.919 E0.04320
G1 X118.939 Y118.137 E0.04669
G1 X118.142 Y119.529 E0.05033
G1 X117.409 Y121.086 E0.05395
G1 X116.745 Y122.793 E0.05743
G1 X116.309 Y124.156 E0.04485
G1 X116.566 Y124.590 F10800.000
G1 F1200.000
G1 X98.710 Y124.590 E0.55987
G1 X98.710 Y117.258 E0.22989
G1 X103.658 Y112.310 E0.21940
G1 X105.781 Y112.310 E0.06657
G1 X105.781 Y111.110 E0.03763
G1 X144.219 Y111.110 E1.20519
G1 X144.219 Y112.310 E0.03763
G1 X146.342 Y112.310 E0.06657
G1 X151.290 Y117.258 E0.21940
G1 X151.290 Y124.590 E0.22989
G1 X133.434 Y124.590 E0.55985
G1 X132.977 Y123.141 E0.04764
G1 X132.331 Y121.439 E0.05708
G1 X131.618 Y119.888 E0.05353
G1 X130.844 Y118.502 E0.04978
G1 X130.015 Y117.293 E0.04596
G1 X129.137 Y116.273 E0.04220
G1 X128.216 Y115.451 E0.03870
G1 X127.224 Y114.814 E0.03697
G1 X122.778 Y114.814 E0.13941
G1 X121.902 Y115.363 E0.03240
G1 X120.977 Y116.158 E0.03825
G1 X120.093 Y117.154 E0.04174
G1 X119.258 Y118.339 E0.04548
G1 X118.476 Y119.704 E0.04930
G1 X117.755 Y121.235 E0.05306
G1 X117.101 Y122.919 E0.05666
G1 X116.584 Y124.533 E0.05312
G1 X116.245 Y124.352 F10800.000
G1 E-0.80000 F2100.00000
G1 Z0.800 F10800.000
G1 X128.103 Y114.796
G1 Z0.200
G1 E0.80000 F2100.00000
G1 F1200.000
G1 X125.077 Y111.770 E0.13460
G1 X124.542 Y111.770 E0.01682
G1 X126.926 Y114.154 E0.10604
G1 X126.391 Y114.154 E0.01682
G1 X124.007 Y111.770 E0.10604
G1 X123.472 Y111.770 E0.01682
G1 X125.856 Y114.154 E0.10604
G1 X125.322 Y114.154 E0.01682
G1 X122.937 Y111.770 E0.10604
G1 X122.402 Y111.770 E0.01682
G1 X124.787 Y114.154 E0.10604
G1 X124.252 Y114.154 E0.01682
G1 X121.868 Y111.770 E0.10604
G1 X121.333 Y111.770 E0.01682
G1 X123.717 Y114.154 E0.10604
G1 X123.182 Y114.154 E0.01682
G1 X120.798 Y111.770 E0.10604
G1 X120.263 Y111.770 E0.01682
G1 X122.647 Y114.154 E0.10604
G1 X122.588 Y114.154 E0.00187
G1 X122.295 Y114.337 E0.01085
G1 X119.728 Y111.770 E0.11419
G1 X119.193 Y111.770 E0.01682
G1 X121.967 Y114.543 E0.12336
G1 X121.638 Y114.750 E0.01220
G1 X118.658 Y111.770 E0.13252
G1 X118.123 Y111.770 E0.01682
G1 X121.334 Y114.981 E0.14281
G1 X121.047 Y115.228 E0.01193
G1 X117.589 Y111.770 E0.15381
G1 X117.054 Y111.770 E0.01682
G1 X120.759 Y115.475 E0.16481
G1 X120.477 Y115.728 E0.01191
G1 X116.519 Y111.770 E0.17604
G1 X115.984 Y111.770 E0.01682
G1 X120.225 Y116.011 E0.18864
G1 X119.974 Y116.295 E0.01192
G1 X115.449 Y111.770 E0.20125
G1 X114.914 Y111.770 E0.01682
G1 X119.722 Y116.578 E0.21385
G1 X119.483 Y116.874 E0.01196
G1 X114.379 Y111.770 E0.22701
G1 X113.844 Y111.770 E0.01682
G1 X119.262 Y117.188 E0.24097
G1 X119.041 Y117.502 E0.01207
G1 X113.309 Y111.770 E0.25492
G1 X112.775 Y111.770 E0.01682
G1 X118.820 Y117.815 E0.26887
G1 X118.611 Y118.141 E0.01218
G1 X112.240 Y111.770 E0.28337
G1 X111.705 Y111.770 E0.01682
G1 X118.416 Y118.481 E0.29849
G1 X118.221 Y118.821 E0.01233
G1 X111.170 Y111.770 E0.31362
G1 X110.635 Y111.770 E0.01682
G1 X118.027 Y119.161 E0.32875
G1 X117.839 Y119.509 E0.01241
G1 X110.100 Y111.770 E0.34419
G1 X109.565 Y111.770 E0.01682
G1 X117.668 Y119.872 E0.36036
G1 X117.496 Y120.236 E0.01264
G1 X109.030 Y111.770 E0.37654
G1 X108.495 Y111.770 E0.01682
G1 X117.325 Y120.600 E0.39271
G1 X117.154 Y120.963 E0.01264
G1 X107.961 Y111.770 E0.40889
G1 X107.426 Y111.770 E0.01682
G1 X117.004 Y121.348 E0.42599
G1 X116.854 Y121.733 E0.01300
G1 X106.891 Y111.770 E0.44312
G1 X106.441 Y111.770 E0.01415
G1 X106.441 Y111.855 E0.00267
G1 X116.704 Y122.118 E0.45647
G1 X116.554 Y122.503 E0.01300
G1 X106.441 Y112.390 E0.44981
G1 X106.441 Y112.925 E0.01682
G1 X116.415 Y122.898 E0.44359
G1 X116.285 Y123.304 E0.01338
G1 X105.951 Y112.970 E0.45960
G1 X105.416 Y112.970 E0.01682
G1 X116.155 Y123.709 E0.47762
G1 X116.084 Y123.930 E0.00731
G1 X115.842 Y123.930 E0.00763
G1 X104.881 Y112.970 E0.48747
G1 X104.347 Y112.970 E0.01682
G1 X115.307 Y123.930 E0.48747
G1 X114.772 Y123.930 E0.01682
G1 X103.872 Y113.030 E0.48481
G1 X103.604 Y113.297 E0.01189
G1 X114.237 Y123.930 E0.47291
G1 X113.702 Y123.930 E0.01682
G1 X103.337 Y113.565 E0.46102
G1 X103.069 Y113.832 E0.01189
G1 X113.167 Y123.930 E0.44912
G1 X112.632 Y123.930 E0.01682
G1 X102.802 Y114.099 E0.43723
G1 X102.534 Y114.367 E0.01189
G1 X112.098 Y123.930 E0.42533
G1 X111.563 Y123.930 E0.01682
G1 X102.267 Y114.634 E0.41344
M73 P0 R182
G1 X101.999 Y114.902 E0.01189
G1 X111.028 Y123.930 E0.40154
G1 X110.493 Y123.930 E0.01682
G1 X101.732 Y115.169 E0.38965
G1 X101.465 Y115.437 E0.01189
G1 X109.958 Y123.930 E0.37775
G1 X109.423 Y123.930 E0.01682
G1 X101.197 Y115.704 E0.36586
G1 X100.930 Y115.972 E0.01189
G1 X108.888 Y123.930 E0.35396
G1 X108.353 Y123.930 E0.01682
G1 X100.662 Y116.239 E0.34207
G1 X100.395 Y116.506 E0.01189
G1 X107.818 Y123.930 E0.33017
G1 X107.284 Y123.930 E0.01682
G1 X100.127 Y116.774 E0.31828
G1 X99.860 Y117.041 E0.01189
G1 X106.749 Y123.930 E0.30638
G1 X106.214 Y123.930 E0.01682
G1 X99.592 Y117.309 E0.29449
G1 X99.370 Y117.531 E0.00990
G1 X99.370 Y117.621 E0.00282
G1 X105.679 Y123.930 E0.28060
G1 X105.144 Y123.930 E0.01682
G1 X99.370 Y118.156 E0.25681
G1 X99.370 Y118.691 E0.01682
G1 X104.609 Y123.930 E0.23302
G1 X104.074 Y123.930 E0.01682
G1 X99.370 Y119.226 E0.20923
G1 X99.370 Y119.761 E0.01682
G1 X103.539 Y123.930 E0.18544
G1 X103.004 Y123.930 E0.01682
G1 X99.370 Y120.296 E0.16165
G1 X99.370 Y120.830 E0.01682
G1 X102.470 Y123.930 E0.13786
G1 X101.935 Y123.930 E0.01682
G1 X99.370 Y121.365 E0.11407
G1 X99.370 Y121.900 E0.01682
G1 X101.400 Y123.930 E0.09028
G1 X100.865 Y123.930 E0.01682
G1 X99.370 Y122.435 E0.06649
G1 X99.370 Y122.970 E0.01682
G1 X100.330 Y123.930 E0.04270
G1 X99.795 Y123.930 E0.01682
G1 X99.200 Y123.335 E0.02646
G1 E-0.80000 F2100.00000
G1 Z0.800 F10800.000
G1 X133.607 Y123.509
G1 Z0.200
G1 E0.80000 F2100.00000
G1 F1200.000
G1 X134.028 Y123.930 E0.01871
G1 X134.563 Y123.930 E0.01682
G1 X133.620 Y122.988 E0.04192
G1 X133.300 Y122.132 E0.02873
G1 X135.098 Y123.930 E0.07997
G1 X135.633 Y123.930 E0.01682
G1 X132.973 Y121.270 E0.11831
G1 X132.530 Y120.293 E0.03373
G1 X136.167 Y123.930 E0.16176
G1 X136.702 Y123.930 E0.01682
G1 X132.012 Y119.239 E0.20862
G1 X131.405 Y118.153 E0.03912
G1 X131.284 Y117.977 E0.00673
G1 X137.237 Y123.930 E0.26477
G1 X137.772 Y123.930 E0.01682
G1 X125.612 Y111.770 E0.54084
G1 X126.147 Y111.770 E0.01682
G1 X138.307 Y123.930 E0.54084
G1 X138.842 Y123.930 E0.01682
G1 X126.682 Y111.770 E0.54084
G1 X127.216 Y111.770 E0.01682
G1 X139.377 Y123.930 E0.54084
G1 X139.912 Y123.930 E0.01682
G1 X127.751 Y111.770 E0.54084
G1 X128.286 Y111.770 E0.01682
G1 X140.446 Y123.930 E0.54084
G1 X140.981 Y123.930 E0.01682
G1 X128.821 Y111.770 E0.54084
G1 X129.356 Y111.770 E0.01682
G1 X141.516 Y123.930 E0.54084
G1 X142.051 Y123.930 E0.01682
G1 X129.891 Y111.770 E0.54084
G1 X130.426 Y111.770 E0.01682
G1 X142.586 Y123.930 E0.54084
G1 X143.121 Y123.930 E0.01682
G1 X130.961 Y111.770 E0.54084
G1 X131.496 Y111.770 E0.01682
G1 X143.656 Y123.930 E0.54084
G1 X144.191 Y123.930 E0.01682
G1 X132.030 Y111.770 E0.54084
G1 X132.565 Y111.770 E0.01682
G1 X144.726 Y123.930 E0.54084
G1 X145.260 Y123.930 E0.01682
G1 X133.100 Y111.770 E0.54084
G1 X133.635 Y111.770 E0.01682
G1 X145.795 Y123.930 E0.54084
G1 X146.330 Y123.930 E0.01682
G1 X134.170 Y111.770 E0.54084
G1 X134.705 Y111.770 E0.01682
G1 X146.865 Y123.930 E0.54084
G1 X147.400 Y123.930 E0.01682
G1 X135.240 Y111.770 E0.54084
G1 X135.775 Y111.770 E0.01682
G1 X147.935 Y123.930 E0.54084
G1 X148.470 Y123.930 E0.01682
G1 X136.310 Y111.770 E0.54084
G1 X136.844 Y111.770 E0.01682
G1 X149.005 Y123.930 E0.54084
G1 X149.540 Y123.930 E0.01682
G1 X137.379 Y111.770 E0.54084
G1 X137.914 Y111.770 E0.01682
G1 X150.074 Y123.930 E0.54084
G1 X150.609 Y123.930 E0.01682
G1 X138.449 Y111.770 E0.54084
G1 X138.984 Y111.770 E0.01682
G1 X150.630 Y123.416 E0.51797
G1 X150.630 Y122.881 E0.01682
G1 X139.519 Y111.770 E0.49418
G1 X140.054 Y111.770 E0.01682
G1 X150.630 Y122.346 E0.47039
G1 X150.630 Y121.811 E0.01682
G1 X140.589 Y111.770 E0.44660
G1 X141.124 Y111.770 E0.01682
G1 X150.630 Y121.276 E0.42282
G1 X150.630 Y120.742 E0.01682
G1 X141.658 Y111.770 E0.39903
G1 X142.193 Y111.770 E0.01682
G1 X150.800 Y120.376 E0.38278
G1 E-0.80000 F2100.00000
G1 Z0.800 F10800.000
G1 X150.800 Y117.702
G1 Z0.200
G1 E0.80000 F2100.00000
G1 F1200.000
G1 X146.068 Y112.970 E0.21046
G1 X145.533 Y112.970 E0.01682
G1 X150.630 Y118.067 E0.22671
G1 X150.630 Y118.602 E0.01682
G1 X144.998 Y112.970 E0.25050
G1 X144.463 Y112.970 E0.01682
G1 X150.630 Y119.137 E0.27429
G1 X150.630 Y119.672 E0.01682
G1 X143.928 Y112.970 E0.29808
G1 X143.559 Y112.970 E0.01161
G1 X143.559 Y112.601 E0.01161
G1 X142.728 Y111.770 E0.03695
G1 X143.263 Y111.770 E0.01682
G1 X143.729 Y112.236 E0.02071
G1 E-0.80000 F2100.00000
G1 Z0.800 F10800.000
G1 X130.926 Y101.087
G1 Z0.200
G1 E0.80000 F2100.00000
G1 F1200.000
G1 X130.926 Y98.113 E0.09325
G1 X142.300 Y98.113 E0.35663
G1 X142.300 Y101.087 E0.09325
G1 X130.986 Y101.087 E0.35475
G1 X131.303 Y100.710 F10800.000
G1 F1200.000
G1 X131.303 Y98.490 E0.06961
G1 X141.923 Y98.490 E0.33298
G1 X141.923 Y100.710 E0.06961
G1 X131.363 Y100.710 E0.33110
G1 X130.904 Y100.737 F10800.000
G1 E-0.80000 F2100.00000
G1 Z0.800 F10800.000
G1 X117.357 Y101.087
G1 Z0.200
G1 E0.80000 F2100.00000
G1 F1200.000
G1 X105.983 Y101.087 E0.35663
G1 X105.983 Y98.113 E0.09325
G1 X117.357 Y98.113 E0.35663
G1 X117.357 Y101.027 E0.09137
G1 X116.980 Y100.710 F10800.000
G1 F1200.000
G1 X106.360 Y100.710 E0.33298
G1 X106.360 Y98.490 E0.06961
G1 X116.980 Y98.490 E0.33298
G1 X116.980 Y100.650 E0.06773
G1 X117.156 Y101.069 F10800.000
G1 E-0.80000 F2100.00000
G1 Z0.800 F10800.000
G1 X125.000 Y101.813
G1 Z0.200
G1 E0.80000 F2100.00000
G1 F1200.000
G1 X98.087 Y101.813 E0.84384
G1 X98.087 Y94.600 E0.22616
G1 X103.400 Y89.287 E0.23559
G1 X146.600 Y89.287 E1.35450
G1 X151.913 Y94.600 E0.23559
G1 X151.913 Y102.243 E0.23964
G1 X140.660 Y102.243 E0.35284
G1 X140.660 Y101.813 E0.01348
G1 X125.060 Y101.813 E0.48912
G1 X125.000 Y102.190 F10800.000
G1 F1200.000
G1 X97.710 Y102.190 E0.85566
G1 X97.710 Y94.444 E0.24288
G1 X103.244 Y88.910 E0.24538
G1 X146.756 Y88.910 E1.36430
G1 X152.290 Y94.444 E0.24538
G1 X152.290 Y102.620 E0.25636
M73 P1 R181
G1 X140.283 Y102.620 E0.37648
G1 X140.283 Y102.190 E0.01348
G1 X125.060 Y102.190 E0.47730
G1 X124.803 Y101.842 F10800.000
G1 E-0.80000 F2100.00000
G1 Z0.800 F10800.000
G1 X130.738 Y101.450
G1 Z0.200
G1 E0.80000 F2100.00000
G1 F1200.000
G1 X140.848 Y101.450 E0.29320
G1 X141.309 Y102.130 F10800.000
G1 F1200.000
G1 X141.108 Y101.929 E0.00899
G1 X141.131 Y101.929 E0.00073
G1 X141.131 Y101.414 E0.01625
G1 X141.677 Y101.960 E0.02438
G1 X142.214 Y101.960 E0.01698
G1 X141.624 Y101.370 E0.02637
G1 X142.161 Y101.370 E0.01698
G1 X142.751 Y101.960 E0.02637
G1 X143.289 Y101.960 E0.01698
G1 X142.583 Y101.255 E0.03152
G1 X142.583 Y100.717 E0.01698
G1 X143.826 Y101.960 E0.05553
G1 X144.363 Y101.960 E0.01698
G1 X142.583 Y100.180 E0.07953
G1 X142.583 Y99.643 E0.01698
G1 X144.901 Y101.960 E0.10354
G1 X145.438 Y101.960 E0.01698
G1 X142.583 Y99.105 E0.12755
G1 X142.583 Y98.568 E0.01698
G1 X145.975 Y101.960 E0.15155
G1 X146.513 Y101.960 E0.01698
G1 X134.122 Y89.570 E0.55357
G1 X134.660 Y89.570 E0.01698
G1 X147.050 Y101.960 E0.55357
G1 X147.587 Y101.960 E0.01698
G1 X135.197 Y89.570 E0.55357
G1 X135.734 Y89.570 E0.01698
G1 X148.125 Y101.960 E0.55357
G1 X148.662 Y101.960 E0.01698
G1 X136.272 Y89.570 E0.55357
G1 X136.809 Y89.570 E0.01698
G1 X149.199 Y101.960 E0.55357
G1 X149.737 Y101.960 E0.01698
G1 X137.346 Y89.570 E0.55357
G1 X137.884 Y89.570 E0.01698
G1 X150.274 Y101.960 E0.55357
G1 X150.811 Y101.960 E0.01698
G1 X138.421 Y89.570 E0.55357
G1 X138.958 Y89.570 E0.01698
G1 X151.349 Y101.960 E0.55357
G1 X151.630 Y101.960 E0.00890
G1 X151.630 Y101.704 E0.00808
G1 X139.496 Y89.570 E0.54215
G1 X140.033 Y89.570 E0.01698
G1 X151.630 Y101.167 E0.51814
G1 X151.630 Y100.630 E0.01698
G1 X140.570 Y89.570 E0.49414
G1 X141.108 Y89.570 E0.01698
G1 X151.630 Y100.092 E0.47013
G1 X151.630 Y99.555 E0.01698
G1 X141.645 Y89.570 E0.44612
G1 X142.182 Y89.570 E0.01698
G1 X151.630 Y99.018 E0.42212
G1 X151.630 Y98.480 E0.01698
G1 X142.720 Y89.570 E0.39811
G1 X143.257 Y89.570 E0.01698
G1 X151.630 Y97.943 E0.37410
G1 X151.630 Y97.406 E0.01698
G1 X143.794 Y89.570 E0.35010
G1 X144.331 Y89.570 E0.01698
G1 X151.630 Y96.869 E0.32609
G1 X151.630 Y96.331 E0.01698
G1 X144.869 Y89.570 E0.30208
G1 X145.406 Y89.570 E0.01698
G1 X151.630 Y95.794 E0.27808
G1 X151.630 Y95.257 E0.01698
G1 X145.943 Y89.570 E0.25407
G1 X146.481 Y89.570 E0.01698
G1 X151.800 Y94.889 E0.23765
G1 E-0.80000 F2100.00000
G1 Z0.800 F10800.000
G1 X142.015 Y98.000
G1 Z0.200
G1 E0.80000 F2100.00000
G1 F1200.000
G1 X133.585 Y89.570 E0.37663
G1 X133.048 Y89.570 E0.01698
G1 X141.308 Y97.830 E0.36905
G1 X140.771 Y97.830 E0.01698
G1 X132.510 Y89.570 E0.36905
G1 X131.973 Y89.570 E0.01698
G1 X140.233 Y97.830 E0.36905
G1 X139.696 Y97.830 E0.01698
