; generated by PrusaSlicer 2.1.1+win64 on 2019-12-17 at 23:59:22 UTC

; 

; external perimeters extrusion width = 0.45mm
; perimeters extrusion width = 0.45mm
; infill extrusion width = 0.45mm
; solid infill extrusion width = 0.45mm
; top infill extrusion width = 0.40mm
; first layer extrusion width = 0.42mm

M73 P0 R274
M201 X9000 Y9000 Z500 E10000 ; sets maximum accelerations, mm/sec^2
M203 X500 Y500 Z12 E120 ; sets maximum feedrates, mm/sec
M204 P2000 R1500 T2000 ; sets acceleration (P, T) and retract acceleration (R), mm/sec^2
M205 X10.00 Y10.00 Z0.20 E2.50 ; sets the jerk limits, mm/sec
M205 S0 T0 ; sets the minimum extruding and travel feed rate, mm/sec
M107
M862.3 P "MK2.5SMMU2S" ; printer model check
M862.1 P0.4 ; nozzle diameter check
M115 U3.8.0 ; tell printer latest fw version
G90 ; use absolute coordinates
M83 ; extruder relative mode
M104 S215 ; set extruder temp
M140 S60 ; set bed temp
Tx
M190 S60 ; wait for bed temp
M109 S215 ; wait for extruder temp
G28 W ; home all without mesh bed level
G80 ; mesh bed leveling

G21 ; set units to millimeters

;go outside print area
G1 Y-3.0 F1000.0
G1 Z0.4 F1000.0
; select extruder
Tc
; purge line
G1 X55.0 F2000.0
G1 Z0.3 F1000.0
G92 E0.0
G1 X240.0 E25.0 F2200.0
M73 P0 R273
G1 Y-2.0 F1000.0
G1 X55.0 E25 F1400.0
G1 Z0.20 F1000.0
G1 X5.0 E4.0 F1000.0
G92 E0.0
G21 ; set units to millimeters
G90 ; use absolute coordinates
M83 ; use relative distances for extrusion
M900 K30 ; Filament gcode
;BEFORE_LAYER_CHANGE
G92 E0.0
;0.2


G1 E-0.80000 F2100.00000
G1 Z0.600 F10800.000
;AFTER_LAYER_CHANGE
;0.2
G1 X6.421 Y180.322
G1 Z0.200
G1 E0.80000 F2100.00000
M204 S1000
G1 F1200
G1 X5.762 Y179.709 E0.02822
G1 X5.466 Y179.112 E0.02089
G1 X5.362 Y178.454 E0.02089
G1 X5.366 Y38.512 E4.38777
G1 X5.543 Y36.787 E0.05440
G1 X5.921 Y35.411 E0.04473
G1 X6.521 Y34.105 E0.04507
G1 X7.517 Y32.648 E0.05534
G1 X8.795 Y31.404 E0.05591
G1 X9.963 Y30.597 E0.04450
G1 X11.259 Y29.984 E0.04495
G1 X13.023 Y29.497 E0.05739
G1 X101.058 Y17.935 E2.78398
G1 X102.426 Y17.814 E0.04307
G1 X242.464 Y17.813 E4.39079
G1 X242.939 Y17.869 E0.01498
G1 X243.592 Y18.135 E0.02213
G1 X244.127 Y18.596 E0.02213
G1 X244.487 Y19.204 E0.02213
G1 X244.635 Y19.897 E0.02225
G1 X244.637 Y190.013 E5.33385
G1 X244.573 Y190.530 E0.01635
G1 X244.389 Y191.014 E0.01623
G1 X244.097 Y191.442 E0.01623
G1 X243.710 Y191.791 E0.01635
G1 X243.113 Y192.087 E0.02089
G1 X242.455 Y192.190 E0.02089
G1 X102.448 Y192.184 E4.38980
G1 X7.271 Y180.618 E3.00618
G1 X6.478 Y180.341 E0.02634
G1 E-0.80000 F2100.00000
G1 Z0.800 F10800.000
G1 X169.010 Y101.790
G1 Z0.200
G1 E0.80000 F2100.00000
G1 F1200
G1 X102.567 Y101.788 E2.08325
G1 X101.379 Y101.684 E0.03739
G1 X100.236 Y101.378 E0.03711
G1 X99.163 Y100.878 E0.03710
G1 X98.194 Y100.199 E0.03711
G1 X97.393 Y99.398 E0.03553
G1 X96.678 Y98.392 E0.03868
G1 X96.178 Y97.320 E0.03708
G1 X95.872 Y96.177 E0.03710
G1 X95.768 Y94.989 E0.03739
G1 X95.768 Y93.007 E0.06213
G1 X95.872 Y91.819 E0.03739
G1 X96.179 Y90.676 E0.03711
G1 X96.679 Y89.603 E0.03711
G1 X97.358 Y88.634 E0.03711
G1 X98.194 Y87.797 E0.03711
G1 X99.164 Y87.118 E0.03711
G1 X100.236 Y86.618 E0.03711
G1 X101.380 Y86.312 E0.03711
G1 X102.568 Y86.208 E0.03740
G1 X242.239 Y86.212 E4.37930
M73 P0 R272
G1 X242.239 Y101.792 E0.48850
G1 X169.070 Y101.790 E2.29417
G1 X168.786 Y101.458 F10800.000
G1 X169.010 Y101.413
G1 F1200
G1 X102.584 Y101.411 E2.08274
G1 X101.445 Y101.311 E0.03584
G1 X100.365 Y101.022 E0.03504
G1 X99.353 Y100.550 E0.03504
G1 X98.437 Y99.909 E0.03504
G1 X97.682 Y99.153 E0.03350
G1 X97.005 Y98.201 E0.03661
G1 X96.534 Y97.191 E0.03497
G1 X96.245 Y96.111 E0.03504
G1 X96.145 Y94.972 E0.03584
G1 X96.145 Y93.024 E0.06110
G1 X96.245 Y91.885 E0.03584
G1 X96.534 Y90.805 E0.03504
G1 X97.007 Y89.793 E0.03504
G1 X97.647 Y88.877 E0.03504
G1 X98.438 Y88.087 E0.03504
G1 X99.353 Y87.446 E0.03504
G1 X100.366 Y86.974 E0.03504
G1 X101.445 Y86.685 E0.03504
G1 X102.584 Y86.585 E0.03585
G1 X241.862 Y86.589 E4.36696
G1 X241.862 Y101.415 E0.46485
G1 X169.070 Y101.413 E2.28235
G1 E-0.80000 F2100.00000
G1 Z0.800 F10800.000
G1 X116.044 Y95.531
G1 Z0.200
G1 E0.80000 F2100.00000
G1 F1200
G1 X115.770 Y95.592 E0.00879
G1 X115.490 Y95.605 E0.00879
G1 X115.212 Y95.569 E0.00879
G1 X114.945 Y95.485 E0.00879
G1 X114.696 Y95.356 E0.00879
G1 X114.474 Y95.185 E0.00879
G1 X114.284 Y94.979 E0.00879
G1 X114.133 Y94.743 E0.00879
G1 X114.025 Y94.484 E0.00879
G1 X113.965 Y94.210 E0.00879
G1 X113.952 Y93.931 E0.00879
G1 X113.988 Y93.653 E0.00879
G1 X114.072 Y93.385 E0.00879
G1 X114.201 Y93.136 E0.00879
G1 X114.371 Y92.914 E0.00879
G1 X114.578 Y92.724 E0.00879
G1 X114.814 Y92.573 E0.00879
G1 X115.073 Y92.466 E0.00879
G1 X115.346 Y92.405 E0.00879
G1 X115.582 Y92.394 E0.00740
G1 X115.901 Y92.427 E0.01007
G1 X116.171 Y92.512 E0.00887
G1 X116.420 Y92.641 E0.00879
G1 X116.643 Y92.812 E0.00879
G1 X116.832 Y93.018 E0.00879
G1 X116.983 Y93.254 E0.00879
G1 X117.091 Y93.513 E0.00879
G1 X117.152 Y93.786 E0.00879
G1 X117.165 Y94.066 E0.00879
G1 X117.128 Y94.344 E0.00879
G1 X117.045 Y94.612 E0.00879
G1 X116.915 Y94.860 E0.00879
G1 X116.745 Y95.083 E0.00879
G1 X116.571 Y95.243 E0.00740
G1 X116.305 Y95.423 E0.01008
G1 X116.099 Y95.508 E0.00699
G1 X115.985 Y95.805 F10800.000
G1 X116.158 Y95.892
G1 F1200
G1 X115.820 Y95.967 E0.01086
G1 X115.474 Y95.983 E0.01086
G1 X115.131 Y95.938 E0.01086
G1 X114.801 Y95.835 E0.01086
G1 X114.493 Y95.675 E0.01085
G1 X114.218 Y95.465 E0.01085
G1 X113.984 Y95.210 E0.01086
G1 X113.798 Y94.918 E0.01086
G1 X113.665 Y94.598 E0.01086
G1 X113.589 Y94.260 E0.01086
G1 X113.574 Y93.915 E0.01085
G1 X113.618 Y93.571 E0.01085
G1 X113.722 Y93.241 E0.01086
G1 X113.882 Y92.934 E0.01086
G1 X114.092 Y92.659 E0.01086
G1 X114.347 Y92.424 E0.01086
G1 X114.639 Y92.238 E0.01085
G1 X114.958 Y92.105 E0.01086
G1 X115.296 Y92.029 E0.01086
G1 X115.593 Y92.016 E0.00932
G1 X115.978 Y92.056 E0.01214
G1 X116.316 Y92.162 E0.01109
G1 X116.623 Y92.322 E0.01086
G1 X116.898 Y92.532 E0.01086
G1 X117.132 Y92.787 E0.01085
G1 X117.319 Y93.079 E0.01086
G1 X117.452 Y93.399 E0.01086
G1 X117.527 Y93.736 E0.01086
G1 X117.543 Y94.082 E0.01086
G1 X117.498 Y94.426 E0.01086
G1 X117.394 Y94.756 E0.01086
G1 X117.235 Y95.063 E0.01086
G1 X117.025 Y95.338 E0.01086
G1 X116.806 Y95.539 E0.00931
G1 X116.485 Y95.756 E0.01215
G1 X116.214 Y95.869 E0.00921
G1 E-0.80000 F2100.00000
G1 Z0.800 F10800.000
G1 X217.104 Y95.569
G1 Z0.200
G1 E0.80000 F2100.00000
G1 F1200
G1 X216.837 Y95.486 E0.00878
G1 X216.588 Y95.357 E0.00878
G1 X216.366 Y95.187 E0.00878
G1 X216.176 Y94.980 E0.00878
G1 X216.026 Y94.745 E0.00878
G1 X215.918 Y94.486 E0.00878
G1 X215.857 Y94.213 E0.00878
G1 X215.845 Y93.933 E0.00878
G1 X215.881 Y93.656 E0.00878
G1 X215.965 Y93.389 E0.00878
G1 X216.094 Y93.140 E0.00878
G1 X216.264 Y92.918 E0.00878
G1 X216.470 Y92.729 E0.00878
G1 X216.706 Y92.578 E0.00878
G1 X216.964 Y92.470 E0.00878
G1 X217.237 Y92.409 E0.00878
G1 X217.467 Y92.399 E0.00721
G1 X217.792 Y92.432 E0.01023
G1 X218.061 Y92.517 E0.00887
G1 X218.310 Y92.646 E0.00878
G1 X218.532 Y92.816 E0.00878
G1 X218.722 Y93.022 E0.00878
G1 X218.872 Y93.258 E0.00878
G1 X218.961 Y93.470 E0.00720
G1 X219.041 Y93.786 E0.01024
G1 X219.053 Y94.069 E0.00887
G1 X219.017 Y94.347 E0.00878
G1 X218.933 Y94.614 E0.00878
G1 X218.805 Y94.862 E0.00878
G1 X218.634 Y95.084 E0.00878
G1 X218.428 Y95.274 E0.00878
G1 X218.192 Y95.424 E0.00878
G1 X217.934 Y95.532 E0.00878
G1 X217.661 Y95.593 E0.00878
G1 X217.381 Y95.606 E0.00878
G1 X217.163 Y95.577 E0.00690
G1 X216.915 Y95.776 F10800.000
G1 X217.022 Y95.939
G1 F1200
G1 X216.692 Y95.835 E0.01085
G1 X216.385 Y95.676 E0.01084
G1 X216.110 Y95.466 E0.01085
G1 X215.876 Y95.211 E0.01085
G1 X215.690 Y94.920 E0.01085
G1 X215.557 Y94.600 E0.01084
G1 X215.482 Y94.263 E0.01085
G1 X215.466 Y93.917 E0.01084
G1 X215.511 Y93.574 E0.01085
G1 X215.615 Y93.244 E0.01085
G1 X215.774 Y92.937 E0.01085
G1 X215.984 Y92.663 E0.01084
G1 X216.239 Y92.429 E0.01085
G1 X216.530 Y92.242 E0.01085
G1 X216.850 Y92.110 E0.01084
G1 X217.187 Y92.034 E0.01085
G1 X217.477 Y92.021 E0.00911
G1 X217.868 Y92.061 E0.01230
G1 X218.206 Y92.167 E0.01111
G1 X218.513 Y92.326 E0.01085
G1 X218.788 Y92.536 E0.01085
G1 X219.022 Y92.791 E0.01085
G1 X219.208 Y93.082 E0.01084
G1 X219.319 Y93.351 E0.00910
G1 X219.416 Y93.731 E0.01231
G1 X219.432 Y94.085 E0.01111
G1 X219.387 Y94.428 E0.01084
G1 X219.283 Y94.758 E0.01085
G1 X219.124 Y95.065 E0.01084
G1 X218.914 Y95.340 E0.01085
G1 X218.659 Y95.574 E0.01084
G1 X218.368 Y95.760 E0.01085
G1 X218.048 Y95.893 E0.01084
G1 X217.711 Y95.968 E0.01085
G1 X217.365 Y95.984 E0.01085
G1 X217.082 Y95.947 E0.00896
G1 X216.823 Y96.173 F10800.000
G1 F1200
G1 X221.782 Y101.131 E0.22011
G1 X221.248 Y101.131 E0.01676
G1 X206.987 Y86.871 E0.63305
G1 X206.453 Y86.871 E0.01676
G1 X220.714 Y101.131 E0.63305
G1 X220.180 Y101.131 E0.01676
G1 X205.919 Y86.871 E0.63305
G1 X205.386 Y86.871 E0.01676
G1 X219.646 Y101.131 E0.63305
G1 X219.112 Y101.131 E0.01676
G1 X204.852 Y86.871 E0.63305
G1 X204.318 Y86.871 E0.01676
G1 X218.578 Y101.131 E0.63305
G1 X218.045 Y101.131 E0.01676
G1 X203.784 Y86.871 E0.63305
G1 X203.250 Y86.871 E0.01676
G1 X217.511 Y101.131 E0.63305
G1 X216.977 Y101.131 E0.01676
G1 X202.716 Y86.871 E0.63305
G1 X202.182 Y86.871 E0.01676
G1 X216.443 Y101.131 E0.63305
G1 X215.909 Y101.131 E0.01676
G1 X201.648 Y86.871 E0.63305
G1 X201.115 Y86.871 E0.01676
G1 X215.375 Y101.131 E0.63305
G1 X214.841 Y101.131 E0.01676
G1 X200.581 Y86.871 E0.63305
G1 X200.047 Y86.871 E0.01676
G1 X214.307 Y101.131 E0.63305
G1 X213.774 Y101.131 E0.01676
G1 X199.513 Y86.871 E0.63305
G1 X198.979 Y86.871 E0.01676
G1 X213.240 Y101.131 E0.63305
G1 X212.706 Y101.131 E0.01676
G1 X198.445 Y86.871 E0.63305
G1 X197.911 Y86.871 E0.01676
G1 X212.172 Y101.131 E0.63305
G1 X211.638 Y101.131 E0.01676
G1 X197.377 Y86.870 E0.63305
G1 X196.844 Y86.870 E0.01676
G1 X211.104 Y101.131 E0.63305
G1 X210.570 Y101.131 E0.01676
G1 X196.310 Y86.870 E0.63305
G1 X195.776 Y86.870 E0.01676
G1 X210.036 Y101.131 E0.63305
G1 X209.503 Y101.131 E0.01676
G1 X195.242 Y86.870 E0.63305
G1 X194.708 Y86.870 E0.01676
G1 X208.969 Y101.131 E0.63305
G1 X208.435 Y101.131 E0.01676
G1 X194.174 Y86.870 E0.63305
G1 X193.640 Y86.870 E0.01676
G1 X207.901 Y101.131 E0.63305
G1 X207.367 Y101.131 E0.01676
G1 X193.106 Y86.870 E0.63305
G1 X192.572 Y86.870 E0.01676
G1 X206.833 Y101.131 E0.63305
G1 X206.299 Y101.131 E0.01676
G1 X192.039 Y86.870 E0.63305
G1 X191.505 Y86.870 E0.01676
G1 X205.765 Y101.131 E0.63305
G1 X205.232 Y101.131 E0.01676
G1 X190.971 Y86.870 E0.63305
G1 X190.437 Y86.870 E0.01676
G1 X204.698 Y101.131 E0.63305
G1 X204.164 Y101.131 E0.01676
G1 X189.903 Y86.870 E0.63305
G1 X189.369 Y86.870 E0.01676
G1 X203.630 Y101.131 E0.63305
M73 P0 R271
G1 X203.096 Y101.131 E0.01676
G1 X188.835 Y86.870 E0.63305
G1 X188.301 Y86.870 E0.01676
G1 X202.562 Y101.131 E0.63305
G1 X202.028 Y101.131 E0.01676
G1 X187.768 Y86.870 E0.63305
G1 X187.234 Y86.870 E0.01676
G1 X201.494 Y101.131 E0.63305
G1 X200.960 Y101.131 E0.01676
G1 X186.700 Y86.870 E0.63305
G1 X186.166 Y86.870 E0.01676
G1 X200.427 Y101.131 E0.63305
G1 X199.893 Y101.131 E0.01676
G1 X185.632 Y86.870 E0.63305
G1 X185.098 Y86.870 E0.01676
G1 X199.359 Y101.131 E0.63305
G1 X198.825 Y101.131 E0.01676
G1 X184.564 Y86.870 E0.63305
G1 X184.030 Y86.870 E0.01676
G1 X198.291 Y101.131 E0.63305
G1 X197.757 Y101.131 E0.01676
G1 X183.497 Y86.870 E0.63305
G1 X182.963 Y86.870 E0.01676
G1 X197.223 Y101.131 E0.63305
G1 X196.689 Y101.131 E0.01676
G1 X182.429 Y86.870 E0.63305
G1 X181.895 Y86.870 E0.01676
G1 X196.156 Y101.131 E0.63305
G1 X195.622 Y101.131 E0.01676
G1 X181.361 Y86.870 E0.63305
G1 X180.827 Y86.870 E0.01676
G1 X195.088 Y101.131 E0.63305
G1 X194.554 Y101.131 E0.01676
G1 X180.293 Y86.870 E0.63305
G1 X179.759 Y86.870 E0.01676
G1 X194.020 Y101.131 E0.63305
G1 X193.486 Y101.131 E0.01676
G1 X179.226 Y86.870 E0.63305
G1 X178.692 Y86.870 E0.01676
G1 X192.952 Y101.131 E0.63305
G1 X192.418 Y101.131 E0.01676
G1 X178.158 Y86.870 E0.63305
G1 X177.624 Y86.870 E0.01676
G1 X191.885 Y101.131 E0.63305
G1 X191.351 Y101.131 E0.01676
G1 X177.090 Y86.870 E0.63305
G1 X176.556 Y86.870 E0.01676
G1 X190.817 Y101.131 E0.63305
G1 X190.283 Y101.131 E0.01676
G1 X176.022 Y86.870 E0.63305
G1 X175.488 Y86.870 E0.01676
G1 X189.749 Y101.131 E0.63305
G1 X189.215 Y101.131 E0.01676
G1 X174.954 Y86.870 E0.63305
G1 X174.421 Y86.870 E0.01676
G1 X188.681 Y101.131 E0.63305
G1 X188.147 Y101.131 E0.01676
G1 X173.887 Y86.870 E0.63305
G1 X173.353 Y86.870 E0.01676
G1 X187.613 Y101.130 E0.63305
G1 X187.080 Y101.130 E0.01676
G1 X172.819 Y86.870 E0.63305
G1 X172.285 Y86.870 E0.01676
G1 X186.546 Y101.130 E0.63305
G1 X186.012 Y101.130 E0.01676
G1 X171.751 Y86.870 E0.63305
G1 X171.217 Y86.870 E0.01676
G1 X185.478 Y101.130 E0.63305
G1 X184.944 Y101.130 E0.01676
G1 X170.683 Y86.870 E0.63305
G1 X170.150 Y86.870 E0.01676
G1 X184.410 Y101.130 E0.63305
G1 X183.876 Y101.130 E0.01676
G1 X169.616 Y86.870 E0.63305
G1 X169.082 Y86.870 E0.01676
G1 X183.342 Y101.130 E0.63305
G1 X182.809 Y101.130 E0.01676
G1 X168.548 Y86.870 E0.63305
G1 X168.014 Y86.870 E0.01676
G1 X182.275 Y101.130 E0.63305
G1 X181.741 Y101.130 E0.01676
G1 X167.480 Y86.870 E0.63305
G1 X166.946 Y86.870 E0.01676
G1 X181.207 Y101.130 E0.63305
G1 X180.673 Y101.130 E0.01676
G1 X166.412 Y86.870 E0.63305
G1 X165.879 Y86.870 E0.01676
G1 X180.139 Y101.130 E0.63305
G1 X179.605 Y101.130 E0.01676
G1 X165.345 Y86.870 E0.63305
G1 X164.811 Y86.870 E0.01676
G1 X179.071 Y101.130 E0.63305
G1 X178.538 Y101.130 E0.01676
G1 X164.277 Y86.870 E0.63305
G1 X163.743 Y86.870 E0.01676
G1 X178.004 Y101.130 E0.63305
G1 X177.470 Y101.130 E0.01676
G1 X163.209 Y86.870 E0.63305
G1 X162.675 Y86.870 E0.01676
G1 X176.936 Y101.130 E0.63305
G1 X176.402 Y101.130 E0.01676
G1 X162.141 Y86.870 E0.63305
G1 X161.607 Y86.870 E0.01676
G1 X175.868 Y101.130 E0.63305
G1 X175.334 Y101.130 E0.01676
G1 X161.074 Y86.870 E0.63305
G1 X160.540 Y86.870 E0.01676
G1 X174.800 Y101.130 E0.63305
G1 X174.266 Y101.130 E0.01676
G1 X160.006 Y86.869 E0.63305
G1 X159.472 Y86.869 E0.01676
G1 X173.733 Y101.130 E0.63305
G1 X173.199 Y101.130 E0.01676
G1 X158.938 Y86.869 E0.63305
G1 X158.404 Y86.869 E0.01676
G1 X172.665 Y101.130 E0.63305
M73 P1 R270
G1 X172.131 Y101.130 E0.01676
G1 X157.870 Y86.869 E0.63305
G1 X157.336 Y86.869 E0.01676
G1 X171.597 Y101.130 E0.63305
G1 X171.063 Y101.130 E0.01676
G1 X156.803 Y86.869 E0.63305
G1 X156.269 Y86.869 E0.01676
G1 X170.529 Y101.130 E0.63305
G1 X169.995 Y101.130 E0.01676
G1 X155.735 Y86.869 E0.63305
G1 X155.201 Y86.869 E0.01676
G1 X169.462 Y101.130 E0.63305
G1 X168.928 Y101.130 E0.01676
G1 X154.667 Y86.869 E0.63305
G1 X154.133 Y86.869 E0.01676
G1 X168.394 Y101.130 E0.63305
G1 X167.860 Y101.130 E0.01676
G1 X153.599 Y86.869 E0.63305
G1 X153.065 Y86.869 E0.01676
G1 X167.326 Y101.130 E0.63305
G1 X166.792 Y101.130 E0.01676
G1 X152.532 Y86.869 E0.63305
G1 X151.998 Y86.869 E0.01676
G1 X166.258 Y101.130 E0.63305
G1 X165.724 Y101.130 E0.01676
G1 X151.464 Y86.869 E0.63305
G1 X150.930 Y86.869 E0.01676
G1 X165.191 Y101.130 E0.63305
G1 X164.657 Y101.130 E0.01676
G1 X150.396 Y86.869 E0.63305
G1 X149.862 Y86.869 E0.01676
G1 X164.123 Y101.130 E0.63305
G1 X163.589 Y101.130 E0.01676
G1 X149.328 Y86.869 E0.63305
G1 X148.794 Y86.869 E0.01676
G1 X163.055 Y101.130 E0.63305
G1 X162.521 Y101.130 E0.01676
G1 X148.260 Y86.869 E0.63305
G1 X147.727 Y86.869 E0.01676
G1 X161.987 Y101.130 E0.63305
G1 X161.453 Y101.130 E0.01676
G1 X147.193 Y86.869 E0.63305
G1 X146.659 Y86.869 E0.01676
G1 X160.919 Y101.130 E0.63305
G1 X160.386 Y101.130 E0.01676
G1 X146.125 Y86.869 E0.63305
G1 X145.591 Y86.869 E0.01676
G1 X159.852 Y101.130 E0.63305
G1 X159.318 Y101.130 E0.01676
G1 X145.057 Y86.869 E0.63305
G1 X144.523 Y86.869 E0.01676
G1 X158.784 Y101.130 E0.63305
G1 X158.250 Y101.130 E0.01676
G1 X143.989 Y86.869 E0.63305
G1 X143.456 Y86.869 E0.01676
G1 X157.716 Y101.130 E0.63305
G1 X157.182 Y101.130 E0.01676
G1 X142.922 Y86.869 E0.63305
G1 X142.388 Y86.869 E0.01676
G1 X156.648 Y101.130 E0.63305
G1 X156.115 Y101.130 E0.01676
G1 X141.854 Y86.869 E0.63305
G1 X141.320 Y86.869 E0.01676
G1 X155.581 Y101.130 E0.63305
G1 X155.047 Y101.130 E0.01676
G1 X140.786 Y86.869 E0.63305
