; generated by PrusaSlicer 2.2.0+win64 on 2020-08-10 at 23:12:45 UTC

; 

; external perimeters extrusion width = 0.45mm
; perimeters extrusion width = 0.45mm
; infill extrusion width = 0.45mm
; solid infill extrusion width = 0.45mm
; top infill extrusion width = 0.40mm
; first layer extrusion width = 0.42mm

M73 P0 R230
M201 X9000 Y9000 Z500 E10000 ; sets maximum accelerations, mm/sec^2
M203 X500 Y500 Z12 E120 ; sets maximum feedrates, mm/sec
M204 P2000 R1500 T2000 ; sets acceleration (P, T) and retract acceleration (R), mm/sec^2
M205 X10.00 Y10.00 Z0.20 E2.50 ; sets the jerk limits, mm/sec
M205 S0 T0 ; sets the minimum extruding and travel feed rate, mm/sec
M107
M862.3 P "MK2.5SMMU2S" ; printer model check
M862.1 P0.4 ; nozzle diameter check
M115 U3.8.0 ; tell printer latest fw version
G90 ; use absolute coordinates
M83 ; extruder relative mode
M104 S215 ; set extruder temp
M140 S60 ; set bed temp
Tx
M190 S60 ; wait for bed temp
M109 S215 ; wait for extruder temp
G28 W ; home all without mesh bed level
G80 ; mesh bed leveling

G21 ; set units to millimeters

;go outside print area
G1 Y-3.0 F1000.0
G1 Z0.4 F1000.0
; select extruder
Tc
; purge line
G1 X55.0 F2000.0
G1 Z0.3 F1000.0
G92 E0.0
G1 X240.0 E25.0 F2200.0
M73 P0 R230
G1 Y-2.0 F1000.0
G1 X55.0 E25 F1400.0
G1 Z0.20 F1000.0
G1 X5.0 E4.0 F1000.0
G92 E0.0
G21 ; set units to millimeters
G90 ; use absolute coordinates
M83 ; use relative distances for extrusion
M900 K0.06 ; Filament gcode LA 1.5
M900 K30 ; Filament gcode LA 1.0
;BEFORE_LAYER_CHANGE
G92 E0.0
;0.2


G1 E-0.80000 F2100.00000
G1 Z0.600 F10800.000
;AFTER_LAYER_CHANGE
;0.2
G1 X188.472 Y203.116
G1 Z0.200
G1 E0.80000 F2100.00000
M204 S1000
G1 F1200.000
G1 X187.728 Y203.339 E0.02437
G1 X47.505 Y203.397 E4.39658
G1 X45.909 Y203.255 E0.05025
G1 X44.344 Y202.837 E0.05077
G1 X42.865 Y202.151 E0.05113
G1 X41.614 Y201.287 E0.04767
G1 X40.349 Y200.043 E0.05564
G1 X39.329 Y198.544 E0.05682
G1 X38.725 Y197.228 E0.04540
G1 X38.343 Y195.835 E0.04529
G1 X38.160 Y194.040 E0.05658
G1 X38.159 Y15.996 E5.58245
G1 X38.301 Y14.393 E0.05046
G1 X38.719 Y12.828 E0.05077
G1 X39.406 Y11.349 E0.05113
G1 X40.269 Y10.098 E0.04767
G1 X41.514 Y8.833 E0.05564
G1 X43.009 Y7.815 E0.05670
G1 X44.325 Y7.210 E0.04541
G1 X45.717 Y6.827 E0.04528
G1 X47.478 Y6.644 E0.05551
G1 X187.428 Y6.603 E4.38802
G1 X187.934 Y6.659 E0.01597
G1 X188.421 Y6.822 E0.01609
G1 X188.858 Y7.084 E0.01597
G1 X189.229 Y7.433 E0.01597
G1 X209.647 Y32.547 E1.01485
G1 X210.540 Y33.828 E0.04895
G1 X211.166 Y35.146 E0.04577
G1 X211.675 Y36.987 E0.05990
G1 X211.804 Y38.527 E0.04845
G1 X211.844 Y178.426 E4.38641
G1 X211.721 Y179.174 E0.02378
G1 X211.371 Y179.843 E0.02367
G1 X189.106 Y202.666 E0.99972
G1 X188.521 Y203.082 E0.02249
G1 E-0.80000 F2100.00000
G1 Z0.800 F10800.000
G1 X201.377 Y155.403
G1 Z0.200
G1 E0.80000 F2100.00000
G1 F1200.000
G1 X201.034 Y155.359 E0.01084
G1 X200.704 Y155.255 E0.01085
G1 X200.397 Y155.096 E0.01084
G1 X200.122 Y154.886 E0.01085
G1 X199.888 Y154.632 E0.01084
G1 X199.702 Y154.340 E0.01084
G1 X199.569 Y154.021 E0.01085
G1 X199.493 Y153.683 E0.01085
G1 X199.478 Y153.338 E0.01085
G1 X199.522 Y152.995 E0.01085
G1 X199.626 Y152.665 E0.01085
G1 X199.785 Y152.358 E0.01085
G1 X199.995 Y152.083 E0.01085
G1 X200.250 Y151.849 E0.01085
G1 X200.541 Y151.662 E0.01085
G1 X200.860 Y151.529 E0.01084
G1 X201.198 Y151.454 E0.01085
G1 X201.488 Y151.441 E0.00911
G1 X201.878 Y151.480 E0.01230
G1 X202.216 Y151.586 E0.01111
G1 X202.524 Y151.746 E0.01085
G1 X202.798 Y151.956 E0.01084
G1 X203.032 Y152.210 E0.01084
G1 X203.219 Y152.502 E0.01085
G1 X203.352 Y152.821 E0.01085
G1 X203.427 Y153.159 E0.01084
G1 X203.443 Y153.504 E0.01085
G1 X203.398 Y153.847 E0.01085
G1 X203.295 Y154.177 E0.01085
G1 X203.136 Y154.484 E0.01085
G1 X202.925 Y154.759 E0.01084
G1 X202.712 Y154.956 E0.00910
G1 X202.387 Y155.176 E0.01231
G1 X202.060 Y155.312 E0.01111
G1 X201.723 Y155.388 E0.01085
G1 X201.437 Y155.401 E0.00896
G1 X201.393 Y155.025 F10800.000
G1 F1200.000
G1 X201.115 Y154.989 E0.00878
G1 X200.848 Y154.906 E0.00878
G1 X200.600 Y154.777 E0.00878
G1 X200.377 Y154.607 E0.00878
G1 X200.188 Y154.401 E0.00878
G1 X200.037 Y154.165 E0.00878
G1 X199.930 Y153.906 E0.00878
G1 X199.869 Y153.633 E0.00878
G1 X199.856 Y153.354 E0.00878
G1 X199.892 Y153.076 E0.00878
G1 X199.976 Y152.809 E0.00878
G1 X200.104 Y152.560 E0.00878
G1 X200.274 Y152.338 E0.00878
G1 X200.480 Y152.149 E0.00878
G1 X200.716 Y151.998 E0.00878
G1 X200.975 Y151.890 E0.00878
G1 X201.248 Y151.829 E0.00878
G1 X201.478 Y151.819 E0.00721
G1 X201.802 Y151.852 E0.01023
G1 X202.072 Y151.936 E0.00887
G1 X202.321 Y152.065 E0.00878
G1 X202.543 Y152.235 E0.00878
G1 X202.733 Y152.441 E0.00878
G1 X202.883 Y152.677 E0.00878
G1 X202.991 Y152.935 E0.00878
G1 X203.052 Y153.209 E0.00878
G1 X203.065 Y153.488 E0.00878
G1 X203.029 Y153.766 E0.00878
G1 X202.945 Y154.033 E0.00878
G1 X202.816 Y154.281 E0.00878
G1 X202.646 Y154.504 E0.00878
G1 X202.477 Y154.659 E0.00720
G1 X202.207 Y154.843 E0.01024
G1 X201.946 Y154.952 E0.00887
G1 X201.673 Y155.013 E0.00878
G1 X201.453 Y155.023 E0.00690
G1 X201.243 Y155.262 F10800.000
G1 E-0.80000 F2100.00000
G1 Z0.800 F10800.000
G1 X201.348 Y53.515
G1 Z0.200
G1 E0.80000 F2100.00000
G1 F1200.000
G1 X201.004 Y53.470 E0.01086
G1 X200.674 Y53.367 E0.01086
G1 X200.367 Y53.207 E0.01086
G1 X200.092 Y52.997 E0.01086
G1 X199.890 Y52.778 E0.00931
G1 X199.674 Y52.457 E0.01215
G1 X199.538 Y52.131 E0.01109
G1 X199.462 Y51.793 E0.01086
G1 X199.446 Y51.447 E0.01086
G1 X199.491 Y51.104 E0.01086
G1 X199.595 Y50.773 E0.01086
G1 X199.754 Y50.466 E0.01086
G1 X199.964 Y50.191 E0.01085
G1 X200.219 Y49.956 E0.01086
G1 X200.511 Y49.770 E0.01086
G1 X200.830 Y49.637 E0.01086
G1 X201.168 Y49.561 E0.01086
G1 X201.465 Y49.548 E0.00932
G1 X201.850 Y49.588 E0.01214
G1 X202.188 Y49.694 E0.01109
G1 X202.495 Y49.853 E0.01086
G1 X202.770 Y50.063 E0.01086
G1 X203.005 Y50.318 E0.01086
G1 X203.191 Y50.610 E0.01085
G1 X203.324 Y50.930 E0.01086
G1 X203.400 Y51.267 E0.01086
G1 X203.416 Y51.613 E0.01086
G1 X203.371 Y51.957 E0.01086
G1 X203.267 Y52.287 E0.01086
G1 X203.108 Y52.595 E0.01086
G1 X202.898 Y52.870 E0.01086
G1 X202.643 Y53.104 E0.01085
G1 X202.351 Y53.290 E0.01086
G1 X202.031 Y53.423 E0.01086
G1 X201.694 Y53.499 E0.01086
G1 X201.408 Y53.512 E0.00897
G1 X201.364 Y53.137 F10800.000
G1 F1200.000
G1 X201.086 Y53.100 E0.00879
G1 X200.818 Y53.017 E0.00879
G1 X200.569 Y52.888 E0.00879
G1 X200.347 Y52.717 E0.00879
G1 X200.187 Y52.544 E0.00740
G1 X200.007 Y52.277 E0.01008
G1 X199.898 Y52.016 E0.00887
G1 X199.837 Y51.743 E0.00879
G1 X199.825 Y51.463 E0.00879
G1 X199.861 Y51.185 E0.00879
G1 X199.945 Y50.917 E0.00879
G1 X200.073 Y50.669 E0.00879
G1 X200.244 Y50.446 E0.00879
G1 X200.450 Y50.256 E0.00879
G1 X200.686 Y50.105 E0.00879
G1 X200.945 Y49.998 E0.00879
G1 X201.218 Y49.936 E0.00879
G1 X201.454 Y49.926 E0.00740
G1 X201.774 Y49.959 E0.01007
G1 X202.044 Y50.044 E0.00887
G1 X202.293 Y50.173 E0.00879
G1 X202.515 Y50.343 E0.00879
G1 X202.705 Y50.549 E0.00879
G1 X202.856 Y50.785 E0.00879
G1 X202.964 Y51.044 E0.00879
G1 X203.025 Y51.318 E0.00879
G1 X203.037 Y51.598 E0.00879
G1 X203.001 Y51.875 E0.00879
G1 X202.917 Y52.143 E0.00879
G1 X202.788 Y52.392 E0.00879
G1 X202.618 Y52.614 E0.00879
G1 X202.412 Y52.804 E0.00879
G1 X202.176 Y52.955 E0.00879
G1 X201.917 Y53.063 E0.00879
G1 X201.644 Y53.124 E0.00879
G1 X201.424 Y53.134 E0.00691
G1 X201.213 Y53.373 F10800.000
G1 E-0.80000 F2100.00000
G1 Z0.800 F10800.000
G1 X201.419 Y177.834
G1 Z0.200
G1 E0.80000 F2100.00000
G1 F1200.000
G1 X194.054 Y177.836 E0.23093
G1 X194.014 Y38.558 E4.36697
M73 P0 R229
G1 X194.114 Y37.419 E0.03584
G1 X194.403 Y36.340 E0.03504
G1 X194.875 Y35.327 E0.03504
G1 X195.515 Y34.411 E0.03504
G1 X196.305 Y33.621 E0.03504
G1 X197.220 Y32.980 E0.03504
G1 X198.233 Y32.507 E0.03504
G1 X199.312 Y32.217 E0.03504
G1 X200.451 Y32.118 E0.03584
G1 X202.400 Y32.117 E0.06110
G1 X203.490 Y32.212 E0.03431
G1 X204.620 Y32.506 E0.03661
G1 X205.631 Y32.977 E0.03497
G1 X206.547 Y33.618 E0.03504
G1 X207.337 Y34.408 E0.03504
G1 X207.978 Y35.323 E0.03504
G1 X208.451 Y36.336 E0.03504
G1 X208.740 Y37.415 E0.03504
G1 X208.840 Y38.554 E0.03585
G1 X208.880 Y177.832 E4.36696
G1 X201.479 Y177.834 E0.23204
G1 X201.384 Y178.211 F10800.000
G1 F1200.000
G1 X193.677 Y178.213 E0.24163
G1 X193.637 Y38.542 E4.37931
G1 X193.741 Y37.353 E0.03739
G1 X194.047 Y36.210 E0.03711
G1 X194.547 Y35.138 E0.03710
G1 X195.225 Y34.168 E0.03711
G1 X196.062 Y33.331 E0.03711
G1 X197.031 Y32.652 E0.03710
G1 X198.103 Y32.151 E0.03711
G1 X199.246 Y31.845 E0.03710
G1 X200.434 Y31.740 E0.03739
G1 X202.416 Y31.740 E0.06213
G1 X203.554 Y31.839 E0.03582
G1 X204.748 Y32.150 E0.03868
G1 X205.820 Y32.649 E0.03708
G1 X206.790 Y33.328 E0.03710
G1 X207.627 Y34.164 E0.03711
G1 X208.306 Y35.134 E0.03711
G1 X208.806 Y36.206 E0.03711
G1 X209.113 Y37.349 E0.03711
G1 X209.217 Y38.537 E0.03740
G1 X209.257 Y178.209 E4.37930
G1 X201.444 Y178.211 E0.24499
G1 X201.041 Y178.005 F10800.000
G1 E-0.80000 F2100.00000
G1 Z0.800 F10800.000
G1 X194.930 Y177.723
G1 Z0.200
G1 E0.80000 F2100.00000
G1 F1200.000
G1 X194.337 Y177.129 E0.02634
G1 X194.337 Y176.595 E0.01676
G1 X195.294 Y177.553 E0.04250
G1 X195.828 Y177.553 E0.01675
G1 X194.337 Y176.061 E0.06619
G1 X194.336 Y175.527 E0.01676
G1 X196.362 Y177.553 E0.08988
G1 X196.895 Y177.552 E0.01675
G1 X194.336 Y174.993 E0.11357
G1 X194.336 Y174.460 E0.01676
G1 X197.429 Y177.552 E0.13726
G1 X197.962 Y177.552 E0.01675
G1 X194.336 Y173.926 E0.16094
G1 X194.336 Y173.392 E0.01676
G1 X198.496 Y177.552 E0.18463
G1 X199.030 Y177.552 E0.01675
G1 X194.336 Y172.858 E0.20832
G1 X194.336 Y172.324 E0.01676
G1 X199.563 Y177.552 E0.23201
G1 X200.097 Y177.551 E0.01675
G1 X194.335 Y171.790 E0.25570
G1 X194.335 Y171.256 E0.01676
G1 X200.630 Y177.551 E0.27939
G1 X201.164 Y177.551 E0.01675
G1 X194.335 Y170.722 E0.30308
G1 X194.335 Y170.188 E0.01676
G1 X201.698 Y177.551 E0.32676
G1 X202.231 Y177.551 E0.01675
G1 X194.335 Y169.654 E0.35045
G1 X194.335 Y169.121 E0.01676
G1 X202.765 Y177.551 E0.37414
G1 X203.298 Y177.551 E0.01675
G1 X194.334 Y168.587 E0.39783
G1 X194.334 Y168.053 E0.01676
G1 X203.832 Y177.550 E0.42152
G1 X204.366 Y177.550 E0.01675
G1 X194.334 Y167.519 E0.44521
G1 X194.334 Y166.985 E0.01676
G1 X204.899 Y177.550 E0.46890
G1 X205.433 Y177.550 E0.01675
G1 X194.334 Y166.451 E0.49258
G1 X194.334 Y165.917 E0.01676
G1 X205.966 Y177.550 E0.51627
G1 X206.500 Y177.550 E0.01675
G1 X194.334 Y165.383 E0.53996
G1 X194.333 Y164.849 E0.01676
G1 X207.033 Y177.549 E0.56365
G1 X207.567 Y177.549 E0.01675
G1 X194.333 Y164.315 E0.58734
G1 X194.333 Y163.782 E0.01676
G1 X208.101 Y177.549 E0.61103
G1 X208.597 Y177.549 E0.01558
G1 X208.597 Y177.512 E0.00116
G1 X194.333 Y163.248 E0.63307
G1 X194.333 Y162.714 E0.01676
G1 X208.597 Y176.978 E0.63307
G1 X208.597 Y176.444 E0.01676
G1 X194.333 Y162.180 E0.63307
G1 X194.332 Y161.646 E0.01676
G1 X208.597 Y175.910 E0.63307
G1 X208.597 Y175.376 E0.01676
G1 X194.332 Y161.112 E0.63307
G1 X194.332 Y160.578 E0.01676
G1 X208.596 Y174.842 E0.63307
G1 X208.596 Y174.309 E0.01676
G1 X194.332 Y160.044 E0.63307
G1 X194.332 Y159.510 E0.01676
G1 X208.596 Y173.775 E0.63307
G1 X208.596 Y173.241 E0.01676
G1 X194.332 Y158.976 E0.63307
G1 X194.332 Y158.442 E0.01676
G1 X208.596 Y172.707 E0.63307
G1 X208.596 Y172.173 E0.01676
G1 X194.331 Y157.909 E0.63307
G1 X194.331 Y157.375 E0.01676
G1 X208.596 Y171.639 E0.63307
G1 X208.595 Y171.105 E0.01676
G1 X194.331 Y156.841 E0.63307
G1 X194.331 Y156.307 E0.01676
G1 X208.595 Y170.571 E0.63307
G1 X208.595 Y170.037 E0.01676
G1 X194.331 Y155.773 E0.63307
G1 X194.331 Y155.239 E0.01676
G1 X208.595 Y169.503 E0.63307
G1 X208.595 Y168.969 E0.01676
G1 X194.330 Y154.705 E0.63307
G1 X194.330 Y154.171 E0.01676
G1 X208.595 Y168.436 E0.63307
G1 X208.594 Y167.902 E0.01676
G1 X194.330 Y153.637 E0.63307
G1 X194.330 Y153.103 E0.01676
G1 X208.594 Y167.368 E0.63307
G1 X208.594 Y166.834 E0.01676
G1 X194.330 Y152.570 E0.63307
M73 P0 R228
G1 X194.330 Y152.036 E0.01676
G1 X208.594 Y166.300 E0.63307
G1 X208.594 Y165.766 E0.01676
G1 X194.330 Y151.502 E0.63307
G1 X194.329 Y150.968 E0.01676
G1 X208.594 Y165.232 E0.63307
G1 X208.594 Y164.698 E0.01676
G1 X194.329 Y150.434 E0.63307
G1 X194.329 Y149.900 E0.01676
G1 X208.593 Y164.164 E0.63307
G1 X208.593 Y163.630 E0.01676
G1 X194.329 Y149.366 E0.63307
G1 X194.329 Y148.832 E0.01676
G1 X199.212 Y153.715 E0.21671
G1 X199.194 Y153.326 E0.01223
G1 X199.213 Y153.182 E0.00454
G1 X194.329 Y148.298 E0.21676
G1 X194.328 Y147.764 E0.01676
G1 X199.305 Y152.741 E0.22088
G1 X199.363 Y152.556 E0.00608
G1 X199.463 Y152.365 E0.00678
G1 X194.328 Y147.231 E0.22787
G1 X194.328 Y146.697 E0.01676
G1 X199.672 Y152.040 E0.23715
G1 X199.785 Y151.891 E0.00587
G1 X199.927 Y151.761 E0.00603
G1 X194.328 Y146.163 E0.24848
G1 X194.328 Y145.629 E0.01676
G1 X200.227 Y151.528 E0.26180
G1 X200.409 Y151.411 E0.00681
G1 X200.575 Y151.342 E0.00562
G1 X194.328 Y145.095 E0.27725
G1 X194.328 Y144.561 E0.01676
G1 X200.980 Y151.213 E0.29523
G1 X201.160 Y151.173 E0.00581
G1 X201.459 Y151.159 E0.00939
G1 X194.327 Y144.027 E0.31653
G1 X194.327 Y143.493 E0.01676
G1 X202.375 Y151.541 E0.35719
G1 E-0.80000 F2100.00000
G1 Z0.800 F10800.000
G1 X200.947 Y155.450
G1 Z0.200
G1 E0.80000 F2100.00000
G1 F1200.000
G1 X208.593 Y163.097 E0.33936
G1 X208.593 Y162.563 E0.01676
G1 X201.702 Y155.672 E0.30582
G1 X202.147 Y155.583 E0.01423
G1 X208.593 Y162.029 E0.28609
G1 X208.593 Y161.495 E0.01676
G1 X202.523 Y155.426 E0.26936
G1 X202.841 Y155.210 E0.01206
G1 X208.593 Y160.961 E0.25525
G1 X208.592 Y160.427 E0.01676
G1 X203.125 Y154.960 E0.24265
G1 X203.358 Y154.659 E0.01194
G1 X208.592 Y159.893 E0.23230
G1 X208.592 Y159.359 E0.01676
G1 X203.544 Y154.311 E0.22404
G1 X203.675 Y153.909 E0.01328
G1 X208.592 Y158.825 E0.21821
G1 X208.592 Y158.291 E0.01676
G1 X203.722 Y153.422 E0.21612
G1 X203.709 Y153.121 E0.00945
G1 X203.638 Y152.803 E0.01021
G1 X208.592 Y157.758 E0.21987
G1 X208.591 Y157.224 E0.01676
G1 X194.327 Y142.959 E0.63307
G1 X194.327 Y142.425 E0.01676
G1 X208.591 Y156.690 E0.63307
G1 X208.591 Y156.156 E0.01676
G1 X194.327 Y141.891 E0.63307
G1 X194.327 Y141.358 E0.01676
G1 X208.591 Y155.622 E0.63307
G1 X208.591 Y155.088 E0.01676
G1 X194.326 Y140.824 E0.63307
G1 X194.326 Y140.290 E0.01676
G1 X208.591 Y154.554 E0.63307
G1 X208.591 Y154.020 E0.01676
G1 X194.326 Y139.756 E0.63307
G1 X194.326 Y139.222 E0.01676
G1 X208.590 Y153.486 E0.63307
G1 X208.590 Y152.952 E0.01676
G1 X194.326 Y138.688 E0.63307
G1 X194.326 Y138.154 E0.01676
G1 X208.590 Y152.419 E0.63307
G1 X208.590 Y151.885 E0.01676
G1 X194.326 Y137.620 E0.63307
G1 X194.325 Y137.086 E0.01676
G1 X208.590 Y151.351 E0.63307
G1 X208.590 Y150.817 E0.01676
G1 X194.325 Y136.552 E0.63307
G1 X194.325 Y136.019 E0.01676
G1 X208.589 Y150.283 E0.63307
G1 X208.589 Y149.749 E0.01676
G1 X194.325 Y135.485 E0.63307
G1 X194.325 Y134.951 E0.01676
G1 X208.589 Y149.215 E0.63307
G1 X208.589 Y148.681 E0.01676
G1 X194.325 Y134.417 E0.63307
G1 X194.324 Y133.883 E0.01676
G1 X208.589 Y148.147 E0.63307
G1 X208.589 Y147.613 E0.01676
G1 X194.324 Y133.349 E0.63307
G1 X194.324 Y132.815 E0.01676
G1 X208.589 Y147.079 E0.63307
G1 X208.588 Y146.546 E0.01676
G1 X194.324 Y132.281 E0.63307
G1 X194.324 Y131.747 E0.01676
G1 X208.588 Y146.012 E0.63307
G1 X208.588 Y145.478 E0.01676
G1 X194.324 Y131.213 E0.63307
G1 X194.324 Y130.680 E0.01676
G1 X208.588 Y144.944 E0.63307
G1 X208.588 Y144.410 E0.01676
G1 X194.323 Y130.146 E0.63307
G1 X194.323 Y129.612 E0.01676
G1 X208.588 Y143.876 E0.63307
G1 X208.587 Y143.342 E0.01676
G1 X194.323 Y129.078 E0.63307
G1 X194.323 Y128.544 E0.01676
G1 X208.587 Y142.808 E0.63307
G1 X208.587 Y142.274 E0.01676
G1 X194.323 Y128.010 E0.63307
G1 X194.323 Y127.476 E0.01676
G1 X208.587 Y141.740 E0.63307
G1 X208.587 Y141.207 E0.01676
G1 X194.322 Y126.942 E0.63307
G1 X194.322 Y126.408 E0.01676
G1 X208.587 Y140.673 E0.63307
G1 X208.587 Y140.139 E0.01676
G1 X194.322 Y125.874 E0.63307
G1 X194.322 Y125.340 E0.01676
G1 X208.586 Y139.605 E0.63307
G1 X208.586 Y139.071 E0.01676
G1 X194.322 Y124.807 E0.63307
G1 X194.322 Y124.273 E0.01676
G1 X208.586 Y138.537 E0.63307
G1 X208.586 Y138.003 E0.01676
G1 X194.322 Y123.739 E0.63307
