; generated by PrusaSlicer 2.2.0+win64 on 2020-11-17 at 19:43:26 UTC

; 

; external perimeters extrusion width = 0.45mm
; perimeters extrusion width = 0.45mm
; infill extrusion width = 0.45mm
; solid infill extrusion width = 0.45mm
; top infill extrusion width = 0.40mm
; support material extrusion width = 0.35mm
; first layer extrusion width = 0.42mm

M73 P0 R92
M201 X9000 Y9000 Z500 E10000 ; sets maximum accelerations, mm/sec^2
M203 X500 Y500 Z12 E120 ; sets maximum feedrates, mm/sec
M204 P2000 R1500 T2000 ; sets acceleration (P, T) and retract acceleration (R), mm/sec^2
M205 X10.00 Y10.00 Z0.20 E2.50 ; sets the jerk limits, mm/sec
M205 S0 T0 ; sets the minimum extruding and travel feed rate, mm/sec
M107
M862.3 P "MK2.5SMMU2S" ; printer model check
M862.1 P0.4 ; nozzle diameter check
M115 U3.8.0 ; tell printer latest fw version
G90 ; use absolute coordinates
M83 ; extruder relative mode
M104 S215 ; set extruder temp
M140 S60 ; set bed temp
Tx
M190 S60 ; wait for bed temp
M109 S215 ; wait for extruder temp
G28 W ; home all without mesh bed level
G80 ; mesh bed leveling

G21 ; set units to millimeters

;go outside print area
G1 Y-3.0 F1000.0
G1 Z0.4 F1000.0
; select extruder
Tc
; purge line
G1 X55.0 F2000.0
G1 Z0.3 F1000.0
G92 E0.0
G1 X240.0 E25.0 F2200.0
M73 P0 R92
G1 Y-2.0 F1000.0
G1 X55.0 E25 F1400.0
G1 Z0.20 F1000.0
G1 X5.0 E4.0 F1000.0
G92 E0.0
G21 ; set units to millimeters
G90 ; use absolute coordinates
M83 ; use relative distances for extrusion
M900 K0.06 ; Filament gcode LA 1.5
M900 K30 ; Filament gcode LA 1.0
;BEFORE_LAYER_CHANGE
G92 E0.0
;0.2


G1 E-0.80000 F2100.00000
G1 Z0.600 F10800.000
;AFTER_LAYER_CHANGE
;0.2
G1 X199.343 Y61.782
G1 Z0.200
G1 E0.80000 F2100.00000
M204 S1000
G1 F1200.000
G1 X200.110 Y62.291 E0.02884
G1 X200.626 Y63.052 E0.02884
G1 X200.815 Y63.948 E0.02872
G1 X200.831 Y146.014 E2.57312
G1 X200.741 Y146.630 E0.01953
G1 X200.493 Y147.202 E0.01953
G1 X200.109 Y147.687 E0.01941
G1 X199.608 Y148.058 E0.01953
G1 X199.055 Y148.280 E0.01870
G1 X198.459 Y148.357 E0.01882
G1 X58.495 Y148.397 E4.38847
G1 X56.949 Y148.258 E0.04870
G1 X55.543 Y147.892 E0.04552
G1 X53.863 Y147.136 E0.05777
G1 X52.552 Y146.219 E0.05018
G1 X51.514 Y145.197 E0.04565
G1 X50.422 Y143.676 E0.05872
G1 X49.688 Y142.032 E0.05645
G1 X49.324 Y140.634 E0.04529
G1 X49.185 Y139.063 E0.04946
G1 X49.174 Y70.920 E2.13658
G1 X49.313 Y69.404 E0.04772
G1 X49.678 Y67.999 E0.04552
G1 X50.436 Y66.319 E0.05777
G1 X51.353 Y65.008 E0.05017
G1 X52.372 Y63.974 E0.04553
G1 X53.897 Y62.879 E0.05884
G1 X55.324 Y62.216 E0.04935
G1 X56.719 Y61.830 E0.04540
G1 X58.526 Y61.644 E0.05694
G1 X198.441 Y61.603 E4.38695
G1 X199.284 Y61.771 E0.02696
G1 E-0.80000 F2100.00000
G1 Z0.800 F10800.000
G1 X173.014 Y73.926
G1 Z0.200
G1 E0.80000 F2100.00000
G1 F1200.000
G1 X172.684 Y73.822 E0.01085
G1 X172.377 Y73.663 E0.01085
G1 X172.102 Y73.453 E0.01085
G1 X171.868 Y73.198 E0.01085
G1 X171.682 Y72.907 E0.01085
G1 X171.549 Y72.587 E0.01084
G1 X171.473 Y72.250 E0.01085
G1 X171.458 Y71.904 E0.01084
G1 X171.502 Y71.561 E0.01085
G1 X171.606 Y71.231 E0.01085
G1 X171.765 Y70.924 E0.01085
G1 X171.975 Y70.649 E0.01084
G1 X172.230 Y70.415 E0.01084
G1 X172.521 Y70.229 E0.01085
G1 X172.840 Y70.096 E0.01085
G1 X173.178 Y70.021 E0.01084
G1 X173.468 Y70.007 E0.00911
G1 X173.858 Y70.047 E0.01230
G1 X174.196 Y70.153 E0.01111
G1 X174.504 Y70.312 E0.01085
G1 X174.778 Y70.522 E0.01084
G1 X175.012 Y70.777 E0.01085
G1 X175.199 Y71.068 E0.01085
G1 X175.310 Y71.336 E0.00910
G1 X175.407 Y71.717 E0.01231
G1 X175.423 Y72.071 E0.01111
G1 X175.378 Y72.414 E0.01084
G1 X175.275 Y72.744 E0.01085
G1 X175.116 Y73.051 E0.01084
G1 X174.906 Y73.326 E0.01085
G1 X174.651 Y73.560 E0.01084
G1 X174.360 Y73.746 E0.01084
G1 X174.040 Y73.879 E0.01085
G1 X173.703 Y73.954 E0.01085
G1 X173.357 Y73.970 E0.01085
G1 X173.074 Y73.933 E0.00896
G1 X173.095 Y73.556 F10800.000
G1 F1200.000
G1 X172.828 Y73.472 E0.00878
G1 X172.580 Y73.343 E0.00878
G1 X172.357 Y73.173 E0.00878
G1 X172.168 Y72.967 E0.00878
G1 X172.017 Y72.731 E0.00878
G1 X171.910 Y72.473 E0.00878
G1 X171.849 Y72.200 E0.00878
G1 X171.836 Y71.920 E0.00878
G1 X171.872 Y71.643 E0.00878
G1 X171.956 Y71.376 E0.00878
G1 X172.084 Y71.127 E0.00878
G1 X172.254 Y70.905 E0.00878
G1 X172.461 Y70.715 E0.00878
G1 X172.696 Y70.564 E0.00878
G1 X172.955 Y70.457 E0.00878
G1 X173.228 Y70.396 E0.00878
G1 X173.457 Y70.385 E0.00721
G1 X173.782 Y70.418 E0.01024
G1 X174.052 Y70.503 E0.00887
G1 X174.301 Y70.632 E0.00878
G1 X174.523 Y70.802 E0.00878
G1 X174.713 Y71.008 E0.00878
G1 X174.863 Y71.244 E0.00878
G1 X174.952 Y71.456 E0.00720
G1 X175.032 Y71.772 E0.01024
G1 X175.045 Y72.055 E0.00887
G1 X175.009 Y72.332 E0.00878
G1 X174.925 Y72.599 E0.00878
G1 X174.796 Y72.848 E0.00878
G1 X174.626 Y73.070 E0.00878
G1 X174.420 Y73.260 E0.00878
G1 X174.184 Y73.411 E0.00878
G1 X173.926 Y73.518 E0.00878
G1 X173.653 Y73.579 E0.00878
G1 X173.373 Y73.592 E0.00878
G1 X173.155 Y73.564 E0.00690
G1 X172.907 Y73.763 F10800.000
G1 E-0.80000 F2100.00000
G1 Z0.800 F10800.000
G1 X72.150 Y73.910
G1 Z0.200
G1 E0.80000 F2100.00000
G1 F1200.000
G1 X71.812 Y73.986 E0.01086
G1 X71.466 Y74.001 E0.01086
G1 X71.123 Y73.957 E0.01086
G1 X70.792 Y73.853 E0.01086
G1 X70.485 Y73.694 E0.01086
G1 X70.210 Y73.484 E0.01085
G1 X69.976 Y73.229 E0.01086
G1 X69.789 Y72.937 E0.01086
G1 X69.656 Y72.617 E0.01086
G1 X69.581 Y72.279 E0.01086
G1 X69.565 Y71.933 E0.01085
G1 X69.609 Y71.590 E0.01085
G1 X69.713 Y71.260 E0.01086
G1 X69.872 Y70.952 E0.01086
G1 X70.083 Y70.677 E0.01086
G1 X70.338 Y70.443 E0.01086
G1 X70.629 Y70.256 E0.01085
G1 X70.949 Y70.123 E0.01086
G1 X71.287 Y70.048 E0.01086
G1 X71.584 Y70.034 E0.00932
G1 X71.969 Y70.075 E0.01214
G1 X72.306 Y70.180 E0.01109
G1 X72.614 Y70.340 E0.01086
G1 X72.889 Y70.550 E0.01086
G1 X73.123 Y70.805 E0.01085
G1 X73.310 Y71.097 E0.01086
G1 X73.443 Y71.416 E0.01086
G1 X73.518 Y71.754 E0.01086
G1 X73.534 Y72.100 E0.01086
G1 X73.489 Y72.443 E0.01086
G1 X73.386 Y72.774 E0.01086
G1 X73.227 Y73.081 E0.01086
G1 X73.016 Y73.356 E0.01086
G1 X72.798 Y73.557 E0.00931
G1 X72.477 Y73.774 E0.01215
G1 X72.205 Y73.887 E0.00921
G1 X72.036 Y73.549 F10800.000
G1 F1200.000
G1 X71.762 Y73.610 E0.00879
G1 X71.482 Y73.623 E0.00879
G1 X71.204 Y73.587 E0.00879
G1 X70.937 Y73.503 E0.00879
G1 X70.688 Y73.374 E0.00879
G1 X70.465 Y73.204 E0.00879
G1 X70.276 Y72.998 E0.00879
G1 X70.125 Y72.762 E0.00879
G1 X70.017 Y72.503 E0.00879
G1 X69.956 Y72.229 E0.00879
G1 X69.943 Y71.949 E0.00879
G1 X69.979 Y71.671 E0.00879
G1 X70.063 Y71.404 E0.00879
G1 X70.192 Y71.155 E0.00879
G1 X70.362 Y70.933 E0.00879
G1 X70.569 Y70.743 E0.00879
G1 X70.805 Y70.592 E0.00879
G1 X71.063 Y70.484 E0.00879
G1 X71.337 Y70.423 E0.00879
G1 X71.573 Y70.412 E0.00740
G1 X71.892 Y70.446 E0.01007
G1 X72.162 Y70.530 E0.00887
G1 X72.411 Y70.659 E0.00879
G1 X72.634 Y70.830 E0.00879
G1 X72.823 Y71.036 E0.00879
G1 X72.974 Y71.272 E0.00879
G1 X73.082 Y71.531 E0.00879
G1 X73.143 Y71.804 E0.00879
G1 X73.156 Y72.084 E0.00879
G1 X73.120 Y72.362 E0.00879
G1 X73.036 Y72.629 E0.00879
G1 X72.907 Y72.878 E0.00879
G1 X72.737 Y73.101 E0.00879
G1 X72.563 Y73.261 E0.00740
G1 X72.297 Y73.441 E0.01008
G1 X72.091 Y73.526 E0.00699
G1 X71.977 Y73.823 F10800.000
G1 E-0.80000 F2100.00000
G1 Z0.800 F10800.000
G1 X124.934 Y79.414
G1 Z0.200
G1 E0.80000 F2100.00000
G1 F1200.000
G1 X58.577 Y79.433 E2.08057
G1 X57.438 Y79.334 E0.03584
G1 X56.359 Y79.045 E0.03504
G1 X55.346 Y78.573 E0.03504
G1 X54.430 Y77.933 E0.03504
G1 X53.640 Y77.143 E0.03504
G1 X52.999 Y76.227 E0.03504
G1 X52.526 Y75.215 E0.03504
G1 X52.237 Y74.136 E0.03504
G1 X52.137 Y72.997 E0.03584
G1 X52.136 Y71.048 E0.06110
G1 X52.236 Y69.909 E0.03584
G1 X52.524 Y68.830 E0.03504
G1 X52.996 Y67.817 E0.03504
G1 X53.637 Y66.901 E0.03504
G1 X54.427 Y66.111 E0.03504
G1 X55.342 Y65.470 E0.03504
G1 X56.355 Y64.997 E0.03504
G1 X57.434 Y64.708 E0.03504
G1 X58.573 Y64.608 E0.03585
G1 X197.851 Y64.568 E4.36696
G1 X197.855 Y79.393 E0.46485
G1 X124.994 Y79.414 E2.28451
G1 X124.932 Y79.791 F10800.000
G1 F1200.000
G1 X58.561 Y79.810 E2.08103
G1 X57.373 Y79.707 E0.03739
G1 X56.230 Y79.401 E0.03711
G1 X55.157 Y78.901 E0.03710
G1 X54.187 Y78.223 E0.03711
G1 X53.350 Y77.386 E0.03711
G1 X52.671 Y76.417 E0.03710
G1 X52.171 Y75.344 E0.03711
G1 X51.864 Y74.201 E0.03710
G1 X51.760 Y73.013 E0.03739
M73 P1 R91
G1 X51.759 Y71.032 E0.06213
G1 X51.863 Y69.843 E0.03739
G1 X52.169 Y68.700 E0.03711
G1 X52.669 Y67.628 E0.03711
G1 X53.347 Y66.658 E0.03710
G1 X54.184 Y65.821 E0.03711
G1 X55.153 Y65.142 E0.03711
G1 X56.225 Y64.641 E0.03711
G1 X57.368 Y64.335 E0.03711
G1 X58.556 Y64.230 E0.03740
G1 X198.228 Y64.190 E4.37930
G1 X198.232 Y79.770 E0.48850
G1 X124.992 Y79.791 E2.29639
G1 X124.709 Y79.460 F10800.000
G1 E-0.80000 F2100.00000
G1 Z0.800 F10800.000
G1 X75.438 Y79.315
G1 Z0.200
G1 E0.80000 F2100.00000
G1 F1200.000
G1 X61.012 Y64.890 E0.64055
G1 X60.478 Y64.890 E0.01676
G1 X74.734 Y79.146 E0.63301
G1 X74.200 Y79.146 E0.01676
G1 X59.944 Y64.890 E0.63301
G1 X59.410 Y64.890 E0.01676
G1 X73.666 Y79.146 E0.63301
G1 X73.132 Y79.146 E0.01676
G1 X58.876 Y64.890 E0.63301
G1 X58.362 Y64.910 E0.01616
G1 X72.599 Y79.147 E0.63215
G1 X72.065 Y79.147 E0.01676
G1 X57.871 Y64.953 E0.63024
G1 X57.484 Y64.987 E0.01221
G1 X57.395 Y65.011 E0.00288
G1 X71.531 Y79.147 E0.62768
G1 X70.997 Y79.147 E0.01676
G1 X56.974 Y65.124 E0.62267
G1 X56.553 Y65.237 E0.01369
G1 X70.463 Y79.147 E0.61766
G1 X69.929 Y79.147 E0.01676
G1 X56.175 Y65.393 E0.61073
G1 X55.811 Y65.563 E0.01262
G1 X69.395 Y79.147 E0.60319
G1 X68.862 Y79.148 E0.01676
G1 X55.452 Y65.738 E0.59543
G1 X55.138 Y65.958 E0.01204
G1 X68.328 Y79.148 E0.58567
G1 X67.794 Y79.148 E0.01676
G1 X54.824 Y66.178 E0.57590
G1 X54.610 Y66.328 E0.00822
G1 X54.525 Y66.413 E0.00376
G1 X67.260 Y79.148 E0.56548
G1 X66.726 Y79.148 E0.01676
G1 X54.258 Y66.680 E0.55363
G1 X53.991 Y66.947 E0.01186
G1 X66.192 Y79.148 E0.54177
G1 X65.658 Y79.149 E0.01676
G1 X53.747 Y67.237 E0.52890
G1 X53.527 Y67.551 E0.01204
G1 X65.125 Y79.149 E0.51496
G1 X64.591 Y79.149 E0.01676
G1 X53.307 Y67.866 E0.50101
G1 X53.242 Y67.959 E0.00357
G1 X53.123 Y68.215 E0.00888
G1 X64.057 Y79.149 E0.48550
G1 X63.523 Y79.149 E0.01676
G1 X52.953 Y68.579 E0.46934
G1 X52.786 Y68.946 E0.01266
G1 X62.989 Y79.149 E0.45305
G1 X62.455 Y79.149 E0.01676
G1 X52.673 Y69.367 E0.43435
G1 X52.561 Y69.789 E0.01369
G1 X61.922 Y79.150 E0.41565
G1 X61.388 Y79.150 E0.01676
G1 X52.490 Y70.252 E0.39510
G1 X52.447 Y70.743 E0.01548
G1 X60.854 Y79.150 E0.37330
G1 X60.320 Y79.150 E0.01676
G1 X52.419 Y71.249 E0.35082
G1 X52.419 Y71.783 E0.01677
G1 X59.786 Y79.150 E0.32711
G1 X59.252 Y79.150 E0.01676
G1 X52.419 Y72.318 E0.30340
G1 X52.420 Y72.852 E0.01677
G1 X58.718 Y79.151 E0.27969
G1 X58.146 Y79.112 E0.01802
G1 X52.458 Y73.424 E0.25254
G1 X52.510 Y74.010 E0.01845
G1 X57.561 Y79.061 E0.22428
G1 X56.850 Y78.884 E0.02301
G1 X52.687 Y74.721 E0.18485
G1 X52.793 Y75.118 E0.01290
G1 X53.006 Y75.574 E0.01583
G1 X55.996 Y78.564 E0.13275
G1 X55.488 Y78.327 E0.01759
G1 X54.613 Y77.715 E0.03353
G1 X53.165 Y76.267 E0.06431
G1 E-0.80000 F2100.00000
G1 Z0.800 F10800.000
G1 X66.714 Y64.718
G1 Z0.200
G1 E0.80000 F2100.00000
G1 F1200.000
G1 X71.765 Y69.769 E0.22426
G1 X71.592 Y69.751 E0.00547
G1 X71.232 Y69.770 E0.01131
G1 X66.350 Y64.888 E0.21678
G1 X65.816 Y64.888 E0.01676
G1 X70.805 Y69.877 E0.22151
G1 X70.438 Y70.043 E0.01267
G1 X65.283 Y64.888 E0.22889
G1 X64.749 Y64.889 E0.01676
G1 X70.119 Y70.259 E0.23848
G1 X69.847 Y70.520 E0.01186
G1 X64.215 Y64.889 E0.25007
G1 X63.681 Y64.889 E0.01676
G1 X69.619 Y70.827 E0.26366
G1 X69.441 Y71.183 E0.01249
G1 X63.147 Y64.889 E0.27946
G1 X62.613 Y64.889 E0.01676
G1 X69.323 Y71.599 E0.29794
G1 X69.281 Y71.922 E0.01021
G1 X69.289 Y72.099 E0.00558
G1 X62.079 Y64.889 E0.32014
G1 X61.546 Y64.890 E0.01676
G1 X69.404 Y72.748 E0.34895
G1 X69.538 Y73.068 E0.01089
G1 X69.751 Y73.402 E0.01242
G1 X70.019 Y73.693 E0.01243
G1 X70.333 Y73.933 E0.01242
G1 X70.684 Y74.116 E0.01242
G1 X70.812 Y74.156 E0.00419
G1 X75.802 Y79.146 E0.22158
G1 X76.336 Y79.146 E0.01676
G1 X71.474 Y74.284 E0.21586
G1 X71.850 Y74.267 E0.01180
G1 X71.965 Y74.241 E0.00372
G1 X76.869 Y79.145 E0.21776
G1 X77.403 Y79.145 E0.01676
G1 X72.379 Y74.121 E0.22309
G1 X72.611 Y74.024 E0.00790
G1 X72.734 Y73.942 E0.00464
G1 X77.937 Y79.145 E0.23104
G1 X78.471 Y79.145 E0.01676
G1 X73.042 Y73.716 E0.24104
G1 X73.226 Y73.548 E0.00782
G1 X73.305 Y73.445 E0.00407
G1 X79.005 Y79.145 E0.25310
G1 X79.539 Y79.145 E0.01676
G1 X73.521 Y73.127 E0.26719
G1 X73.648 Y72.882 E0.00867
G1 X73.687 Y72.759 E0.00405
G1 X80.073 Y79.144 E0.28354
G1 X80.606 Y79.144 E0.01676
G1 X73.790 Y72.328 E0.30268
G1 X73.818 Y72.112 E0.00683
G1 X73.804 Y71.808 E0.00956
G1 X81.140 Y79.144 E0.32576
G1 X81.674 Y79.144 E0.01676
G1 X67.418 Y64.888 E0.63301
G1 X67.952 Y64.888 E0.01676
G1 X82.208 Y79.144 E0.63301
G1 X82.742 Y79.144 E0.01676
G1 X68.486 Y64.888 E0.63301
G1 X69.020 Y64.887 E0.01676
G1 X83.276 Y79.144 E0.63301
G1 X83.810 Y79.143 E0.01676
G1 X69.553 Y64.887 E0.63301
G1 X70.087 Y64.887 E0.01676
G1 X84.343 Y79.143 E0.63301
G1 X84.877 Y79.143 E0.01676
G1 X70.621 Y64.887 E0.63301
G1 X71.155 Y64.887 E0.01676
G1 X85.411 Y79.143 E0.63301
M73 P2 R90
G1 X85.945 Y79.143 E0.01676
G1 X71.689 Y64.887 E0.63301
G1 X72.223 Y64.886 E0.01676
G1 X86.479 Y79.143 E0.63301
G1 X87.013 Y79.142 E0.01676
G1 X72.757 Y64.886 E0.63301
G1 X73.290 Y64.886 E0.01676
G1 X87.547 Y79.142 E0.63301
G1 X88.080 Y79.142 E0.01676
G1 X73.824 Y64.886 E0.63301
G1 X74.358 Y64.886 E0.01676
G1 X88.614 Y79.142 E0.63301
G1 X89.148 Y79.142 E0.01676
G1 X74.892 Y64.886 E0.63301
G1 X75.426 Y64.886 E0.01676
G1 X89.682 Y79.142 E0.63301
G1 X90.216 Y79.142 E0.01676
G1 X75.960 Y64.885 E0.63301
G1 X76.493 Y64.885 E0.01676
G1 X90.750 Y79.141 E0.63301
G1 X91.283 Y79.141 E0.01676
G1 X77.027 Y64.885 E0.63301
G1 X77.561 Y64.885 E0.01676
G1 X91.817 Y79.141 E0.63301
G1 X92.351 Y79.141 E0.01676
G1 X78.095 Y64.885 E0.63301
G1 X78.629 Y64.885 E0.01676
G1 X92.885 Y79.141 E0.63301
G1 X93.419 Y79.141 E0.01676
G1 X79.163 Y64.884 E0.63301
G1 X79.697 Y64.884 E0.01676
G1 X93.953 Y79.140 E0.63301
G1 X94.487 Y79.140 E0.01676
G1 X80.230 Y64.884 E0.63301
G1 X80.764 Y64.884 E0.01676
G1 X95.020 Y79.140 E0.63301
G1 X95.554 Y79.140 E0.01676
G1 X81.298 Y64.884 E0.63301
G1 X81.832 Y64.884 E0.01676
G1 X96.088 Y79.140 E0.63301
G1 X96.622 Y79.140 E0.01676
G1 X82.366 Y64.884 E0.63301
G1 X82.900 Y64.883 E0.01676
G1 X97.156 Y79.140 E0.63301
G1 X97.690 Y79.139 E0.01676
G1 X83.434 Y64.883 E0.63301
G1 X83.967 Y64.883 E0.01676
G1 X98.224 Y79.139 E0.63301
G1 X98.757 Y79.139 E0.01676
G1 X84.501 Y64.883 E0.63301
G1 X85.035 Y64.883 E0.01676
G1 X99.291 Y79.139 E0.63301
G1 X99.825 Y79.139 E0.01676
G1 X85.569 Y64.883 E0.63301
G1 X86.103 Y64.882 E0.01676
G1 X100.359 Y79.139 E0.63301
G1 X100.893 Y79.138 E0.01676
G1 X86.637 Y64.882 E0.63301
G1 X87.171 Y64.882 E0.01676
G1 X101.427 Y79.138 E0.63301
G1 X101.961 Y79.138 E0.01676
G1 X87.704 Y64.882 E0.63301
G1 X88.238 Y64.882 E0.01676
G1 X102.494 Y79.138 E0.63301
G1 X103.028 Y79.138 E0.01676
G1 X88.772 Y64.882 E0.63301
G1 X89.306 Y64.882 E0.01676
G1 X103.562 Y79.138 E0.63301
G1 X104.096 Y79.138 E0.01676
G1 X89.840 Y64.881 E0.63301
G1 X90.374 Y64.881 E0.01676
G1 X104.630 Y79.137 E0.63301
G1 X105.164 Y79.137 E0.01676
G1 X90.908 Y64.881 E0.63301
G1 X91.441 Y64.881 E0.01676
G1 X105.698 Y79.137 E0.63301
G1 X106.231 Y79.137 E0.01676
G1 X91.975 Y64.881 E0.63301
G1 X92.509 Y64.881 E0.01676
G1 X106.765 Y79.137 E0.63301
G1 X107.299 Y79.137 E0.01676
G1 X93.043 Y64.880 E0.63301
G1 X93.577 Y64.880 E0.01676
G1 X107.833 Y79.136 E0.63301
G1 X108.367 Y79.136 E0.01676
G1 X94.111 Y64.880 E0.63301
G1 X94.645 Y64.880 E0.01676
G1 X108.901 Y79.136 E0.63301
G1 X109.435 Y79.136 E0.01676
G1 X95.178 Y64.880 E0.63301
G1 X95.712 Y64.880 E0.01676
G1 X109.968 Y79.136 E0.63301
G1 X110.502 Y79.136 E0.01676
G1 X96.246 Y64.880 E0.63301
G1 X96.780 Y64.879 E0.01676
G1 X111.036 Y79.136 E0.63301
G1 X111.570 Y79.135 E0.01676
G1 X97.314 Y64.879 E0.63301
G1 X97.848 Y64.879 E0.01676
G1 X112.104 Y79.135 E0.63301
G1 X112.638 Y79.135 E0.01676
G1 X98.381 Y64.879 E0.63301
G1 X98.915 Y64.879 E0.01676
G1 X113.171 Y79.135 E0.63301
G1 X113.705 Y79.135 E0.01676
