; generated by PrusaSlicer 2.1.1+win64 on 2020-01-09 at 21:27:29 UTC

; 

; external perimeters extrusion width = 0.45mm
; perimeters extrusion width = 0.45mm
; infill extrusion width = 0.45mm
; solid infill extrusion width = 0.45mm
; top infill extrusion width = 0.40mm
; first layer extrusion width = 0.42mm

M73 P0 R192
M201 X9000 Y9000 Z500 E10000 ; sets maximum accelerations, mm/sec^2
M203 X500 Y500 Z12 E120 ; sets maximum feedrates, mm/sec
M204 P2000 R1500 T2000 ; sets acceleration (P, T) and retract acceleration (R), mm/sec^2
M205 X10.00 Y10.00 Z0.20 E2.50 ; sets the jerk limits, mm/sec
M205 S0 T0 ; sets the minimum extruding and travel feed rate, mm/sec
M107
M862.3 P "MK2.5SMMU2S" ; printer model check
M862.1 P0.4 ; nozzle diameter check
M115 U3.8.1 ; tell printer latest fw version
G90 ; use absolute coordinates
M83 ; extruder relative mode
M104 S215 ; set extruder temp
M140 S60 ; set bed temp
Tx
M190 S60 ; wait for bed temp
M109 S215 ; wait for extruder temp
G28 W ; home all without mesh bed level
G80 ; mesh bed leveling

;go outside print area
G1 Y-3.0 F1000.0
G1 Z0.4 F1000.0
; select extruder
Tc
; purge line
G1 X55.0 F2000.0
G1 Z0.3 F1000.0
G92 E0.0
G1 X240.0 E25.0 F2200.0
M73 P0 R192
G1 Y-2.0 F1000.0
G1 X55.0 E25 F1400.0
G1 Z0.20 F1000.0
G1 X5.0 E4.0 F1000.0
G92 E0.0
G21 ; set units to millimeters
G90 ; use absolute coordinates
M83 ; use relative distances for extrusion
M900 K30 ; Filament gcode
;BEFORE_LAYER_CHANGE
G92 E0.0
;0.2


G1 E-0.80000 F2100.00000
G1 Z0.600 F10800.000
;AFTER_LAYER_CHANGE
;0.2
G1 X199.923 Y18.367
G1 Z0.200
G1 E0.80000 F2100.00000
M204 S1000
G1 F1200
G1 X200.399 Y19.071 E0.02664
G1 X200.571 Y19.900 E0.02653
G1 X200.689 Y57.922 E1.19219
G1 X200.689 Y189.926 E4.13888
G1 X200.556 Y190.674 E0.02383
G1 X200.173 Y191.335 E0.02394
G1 X199.832 Y191.659 E0.01475
G1 X199.427 Y191.906 E0.01487
G1 X198.981 Y192.058 E0.01475
G1 X198.514 Y192.111 E0.01475
G1 X58.591 Y192.269 E4.38720
G1 X57.014 Y192.131 E0.04962
G1 X55.467 Y191.718 E0.05022
G1 X54.014 Y191.042 E0.05022
G1 X52.696 Y190.120 E0.05045
G1 X51.552 Y188.973 E0.05079
G1 X50.561 Y187.515 E0.05527
G1 X49.970 Y186.231 E0.04433
G1 X49.592 Y184.855 E0.04473
G1 X49.414 Y183.103 E0.05522
G1 X49.312 Y27.061 E4.89259
G1 X49.450 Y25.493 E0.04936
G1 X49.864 Y23.942 E0.05033
G1 X50.539 Y22.493 E0.05011
G1 X51.461 Y21.175 E0.05044
G1 X52.608 Y20.030 E0.05079
G1 X54.061 Y19.042 E0.05511
G1 X55.347 Y18.450 E0.04439
G1 X56.722 Y18.071 E0.04472
G1 X58.441 Y17.893 E0.05420
G1 X198.388 Y17.734 E4.38792
G1 X199.218 Y17.899 E0.02653
G1 X199.873 Y18.334 E0.02465
G1 F8640
G1 X200.399 Y19.071 E-0.20910
G1 X200.571 Y19.900 E-0.19539
G1 X200.576 Y21.439 E-0.35551
G1 E-0.04000 F2100.00000
G1 Z0.800 F10800.000
G1 X73.174 Y114.853
G1 Z0.200
G1 E0.80000 F2100.00000
G1 F1200
G1 X73.360 Y115.144 E0.01086
G1 X73.494 Y115.464 E0.01086
G1 X73.570 Y115.802 E0.01086
G1 X73.586 Y116.148 E0.01086
G1 X73.541 Y116.491 E0.01086
G1 X73.438 Y116.821 E0.01086
G1 X73.279 Y117.129 E0.01086
G1 X73.069 Y117.404 E0.01086
G1 X72.850 Y117.605 E0.00931
G1 X72.529 Y117.823 E0.01215
G1 X72.203 Y117.959 E0.01109
G1 X71.865 Y118.035 E0.01086
G1 X71.519 Y118.051 E0.01086
G1 X71.176 Y118.006 E0.01086
G1 X70.845 Y117.903 E0.01086
G1 X70.538 Y117.744 E0.01085
G1 X70.263 Y117.534 E0.01085
G1 X70.028 Y117.279 E0.01086
G1 X69.841 Y116.988 E0.01086
G1 X69.708 Y116.668 E0.01086
G1 X69.632 Y116.330 E0.01086
G1 X69.616 Y115.984 E0.01085
G1 X69.661 Y115.641 E0.01085
G1 X69.764 Y115.311 E0.01086
G1 X69.923 Y115.003 E0.01086
G1 X70.133 Y114.728 E0.01086
G1 X70.388 Y114.493 E0.01086
G1 X70.679 Y114.306 E0.01085
G1 X70.999 Y114.173 E0.01086
G1 X71.337 Y114.097 E0.01086
G1 X71.633 Y114.084 E0.00932
G1 X72.019 Y114.123 E0.01214
G1 X72.356 Y114.229 E0.01109
G1 X72.664 Y114.388 E0.01086
G1 X72.939 Y114.598 E0.01086
G1 X73.133 Y114.809 E0.00897
G1 X72.856 Y115.064 F10800.000
G1 F1200
G1 X73.025 Y115.320 E0.00962
G1 X73.133 Y115.579 E0.00879
G1 X73.194 Y115.852 E0.00879
G1 X73.207 Y116.132 E0.00879
G1 X73.171 Y116.410 E0.00879
G1 X73.088 Y116.677 E0.00879
G1 X72.959 Y116.926 E0.00879
G1 X72.789 Y117.149 E0.00879
G1 X72.616 Y117.309 E0.00740
G1 X72.349 Y117.489 E0.01008
G1 X72.088 Y117.598 E0.00887
G1 X71.815 Y117.659 E0.00879
G1 X71.535 Y117.672 E0.00879
G1 X71.257 Y117.637 E0.00879
G1 X70.989 Y117.553 E0.00879
G1 X70.740 Y117.424 E0.00879
G1 X70.518 Y117.254 E0.00879
G1 X70.328 Y117.048 E0.00879
G1 X70.177 Y116.812 E0.00879
G1 X70.069 Y116.553 E0.00879
G1 X70.007 Y116.280 E0.00879
G1 X69.994 Y116.000 E0.00879
G1 X70.030 Y115.722 E0.00879
G1 X70.114 Y115.454 E0.00879
G1 X70.243 Y115.206 E0.00879
G1 X70.413 Y114.983 E0.00879
G1 X70.619 Y114.793 E0.00879
G1 X70.855 Y114.642 E0.00879
G1 X71.113 Y114.534 E0.00879
G1 X71.387 Y114.472 E0.00879
G1 X71.623 Y114.462 E0.00740
G1 X71.942 Y114.495 E0.01007
G1 X72.212 Y114.579 E0.00887
G1 X72.461 Y114.708 E0.00879
G1 X72.684 Y114.878 E0.00879
G1 X72.815 Y115.020 E0.00606
G1 X73.159 Y115.020 F10800.000
G1 F8640
G1 X73.025 Y115.320 E-0.08459
G1 X73.133 Y115.579 E-0.06471
G1 X73.194 Y115.852 E-0.06471
G1 X73.207 Y116.132 E-0.06471
G1 X73.171 Y116.410 E-0.06471
G1 X73.088 Y116.677 E-0.06471
G1 X72.959 Y116.926 E-0.06471
G1 X72.789 Y117.149 E-0.06472
G1 X72.616 Y117.309 E-0.05447
G1 X72.349 Y117.489 E-0.07421
G1 X72.088 Y117.598 E-0.06534
G1 X71.968 Y117.625 E-0.02841
G1 E-0.04000 F2100.00000
G1 Z0.800 F10800.000
G1 X171.508 Y115.878
G1 Z0.200
G1 E0.80000 F2100.00000
G1 F1200
G1 X171.553 Y115.526 E0.01111
G1 X171.656 Y115.196 E0.01084
G1 X171.815 Y114.889 E0.01085
G1 X172.025 Y114.614 E0.01085
G1 X172.280 Y114.380 E0.01084
G1 X172.571 Y114.193 E0.01085
G1 X172.890 Y114.060 E0.01085
G1 X173.228 Y113.984 E0.01084
G1 X173.518 Y113.971 E0.00911
G1 X173.908 Y114.010 E0.01230
G1 X174.246 Y114.116 E0.01111
G1 X174.554 Y114.274 E0.01085
G1 X174.828 Y114.484 E0.01085
G1 X175.063 Y114.739 E0.01084
G1 X175.249 Y115.030 E0.01085
G1 X175.383 Y115.349 E0.01085
G1 X175.458 Y115.687 E0.01085
G1 X175.474 Y116.032 E0.01085
G1 X175.430 Y116.375 E0.01084
G1 X175.327 Y116.705 E0.01085
G1 X175.168 Y117.013 E0.01084
G1 X174.958 Y117.288 E0.01085
G1 X174.704 Y117.522 E0.01084
G1 X174.412 Y117.709 E0.01084
G1 X174.093 Y117.842 E0.01085
G1 X173.756 Y117.917 E0.01085
G1 X173.410 Y117.933 E0.01085
G1 X173.067 Y117.889 E0.01085
G1 X172.737 Y117.786 E0.01085
G1 X172.430 Y117.627 E0.01084
G1 X172.155 Y117.417 E0.01085
G1 X171.920 Y117.163 E0.01084
G1 X171.734 Y116.871 E0.01085
G1 X171.601 Y116.552 E0.01084
G1 X171.537 Y116.269 E0.00911
G1 X171.512 Y115.937 E0.01042
G1 X171.888 Y115.909 F10800.000
G1 F1200
G1 X171.923 Y115.607 E0.00954
G1 X172.006 Y115.340 E0.00878
G1 X172.135 Y115.091 E0.00878
G1 X172.305 Y114.869 E0.00878
G1 X172.511 Y114.679 E0.00878
G1 X172.747 Y114.528 E0.00878
G1 X173.005 Y114.421 E0.00878
G1 X173.278 Y114.359 E0.00878
G1 X173.508 Y114.349 E0.00721
G1 X173.832 Y114.381 E0.01023
G1 X174.102 Y114.466 E0.00887
G1 X174.351 Y114.594 E0.00878
G1 X174.573 Y114.764 E0.00878
G1 X174.763 Y114.970 E0.00878
G1 X174.914 Y115.206 E0.00878
G1 X175.022 Y115.464 E0.00878
G1 X175.083 Y115.737 E0.00878
G1 X175.096 Y116.017 E0.00878
G1 X175.060 Y116.294 E0.00878
G1 X174.977 Y116.561 E0.00878
G1 X174.848 Y116.810 E0.00878
G1 X174.678 Y117.033 E0.00878
G1 X174.472 Y117.222 E0.00878
G1 X174.237 Y117.373 E0.00878
G1 X173.978 Y117.481 E0.00878
G1 X173.705 Y117.542 E0.00878
G1 X173.426 Y117.555 E0.00878
G1 X173.148 Y117.519 E0.00878
G1 X172.881 Y117.436 E0.00878
G1 X172.632 Y117.307 E0.00878
G1 X172.410 Y117.137 E0.00878
G1 X172.220 Y116.932 E0.00878
G1 X172.069 Y116.696 E0.00878
G1 X171.961 Y116.438 E0.00878
G1 X171.911 Y116.213 E0.00721
G1 X171.893 Y115.969 E0.00767
G1 X171.630 Y115.749 F10800.000
G1 F8640
G1 X171.923 Y115.607 E-0.08387
G1 X172.006 Y115.340 E-0.06463
G1 X172.135 Y115.091 E-0.06463
G1 X172.305 Y114.869 E-0.06463
G1 X172.511 Y114.679 E-0.06463
G1 X172.747 Y114.528 E-0.06463
G1 X173.005 Y114.421 E-0.06463
G1 X173.278 Y114.359 E-0.06463
G1 X173.508 Y114.349 E-0.05306
G1 X173.832 Y114.381 E-0.07537
G1 X174.102 Y114.466 E-0.06532
G1 X174.218 Y114.525 E-0.02994
G1 E-0.04000 F2100.00000
G1 Z0.800 F10800.000
G1 X197.913 Y123.336
G1 Z0.200
G1 E0.80000 F2100.00000
G1 F1200
G1 X58.635 Y123.494 E4.36697
G1 X57.496 Y123.395 E0.03584
G1 X56.416 Y123.107 E0.03504
G1 X55.403 Y122.636 E0.03504
G1 X54.487 Y121.996 E0.03504
G1 X53.730 Y121.241 E0.03350
G1 X53.053 Y120.290 E0.03661
G1 X52.580 Y119.280 E0.03497
G1 X52.290 Y118.201 E0.03504
G1 X52.189 Y117.062 E0.03584
G1 X52.187 Y115.114 E0.06110
G1 X52.285 Y113.975 E0.03584
G1 X52.573 Y112.895 E0.03504
G1 X53.044 Y111.882 E0.03504
G1 X53.684 Y110.965 E0.03504
G1 X54.473 Y110.174 E0.03504
G1 X55.388 Y109.532 E0.03504
G1 X56.400 Y109.059 E0.03504
G1 X57.479 Y108.769 E0.03504
G1 X58.618 Y108.668 E0.03585
G1 X197.896 Y108.510 E4.36696
M73 P0 R191
G1 X197.913 Y123.276 E0.46297
G1 X198.290 Y123.713 F10800.000
G1 F1200
G1 X58.619 Y123.871 E4.37931
G1 X57.431 Y123.768 E0.03739
G1 X56.287 Y123.463 E0.03711
G1 X55.214 Y122.964 E0.03710
G1 X54.244 Y122.286 E0.03711
G1 X53.442 Y121.486 E0.03553
G1 X52.726 Y120.481 E0.03868
G1 X52.225 Y119.410 E0.03708
G1 X51.917 Y118.267 E0.03710
G1 X51.812 Y117.079 E0.03739
G1 X51.810 Y115.097 E0.06213
G1 X51.912 Y113.909 E0.03739
G1 X52.217 Y112.766 E0.03711
G1 X52.716 Y111.693 E0.03711
G1 X53.394 Y110.723 E0.03711
G1 X54.230 Y109.885 E0.03711
G1 X55.198 Y109.205 E0.03711
G1 X56.271 Y108.704 E0.03711
G1 X57.413 Y108.396 E0.03711
G1 X58.601 Y108.291 E0.03740
G1 X198.273 Y108.133 E4.37930
G1 X198.290 Y123.653 E0.48662
G1 X197.891 Y123.698 F10800.000
G1 F8640
G1 X194.999 Y123.658 E-0.76000
G1 E-0.04000 F2100.00000
G1 Z0.800 F10800.000
G1 X197.784 Y109.388
G1 Z0.200
G1 E0.80000 F2100.00000
G1 F1200
G1 X197.190 Y108.794 E0.02641
G1 X196.656 Y108.794 E0.01677
G1 X197.615 Y109.753 E0.04261
G1 X197.615 Y110.288 E0.01681
G1 X196.122 Y108.795 E0.06636
G1 X195.588 Y108.796 E0.01677
G1 X197.616 Y110.823 E0.09010
G1 X197.617 Y111.358 E0.01681
G1 X195.054 Y108.796 E0.11385
G1 X194.521 Y108.797 E0.01677
G1 X197.617 Y111.893 E0.13759
G1 X197.618 Y112.428 E0.01681
G1 X193.987 Y108.797 E0.16134
G1 X193.453 Y108.798 E0.01677
G1 X197.618 Y112.963 E0.18508
G1 X197.619 Y113.498 E0.01681
G1 X192.919 Y108.799 E0.20883
G1 X192.386 Y108.799 E0.01677
G1 X197.620 Y114.033 E0.23257
G1 X197.620 Y114.568 E0.01681
G1 X191.852 Y108.800 E0.25632
G1 X191.318 Y108.800 E0.01677
G1 X197.621 Y115.103 E0.28006
G1 X197.621 Y115.638 E0.01681
G1 X190.784 Y108.801 E0.30381
G1 X190.250 Y108.802 E0.01677
G1 X197.622 Y116.173 E0.32755
G1 X197.623 Y116.708 E0.01681
G1 X189.717 Y108.802 E0.35130
G1 X189.183 Y108.803 E0.01677
G1 X197.623 Y117.243 E0.37504
G1 X197.624 Y117.778 E0.01681
G1 X188.649 Y108.803 E0.39879
G1 X188.115 Y108.804 E0.01677
G1 X197.624 Y118.313 E0.42253
G1 X197.625 Y118.848 E0.01681
G1 X187.581 Y108.805 E0.44628
G1 X187.048 Y108.805 E0.01677
G1 X197.626 Y119.383 E0.47002
G1 X197.626 Y119.918 E0.01681
G1 X186.514 Y108.806 E0.49377
G1 X185.980 Y108.806 E0.01677
G1 X197.627 Y120.453 E0.51751
G1 X197.627 Y120.988 E0.01681
G1 X185.446 Y108.807 E0.54126
G1 X184.913 Y108.808 E0.01677
G1 X197.628 Y121.523 E0.56500
G1 X197.629 Y122.058 E0.01681
G1 X184.379 Y108.808 E0.58875
G1 X183.845 Y108.809 E0.01677
G1 X197.629 Y122.593 E0.61249
G1 X197.630 Y123.054 E0.01447
G1 X197.555 Y123.054 E0.00234
G1 X183.311 Y108.810 E0.63293
G1 X182.777 Y108.810 E0.01677
G1 X197.022 Y123.054 E0.63293
G1 X196.488 Y123.055 E0.01677
G1 X182.244 Y108.811 E0.63293
G1 X181.710 Y108.811 E0.01677
G1 X195.954 Y123.055 E0.63293
G1 X195.420 Y123.056 E0.01677
G1 X181.176 Y108.812 E0.63293
G1 X180.642 Y108.813 E0.01677
G1 X194.886 Y123.057 E0.63293
G1 X194.353 Y123.057 E0.01677
G1 X180.109 Y108.813 E0.63293
G1 X179.575 Y108.814 E0.01677
G1 X193.819 Y123.058 E0.63293
G1 X193.285 Y123.059 E0.01677
G1 X179.041 Y108.814 E0.63293
G1 X178.507 Y108.815 E0.01677
G1 X192.751 Y123.059 E0.63293
G1 X192.218 Y123.060 E0.01677
G1 X177.973 Y108.816 E0.63293
G1 X177.440 Y108.816 E0.01677
G1 X191.684 Y123.060 E0.63293
G1 X191.150 Y123.061 E0.01677
G1 X176.906 Y108.817 E0.63293
G1 X176.372 Y108.817 E0.01677
G1 X190.616 Y123.062 E0.63293
G1 X190.082 Y123.062 E0.01677
G1 X175.838 Y108.818 E0.63293
G1 X175.304 Y108.819 E0.01677
G1 X189.549 Y123.063 E0.63293
G1 X189.015 Y123.063 E0.01677
G1 X174.771 Y108.819 E0.63293
G1 X174.237 Y108.820 E0.01677
G1 X188.481 Y123.064 E0.63293
G1 X187.947 Y123.065 E0.01677
G1 X173.703 Y108.820 E0.63293
G1 X173.169 Y108.821 E0.01677
G1 X187.414 Y123.065 E0.63293
G1 X186.880 Y123.066 E0.01677
G1 X172.636 Y108.822 E0.63293
G1 X172.102 Y108.822 E0.01677
G1 X186.346 Y123.066 E0.63293
G1 X185.812 Y123.067 E0.01677
G1 X171.568 Y108.823 E0.63293
G1 X171.034 Y108.823 E0.01677
G1 X185.278 Y123.068 E0.63293
G1 X184.745 Y123.068 E0.01677
G1 X170.500 Y108.824 E0.63293
G1 X169.967 Y108.825 E0.01677
G1 X184.211 Y123.069 E0.63293
G1 X183.677 Y123.069 E0.01677
G1 X169.433 Y108.825 E0.63293
G1 X168.899 Y108.826 E0.01677
G1 X173.787 Y113.713 E0.21718
G1 X173.525 Y113.687 E0.00825
G1 X173.239 Y113.700 E0.00900
G1 X168.365 Y108.826 E0.21657
M73 P1 R190
G1 X167.832 Y108.827 E0.01677
G1 X172.797 Y113.792 E0.22063
G1 X172.422 Y113.952 E0.01279
G1 X167.298 Y108.828 E0.22771
G1 X166.764 Y108.828 E0.01677
G1 X172.098 Y114.162 E0.23702
G1 X171.820 Y114.419 E0.01188
G1 X166.230 Y108.829 E0.24838
G1 X165.696 Y108.829 E0.01677
G1 X171.588 Y114.721 E0.26178
G1 X171.403 Y115.070 E0.01242
G1 X165.163 Y108.830 E0.27729
G1 X164.629 Y108.831 E0.01677
G1 X171.275 Y115.476 E0.29530
G1 X171.224 Y115.870 E0.01247
G1 X171.231 Y115.967 E0.00307
G1 X164.095 Y108.831 E0.31708
G1 X163.561 Y108.832 E0.01677
G1 X171.319 Y116.590 E0.34472
G1 F8640
G1 X168.992 Y114.262 E-0.76000
G1 E-0.04000 F2100.00000
G1 Z0.800 F10800.000
G1 X172.846 Y118.116
G1 Z0.200
G1 E0.80000 F2100.00000
G1 F1200
G1 X177.805 Y123.076 E0.22039
G1 X178.339 Y123.075 E0.01677
G1 X173.477 Y118.213 E0.21604
G1 X173.793 Y118.199 E0.00995
G1 X173.960 Y118.161 E0.00535
G1 X178.873 Y123.075 E0.21832
G1 X179.407 Y123.074 E0.01677
G1 X174.367 Y118.034 E0.22396
G1 X174.544 Y117.960 E0.00604
G1 X174.716 Y117.850 E0.00643
G1 X179.941 Y123.074 E0.23213
G1 X180.474 Y123.073 E0.01677
G1 X175.018 Y117.617 E0.24245
G1 X175.168 Y117.479 E0.00639
G1 X175.275 Y117.339 E0.00553
G1 X181.008 Y123.072 E0.25477
G1 X181.542 Y123.072 E0.01677
G1 X175.485 Y117.015 E0.26913
G1 X175.589 Y116.813 E0.00713
G1 X175.644 Y116.639 E0.00573
G1 X182.076 Y123.071 E0.28580
G1 X182.609 Y123.071 E0.01677
G1 X175.738 Y116.199 E0.30534
G1 X175.758 Y116.044 E0.00491
G1 X175.740 Y115.667 E0.01185
G1 X183.313 Y123.239 E0.33647
G1 F8640
G1 X180.985 Y120.912 E-0.76000
G1 E-0.04000 F2100.00000
G1 Z0.800 F10800.000
G1 X177.441 Y123.246
G1 Z0.200
G1 E0.80000 F2100.00000
G1 F1200
G1 X163.027 Y108.832 E0.64046
G1 X162.494 Y108.833 E0.01677
G1 X176.738 Y123.077 E0.63293
G1 X176.204 Y123.078 E0.01677
G1 X161.960 Y108.834 E0.63293
G1 X161.426 Y108.834 E0.01677
G1 X175.670 Y123.078 E0.63293
G1 X175.137 Y123.079 E0.01677
G1 X160.892 Y108.835 E0.63293
G1 X160.359 Y108.835 E0.01677
G1 X174.603 Y123.080 E0.63293
G1 X174.069 Y123.080 E0.01677
G1 X159.825 Y108.836 E0.63293
G1 X159.291 Y108.837 E0.01677
G1 X173.535 Y123.081 E0.63293
G1 X173.001 Y123.081 E0.01677
G1 X158.757 Y108.837 E0.63293
G1 X158.223 Y108.838 E0.01677
G1 X172.468 Y123.082 E0.63293
G1 X171.934 Y123.083 E0.01677
G1 X157.690 Y108.838 E0.63293
G1 X157.156 Y108.839 E0.01677
G1 X171.400 Y123.083 E0.63293
G1 X170.866 Y123.084 E0.01677
G1 X156.622 Y108.840 E0.63293
G1 X156.088 Y108.840 E0.01677
G1 X170.332 Y123.084 E0.63293
G1 X169.799 Y123.085 E0.01677
G1 X155.555 Y108.841 E0.63293
G1 X155.021 Y108.841 E0.01677
G1 X169.265 Y123.086 E0.63293
G1 X168.731 Y123.086 E0.01677
G1 X154.487 Y108.842 E0.63293
G1 X153.953 Y108.843 E0.01677
G1 X168.197 Y123.087 E0.63293
G1 X167.664 Y123.087 E0.01677
G1 X153.419 Y108.843 E0.63293
G1 X152.886 Y108.844 E0.01677
G1 X167.130 Y123.088 E0.63293
G1 X166.596 Y123.089 E0.01677
G1 X152.352 Y108.845 E0.63293
G1 X151.818 Y108.845 E0.01677
G1 X166.062 Y123.089 E0.63293
G1 X165.528 Y123.090 E0.01677
G1 X151.284 Y108.846 E0.63293
