; generated by PrusaSlicer 2.2.0+win64 on 2021-01-18 at 23:23:38 UTC

; 

; external perimeters extrusion width = 0.45mm
; perimeters extrusion width = 0.45mm
; infill extrusion width = 0.45mm
; solid infill extrusion width = 0.45mm
; top infill extrusion width = 0.40mm
; support material extrusion width = 0.35mm
; first layer extrusion width = 0.42mm

M73 P0 R83
M201 X9000 Y9000 Z500 E10000 ; sets maximum accelerations, mm/sec^2
M203 X500 Y500 Z12 E120 ; sets maximum feedrates, mm/sec
M204 P2000 R1500 T2000 ; sets acceleration (P, T) and retract acceleration (R), mm/sec^2
M205 X10.00 Y10.00 Z0.20 E2.50 ; sets the jerk limits, mm/sec
M205 S0 T0 ; sets the minimum extruding and travel feed rate, mm/sec
M107
M862.3 P "MK2.5SMMU2S" ; printer model check
M862.1 P0.4 ; nozzle diameter check
M115 U3.8.0 ; tell printer latest fw version
G90 ; use absolute coordinates
M83 ; extruder relative mode
M104 S215 ; set extruder temp
M140 S60 ; set bed temp
Tx
M190 S60 ; wait for bed temp
M109 S215 ; wait for extruder temp
G28 W ; home all without mesh bed level
G80 ; mesh bed leveling

G21 ; set units to millimeters

;go outside print area
G1 Y-3.0 F1000.0
G1 Z0.4 F1000.0
; select extruder
Tc
; purge line
G1 X55.0 F2000.0
G1 Z0.3 F1000.0
G92 E0.0
G1 X240.0 E25.0 F2200.0
M73 P0 R82
G1 Y-2.0 F1000.0
G1 X55.0 E25 F1400.0
G1 Z0.20 F1000.0
G1 X5.0 E4.0 F1000.0
G92 E0.0
G21 ; set units to millimeters
G90 ; use absolute coordinates
M83 ; use relative distances for extrusion
M900 K0.05 ; Filament gcode LA 1.5
M900 K30 ; Filament gcode LA 1.0
;BEFORE_LAYER_CHANGE
G92 E0.0
;0.2


G1 E-0.80000 F2100.00000
G1 Z0.600 F10800.000
;AFTER_LAYER_CHANGE
;0.2
G1 X66.910 Y63.941
G1 Z0.200
G1 E0.80000 F2100.00000
M204 S1000
G1 F1200.000
G1 X86.568 Y39.919 E0.97326
G1 X87.118 Y39.440 E0.02284
G1 X87.782 Y39.152 E0.02272
G1 X88.381 Y39.074 E0.01894
G1 X161.618 Y39.074 E2.29628
G1 X162.113 Y39.127 E0.01562
G1 X162.586 Y39.282 E0.01562
G1 X163.017 Y39.532 E0.01562
G1 X163.386 Y39.866 E0.01562
G1 X182.823 Y62.772 E0.94193
G1 X183.059 Y63.206 E0.01550
G1 X183.202 Y63.684 E0.01562
G1 X183.729 Y67.616 E0.12441
G1 X183.773 Y71.194 E0.11218
G1 X183.653 Y74.708 E0.11026
G1 X177.153 Y114.486 E1.26374
G1 X160.670 Y167.482 E1.74018
G1 X160.375 Y167.928 E0.01676
G1 X159.929 Y168.391 E0.02014
G1 X158.624 Y169.601 E0.05581
G1 X157.969 Y170.023 E0.02444
G1 X156.812 Y170.535 E0.03964
G1 X156.052 Y170.754 E0.02482
G1 X154.540 Y170.925 E0.04769
G1 X95.538 Y170.926 E1.84998
G1 X93.987 Y170.758 E0.04892
G1 X93.218 Y170.538 E0.02507
G1 X92.102 Y170.050 E0.03820
G1 X91.389 Y169.594 E0.02653
G1 X89.869 Y168.173 E0.06524
G1 X89.460 Y167.669 E0.02036
G1 X89.207 Y167.150 E0.01811
G1 X73.064 Y114.757 E1.71894
G1 X66.554 Y75.036 E1.26204
G1 X66.228 Y67.839 E0.22589
G1 X66.667 Y64.648 E0.10101
G1 X66.890 Y63.998 E0.02155
G1 E-0.80000 F2100.00000
G1 Z0.800 F10800.000
G1 X130.178 Y135.183
G1 Z0.200
G1 E0.80000 F2100.00000
G1 F1200.000
G1 X130.194 Y135.040 E0.00452
G1 X130.244 Y135.059 E0.00166
G1 X130.206 Y135.130 E0.00252
G1 E-0.80000 F2100.00000
G1 Z0.800 F10800.000
G1 X127.805 Y160.161
G1 Z0.200
G1 E0.80000 F2100.00000
G1 F1200.000
G1 X127.248 Y159.627 E0.02419
G1 X126.999 Y159.473 E0.00918
G1 X126.803 Y159.224 E0.00992
G1 X126.721 Y159.232 E0.00260
G1 X126.583 Y159.142 E0.00515
G1 X126.299 Y158.885 E0.01201
G1 X126.081 Y158.742 E0.00818
G1 X125.974 Y158.562 E0.00655
G1 X126.101 Y158.233 E0.01106
G1 X126.406 Y157.718 E0.01877
G1 X126.319 Y157.759 E0.00301
G1 X125.654 Y158.311 E0.02711
G1 X125.420 Y158.423 E0.00812
G1 X125.297 Y158.348 E0.00449
G1 X125.220 Y158.333 E0.00248
G1 X124.670 Y158.317 E0.01726
G1 X124.457 Y158.275 E0.00679
G1 X124.265 Y158.161 E0.00701
G1 X123.644 Y157.646 E0.02529
G1 X124.139 Y158.499 E0.03093
G1 X123.749 Y158.899 E0.01751
G1 X123.523 Y159.090 E0.00929
G1 X123.282 Y159.257 E0.00919
G1 X123.107 Y159.451 E0.00820
G1 X122.844 Y159.640 E0.01016
G1 X122.518 Y159.942 E0.01393
G1 X122.347 Y160.047 E0.00627
G1 X122.153 Y160.018 E0.00615
G1 X122.006 Y159.881 E0.00630
G1 X121.856 Y159.688 E0.00767
G1 X121.253 Y159.189 E0.02453
G1 X121.154 Y158.973 E0.00746
G1 X121.205 Y158.480 E0.01556
G1 X121.291 Y158.176 E0.00990
G1 X121.422 Y157.424 E0.02394
G1 X121.535 Y156.957 E0.01506
G1 X121.338 Y157.288 E0.01208
G1 X120.870 Y158.258 E0.03377
G1 X120.536 Y158.823 E0.02058
G1 X120.272 Y158.501 E0.01305
G1 X119.330 Y157.974 E0.03383
G1 X118.985 Y157.851 E0.01150
G1 X118.841 Y157.760 E0.00534
G1 X118.689 Y157.734 E0.00484
G1 X118.523 Y157.657 E0.00574
G1 X118.294 Y157.617 E0.00728
G1 X117.117 Y157.546 E0.03696
G1 X117.000 Y157.270 E0.00941
G1 X116.889 Y157.513 E0.00836
G1 X116.747 Y157.659 E0.00638
G1 X116.266 Y157.727 E0.01525
G1 X115.992 Y157.848 E0.00940
G1 X115.824 Y157.893 E0.00544
G1 X115.634 Y158.035 E0.00742
G1 X115.516 Y158.070 E0.00388
G1 X115.328 Y158.173 E0.00672
G1 X115.159 Y158.318 E0.00699
G1 X115.037 Y158.308 E0.00385
G1 X114.878 Y158.374 E0.00538
G1 X114.702 Y158.387 E0.00553
G1 X114.345 Y158.108 E0.01422
G1 X114.226 Y158.036 E0.00436
G1 X114.402 Y158.329 E0.01072
G1 X114.472 Y158.563 E0.00765
G1 X114.040 Y158.994 E0.01912
G1 X113.760 Y159.226 E0.01140
G1 X113.463 Y159.422 E0.01116
G1 X112.936 Y159.879 E0.02189
G1 X112.792 Y159.972 E0.00537
G1 X112.640 Y160.020 E0.00501
G1 X112.407 Y160.004 E0.00732
G1 X112.085 Y159.792 E0.01209
G1 X111.918 Y159.721 E0.00569
G1 X111.818 Y159.568 E0.00573
G1 X111.725 Y159.519 E0.00330
G1 X111.446 Y159.268 E0.01176
G1 X110.940 Y158.923 E0.01920
G1 X109.863 Y158.354 E0.03819
G1 X109.560 Y158.240 E0.01015
G1 X109.351 Y158.115 E0.00764
G1 X109.197 Y158.073 E0.00500
G1 X109.045 Y157.992 E0.00540
G1 X108.609 Y157.892 E0.01403
G1 X108.451 Y157.802 E0.00570
G1 X108.238 Y157.762 E0.00680
G1 X108.130 Y157.552 E0.00739
G1 X108.055 Y157.079 E0.01503
G1 X107.819 Y157.494 E0.01497
G1 X107.676 Y157.616 E0.00588
G1 X107.254 Y157.574 E0.01331
G1 X106.769 Y157.564 E0.01521
G1 X106.174 Y157.584 E0.01866
G1 X105.767 Y157.677 E0.01309
G1 X105.171 Y157.871 E0.01966
G1 X104.975 Y157.842 E0.00622
G1 X104.776 Y157.590 E0.01006
G1 X104.731 Y157.411 E0.00580
G1 X104.640 Y157.226 E0.00647
G1 X104.319 Y156.374 E0.02853
G1 X104.460 Y157.479 E0.03491
G1 X104.525 Y157.674 E0.00645
G1 X104.541 Y157.837 E0.00513
G1 X104.513 Y158.051 E0.00675
G1 X104.364 Y158.195 E0.00650
G1 X104.072 Y158.351 E0.01039
G1 X103.788 Y158.572 E0.01129
G1 X103.643 Y158.622 E0.00480
G1 X103.564 Y158.747 E0.00466
G1 X103.380 Y158.835 E0.00638
G1 X102.778 Y159.279 E0.02345
G1 X102.100 Y159.869 E0.02817
G1 X101.838 Y160.064 E0.01024
G1 X101.694 Y160.116 E0.00480
G1 X101.543 Y160.106 E0.00475
G1 X101.127 Y159.865 E0.01510
G1 X100.708 Y159.562 E0.01618
G1 X100.559 Y159.521 E0.00485
G1 X100.411 Y159.418 E0.00566
G1 X100.142 Y159.325 E0.00893
G1 X100.007 Y159.203 E0.00572
G1 X99.936 Y159.201 E0.00221
G1 X99.835 Y159.160 E0.00343
G1 X100.545 Y159.610 E0.02637
G1 X100.713 Y159.766 E0.00718
G1 X100.839 Y159.850 E0.00475
G1 X101.340 Y160.335 E0.02187
G1 X100.822 Y160.687 E0.01962
G1 X100.660 Y160.912 E0.00871
G1 X100.497 Y160.993 E0.00569
G1 X99.866 Y161.431 E0.02407
G1 X98.607 Y162.161 E0.04564
G1 X98.134 Y162.386 E0.01642
G1 X97.764 Y162.533 E0.01248
G1 X97.521 Y162.548 E0.00765
G1 X97.324 Y162.463 E0.00672
G1 X97.182 Y162.312 E0.00648
G1 X97.111 Y162.118 E0.00648
G1 X97.121 Y161.933 E0.00581
G1 X97.865 Y159.093 E0.09205
G1 X97.928 Y158.945 E0.00505
G1 X98.088 Y158.757 E0.00774
G1 X98.223 Y158.675 E0.00496
G1 X98.388 Y158.624 E0.00541
G1 X98.635 Y158.627 E0.00773
G1 X98.773 Y158.674 E0.00458
G1 X99.317 Y158.946 E0.01907
G1 X99.615 Y159.133 E0.01103
G1 X99.788 Y159.139 E0.00542
G1 X99.472 Y158.929 E0.01189
G1 X99.384 Y158.826 E0.00426
G1 X99.307 Y158.647 E0.00613
G1 X99.310 Y158.439 E0.00651
G1 X99.849 Y157.230 E0.04150
G1 X99.341 Y158.052 E0.03030
G1 X99.084 Y158.269 E0.01053
G1 X98.779 Y158.391 E0.01031
G1 X98.595 Y158.418 E0.00582
G1 X98.056 Y158.365 E0.01699
G1 X99.078 Y154.500 E0.12535
G1 X99.178 Y154.374 E0.00506
G1 X99.313 Y154.300 E0.00483
G1 X99.782 Y154.129 E0.01564
G1 X101.798 Y146.781 E0.23890
G1 X102.855 Y142.844 E0.12781
G1 X102.968 Y142.344 E0.01607
G1 X103.061 Y142.184 E0.00580
G1 X103.226 Y142.118 E0.00557
G1 X103.401 Y142.154 E0.00562
G1 X103.621 Y142.263 E0.00770
G1 X104.117 Y142.558 E0.01810
G1 X104.350 Y142.735 E0.00915
G1 X104.544 Y142.631 E0.00689
G1 X105.008 Y142.441 E0.01572
G1 X108.810 Y140.964 E0.12791
G1 X108.933 Y140.840 E0.00547
G1 X109.022 Y140.701 E0.00519
G1 X109.578 Y139.664 E0.03687
G1 X109.734 Y139.412 E0.00930
G1 X109.869 Y139.308 E0.00534
G1 X109.946 Y139.307 E0.00242
G1 X110.466 Y138.621 E0.02701
G1 X111.099 Y138.062 E0.02647
G1 X111.491 Y137.819 E0.01447
G1 X112.073 Y137.603 E0.01944
G1 X113.020 Y137.324 E0.03096
G1 X113.390 Y137.237 E0.01193
G1 X113.672 Y137.199 E0.00892
G1 X113.795 Y137.138 E0.00430
G1 X114.598 Y136.958 E0.02580
G1 X114.854 Y136.873 E0.00846
G1 X115.004 Y136.804 E0.00518
G1 X115.467 Y136.439 E0.01848
G1 X115.512 Y136.302 E0.00454
G1 X115.991 Y136.162 E0.01564
G1 X115.984 Y136.379 E0.00680
G1 X116.478 Y135.339 E0.03609
G1 X116.626 Y135.202 E0.00634
G1 X117.161 Y135.253 E0.01686
G1 X117.628 Y135.265 E0.01464
G1 X118.570 Y135.215 E0.02957
G1 X118.931 Y135.158 E0.01145
G1 X119.295 Y135.057 E0.01185
G1 X119.485 Y135.074 E0.00598
G1 X119.666 Y135.282 E0.00864
G1 X120.135 Y136.172 E0.03155
G1 X120.495 Y136.917 E0.02594
G1 X120.356 Y135.518 E0.04406
G1 X120.284 Y135.134 E0.01226
G1 X120.302 Y134.827 E0.00965
G1 X120.469 Y134.648 E0.00768
G1 X121.159 Y134.304 E0.02417
G1 X121.290 Y134.210 E0.00506
G1 X121.464 Y134.159 E0.00566
G1 X122.016 Y133.823 E0.02028
G1 X122.288 Y133.615 E0.01075
G1 X122.467 Y133.561 E0.00585
G1 X122.639 Y133.614 E0.00566
G1 X123.277 Y133.985 E0.02314
G1 X123.424 Y134.094 E0.00573
G1 X123.861 Y134.295 E0.01509
G1 X123.872 Y134.803 E0.01596
G1 X124.068 Y134.642 E0.00796
G1 X124.242 Y134.571 E0.00590
G1 X124.581 Y134.678 E0.01115
G1 X124.832 Y134.727 E0.00803
G1 X125.163 Y134.758 E0.01043
G1 X125.985 Y134.683 E0.02586
G1 X126.231 Y134.805 E0.00863
G1 X126.255 Y134.536 E0.00848
G1 X126.815 Y134.204 E0.02042
G1 X126.999 Y134.121 E0.00631
G1 X127.269 Y133.937 E0.01026
G1 X127.454 Y133.851 E0.00640
G1 X127.880 Y133.596 E0.01556
G1 X128.017 Y133.540 E0.00466
G1 X128.186 Y133.628 E0.00597
G1 X128.450 Y133.827 E0.01037
G1 X128.880 Y134.073 E0.01552
G1 X129.010 Y134.185 E0.00538
G1 X129.156 Y134.232 E0.00481
G1 X129.985 Y134.610 E0.02855
G1 X129.842 Y134.852 E0.00881
G1 X129.813 Y135.038 E0.00591
G1 X129.713 Y136.124 E0.03421
G1 X129.642 Y136.555 E0.01368
G1 X129.594 Y137.096 E0.01702
G1 X130.709 Y134.986 E0.07482
G1 X131.048 Y135.018 E0.01067
G1 X131.581 Y135.168 E0.01736
G1 X131.973 Y135.220 E0.01241
G1 X133.593 Y135.300 E0.05087
G1 X133.833 Y135.772 E0.01661
G1 X134.100 Y136.372 E0.02058
G1 X134.358 Y136.246 E0.00901
G1 X134.816 Y136.715 E0.02054
G1 X135.020 Y136.863 E0.00792
G1 X136.228 Y137.138 E0.03882
G1 X136.350 Y137.199 E0.00429
G1 X136.632 Y137.237 E0.00892
G1 X137.003 Y137.324 E0.01193
G1 X137.950 Y137.603 E0.03096
G1 X138.531 Y137.819 E0.01944
G1 X138.924 Y138.062 E0.01447
G1 X139.556 Y138.621 E0.02647
G1 X140.076 Y139.307 E0.02701
G1 X140.153 Y139.308 E0.00242
G1 X140.288 Y139.412 E0.00534
G1 X140.444 Y139.664 E0.00930
G1 X141.000 Y140.701 E0.03687
G1 X141.089 Y140.840 E0.00519
G1 X141.212 Y140.964 E0.00547
G1 X145.015 Y142.441 E0.12791
G1 X145.479 Y142.631 E0.01572
G1 X145.672 Y142.735 E0.00689
G1 X145.905 Y142.558 E0.00915
G1 X146.401 Y142.263 E0.01810
G1 X146.621 Y142.154 E0.00770
G1 X146.797 Y142.118 E0.00563
G1 X146.961 Y142.185 E0.00557
G1 X147.055 Y142.344 E0.00579
G1 X147.168 Y142.844 E0.01607
G1 X148.224 Y146.781 E0.12781
G1 X150.240 Y154.129 E0.23890
G1 X150.709 Y154.300 E0.01565
G1 X150.844 Y154.374 E0.00483
G1 X150.944 Y154.500 E0.00506
G1 X151.963 Y158.354 E0.12499
G1 X151.490 Y158.499 E0.01552
G1 X151.281 Y158.499 E0.00657
G1 X151.079 Y158.428 E0.00668
G1 X150.916 Y158.298 E0.00655
G1 X150.671 Y157.941 E0.01357
G1 X150.588 Y157.767 E0.00605
G1 X150.227 Y157.175 E0.02173
G1 X150.619 Y158.035 E0.02961
G1 X150.690 Y158.288 E0.00825
G1 X150.681 Y158.567 E0.00876
G1 X150.590 Y158.822 E0.00849
G1 X150.508 Y158.950 E0.00476
G1 X150.352 Y159.114 E0.00710
G1 X150.204 Y159.187 E0.00517
G1 X150.087 Y159.215 E0.00377
G1 X149.917 Y159.338 E0.00656
G1 X149.668 Y159.425 E0.00828
G1 X149.498 Y159.520 E0.00610
G1 X149.370 Y159.565 E0.00425
G1 X149.329 Y159.678 E0.00379
G1 X149.131 Y159.761 E0.00673
G1 X148.717 Y160.028 E0.01546
G1 X148.491 Y160.114 E0.00758
G1 X148.265 Y160.065 E0.00725
G1 X147.979 Y159.838 E0.01144
G1 X147.833 Y159.772 E0.00502
G1 X147.747 Y159.612 E0.00570
G1 X147.621 Y159.533 E0.00468
G1 X146.867 Y158.924 E0.03037
G1 X146.534 Y158.720 E0.01225
G1 X146.466 Y158.637 E0.00337
G1 X146.333 Y158.596 E0.00435
G1 X146.009 Y158.341 E0.01294
G1 X145.872 Y158.261 E0.00496
G1 X145.689 Y158.198 E0.00609
G1 X145.612 Y158.065 E0.00480
G1 X145.587 Y157.913 E0.00484
G1 X145.651 Y157.244 E0.02106
G1 X145.785 Y156.358 E0.02810
G1 X145.426 Y157.310 E0.03190
G1 X145.136 Y157.864 E0.01961
G1 X144.882 Y157.861 E0.00797
G1 X144.368 Y157.681 E0.01705
G1 X143.966 Y157.587 E0.01295
G1 X143.367 Y157.555 E0.01882
G1 X142.872 Y157.556 E0.01550
G1 X142.486 Y157.609 E0.01224
G1 X142.336 Y157.512 E0.00559
G1 X142.164 Y157.292 E0.00876
G1 X142.049 Y157.063 E0.00804
G1 X142.027 Y157.374 E0.00977
G1 X141.970 Y157.556 E0.00599
G1 X141.837 Y157.746 E0.00727
G1 X141.677 Y157.796 E0.00526
G1 X141.535 Y157.876 E0.00511
G1 X141.210 Y157.949 E0.01044
G1 X140.733 Y158.132 E0.01602
G1 X140.455 Y158.287 E0.00998
G1 X140.262 Y158.341 E0.00628
G1 X139.985 Y158.517 E0.01029
G1 X139.863 Y158.558 E0.00406
G1 X139.626 Y158.681 E0.00836
G1 X139.506 Y158.772 E0.00472
G1 X139.195 Y158.897 E0.01050
G1 X138.628 Y159.286 E0.02157
G1 X138.200 Y159.662 E0.01786
G1 X138.045 Y159.762 E0.00578
G1 X137.862 Y159.928 E0.00776
G1 X137.588 Y160.062 E0.00956
G1 X137.384 Y160.073 E0.00641
G1 X137.316 Y159.968 E0.00391
G1 X137.238 Y159.933 E0.00269
G1 X137.083 Y159.815 E0.00612
G1 X136.636 Y159.416 E0.01879
G1 X136.414 Y159.275 E0.00824
G1 X135.896 Y158.864 E0.02072
G1 X135.728 Y158.663 E0.00821
G1 X135.678 Y158.511 E0.00502
G1 X135.705 Y158.324 E0.00595
G1 X135.868 Y158.041 E0.01024
G1 X135.388 Y158.392 E0.01865
G1 X135.238 Y158.378 E0.00472
G1 X135.058 Y158.294 E0.00624
G1 X134.887 Y158.276 E0.00538
G1 X134.759 Y158.144 E0.00578
G1 X134.525 Y158.056 E0.00784
G1 X134.258 Y157.876 E0.01008
G1 X133.837 Y157.730 E0.01399
G1 X133.485 Y157.692 E0.01109
G1 X133.312 Y157.629 E0.00578
G1 X133.214 Y157.543 E0.00410
G1 X133.134 Y157.389 E0.00542
G1 X133.097 Y157.258 E0.00430
G1 X132.985 Y157.522 E0.00901
G1 X132.719 Y157.564 E0.00844
G1 X131.904 Y157.599 E0.02558
G1 X131.628 Y157.636 E0.00873
G1 X131.433 Y157.729 E0.00677
G1 X131.246 Y157.760 E0.00596
G1 X131.114 Y157.848 E0.00498
G1 X130.692 Y158.006 E0.01413
G1 X130.528 Y158.116 E0.00617
G1 X130.200 Y158.290 E0.01165
G1 X130.033 Y158.416 E0.00656
G1 X129.893 Y158.465 E0.00466
G1 X129.493 Y158.813 E0.01661
G1 X128.785 Y157.328 E0.05159
G1 X128.562 Y156.940 E0.01403
G1 X128.705 Y157.647 E0.02263
G1 X128.785 Y157.925 E0.00906
G1 X128.883 Y158.467 E0.01728
G1 X128.949 Y158.613 E0.00500
G1 X128.973 Y158.805 E0.00607
G1 X128.939 Y159.011 E0.00657
G1 X128.809 Y159.190 E0.00693
G1 X127.848 Y160.119 E0.04189
G1 X127.527 Y160.448 F10800.000
G1 E-0.80000 F2100.00000
G1 Z0.800 F10800.000
G1 X125.327 Y134.468
G1 Z0.200
G1 E0.80000 F2100.00000
G1 F1200.000
G1 X124.644 Y134.394 E0.02155
G1 X124.058 Y134.221 E0.01916
G1 X123.509 Y133.933 E0.01942
G1 X122.820 Y133.496 E0.02560
G1 X123.276 Y133.079 E0.01937
G1 X123.484 Y132.986 E0.00716
G1 X124.356 Y132.498 E0.03133
G1 X124.652 Y132.361 E0.01022
G1 X124.941 Y132.270 E0.00950
G1 X125.154 Y132.242 E0.00674
G1 X125.450 Y132.267 E0.00931
G1 X125.753 Y132.343 E0.00980
G1 X126.056 Y132.464 E0.01022
G1 X126.511 Y132.711 E0.01625
G1 X126.788 Y132.750 E0.00878
G1 X127.077 Y132.925 E0.01059
G1 X127.275 Y133.016 E0.00682
G1 X127.639 Y133.357 E0.01565
G1 X127.084 Y133.806 E0.02238
G1 X126.021 Y134.332 E0.03720
G1 X125.682 Y134.429 E0.01108
G1 X125.387 Y134.461 E0.00930
