; generated by PrusaSlicer 2.2.0+win64 on 2021-01-18 at 23:30:52 UTC

; 

; external perimeters extrusion width = 0.45mm
; perimeters extrusion width = 0.45mm
; infill extrusion width = 0.45mm
; solid infill extrusion width = 0.45mm
; top infill extrusion width = 0.40mm
; support material extrusion width = 0.35mm
; first layer extrusion width = 0.42mm

M73 P0 R22
M201 X9000 Y9000 Z500 E10000 ; sets maximum accelerations, mm/sec^2
M203 X500 Y500 Z12 E120 ; sets maximum feedrates, mm/sec
M204 P2000 R1500 T2000 ; sets acceleration (P, T) and retract acceleration (R), mm/sec^2
M205 X10.00 Y10.00 Z0.20 E2.50 ; sets the jerk limits, mm/sec
M205 S0 T0 ; sets the minimum extruding and travel feed rate, mm/sec
M107
M862.3 P "MK2.5SMMU2S" ; printer model check
M862.1 P0.4 ; nozzle diameter check
M115 U3.8.0 ; tell printer latest fw version
G90 ; use absolute coordinates
M83 ; extruder relative mode
M104 S215 ; set extruder temp
M140 S60 ; set bed temp
Tx
M190 S60 ; wait for bed temp
M109 S215 ; wait for extruder temp
G28 W ; home all without mesh bed level
G80 ; mesh bed leveling

G21 ; set units to millimeters

;go outside print area
G1 Y-3.0 F1000.0
G1 Z0.4 F1000.0
; select extruder
Tc
; purge line
G1 X55.0 F2000.0
G1 Z0.3 F1000.0
G92 E0.0
G1 X240.0 E25.0 F2200.0
M73 P0 R22
G1 Y-2.0 F1000.0
G1 X55.0 E25 F1400.0
G1 Z0.20 F1000.0
G1 X5.0 E4.0 F1000.0
G92 E0.0
G21 ; set units to millimeters
G90 ; use absolute coordinates
M83 ; use relative distances for extrusion
M900 K0.05 ; Filament gcode LA 1.5
M900 K30 ; Filament gcode LA 1.0
;BEFORE_LAYER_CHANGE
G92 E0.0
;0.2


G1 E-0.80000 F2100.00000
G1 Z0.600 F10800.000
;AFTER_LAYER_CHANGE
;0.2
G1 X101.926 Y89.074
G1 Z0.200
G1 E0.80000 F2100.00000
M204 S1000
G1 F1200.000
G1 X102.376 Y88.713 E0.01811
G1 X102.901 Y88.468 E0.01814
G1 X103.483 Y88.350 E0.01863
G1 X114.356 Y88.300 E0.34093
G1 X146.360 Y88.352 E1.00345
G1 X147.146 Y88.484 E0.02498
G1 X147.844 Y88.866 E0.02496
G1 X148.372 Y89.452 E0.02473
G1 X148.689 Y90.194 E0.02532
G1 X155.611 Y117.875 E0.89464
G1 X155.811 Y118.869 E0.03177
G1 X155.822 Y119.481 E0.01920
G1 X155.658 Y120.140 E0.02130
G1 X155.319 Y120.724 E0.02119
G1 X154.775 Y121.226 E0.02319
G1 X154.096 Y121.542 E0.02347
G1 X153.476 Y121.641 E0.01969
G1 X152.013 Y121.670 E0.04590
G1 X98.061 Y121.678 E1.69161
G1 X96.129 Y121.598 E0.06063
G1 X95.569 Y121.421 E0.01842
G1 X95.075 Y121.121 E0.01811
G1 X94.584 Y120.593 E0.02260
G1 X94.268 Y119.933 E0.02295
G1 X94.165 Y119.238 E0.02203
G1 X94.264 Y118.442 E0.02514
G1 X100.817 Y92.128 E0.85025
G1 X101.347 Y90.064 E0.06683
G1 X101.578 Y89.530 E0.01823
G1 X101.889 Y89.122 E0.01611
G1 E-0.80000 F2100.00000
G1 Z0.800 F10800.000
G1 X125.000 Y93.467
G1 Z0.200
G1 E0.80000 F2100.00000
G1 F1200.000
G1 X103.538 Y93.467 E0.67294
G1 X104.093 Y91.284 E0.07061
G1 X114.353 Y91.265 E0.32169
G1 X145.914 Y91.316 E0.98956
G1 X146.462 Y93.467 E0.06960
G1 X125.060 Y93.467 E0.67106
G1 X125.000 Y93.844 F10800.000
G1 F1200.000
G1 X103.052 Y93.844 E0.68815
G1 X103.797 Y90.920 E0.09461
G1 X104.338 Y90.897 E0.01697
G1 X114.353 Y90.888 E0.31403
G1 X146.207 Y90.940 E0.99875
G1 X146.948 Y93.844 E0.09397
G1 X125.060 Y93.844 E0.68628
G1 X124.784 Y93.507 F10800.000
G1 E-0.80000 F2100.00000
G1 Z0.800 F10800.000
G1 X146.091 Y92.468
G1 Z0.200
G1 E0.80000 F2100.00000
G1 F1200.000
G1 X145.219 Y91.596 E0.03902
G1 X144.679 Y91.594 E0.01710
G1 X146.040 Y92.955 E0.06093
G1 X146.098 Y93.184 E0.00746
G1 X145.730 Y93.184 E0.01165
G1 X144.139 Y91.592 E0.07125
G1 X143.598 Y91.590 E0.01710
G1 X145.192 Y93.184 E0.07133
G1 X144.654 Y93.184 E0.01704
G1 X143.058 Y91.588 E0.07142
G1 X142.518 Y91.587 E0.01710
G1 X144.115 Y93.184 E0.07150
G1 X143.577 Y93.184 E0.01704
G1 X141.978 Y91.585 E0.07159
G1 X141.437 Y91.583 E0.01710
G1 X143.039 Y93.184 E0.07167
G1 X142.500 Y93.184 E0.01704
G1 X140.897 Y91.581 E0.07176
G1 X140.357 Y91.579 E0.01709
G1 X141.962 Y93.184 E0.07183
G1 X141.424 Y93.184 E0.01704
G1 X139.818 Y91.579 E0.07186
G1 X139.279 Y91.578 E0.01706
G1 X140.885 Y93.184 E0.07189
G1 X140.347 Y93.184 E0.01704
G1 X138.740 Y91.577 E0.07192
G1 X138.201 Y91.577 E0.01706
G1 X139.809 Y93.184 E0.07195
G1 X139.270 Y93.184 E0.01704
G1 X137.662 Y91.576 E0.07198
G1 X137.123 Y91.575 E0.01706
G1 X138.732 Y93.184 E0.07201
G1 X138.194 Y93.184 E0.01704
G1 X136.584 Y91.575 E0.07204
G1 X136.045 Y91.574 E0.01706
G1 X137.655 Y93.184 E0.07207
G1 X137.117 Y93.184 E0.01704
G1 X135.506 Y91.573 E0.07210
G1 X134.967 Y91.573 E0.01706
G1 X136.578 Y93.184 E0.07213
G1 X136.040 Y93.184 E0.01704
G1 X134.428 Y91.572 E0.07216
G1 X133.889 Y91.571 E0.01706
G1 X135.502 Y93.184 E0.07219
G1 X134.963 Y93.184 E0.01704
G1 X133.350 Y91.571 E0.07222
G1 X132.811 Y91.570 E0.01706
G1 X134.425 Y93.184 E0.07225
G1 X133.887 Y93.184 E0.01704
G1 X132.272 Y91.569 E0.07227
G1 X131.733 Y91.569 E0.01706
G1 X133.348 Y93.184 E0.07230
G1 X132.810 Y93.184 E0.01704
G1 X131.194 Y91.568 E0.07233
G1 X130.655 Y91.567 E0.01706
G1 X132.272 Y93.184 E0.07236
G1 X131.733 Y93.184 E0.01704
G1 X130.116 Y91.567 E0.07239
G1 X129.577 Y91.566 E0.01706
G1 X131.195 Y93.184 E0.07242
G1 X130.657 Y93.184 E0.01704
G1 X129.038 Y91.565 E0.07245
G1 X128.499 Y91.565 E0.01706
G1 X130.118 Y93.184 E0.07248
G1 X129.580 Y93.184 E0.01704
G1 X127.960 Y91.564 E0.07251
G1 X127.421 Y91.563 E0.01706
G1 X129.042 Y93.184 E0.07254
G1 X128.503 Y93.184 E0.01704
G1 X126.882 Y91.563 E0.07257
G1 X126.343 Y91.562 E0.01706
G1 X127.965 Y93.184 E0.07260
G1 X127.427 Y93.184 E0.01704
G1 X125.804 Y91.561 E0.07263
G1 X125.265 Y91.561 E0.01706
G1 X126.888 Y93.184 E0.07266
G1 X126.350 Y93.184 E0.01704
G1 X124.726 Y91.560 E0.07269
G1 X124.187 Y91.559 E0.01706
G1 X125.812 Y93.184 E0.07272
G1 X125.273 Y93.184 E0.01704
G1 X123.648 Y91.559 E0.07275
G1 X123.109 Y91.558 E0.01706
G1 X124.735 Y93.184 E0.07278
G1 X124.197 Y93.184 E0.01704
G1 X122.570 Y91.557 E0.07281
G1 X122.031 Y91.557 E0.01706
G1 X123.658 Y93.184 E0.07284
G1 X123.120 Y93.184 E0.01704
G1 X121.492 Y91.556 E0.07286
G1 X120.953 Y91.555 E0.01706
G1 X122.582 Y93.184 E0.07289
G1 X122.043 Y93.184 E0.01704
G1 X120.414 Y91.555 E0.07292
G1 X119.875 Y91.554 E0.01706
G1 X121.505 Y93.184 E0.07295
G1 X120.966 Y93.184 E0.01704
G1 X119.336 Y91.554 E0.07298
G1 X118.797 Y91.553 E0.01706
G1 X120.428 Y93.184 E0.07301
G1 X119.890 Y93.184 E0.01704
G1 X118.258 Y91.552 E0.07304
G1 X117.719 Y91.552 E0.01706
G1 X119.351 Y93.184 E0.07307
G1 X118.813 Y93.184 E0.01704
G1 X117.180 Y91.551 E0.07310
G1 X116.641 Y91.550 E0.01706
G1 X118.275 Y93.184 E0.07313
G1 X117.736 Y93.184 E0.01704
G1 X116.102 Y91.550 E0.07316
G1 X115.563 Y91.549 E0.01706
G1 X117.198 Y93.184 E0.07319
G1 X116.660 Y93.184 E0.01704
G1 X115.024 Y91.548 E0.07322
G1 X114.485 Y91.548 E0.01706
G1 X116.121 Y93.184 E0.07325
G1 X115.583 Y93.184 E0.01704
G1 X113.947 Y91.548 E0.07322
G1 X113.410 Y91.549 E0.01701
G1 X115.045 Y93.184 E0.07317
G1 X114.506 Y93.184 E0.01704
G1 X112.873 Y91.550 E0.07313
G1 X112.335 Y91.551 E0.01701
G1 X113.968 Y93.184 E0.07308
G1 X113.430 Y93.184 E0.01704
G1 X111.798 Y91.552 E0.07303
G1 X111.261 Y91.553 E0.01701
G1 X112.891 Y93.184 E0.07299
G1 X112.353 Y93.184 E0.01704
G1 X110.724 Y91.554 E0.07294
G1 X110.186 Y91.555 E0.01701
G1 X111.815 Y93.184 E0.07289
G1 X111.276 Y93.184 E0.01704
G1 X109.649 Y91.557 E0.07285
G1 X109.112 Y91.558 E0.01701
G1 X110.738 Y93.184 E0.07280
G1 X110.200 Y93.184 E0.01704
G1 X108.574 Y91.559 E0.07276
G1 X108.037 Y91.560 E0.01701
G1 X109.661 Y93.184 E0.07271
G1 X109.123 Y93.184 E0.01704
G1 X107.500 Y91.561 E0.07266
G1 X106.962 Y91.562 E0.01701
G1 X108.585 Y93.184 E0.07262
G1 X108.046 Y93.184 E0.01704
G1 X106.425 Y91.563 E0.07257
G1 X105.888 Y91.564 E0.01701
G1 X107.508 Y93.184 E0.07252
G1 X106.970 Y93.184 E0.01704
G1 X105.350 Y91.565 E0.07248
G1 X104.813 Y91.566 E0.01701
G1 X106.431 Y93.184 E0.07243
G1 X105.893 Y93.184 E0.01704
G1 X104.306 Y91.597 E0.07105
G1 X104.196 Y92.026 E0.01401
G1 X105.355 Y93.184 E0.05184
G1 X104.816 Y93.184 E0.01704
G1 X104.087 Y92.455 E0.03264
G1 X103.978 Y92.884 E0.01401
G1 X104.448 Y93.354 E0.02102
G1 E-0.80000 F2100.00000
G1 Z0.800 F10800.000
G1 X138.617 Y107.974
G1 Z0.200
G1 E0.80000 F2100.00000
G1 F1200.000
G1 X128.956 Y98.041 E0.43446
G1 X147.617 Y98.041 E0.58510
G1 X147.753 Y98.582 E0.01749
G1 X138.659 Y107.931 E0.40892
G1 X138.617 Y108.514 F10800.000
G1 F1200.000
G1 X128.063 Y97.664 E0.47461
G1 X147.911 Y97.664 E0.62231
G1 X148.170 Y98.694 E0.03330
G1 X138.659 Y108.471 E0.42767
G1 X138.507 Y108.130 F10800.000
G1 E-0.80000 F2100.00000
G1 Z0.800 F10800.000
G1 X129.826 Y98.773
G1 Z0.200
G1 E0.80000 F2100.00000
G1 F1200.000
G1 X138.619 Y107.566 E0.40061
G1 X138.889 Y107.289 E0.01248
G1 X129.924 Y98.324 E0.40843
G1 X130.472 Y98.324 E0.01765
G1 X139.159 Y107.011 E0.39578
G1 X139.430 Y106.733 E0.01248
G1 X131.020 Y98.324 E0.38313
G1 X131.568 Y98.324 E0.01765
G1 X139.700 Y106.455 E0.37047
G1 X139.970 Y106.178 E0.01248
G1 X132.116 Y98.324 E0.35782
G1 X132.664 Y98.324 E0.01765
G1 X140.240 Y105.900 E0.34516
G1 X140.510 Y105.622 E0.01248
G1 X133.212 Y98.324 E0.33251
G1 X133.760 Y98.324 E0.01765
G1 X140.780 Y105.344 E0.31985
G1 X141.051 Y105.067 E0.01248
G1 X134.308 Y98.324 E0.30720
G1 X134.856 Y98.324 E0.01765
G1 X141.321 Y104.789 E0.29455
G1 X141.591 Y104.511 E0.01248
G1 X135.404 Y98.324 E0.28189
G1 X135.951 Y98.324 E0.01765
G1 X141.861 Y104.233 E0.26924
G1 X142.131 Y103.955 E0.01248
G1 X136.499 Y98.324 E0.25658
G1 X137.047 Y98.324 E0.01765
G1 X142.401 Y103.678 E0.24393
G1 X142.672 Y103.400 E0.01248
G1 X137.595 Y98.324 E0.23127
G1 X138.143 Y98.324 E0.01765
G1 X142.942 Y103.122 E0.21862
G1 X143.212 Y102.844 E0.01248
G1 X138.691 Y98.324 E0.20597
G1 X139.239 Y98.324 E0.01765
G1 X143.482 Y102.567 E0.19331
G1 X143.752 Y102.289 E0.01248
G1 X139.787 Y98.324 E0.18066
G1 X140.335 Y98.324 E0.01765
G1 X144.022 Y102.011 E0.16800
G1 X144.293 Y101.733 E0.01248
G1 X140.883 Y98.324 E0.15535
G1 X141.431 Y98.324 E0.01765
G1 X144.563 Y101.456 E0.14269
G1 X144.833 Y101.178 E0.01248
G1 X141.979 Y98.324 E0.13004
G1 X142.526 Y98.324 E0.01765
G1 X145.103 Y100.900 E0.11739
G1 X145.373 Y100.622 E0.01248
G1 X143.074 Y98.324 E0.10473
G1 X143.622 Y98.324 E0.01765
G1 X145.643 Y100.345 E0.09208
G1 X145.914 Y100.067 E0.01248
G1 X144.170 Y98.324 E0.07942
M73 P5 R21
G1 X144.718 Y98.324 E0.01765
G1 X146.184 Y99.789 E0.06677
G1 X146.454 Y99.511 E0.01248
G1 X145.266 Y98.324 E0.05411
G1 X145.814 Y98.324 E0.01765
G1 X146.724 Y99.234 E0.04146
G1 X146.994 Y98.956 E0.01248
G1 X146.362 Y98.324 E0.02881
G1 X146.910 Y98.324 E0.01765
G1 X147.384 Y98.798 E0.02162
G1 E-0.80000 F2100.00000
G1 Z0.800 F10800.000
G1 X142.573 Y110.467
G1 Z0.200
G1 E0.80000 F2100.00000
G1 F1200.000
G1 X149.061 Y103.797 E0.29174
G1 X150.730 Y110.467 E0.21558
G1 X142.633 Y110.467 E0.25387
G1 X141.681 Y110.844 F10800.000
G1 F1200.000
G1 X149.262 Y103.049 E0.34094
G1 X151.213 Y110.844 E0.25194
G1 X141.741 Y110.844 E0.29701
G1 X141.789 Y111.229 F10800.000
G1 E-0.80000 F2100.00000
G1 Z0.800 F10800.000
G1 X149.259 Y105.054
G1 Z0.200
G1 E0.80000 F2100.00000
G1 F1200.000
G1 X148.739 Y104.534 E0.02371
G1 X148.469 Y104.812 E0.01248
G1 X149.209 Y105.552 E0.03372
G1 X149.392 Y106.283 E0.02427
G1 X148.198 Y105.089 E0.05436
G1 X147.928 Y105.367 E0.01248
G1 X149.574 Y107.013 E0.07501
G1 X149.757 Y107.744 E0.02427
G1 X147.658 Y105.645 E0.09565
G1 X147.388 Y105.923 E0.01248
G1 X149.940 Y108.475 E0.11629
G1 X150.123 Y109.206 E0.02427
G1 X147.118 Y106.200 E0.13693
G1 X146.848 Y106.478 E0.01248
G1 X150.306 Y109.937 E0.15757
G1 X150.368 Y110.184 E0.00821
G1 X150.005 Y110.184 E0.01168
G1 X146.577 Y106.756 E0.15618
G1 X146.307 Y107.034 E0.01248
G1 X149.457 Y110.184 E0.14353
G1 X148.909 Y110.184 E0.01765
G1 X146.037 Y107.311 E0.13087
G1 X145.767 Y107.589 E0.01248
G1 X148.361 Y110.184 E0.11822
G1 X147.814 Y110.184 E0.01765
G1 X145.497 Y107.867 E0.10556
G1 X145.226 Y108.145 E0.01248
G1 X147.266 Y110.184 E0.09291
G1 X146.718 Y110.184 E0.01765
G1 X144.956 Y108.423 E0.08025
G1 X144.686 Y108.700 E0.01248
G1 X146.170 Y110.184 E0.06760
G1 X145.622 Y110.184 E0.01765
G1 X144.416 Y108.978 E0.05494
G1 X144.146 Y109.256 E0.01248
G1 X145.074 Y110.184 E0.04228
G1 X144.526 Y110.184 E0.01765
G1 X143.876 Y109.534 E0.02963
G1 X143.605 Y109.811 E0.01248
G1 X143.978 Y110.184 E0.01697
G1 X143.430 Y110.184 E0.01765
G1 X143.215 Y109.969 E0.00978
G1 E-0.80000 F2100.00000
G1 Z0.800 F10800.000
G1 X124.966 Y118.731
G1 Z0.200
G1 E0.80000 F2100.00000
G1 F1200.000
G1 X113.031 Y118.735 E0.37420
G1 X98.242 Y118.715 E0.46371
G1 X97.251 Y118.695 E0.03108
G1 X98.133 Y115.041 E0.11787
G1 X151.869 Y115.041 E1.68484
G1 X152.753 Y118.687 E0.11763
G1 X151.988 Y118.706 E0.02397
G1 X148.668 Y118.721 E0.10411
G1 X125.026 Y118.731 E0.74128
G1 X124.963 Y119.108 F10800.000
G1 F1200.000
G1 X98.238 Y119.092 E0.83794
G1 X96.782 Y119.063 E0.04565
G1 X97.837 Y114.664 E0.14184
G1 X152.165 Y114.664 E1.70343
G1 X153.092 Y118.465 E0.12267
G1 X153.212 Y119.053 E0.01882
G1 X151.994 Y119.083 E0.03821
G1 X148.669 Y119.099 E0.10426
G1 X125.023 Y119.108 E0.74141
G1 X124.763 Y118.761 F10800.000
G1 E-0.80000 F2100.00000
G1 Z0.800 F10800.000
G1 X152.029 Y116.173
G1 Z0.200
G1 E0.80000 F2100.00000
G1 F1200.000
G1 X151.179 Y115.324 E0.03786
G1 X150.643 Y115.324 E0.01689
G1 X151.971 Y116.651 E0.05916
G1 X152.143 Y117.360 E0.02300
G1 X150.107 Y115.324 E0.09076
G1 X149.571 Y115.324 E0.01689
G1 X152.316 Y118.069 E0.12236
G1 X152.400 Y118.413 E0.01117
G1 X152.131 Y118.420 E0.00848
G1 X149.035 Y115.324 E0.13801
G1 X148.499 Y115.324 E0.01689
G1 X151.601 Y118.425 E0.13825
G1 X151.067 Y118.428 E0.01682
G1 X147.963 Y115.324 E0.13836
G1 X147.427 Y115.324 E0.01689
G1 X150.534 Y118.430 E0.13847
G1 X150.000 Y118.433 E0.01682
G1 X146.891 Y115.324 E0.13857
G1 X146.355 Y115.324 E0.01689
G1 X149.466 Y118.435 E0.13868
G1 X148.933 Y118.437 E0.01682
G1 X145.819 Y115.324 E0.13879
G1 X145.283 Y115.324 E0.01689
G1 X148.398 Y118.439 E0.13885
G1 X147.862 Y118.439 E0.01689
G1 X144.747 Y115.324 E0.13886
G1 X144.211 Y115.324 E0.01689
G1 X147.326 Y118.439 E0.13887
G1 X146.790 Y118.439 E0.01689
G1 X143.675 Y115.324 E0.13888
G1 X143.139 Y115.324 E0.01689
G1 X146.255 Y118.440 E0.13889
G1 X145.719 Y118.440 E0.01689
G1 X142.603 Y115.324 E0.13890
G1 X142.067 Y115.324 E0.01689
G1 X145.183 Y118.440 E0.13890
G1 X144.647 Y118.440 E0.01689
G1 X141.531 Y115.324 E0.13891
G1 X140.994 Y115.324 E0.01689
G1 X144.111 Y118.440 E0.13892
G1 X143.575 Y118.441 E0.01689
G1 X140.458 Y115.324 E0.13893
G1 X139.922 Y115.324 E0.01689
G1 X143.040 Y118.441 E0.13894
G1 X142.504 Y118.441 E0.01689
G1 X139.386 Y115.324 E0.13895
G1 X138.850 Y115.324 E0.01689
G1 X141.968 Y118.441 E0.13896
G1 X141.432 Y118.442 E0.01689
G1 X138.314 Y115.324 E0.13897
G1 X137.778 Y115.324 E0.01689
G1 X140.896 Y118.442 E0.13898
G1 X140.360 Y118.442 E0.01689
G1 X137.242 Y115.324 E0.13899
G1 X136.706 Y115.324 E0.01689
G1 X139.825 Y118.442 E0.13900
G1 X139.289 Y118.442 E0.01689
G1 X136.170 Y115.324 E0.13901
G1 X135.634 Y115.324 E0.01689
G1 X138.753 Y118.443 E0.13902
G1 X138.217 Y118.443 E0.01689
G1 X135.098 Y115.324 E0.13903
G1 X134.562 Y115.324 E0.01689
G1 X137.681 Y118.443 E0.13904
G1 X137.145 Y118.443 E0.01689
G1 X134.026 Y115.324 E0.13905
G1 X133.490 Y115.324 E0.01689
G1 X136.610 Y118.443 E0.13905
G1 X136.074 Y118.444 E0.01689
G1 X132.954 Y115.324 E0.13906
G1 X132.418 Y115.324 E0.01689
G1 X135.538 Y118.444 E0.13907
G1 X135.002 Y118.444 E0.01689
G1 X131.882 Y115.324 E0.13908
G1 X131.346 Y115.324 E0.01689
G1 X134.466 Y118.444 E0.13909
G1 X133.930 Y118.444 E0.01689
G1 X130.810 Y115.324 E0.13910
G1 X130.274 Y115.324 E0.01689
G1 X133.395 Y118.445 E0.13911
G1 X132.859 Y118.445 E0.01689
G1 X129.737 Y115.324 E0.13912
G1 X129.201 Y115.324 E0.01689
G1 X132.323 Y118.445 E0.13913
G1 X131.787 Y118.445 E0.01689
G1 X128.665 Y115.324 E0.13914
G1 X128.129 Y115.324 E0.01689
G1 X131.251 Y118.445 E0.13915
G1 X130.715 Y118.446 E0.01689
G1 X127.593 Y115.324 E0.13916
G1 X127.057 Y115.324 E0.01689
G1 X130.179 Y118.446 E0.13917
G1 X129.644 Y118.446 E0.01689
G1 X126.521 Y115.324 E0.13918
G1 X125.985 Y115.324 E0.01689
G1 X129.108 Y118.446 E0.13919
G1 X128.572 Y118.447 E0.01689
G1 X125.449 Y115.324 E0.13919
G1 X124.913 Y115.324 E0.01689
G1 X128.036 Y118.447 E0.13920
