; generated by PrusaSlicer 2.2.0+win64 on 2020-11-04 at 22:03:09 UTC

; 

; external perimeters extrusion width = 0.45mm
; perimeters extrusion width = 0.45mm
; infill extrusion width = 0.45mm
; solid infill extrusion width = 0.45mm
; top infill extrusion width = 0.40mm
; support material extrusion width = 0.35mm
; first layer extrusion width = 0.42mm

M73 P0 R33
M201 X9000 Y9000 Z500 E10000 ; sets maximum accelerations, mm/sec^2
M203 X500 Y500 Z12 E120 ; sets maximum feedrates, mm/sec
M204 P2000 R1500 T2000 ; sets acceleration (P, T) and retract acceleration (R), mm/sec^2
M205 X10.00 Y10.00 Z0.20 E2.50 ; sets the jerk limits, mm/sec
M205 S0 T0 ; sets the minimum extruding and travel feed rate, mm/sec
M107
M862.3 P "MK2.5SMMU2S" ; printer model check
M862.1 P0.4 ; nozzle diameter check
M115 U3.8.0 ; tell printer latest fw version
G90 ; use absolute coordinates
M83 ; extruder relative mode
M104 S215 ; set extruder temp
M140 S60 ; set bed temp
Tx
M190 S60 ; wait for bed temp
M109 S215 ; wait for extruder temp
G28 W ; home all without mesh bed level
G80 ; mesh bed leveling

G21 ; set units to millimeters

;go outside print area
G1 Y-3.0 F1000.0
G1 Z0.4 F1000.0
; select extruder
Tc
; purge line
G1 X55.0 F2000.0
G1 Z0.3 F1000.0
G92 E0.0
G1 X240.0 E25.0 F2200.0
M73 P0 R33
G1 Y-2.0 F1000.0
G1 X55.0 E25 F1400.0
G1 Z0.20 F1000.0
G1 X5.0 E4.0 F1000.0
G92 E0.0
G21 ; set units to millimeters
G90 ; use absolute coordinates
M83 ; use relative distances for extrusion
M900 K30 ; Filament gcode
;BEFORE_LAYER_CHANGE
G92 E0.0
;0.2


G1 E-0.80000 F2100.00000
G1 Z0.600 F10800.000
;AFTER_LAYER_CHANGE
;0.2
G1 X115.301 Y68.972
G1 Z0.200
G1 E0.80000 F2100.00000
M204 S1000
G1 F1200.000
G1 X116.968 Y68.767 E0.05268
G1 X133.007 Y68.767 E0.50289
G1 X134.334 Y68.893 E0.04176
G1 X135.409 Y69.186 E0.03494
G1 X136.619 Y69.755 E0.04192
G1 X137.557 Y70.417 E0.03601
G1 X138.499 Y71.365 E0.04192
G1 X139.248 Y72.477 E0.04204
G1 X139.713 Y73.524 E0.03590
G1 X140.033 Y74.806 E0.04144
G1 X144.316 Y106.489 E1.00243
G1 X144.733 Y110.304 E0.12033
G1 X144.738 Y136.585 E0.82403
G1 X144.488 Y140.201 E0.11363
G1 X144.251 Y140.805 E0.02036
G1 X143.860 Y141.323 E0.02036
G1 X137.853 Y147.328 E0.26631
G1 X137.372 Y147.675 E0.01858
G1 X136.817 Y147.893 E0.01870
G1 X136.279 Y147.966 E0.01704
G1 X130.017 Y148.031 E0.19635
G1 X114.533 Y148.030 E0.48548
G1 X113.990 Y147.965 E0.01716
G1 X113.415 Y147.745 E0.01929
G1 X112.919 Y147.388 E0.01917
G1 X107.124 Y141.535 E0.25825
G1 X106.882 Y141.078 E0.01621
G1 X106.743 Y140.576 E0.01633
G1 X106.346 Y136.694 E0.12235
G1 X106.312 Y113.925 E0.71390
G1 X106.344 Y110.398 E0.11058
G1 X106.500 Y107.212 E0.10004
G1 X109.922 Y75.157 E1.01076
G1 X110.093 Y74.173 E0.03132
G1 X110.407 Y73.207 E0.03185
G1 X110.752 Y72.476 E0.02534
G1 X111.291 Y71.633 E0.03137
G1 X111.970 Y70.847 E0.03256
G1 X112.754 Y70.171 E0.03244
G1 X113.597 Y69.632 E0.03137
G1 X114.327 Y69.287 E0.02534
G1 X115.244 Y68.990 E0.03020
G1 E-0.80000 F2100.00000
G1 Z0.800 F10800.000
G1 X116.996 Y96.950
G1 Z0.200
G1 E0.80000 F2100.00000
G1 F1200.000
G1 X116.394 Y96.890 E0.01899
G1 X115.814 Y96.714 E0.01899
G1 X115.280 Y96.429 E0.01899
G1 X114.811 Y96.045 E0.01899
G1 X114.427 Y95.576 E0.01899
G1 X114.142 Y95.042 E0.01899
G1 X113.966 Y94.463 E0.01899
G1 X113.906 Y93.860 E0.01899
G1 X113.966 Y93.257 E0.01899
G1 X114.142 Y92.677 E0.01899
G1 X114.427 Y92.143 E0.01899
G1 X114.811 Y91.675 E0.01899
G1 X115.280 Y91.291 E0.01899
G1 X115.819 Y91.003 E0.01916
G1 X116.447 Y90.824 E0.02050
G1 X116.996 Y90.770 E0.01729
G1 X117.599 Y90.829 E0.01899
G1 X118.179 Y91.005 E0.01899
G1 X118.713 Y91.291 E0.01899
G1 X119.181 Y91.675 E0.01899
G1 X119.565 Y92.143 E0.01899
G1 X119.851 Y92.677 E0.01899
G1 X120.027 Y93.257 E0.01899
G1 X120.086 Y93.860 E0.01899
G1 X120.027 Y94.463 E0.01899
G1 X119.851 Y95.042 E0.01899
G1 X119.565 Y95.576 E0.01899
G1 X119.181 Y96.045 E0.01899
G1 X118.713 Y96.429 E0.01899
G1 X118.179 Y96.714 E0.01899
G1 X117.599 Y96.890 E0.01899
G1 X117.056 Y96.944 E0.01711
G1 X116.996 Y96.571 F10800.000
G1 F1200.000
G1 X116.467 Y96.519 E0.01666
G1 X115.959 Y96.364 E0.01666
G1 X115.490 Y96.114 E0.01666
G1 X115.079 Y95.777 E0.01666
G1 X114.742 Y95.366 E0.01666
G1 X114.492 Y94.897 E0.01666
G1 X114.337 Y94.389 E0.01666
G1 X114.285 Y93.860 E0.01666
G1 X114.337 Y93.331 E0.01666
G1 X114.492 Y92.822 E0.01666
G1 X114.742 Y92.354 E0.01666
G1 X115.079 Y91.943 E0.01666
G1 X115.490 Y91.606 E0.01666
G1 X115.961 Y91.354 E0.01672
G1 X116.518 Y91.196 E0.01817
G1 X116.996 Y91.149 E0.01507
G1 X117.525 Y91.201 E0.01666
G1 X118.034 Y91.355 E0.01666
G1 X118.502 Y91.606 E0.01666
G1 X118.913 Y91.943 E0.01666
G1 X119.250 Y92.354 E0.01666
G1 X119.501 Y92.822 E0.01666
G1 X119.655 Y93.331 E0.01666
G1 X119.707 Y93.860 E0.01666
G1 X119.655 Y94.389 E0.01666
G1 X119.501 Y94.897 E0.01666
G1 X119.250 Y95.366 E0.01666
G1 X118.913 Y95.777 E0.01666
G1 X118.502 Y96.114 E0.01666
G1 X118.034 Y96.364 E0.01666
G1 X117.525 Y96.519 E0.01666
G1 X117.056 Y96.565 E0.01478
G1 X116.796 Y96.917 F10800.000
G1 X116.996 Y98.276
G1 F1200.000
G1 X112.580 Y98.276 E0.13848
G1 X112.580 Y88.917 E0.29342
G1 X114.607 Y79.220 E0.31063
G1 X114.196 Y78.933 E0.01571
G1 X113.930 Y78.666 E0.01182
G1 X113.550 Y78.180 E0.01935
G1 X113.246 Y77.643 E0.01935
G1 X113.096 Y77.280 E0.01230
G1 X112.931 Y76.686 E0.01936
G1 X112.856 Y76.085 E0.01899
G1 X112.856 Y75.680 E0.01267
G1 X112.931 Y75.069 E0.01933
G1 X113.096 Y74.474 E0.01935
G1 X113.249 Y74.105 E0.01253
G1 X113.440 Y73.746 E0.01276
G1 X113.667 Y73.408 E0.01276
G1 X113.920 Y73.099 E0.01253
G1 X114.372 Y72.668 E0.01957
G1 X114.693 Y72.430 E0.01254
G1 X115.026 Y72.230 E0.01217
G1 X115.607 Y71.972 E0.01995
G1 X115.989 Y71.856 E0.01251
G1 X116.388 Y71.776 E0.01276
G1 X116.793 Y71.736 E0.01276
G1 X117.181 Y71.736 E0.01217
G1 X117.813 Y71.813 E0.01995
G1 X118.200 Y71.910 E0.01251
G1 X118.576 Y72.045 E0.01253
G1 X119.134 Y72.325 E0.01957
G1 X119.466 Y72.547 E0.01253
G1 X119.775 Y72.801 E0.01253
G1 X120.205 Y73.253 E0.01957
G1 X120.443 Y73.574 E0.01253
G1 X120.652 Y73.923 E0.01276
G1 X120.826 Y74.291 E0.01276
G1 X120.961 Y74.667 E0.01253
G1 X121.096 Y75.269 E0.01935
G1 X121.142 Y75.884 E0.01935
G1 X121.122 Y76.284 E0.01253
G1 X121.063 Y76.679 E0.01253
G1 X120.897 Y77.280 E0.01957
G1 X120.747 Y77.643 E0.01230
G1 X120.443 Y78.180 E0.01935
G1 X120.063 Y78.666 E0.01935
G1 X119.796 Y78.933 E0.01182
G1 X119.386 Y79.220 E0.01571
G1 X121.413 Y88.917 E0.31063
G1 X121.413 Y98.276 E0.29342
G1 X117.056 Y98.276 E0.13660
G1 X116.996 Y98.653 F10800.000
G1 F1200.000
G1 X112.203 Y98.653 E0.15030
G1 X112.203 Y88.878 E0.30647
G1 X114.187 Y79.386 E0.30405
G1 X113.953 Y79.223 E0.00894
G1 X113.647 Y78.917 E0.01358
G1 X113.236 Y78.390 E0.02095
G1 X112.906 Y77.809 E0.02095
G1 X112.739 Y77.403 E0.01376
G1 X112.560 Y76.759 E0.02095
G1 X112.479 Y76.108 E0.02057
G1 X112.479 Y75.658 E0.01413
G1 X112.560 Y74.995 E0.02094
G1 X112.739 Y74.351 E0.02095
G1 X112.907 Y73.943 E0.01384
G1 X113.117 Y73.552 E0.01392
G1 X113.363 Y73.183 E0.01392
G1 X113.643 Y72.842 E0.01384
G1 X114.129 Y72.379 E0.02103
G1 X114.483 Y72.116 E0.01384
G1 X114.852 Y71.895 E0.01346
G1 X115.475 Y71.618 E0.02140
G1 X115.897 Y71.490 E0.01383
G1 X116.333 Y71.403 E0.01392
G1 X116.774 Y71.359 E0.01392
G1 X117.204 Y71.359 E0.01346
G1 X117.881 Y71.442 E0.02140
G1 X118.309 Y71.549 E0.01383
G1 X118.725 Y71.697 E0.01384
G1 X119.324 Y71.999 E0.02103
G1 X119.691 Y72.244 E0.01384
G1 X120.032 Y72.524 E0.01384
G1 X120.494 Y73.010 E0.02103
G1 X120.757 Y73.364 E0.01384
G1 X120.985 Y73.745 E0.01392
G1 X121.175 Y74.146 E0.01392
G1 X121.324 Y74.562 E0.01384
G1 X121.470 Y75.214 E0.02095
G1 X121.519 Y75.880 E0.02095
G1 X121.498 Y76.321 E0.01384
G1 X121.433 Y76.757 E0.01384
G1 X121.254 Y77.403 E0.02103
G1 X121.086 Y77.809 E0.01376
G1 X120.757 Y78.390 E0.02095
G1 X120.346 Y78.917 E0.02095
G1 X120.040 Y79.223 E0.01358
G1 X119.806 Y79.386 E0.00894
G1 X121.790 Y88.878 E0.30405
G1 X121.790 Y98.653 E0.30647
G1 X117.056 Y98.653 E0.14842
G1 X116.684 Y98.403 F10800.000
G1 X116.159 Y98.163
G1 F1200.000
G1 X112.863 Y94.866 E0.14780
G1 X112.863 Y95.405 E0.01709
G1 X115.451 Y97.993 E0.11602
G1 X114.912 Y97.993 E0.01709
G1 X112.863 Y95.944 E0.09185
G1 X112.863 Y96.483 E0.01709
G1 X114.372 Y97.993 E0.06768
G1 X113.833 Y97.993 E0.01709
G1 X112.863 Y97.022 E0.04352
G1 X112.863 Y97.561 E0.01709
G1 X113.464 Y98.163 E0.02695
G1 E-0.80000 F2100.00000
G1 Z0.800 F10800.000
G1 X121.300 Y94.138
G1 Z0.200
G1 E0.80000 F2100.00000
G1 F1200.000
G1 X120.280 Y93.118 E0.04570
G1 X120.306 Y93.201 E0.00276
G1 X120.358 Y93.735 E0.01700
G1 X121.130 Y94.507 E0.03461
G1 X121.130 Y95.046 E0.01709
G1 X120.332 Y94.248 E0.03577
G1 X120.306 Y94.518 E0.00859
G1 X120.249 Y94.704 E0.00617
G1 X121.130 Y95.585 E0.03950
G1 X121.130 Y96.125 E0.01709
G1 X120.124 Y95.118 E0.04512
G1 X119.941 Y95.474 E0.01269
G1 X121.130 Y96.664 E0.05332
G1 X121.130 Y97.203 E0.01709
G1 X119.739 Y95.811 E0.06238
G1 X119.496 Y96.107 E0.01214
G1 X121.130 Y97.742 E0.07328
G1 X121.130 Y97.993 E0.00795
G1 X120.842 Y97.993 E0.00913
G1 X119.224 Y96.375 E0.07252
G1 X118.928 Y96.618 E0.01214
G1 X120.303 Y97.993 E0.06163
G1 X119.764 Y97.993 E0.01709
G1 X118.587 Y96.817 E0.05273
G1 X118.227 Y96.995 E0.01275
G1 X119.225 Y97.993 E0.04472
G1 X118.685 Y97.993 E0.01709
G1 X117.813 Y97.121 E0.03909
G1 X117.655 Y97.169 E0.00526
G1 X117.352 Y97.199 E0.00963
G1 X118.146 Y97.993 E0.03560
G1 X117.607 Y97.993 E0.01709
G1 X116.832 Y97.218 E0.03475
G1 X116.338 Y97.169 E0.01573
G1 X116.203 Y97.128 E0.00447
G1 X117.068 Y97.993 E0.03877
G1 X116.529 Y97.993 E0.01709
G1 X112.863 Y94.326 E0.16436
G1 X112.863 Y93.787 E0.01709
G1 X113.728 Y94.653 E0.03880
G1 X113.687 Y94.518 E0.00447
G1 X113.638 Y94.024 E0.01573
G1 X112.863 Y93.248 E0.03478
G1 X112.863 Y92.709 E0.01709
G1 X113.657 Y93.504 E0.03563
G1 X113.687 Y93.201 E0.00963
G1 X113.735 Y93.043 E0.00526
G1 X112.863 Y92.170 E0.03912
G1 X112.863 Y91.631 E0.01709
G1 X113.861 Y92.629 E0.04475
G1 X114.039 Y92.269 E0.01275
G1 X112.863 Y91.092 E0.05276
G1 X112.863 Y90.553 E0.01709
G1 X114.238 Y91.928 E0.06165
G1 X114.481 Y91.632 E0.01214
G1 X112.863 Y90.013 E0.07255
G1 X112.863 Y89.474 E0.01709
G1 X114.749 Y91.360 E0.08455
G1 X115.045 Y91.117 E0.01214
G1 X112.865 Y88.937 E0.09774
G1 X112.958 Y88.491 E0.01444
G1 X115.382 Y90.915 E0.10867
G1 X115.737 Y90.732 E0.01268
G1 X113.051 Y88.045 E0.12042
G1 X113.144 Y87.599 E0.01444
G1 X116.157 Y90.612 E0.13507
G1 X116.394 Y90.545 E0.00782
G1 X116.608 Y90.524 E0.00679
G1 X113.237 Y87.153 E0.15109
G1 X113.331 Y86.708 E0.01444
G1 X117.121 Y90.498 E0.16992
G1 X117.655 Y90.550 E0.01700
G1 X117.738 Y90.576 E0.00276
G1 X113.424 Y86.262 E0.19340
G1 X113.517 Y85.816 E0.01444
G1 X121.130 Y93.429 E0.34129
G1 X121.130 Y92.890 E0.01709
G1 X113.610 Y85.370 E0.33711
G1 X113.703 Y84.924 E0.01444
G1 X121.130 Y92.351 E0.33293
G1 X121.130 Y91.811 E0.01709
G1 X113.797 Y84.478 E0.32875
G1 X113.890 Y84.032 E0.01444
G1 X121.130 Y91.272 E0.32458
G1 X121.130 Y90.733 E0.01709
G1 X113.983 Y83.586 E0.32040
G1 X114.076 Y83.140 E0.01444
G1 X121.130 Y90.194 E0.31622
G1 X121.130 Y89.655 E0.01709
G1 X114.169 Y82.694 E0.31204
G1 X114.263 Y82.248 E0.01444
G1 X121.130 Y89.116 E0.30786
G1 X121.130 Y88.947 E0.00536
G1 X121.032 Y88.479 E0.01515
G1 X114.356 Y81.802 E0.29930
G1 X114.449 Y81.356 E0.01444
G1 X120.890 Y87.797 E0.28874
G1 X120.747 Y87.116 E0.02207
G1 X114.542 Y80.911 E0.27817
G1 X114.635 Y80.465 E0.01444
G1 X120.605 Y86.434 E0.26761
G1 X120.462 Y85.753 E0.02207
G1 X114.729 Y80.019 E0.25704
G1 X114.822 Y79.573 E0.01444
G1 X120.539 Y85.290 E0.25630
G1 E-0.80000 F2100.00000
G1 Z0.800 F10800.000
G1 X113.324 Y77.536
G1 Z0.200
G1 E0.80000 F2100.00000
G1 F1200.000
G1 X120.178 Y84.389 E0.30724
G1 X120.035 Y83.708 E0.02207
G1 X113.306 Y76.978 E0.30168
G1 X113.209 Y76.630 E0.01145
G1 X113.168 Y76.302 E0.01048
G1 X119.893 Y83.026 E0.30144
G1 X119.750 Y82.345 E0.02207
G1 X113.139 Y75.733 E0.29639
G1 X113.139 Y75.698 E0.00112
G1 X113.194 Y75.249 E0.01432
G1 X119.608 Y81.663 E0.28752
G1 X119.465 Y80.981 E0.02207
G1 X113.296 Y74.812 E0.27657
G1 X113.364 Y74.566 E0.00808
G1 X113.430 Y74.407 E0.00547
G1 X119.323 Y80.300 E0.26418
G1 X119.180 Y79.618 E0.02207
G1 X113.603 Y74.041 E0.25001
G1 X113.807 Y73.706 E0.01244
G1 X119.145 Y79.044 E0.23928
G1 X119.462 Y78.822 E0.01227
G1 X114.039 Y73.399 E0.24309
G1 X114.304 Y73.124 E0.01209
G1 X119.754 Y78.575 E0.24436
G1 X120.003 Y78.284 E0.01212
G1 X114.583 Y72.864 E0.24297
G1 X114.896 Y72.638 E0.01224
G1 X120.233 Y77.976 E0.23927
G1 X120.428 Y77.631 E0.01254
G1 X115.241 Y72.444 E0.23254
G1 X115.614 Y72.278 E0.01294
G1 X120.598 Y77.262 E0.22344
G1 X120.723 Y76.848 E0.01372
G1 X116.018 Y72.143 E0.21094
G1 X116.467 Y72.053 E0.01452
G1 X120.818 Y76.404 E0.19506
G1 X120.858 Y75.904 E0.01589
G1 X116.973 Y72.019 E0.17416
G1 X117.164 Y72.019 E0.00607
G1 X117.560 Y72.067 E0.01263
G1 X120.817 Y75.324 E0.14601
G1 X120.689 Y74.746 E0.01877
G1 X120.640 Y74.608 E0.00465
G1 X118.266 Y72.234 E0.10642
G1 X118.464 Y72.305 E0.00669
G1 X118.991 Y72.570 E0.01869
G1 X119.297 Y72.775 E0.01168
G1 X119.567 Y72.996 E0.01106
G1 X120.557 Y73.987 E0.04440
G1 E-0.80000 F2100.00000
G1 Z0.800 F10800.000
G1 X133.004 Y96.950
G1 Z0.200
G1 E0.80000 F2100.00000
G1 F1200.000
G1 X132.401 Y96.890 E0.01899
G1 X131.821 Y96.714 E0.01899
G1 X131.287 Y96.429 E0.01899
G1 X130.819 Y96.045 E0.01899
G1 X130.435 Y95.576 E0.01899
G1 X130.149 Y95.042 E0.01899
G1 X129.973 Y94.463 E0.01899
G1 X129.914 Y93.860 E0.01899
G1 X129.973 Y93.257 E0.01899
G1 X130.149 Y92.677 E0.01899
G1 X130.434 Y92.143 E0.01899
G1 X130.819 Y91.675 E0.01899
G1 X131.287 Y91.291 E0.01899
G1 X131.826 Y91.003 E0.01916
G1 X132.455 Y90.824 E0.02050
G1 X133.004 Y90.770 E0.01729
G1 X133.606 Y90.829 E0.01899
G1 X134.186 Y91.005 E0.01899
G1 X134.720 Y91.291 E0.01899
G1 X135.189 Y91.675 E0.01899
G1 X135.573 Y92.143 E0.01899
G1 X135.858 Y92.677 E0.01899
G1 X136.034 Y93.257 E0.01899
G1 X136.094 Y93.860 E0.01899
G1 X136.034 Y94.463 E0.01899
G1 X135.858 Y95.042 E0.01899
G1 X135.573 Y95.576 E0.01899
G1 X135.189 Y96.045 E0.01899
G1 X134.720 Y96.429 E0.01899
G1 X134.186 Y96.714 E0.01899
G1 X133.606 Y96.890 E0.01899
G1 X133.063 Y96.944 E0.01711
G1 X133.004 Y96.571 F10800.000
G1 F1200.000
G1 X132.475 Y96.519 E0.01666
G1 X131.966 Y96.364 E0.01666
G1 X131.498 Y96.114 E0.01666
G1 X131.087 Y95.777 E0.01666
G1 X130.750 Y95.366 E0.01666
G1 X130.499 Y94.897 E0.01666
G1 X130.345 Y94.389 E0.01666
G1 X130.293 Y93.860 E0.01666
G1 X130.345 Y93.331 E0.01666
G1 X130.499 Y92.822 E0.01666
G1 X130.750 Y92.354 E0.01666
G1 X131.087 Y91.943 E0.01666
G1 X131.498 Y91.606 E0.01666
G1 X131.968 Y91.354 E0.01672
G1 X132.525 Y91.196 E0.01817
G1 X133.004 Y91.149 E0.01507
G1 X133.533 Y91.201 E0.01666
G1 X134.041 Y91.355 E0.01666
G1 X134.510 Y91.606 E0.01666
G1 X134.921 Y91.943 E0.01666
G1 X135.258 Y92.354 E0.01666
G1 X135.508 Y92.822 E0.01666
G1 X135.663 Y93.331 E0.01666
G1 X135.715 Y93.860 E0.01666
G1 X135.663 Y94.389 E0.01666
G1 X135.508 Y94.897 E0.01666
G1 X135.258 Y95.366 E0.01666
G1 X134.921 Y95.777 E0.01666
G1 X134.510 Y96.114 E0.01666
G1 X134.041 Y96.364 E0.01666
G1 X133.533 Y96.519 E0.01666
G1 X133.063 Y96.565 E0.01478
G1 X132.804 Y96.917 F10800.000
G1 X133.004 Y98.276
G1 F1200.000
G1 X128.587 Y98.276 E0.13848
G1 X128.587 Y88.917 E0.29342
G1 X130.614 Y79.220 E0.31063
G1 X130.204 Y78.933 E0.01571
G1 X129.937 Y78.666 E0.01182
G1 X129.557 Y78.180 E0.01935
G1 X129.253 Y77.643 E0.01935
G1 X129.103 Y77.280 E0.01230
G1 X128.938 Y76.686 E0.01936
G1 X128.864 Y76.085 E0.01899
G1 X128.863 Y75.680 E0.01267
G1 X128.939 Y75.069 E0.01933
G1 X129.103 Y74.474 E0.01935
G1 X129.256 Y74.105 E0.01253
G1 X129.448 Y73.746 E0.01276
G1 X129.674 Y73.408 E0.01276
G1 X129.927 Y73.099 E0.01253
G1 X130.380 Y72.668 E0.01957
G1 X130.701 Y72.430 E0.01254
G1 X131.033 Y72.230 E0.01217
G1 X131.614 Y71.972 E0.01995
G1 X131.996 Y71.856 E0.01251
G1 X132.395 Y71.776 E0.01276
G1 X132.800 Y71.736 E0.01276
G1 X133.188 Y71.736 E0.01217
G1 X133.820 Y71.813 E0.01995
G1 X134.207 Y71.910 E0.01251
G1 X134.583 Y72.045 E0.01253
G1 X135.141 Y72.325 E0.01957
G1 X135.473 Y72.547 E0.01253
G1 X135.782 Y72.801 E0.01253
G1 X136.213 Y73.253 E0.01957
