; generated by PrusaSlicer 2.2.0+win64 on 2020-11-04 at 22:03:30 UTC

; 

; external perimeters extrusion width = 0.45mm
; perimeters extrusion width = 0.45mm
; infill extrusion width = 0.45mm
; solid infill extrusion width = 0.45mm
; top infill extrusion width = 0.40mm
; support material extrusion width = 0.35mm
; first layer extrusion width = 0.42mm

M73 P0 R117
M201 X9000 Y9000 Z500 E10000 ; sets maximum accelerations, mm/sec^2
M203 X500 Y500 Z12 E120 ; sets maximum feedrates, mm/sec
M204 P2000 R1500 T2000 ; sets acceleration (P, T) and retract acceleration (R), mm/sec^2
M205 X10.00 Y10.00 Z0.20 E2.50 ; sets the jerk limits, mm/sec
M205 S0 T0 ; sets the minimum extruding and travel feed rate, mm/sec
M107
M862.3 P "MK2.5SMMU2S" ; printer model check
M862.1 P0.4 ; nozzle diameter check
M115 U3.8.0 ; tell printer latest fw version
G90 ; use absolute coordinates
M83 ; extruder relative mode
M104 S215 ; set extruder temp
M140 S60 ; set bed temp
Tx
M190 S60 ; wait for bed temp
M109 S215 ; wait for extruder temp
G28 W ; home all without mesh bed level
G80 ; mesh bed leveling

G21 ; set units to millimeters

;go outside print area
G1 Y-3.0 F1000.0
G1 Z0.4 F1000.0
; select extruder
Tc
; purge line
G1 X55.0 F2000.0
G1 Z0.3 F1000.0
G92 E0.0
G1 X240.0 E25.0 F2200.0
M73 P0 R117
G1 Y-2.0 F1000.0
G1 X55.0 E25 F1400.0
G1 Z0.20 F1000.0
G1 X5.0 E4.0 F1000.0
G92 E0.0
G21 ; set units to millimeters
G90 ; use absolute coordinates
M83 ; use relative distances for extrusion
M900 K30 ; Filament gcode
;BEFORE_LAYER_CHANGE
G92 E0.0
;0.2


G1 E-0.80000 F2100.00000
G1 Z0.600 F10800.000
;AFTER_LAYER_CHANGE
;0.2
G1 X125.629 Y42.025
G1 Z0.200
G1 E0.80000 F2100.00000
M204 S1000
G1 F1200.000
G1 X172.488 Y41.981 E1.46923
G1 X173.393 Y42.162 E0.02896
G1 X174.162 Y42.674 E0.02896
G1 X182.658 Y51.414 E0.38219
G1 X183.059 Y52.023 E0.02284
G1 X183.256 Y52.720 E0.02272
G1 X183.675 Y56.659 E0.12420
G1 X183.676 Y122.827 E2.07466
G1 X183.466 Y126.244 E0.10735
G1 X183.309 Y126.812 E0.01846
G1 X183.014 Y127.326 E0.01858
G1 X176.480 Y133.826 E0.28899
G1 X132.326 Y160.954 E1.62484
G1 X131.749 Y161.209 E0.01977
G1 X131.099 Y161.304 E0.02060
G1 X120.747 Y161.281 E0.32459
G1 X88.621 Y155.474 E1.02362
G1 X88.102 Y155.312 E0.01704
G1 X87.636 Y155.040 E0.01692
G1 X87.227 Y154.648 E0.01775
G1 X86.922 Y154.171 E0.01775
G1 X70.827 Y120.198 E1.17869
G1 X70.678 Y119.401 E0.02543
G1 X70.678 Y109.345 E0.31532
G1 X70.956 Y96.048 E0.41700
G1 X71.084 Y95.002 E0.03304
G1 X71.356 Y94.011 E0.03221
G1 X87.643 Y59.567 E1.19462
G1 X88.363 Y58.369 E0.04384
G1 X89.006 Y57.621 E0.03090
G1 X89.596 Y57.087 E0.02498
G1 X90.410 Y56.517 E0.03114
G1 X91.302 Y56.065 E0.03137
G1 X125.573 Y42.047 E1.16096
G1 E-0.80000 F2100.00000
G1 Z0.800 F10800.000
G1 X126.081 Y150.834
G1 Z0.200
G1 E0.80000 F2100.00000
G1 F1200.000
G1 X126.684 Y150.894 E0.01899
G1 X127.263 Y151.069 E0.01899
G1 X127.798 Y151.355 E0.01899
G1 X128.266 Y151.739 E0.01899
G1 X128.650 Y152.207 E0.01899
G1 X128.936 Y152.742 E0.01899
G1 X129.111 Y153.321 E0.01899
G1 X129.171 Y153.924 E0.01899
G1 X129.111 Y154.527 E0.01899
G1 X128.936 Y155.107 E0.01899
G1 X128.650 Y155.641 E0.01899
G1 X128.266 Y156.109 E0.01899
G1 X127.798 Y156.493 E0.01899
G1 X127.263 Y156.779 E0.01899
G1 X126.684 Y156.955 E0.01899
G1 X126.081 Y157.014 E0.01899
G1 X125.478 Y156.955 E0.01899
G1 X124.898 Y156.779 E0.01899
G1 X124.364 Y156.493 E0.01899
G1 X123.896 Y156.109 E0.01899
G1 X123.512 Y155.641 E0.01899
G1 X123.226 Y155.107 E0.01899
G1 X123.050 Y154.527 E0.01899
G1 X122.991 Y153.924 E0.01899
G1 X123.050 Y153.321 E0.01899
G1 X123.226 Y152.742 E0.01899
G1 X123.512 Y152.207 E0.01899
G1 X123.896 Y151.739 E0.01899
G1 X124.364 Y151.355 E0.01899
G1 X124.903 Y151.067 E0.01916
G1 X125.532 Y150.888 E0.02050
G1 X126.021 Y150.840 E0.01541
G1 E-0.80000 F2100.00000
G1 Z0.800 F10800.000
G1 X126.081 Y156.635
G1 Z0.200
G1 E0.80000 F2100.00000
G1 F1200.000
G1 X125.552 Y156.583 E0.01666
G1 X125.043 Y156.429 E0.01666
G1 X124.575 Y156.178 E0.01666
G1 X124.164 Y155.841 E0.01666
G1 X123.827 Y155.430 E0.01666
G1 X123.576 Y154.962 E0.01666
G1 X123.422 Y154.453 E0.01666
G1 X123.370 Y153.924 E0.01666
G1 X123.422 Y153.395 E0.01666
G1 X123.576 Y152.887 E0.01666
G1 X123.827 Y152.418 E0.01666
G1 X124.164 Y152.007 E0.01666
G1 X124.575 Y151.670 E0.01666
G1 X125.045 Y151.419 E0.01672
G1 X125.603 Y151.260 E0.01817
G1 X126.081 Y151.213 E0.01507
G1 X126.610 Y151.265 E0.01666
G1 X127.118 Y151.419 E0.01666
G1 X127.587 Y151.670 E0.01666
G1 X127.998 Y152.007 E0.01666
G1 X128.335 Y152.418 E0.01666
G1 X128.586 Y152.887 E0.01666
G1 X128.740 Y153.395 E0.01666
G1 X128.792 Y153.924 E0.01666
G1 X128.740 Y154.453 E0.01666
G1 X128.586 Y154.962 E0.01666
G1 X128.335 Y155.430 E0.01666
G1 X127.998 Y155.841 E0.01666
G1 X127.587 Y156.178 E0.01666
G1 X127.118 Y156.429 E0.01666
G1 X126.610 Y156.583 E0.01666
G1 X126.141 Y156.629 E0.01478
G1 X125.881 Y156.982 F10800.000
G1 X126.081 Y158.340
G1 F1200.000
G1 X121.664 Y158.340 E0.13848
G1 X121.664 Y148.982 E0.29342
G1 X123.691 Y139.284 E0.31063
G1 X123.281 Y138.997 E0.01571
G1 X123.014 Y138.731 E0.01182
G1 X122.635 Y138.244 E0.01935
G1 X122.331 Y137.707 E0.01935
G1 X122.180 Y137.345 E0.01230
G1 X122.016 Y136.750 E0.01936
G1 X121.941 Y136.149 E0.01899
G1 X121.940 Y135.745 E0.01267
G1 X122.016 Y135.133 E0.01933
G1 X122.180 Y134.538 E0.01935
G1 X122.333 Y134.169 E0.01253
G1 X122.525 Y133.810 E0.01276
G1 X122.751 Y133.472 E0.01276
G1 X123.005 Y133.163 E0.01253
G1 X123.457 Y132.733 E0.01957
G1 X123.778 Y132.494 E0.01254
G1 X124.111 Y132.295 E0.01217
G1 X124.692 Y132.036 E0.01995
G1 X125.074 Y131.920 E0.01251
G1 X125.473 Y131.841 E0.01276
G1 X125.878 Y131.801 E0.01276
G1 X126.266 Y131.801 E0.01217
G1 X126.897 Y131.877 E0.01995
G1 X127.284 Y131.974 E0.01251
G1 X127.661 Y132.109 E0.01253
G1 X128.218 Y132.390 E0.01957
G1 X128.550 Y132.612 E0.01253
G1 X128.859 Y132.865 E0.01253
G1 X129.290 Y133.317 E0.01957
G1 X129.528 Y133.638 E0.01253
G1 X129.737 Y133.987 E0.01276
G1 X129.911 Y134.355 E0.01276
G1 X130.046 Y134.731 E0.01253
G1 X130.181 Y135.333 E0.01935
G1 X130.226 Y135.949 E0.01935
G1 X130.207 Y136.348 E0.01253
G1 X130.148 Y136.743 E0.01253
G1 X129.981 Y137.345 E0.01957
G1 X129.831 Y137.707 E0.01230
G1 X129.527 Y138.244 E0.01935
G1 X129.148 Y138.731 E0.01935
G1 X128.881 Y138.997 E0.01182
G1 X128.471 Y139.284 E0.01571
G1 X130.498 Y148.982 E0.31063
G1 X130.498 Y158.340 E0.29342
G1 X126.141 Y158.340 E0.13660
G1 X126.081 Y158.717 F10800.000
G1 F1200.000
G1 X121.287 Y158.717 E0.15030
G1 X121.287 Y148.943 E0.30647
G1 X123.271 Y139.451 E0.30405
G1 X123.038 Y139.287 E0.00894
G1 X122.731 Y138.981 E0.01358
G1 X122.320 Y138.454 E0.02095
G1 X121.991 Y137.873 E0.02095
G1 X121.823 Y137.468 E0.01376
G1 X121.645 Y136.824 E0.02095
G1 X121.564 Y136.173 E0.02057
G1 X121.563 Y135.722 E0.01413
G1 X121.645 Y135.059 E0.02094
G1 X121.823 Y134.415 E0.02095
G1 X121.992 Y134.008 E0.01384
G1 X122.201 Y133.616 E0.01392
G1 X122.448 Y133.247 E0.01392
G1 X122.728 Y132.906 E0.01384
G1 X123.214 Y132.444 E0.02103
G1 X123.568 Y132.181 E0.01384
G1 X123.936 Y131.960 E0.01346
G1 X124.560 Y131.682 E0.02140
G1 X124.982 Y131.554 E0.01383
G1 X125.417 Y131.467 E0.01392
G1 X125.859 Y131.424 E0.01392
G1 X126.288 Y131.424 E0.01346
G1 X126.966 Y131.506 E0.02140
G1 X127.394 Y131.613 E0.01383
G1 X127.809 Y131.762 E0.01384
G1 X128.408 Y132.063 E0.02103
G1 X128.775 Y132.309 E0.01384
G1 X129.117 Y132.588 E0.01384
G1 X129.579 Y133.074 E0.02103
G1 X129.842 Y133.429 E0.01384
G1 X130.070 Y133.809 E0.01392
G1 X130.260 Y134.211 E0.01392
G1 X130.408 Y134.626 E0.01384
G1 X130.555 Y135.278 E0.02095
G1 X130.604 Y135.944 E0.02095
G1 X130.582 Y136.385 E0.01384
G1 X130.518 Y136.821 E0.01384
G1 X130.339 Y137.468 E0.02103
G1 X130.171 Y137.873 E0.01376
G1 X129.842 Y138.454 E0.02095
G1 X129.431 Y138.981 E0.02095
G1 X129.124 Y139.287 E0.01358
G1 X128.891 Y139.451 E0.00894
G1 X130.875 Y148.943 E0.30405
G1 X130.875 Y158.717 E0.30647
G1 X126.141 Y158.717 E0.14842
G1 X125.769 Y158.467 F10800.000
G1 X125.244 Y158.227
G1 F1200.000
G1 X121.947 Y154.930 E0.14780
G1 X121.947 Y155.469 E0.01709
G1 X124.535 Y158.057 E0.11602
G1 X123.996 Y158.057 E0.01709
G1 X121.947 Y156.008 E0.09185
G1 X121.947 Y156.547 E0.01709
G1 X123.457 Y158.057 E0.06768
G1 X122.918 Y158.057 E0.01709
G1 X121.947 Y157.087 E0.04352
G1 X121.947 Y157.626 E0.01709
G1 X122.548 Y158.227 E0.02695
G1 E-0.80000 F2100.00000
G1 Z0.800 F10800.000
G1 X130.384 Y154.202
G1 Z0.200
G1 E0.80000 F2100.00000
G1 F1200.000
G1 X129.365 Y153.183 E0.04570
G1 X129.390 Y153.266 E0.00276
G1 X129.443 Y153.800 E0.01700
G1 X130.215 Y154.572 E0.03461
G1 X130.215 Y155.111 E0.01709
G1 X129.417 Y154.313 E0.03577
G1 X129.390 Y154.582 E0.00859
G1 X129.334 Y154.769 E0.00617
G1 X130.215 Y155.650 E0.03950
G1 X130.215 Y156.189 E0.01709
G1 X129.208 Y155.182 E0.04512
G1 X129.025 Y155.539 E0.01269
G1 X130.215 Y156.728 E0.05332
G1 X130.215 Y157.267 E0.01709
G1 X128.823 Y155.876 E0.06238
G1 X128.580 Y156.172 E0.01214
G1 X130.215 Y157.806 E0.07328
G1 X130.215 Y158.057 E0.00795
G1 X129.927 Y158.057 E0.00913
G1 X128.309 Y156.440 E0.07252
G1 X128.013 Y156.683 E0.01214
G1 X129.387 Y158.057 E0.06163
G1 X128.848 Y158.057 E0.01709
G1 X127.672 Y156.881 E0.05273
G1 X127.312 Y157.060 E0.01275
G1 X128.309 Y158.057 E0.04472
G1 X127.770 Y158.057 E0.01709
G1 X126.898 Y157.185 E0.03909
G1 X126.739 Y157.233 E0.00526
G1 X126.437 Y157.263 E0.00963
G1 X127.231 Y158.057 E0.03560
G1 X126.692 Y158.057 E0.01709
G1 X125.916 Y157.282 E0.03475
G1 X125.423 Y157.233 E0.01573
G1 X125.288 Y157.192 E0.00447
G1 X126.153 Y158.057 E0.03877
G1 X125.613 Y158.057 E0.01709
G1 X121.947 Y154.391 E0.16436
G1 X121.947 Y153.852 E0.01709
G1 X122.813 Y154.717 E0.03880
G1 X122.772 Y154.582 E0.00447
G1 X122.723 Y154.089 E0.01573
G1 X121.947 Y153.313 E0.03478
G1 X121.947 Y152.773 E0.01709
G1 X122.742 Y153.568 E0.03563
G1 X122.772 Y153.266 E0.00963
G1 X122.820 Y153.107 E0.00526
G1 X121.947 Y152.234 E0.03912
G1 X121.947 Y151.695 E0.01709
G1 X122.945 Y152.693 E0.04475
G1 X123.124 Y152.333 E0.01275
G1 X121.947 Y151.156 E0.05276
G1 X121.947 Y150.617 E0.01709
G1 X123.322 Y151.992 E0.06165
G1 X123.565 Y151.696 E0.01214
G1 X121.947 Y150.078 E0.07255
G1 X121.947 Y149.539 E0.01709
G1 X123.833 Y151.425 E0.08455
G1 X124.129 Y151.182 E0.01214
G1 X121.949 Y149.002 E0.09774
G1 X122.042 Y148.556 E0.01444
G1 X124.466 Y150.980 E0.10867
G1 X124.822 Y150.796 E0.01268
G1 X122.135 Y148.110 E0.12042
G1 X122.229 Y147.664 E0.01444
G1 X125.242 Y150.677 E0.13507
G1 X125.479 Y150.609 E0.00782
G1 X125.692 Y150.588 E0.00679
G1 X122.322 Y147.218 E0.15109
G1 X122.415 Y146.772 E0.01444
G1 X126.205 Y150.562 E0.16992
G1 X126.739 Y150.615 E0.01700
G1 X126.822 Y150.640 E0.00276
G1 X122.508 Y146.326 E0.19340
G1 X122.602 Y145.880 E0.01444
G1 X130.215 Y153.493 E0.34129
G1 X130.215 Y152.954 E0.01709
G1 X122.695 Y145.434 E0.33711
G1 X122.788 Y144.988 E0.01444
G1 X130.215 Y152.415 E0.33293
G1 X130.215 Y151.876 E0.01709
G1 X122.881 Y144.542 E0.32875
G1 X122.974 Y144.096 E0.01444
G1 X130.215 Y151.337 E0.32458
G1 X130.215 Y150.798 E0.01709
G1 X123.068 Y143.650 E0.32040
G1 X123.161 Y143.205 E0.01444
G1 X130.215 Y150.258 E0.31622
G1 X130.215 Y149.719 E0.01709
G1 X123.254 Y142.759 E0.31204
G1 X123.347 Y142.313 E0.01444
G1 X130.215 Y149.180 E0.30786
G1 X130.215 Y149.011 E0.00536
G1 X130.117 Y148.543 E0.01515
G1 X123.440 Y141.867 E0.29930
G1 X123.534 Y141.421 E0.01444
G1 X129.974 Y147.862 E0.28874
G1 X129.832 Y147.180 E0.02207
G1 X123.627 Y140.975 E0.27817
G1 X123.720 Y140.529 E0.01444
G1 X129.690 Y146.499 E0.26761
G1 X129.547 Y145.817 E0.02207
G1 X123.813 Y140.083 E0.25704
G1 X123.906 Y139.637 E0.01444
G1 X129.624 Y145.354 E0.25630
G1 E-0.80000 F2100.00000
G1 Z0.800 F10800.000
G1 X122.408 Y137.600
G1 Z0.200
G1 E0.80000 F2100.00000
G1 F1200.000
G1 X129.262 Y144.454 E0.30724
G1 X129.120 Y143.772 E0.02207
G1 X122.390 Y137.043 E0.30168
G1 X122.294 Y136.694 E0.01145
G1 X122.253 Y136.366 E0.01048
G1 X128.977 Y143.091 E0.30144
G1 X128.835 Y142.409 E0.02207
G1 X122.223 Y135.797 E0.29639
G1 X122.223 Y135.762 E0.00112
G1 X122.278 Y135.314 E0.01432
G1 X128.692 Y141.727 E0.28752
G1 X128.550 Y141.046 E0.02207
G1 X122.380 Y134.876 E0.27657
G1 X122.448 Y134.630 E0.00808
G1 X122.514 Y134.471 E0.00547
G1 X128.407 Y140.364 E0.26418
G1 X128.265 Y139.683 E0.02207
G1 X122.688 Y134.106 E0.25001
G1 X122.892 Y133.770 E0.01244
G1 X128.229 Y139.108 E0.23928
M73 P0 R116
G1 X128.547 Y138.886 E0.01227
G1 X123.124 Y133.463 E0.24309
G1 X123.388 Y133.188 E0.01209
G1 X128.839 Y138.639 E0.24436
G1 X129.087 Y138.348 E0.01212
G1 X123.667 Y132.929 E0.24297
G1 X123.981 Y132.703 E0.01224
G1 X129.318 Y138.040 E0.23927
G1 X129.513 Y137.696 E0.01254
G1 X124.326 Y132.509 E0.23254
G1 X124.699 Y132.342 E0.01294
G1 X129.683 Y137.327 E0.22344
G1 X129.808 Y136.912 E0.01372
G1 X125.102 Y132.207 E0.21094
G1 X125.552 Y132.117 E0.01452
G1 X129.903 Y136.468 E0.19506
G1 X129.942 Y135.968 E0.01589
G1 X126.057 Y132.084 E0.17416
G1 X126.249 Y132.083 E0.00607
G1 X126.644 Y132.132 E0.01263
G1 X129.901 Y135.389 E0.14601
G1 X129.774 Y134.810 E0.01877
G1 X129.724 Y134.672 E0.00465
G1 X127.350 Y132.298 E0.10642
G1 X127.549 Y132.369 E0.00669
G1 X128.076 Y132.635 E0.01869
G1 X128.382 Y132.839 E0.01168
G1 X128.652 Y133.061 E0.01106
G1 X129.642 Y134.051 E0.04440
G1 E-0.80000 F2100.00000
G1 Z0.800 F10800.000
G1 X110.074 Y151.225
G1 Z0.200
G1 E0.80000 F2100.00000
G1 F1200.000
G1 X109.471 Y151.166 E0.01899
G1 X108.891 Y150.990 E0.01899
G1 X108.357 Y150.704 E0.01899
G1 X107.889 Y150.320 E0.01899
G1 X107.504 Y149.852 E0.01899
G1 X107.219 Y149.318 E0.01899
G1 X107.043 Y148.738 E0.01899
G1 X106.984 Y148.135 E0.01899
G1 X107.043 Y147.532 E0.01899
G1 X107.219 Y146.953 E0.01899
G1 X107.504 Y146.418 E0.01899
G1 X107.889 Y145.950 E0.01899
G1 X108.357 Y145.566 E0.01899
G1 X108.896 Y145.278 E0.01916
G1 X109.525 Y145.099 E0.02050
G1 X110.074 Y145.045 E0.01729
G1 X110.676 Y145.105 E0.01899
G1 X111.256 Y145.280 E0.01899
G1 X111.790 Y145.566 E0.01899
G1 X112.258 Y145.950 E0.01899
G1 X112.643 Y146.418 E0.01899
G1 X112.928 Y146.953 E0.01899
G1 X113.104 Y147.532 E0.01899
G1 X113.163 Y148.135 E0.01899
G1 X113.104 Y148.738 E0.01899
G1 X112.928 Y149.318 E0.01899
G1 X112.643 Y149.852 E0.01899
G1 X112.258 Y150.320 E0.01899
G1 X111.790 Y150.704 E0.01899
G1 X111.256 Y150.990 E0.01899
G1 X110.676 Y151.166 E0.01899
G1 X110.133 Y151.219 E0.01711
G1 X110.074 Y150.846 F10800.000
G1 F1200.000
G1 X109.545 Y150.794 E0.01666
G1 X109.036 Y150.640 E0.01666
G1 X108.567 Y150.389 E0.01666
G1 X108.157 Y150.052 E0.01666
G1 X107.819 Y149.641 E0.01666
G1 X107.569 Y149.173 E0.01666
G1 X107.415 Y148.664 E0.01666
G1 X107.363 Y148.135 E0.01666
G1 X107.415 Y147.606 E0.01666
G1 X107.569 Y147.098 E0.01666
G1 X107.819 Y146.629 E0.01666
G1 X108.157 Y146.218 E0.01666
G1 X108.567 Y145.881 E0.01666
G1 X109.038 Y145.630 E0.01672
G1 X109.595 Y145.471 E0.01817
G1 X110.074 Y145.424 E0.01507
G1 X110.602 Y145.476 E0.01666
G1 X111.111 Y145.630 E0.01666
G1 X111.580 Y145.881 E0.01666
G1 X111.991 Y146.218 E0.01666
G1 X112.328 Y146.629 E0.01666
G1 X112.578 Y147.098 E0.01666
G1 X112.732 Y147.606 E0.01666
G1 X112.785 Y148.135 E0.01666
G1 X112.732 Y148.664 E0.01666
G1 X112.578 Y149.173 E0.01666
G1 X112.328 Y149.641 E0.01666
G1 X111.991 Y150.052 E0.01666
G1 X111.580 Y150.389 E0.01666
G1 X111.111 Y150.640 E0.01666
G1 X110.602 Y150.794 E0.01666
G1 X110.133 Y150.840 E0.01478
G1 X109.874 Y151.193 F10800.000
G1 X110.074 Y152.551
G1 F1200.000
G1 X105.657 Y152.551 E0.13848
G1 X105.657 Y143.193 E0.29342
G1 X107.684 Y133.495 E0.31063
G1 X107.273 Y133.208 E0.01571
G1 X107.007 Y132.942 E0.01182
G1 X106.627 Y132.455 E0.01935
G1 X106.323 Y131.918 E0.01935
G1 X106.173 Y131.556 E0.01230
G1 X106.008 Y130.961 E0.01936
G1 X105.934 Y130.360 E0.01899
G1 X105.933 Y129.956 E0.01267
G1 X106.008 Y129.344 E0.01933
G1 X106.173 Y128.749 E0.01935
G1 X106.326 Y128.380 E0.01253
G1 X106.518 Y128.021 E0.01276
G1 X106.744 Y127.683 E0.01276
G1 X106.997 Y127.374 E0.01253
G1 X107.449 Y126.944 E0.01957
G1 X107.771 Y126.705 E0.01254
G1 X108.103 Y126.506 E0.01217
G1 X108.684 Y126.247 E0.01995
G1 X109.066 Y126.131 E0.01251
G1 X109.465 Y126.052 E0.01276
G1 X109.870 Y126.012 E0.01276
