; generated by PrusaSlicer 2.2.0+win64 on 2020-11-04 at 22:03:20 UTC

; 

; external perimeters extrusion width = 0.45mm
; perimeters extrusion width = 0.45mm
; infill extrusion width = 0.45mm
; solid infill extrusion width = 0.45mm
; top infill extrusion width = 0.40mm
; support material extrusion width = 0.35mm
; first layer extrusion width = 0.42mm

M73 P0 R60
M201 X9000 Y9000 Z500 E10000 ; sets maximum accelerations, mm/sec^2
M203 X500 Y500 Z12 E120 ; sets maximum feedrates, mm/sec
M204 P2000 R1500 T2000 ; sets acceleration (P, T) and retract acceleration (R), mm/sec^2
M205 X10.00 Y10.00 Z0.20 E2.50 ; sets the jerk limits, mm/sec
M205 S0 T0 ; sets the minimum extruding and travel feed rate, mm/sec
M107
M862.3 P "MK2.5SMMU2S" ; printer model check
M862.1 P0.4 ; nozzle diameter check
M115 U3.8.0 ; tell printer latest fw version
G90 ; use absolute coordinates
M83 ; extruder relative mode
M104 S215 ; set extruder temp
M140 S60 ; set bed temp
Tx
M190 S60 ; wait for bed temp
M109 S215 ; wait for extruder temp
G28 W ; home all without mesh bed level
G80 ; mesh bed leveling

G21 ; set units to millimeters

;go outside print area
G1 Y-3.0 F1000.0
G1 Z0.4 F1000.0
; select extruder
Tc
; purge line
G1 X55.0 F2000.0
G1 Z0.3 F1000.0
G92 E0.0
G1 X240.0 E25.0 F2200.0
M73 P0 R60
G1 Y-2.0 F1000.0
G1 X55.0 E25 F1400.0
G1 Z0.20 F1000.0
G1 X5.0 E4.0 F1000.0
G92 E0.0
G21 ; set units to millimeters
G90 ; use absolute coordinates
M83 ; use relative distances for extrusion
M900 K30 ; Filament gcode
;BEFORE_LAYER_CHANGE
G92 E0.0
;0.2


G1 E-0.80000 F2100.00000
G1 Z0.600 F10800.000
;AFTER_LAYER_CHANGE
;0.2
G1 X100.629 Y62.260
G1 Z0.200
G1 E0.80000 F2100.00000
M204 S1000
G1 F1200.000
G1 X101.505 Y62.082 E0.02802
G1 X117.003 Y62.082 E0.48593
G1 X132.826 Y62.421 E0.49625
G1 X134.190 Y62.625 E0.04323
G1 X135.478 Y63.083 E0.04287
G1 X136.160 Y63.449 E0.02426
G1 X136.949 Y64.006 E0.03030
G1 X153.007 Y77.085 E0.64933
G1 X154.002 Y78.093 E0.04442
G1 X154.876 Y79.474 E0.05126
G1 X155.365 Y80.820 E0.04489
G1 X155.571 Y82.183 E0.04323
G1 X155.851 Y95.501 E0.41767
G1 X155.851 Y139.318 E1.37383
G1 X155.800 Y139.806 E0.01538
G1 X155.613 Y140.352 E0.01811
G1 X155.297 Y140.840 E0.01823
G1 X154.875 Y141.234 E0.01811
G1 X154.371 Y141.516 E0.01811
G1 X120.259 Y154.251 E1.14166
G1 X119.731 Y154.320 E0.01668
G1 X113.473 Y154.385 E0.19624
G1 X97.505 Y154.334 E0.50066
G1 X96.904 Y154.119 E0.02000
G1 X96.379 Y153.750 E0.02012
G1 X90.584 Y147.902 E0.25814
G1 X90.338 Y147.443 E0.01633
G1 X90.197 Y146.938 E0.01645
G1 X89.805 Y143.139 E0.11973
G1 X89.765 Y80.241 E1.97213
G1 X89.796 Y76.698 E0.11108
G1 X89.999 Y73.176 E0.11062
G1 X90.227 Y72.548 E0.02095
G1 X90.621 Y72.009 E0.02095
G1 X99.873 Y62.757 E0.41023
G1 X100.579 Y62.293 E0.02649
G1 E-0.80000 F2100.00000
G1 Z0.800 F10800.000
G1 X101.532 Y64.459
G1 Z0.200
G1 E0.80000 F2100.00000
G1 F1200.000
G1 X92.325 Y73.666 E0.40826
G1 X92.858 Y74.200 E0.02365
G1 X101.945 Y65.113 E0.40294
G1 X102.478 Y65.646 E0.02365
G1 X93.391 Y74.733 E0.40294
G1 X93.803 Y75.145 E0.01827
G1 X92.172 Y76.776 E0.07234
G1 X92.293 Y76.898 E0.00537
G1 X103.012 Y66.179 E0.47527
G1 X103.545 Y66.712 E0.02365
G1 X92.827 Y77.431 E0.47527
G1 X93.360 Y77.964 E0.02365
G1 X104.078 Y67.246 E0.47527
G1 X104.612 Y67.779 E0.02365
G1 X92.142 Y80.249 E0.55293
G1 E-0.80000 F2100.00000
G1 Z0.800 F10800.000
G1 X97.630 Y107.601
G1 Z0.200
G1 E0.80000 F2100.00000
G1 F1200.000
G1 X99.523 Y105.708 E0.06836
G1 X99.401 Y105.708 E0.00313
G1 X99.371 Y105.678 E0.00109
G1 X99.086 Y105.678 E0.00727
G1 X98.961 Y105.554 E0.00451
G1 X97.369 Y107.145 E0.05747
G1 X97.011 Y106.787 E0.01295
G1 X98.684 Y105.113 E0.06041
G1 X98.684 Y104.396 E0.01831
G1 X96.652 Y106.428 E0.07336
G1 X96.365 Y106.141 E0.01037
G1 X97.996 Y104.509 E0.05891
G1 X97.925 Y104.438 E0.00258
G1 X98.684 Y103.679 E0.02740
G1 X98.684 Y102.962 E0.01831
G1 X97.567 Y104.079 E0.04035
G1 X97.208 Y103.721 E0.01295
G1 X98.684 Y102.245 E0.05330
G1 X98.684 Y101.528 E0.01831
G1 X96.849 Y103.362 E0.06624
G1 X96.491 Y103.004 E0.01295
G1 X98.684 Y100.811 E0.07919
G1 X98.684 Y100.094 E0.01831
G1 X97.764 Y101.014 E0.03323
G1 X97.405 Y100.655 E0.01295
G1 X98.684 Y99.377 E0.04618
G1 X98.684 Y98.659 E0.01831
G1 X97.047 Y100.297 E0.05913
G1 X96.688 Y99.938 E0.01295
G1 X98.684 Y97.942 E0.07207
G1 X98.684 Y97.225 E0.01831
G1 X97.961 Y97.948 E0.02611
G1 X97.602 Y97.590 E0.01295
G1 X98.684 Y96.508 E0.03906
G1 X98.684 Y95.791 E0.01831
G1 X97.244 Y97.231 E0.05201
G1 X96.885 Y96.873 E0.01295
G1 X98.684 Y95.074 E0.06496
G1 X98.684 Y94.357 E0.01831
G1 X96.527 Y96.514 E0.07790
G1 X96.365 Y96.353 E0.00583
G1 X97.996 Y94.721 E0.05891
G1 X97.799 Y94.524 E0.00712
G1 X98.684 Y93.640 E0.03194
G1 X98.684 Y92.922 E0.01831
G1 X97.441 Y94.166 E0.04489
G1 X97.082 Y93.807 E0.01295
G1 X98.684 Y92.205 E0.05784
G1 X98.684 Y91.488 E0.01831
G1 X96.724 Y93.448 E0.07079
G1 X96.365 Y93.090 E0.01295
G1 X98.684 Y90.771 E0.08373
G1 X98.684 Y90.054 E0.01831
G1 X97.638 Y91.100 E0.03777
G1 X97.279 Y90.741 E0.01295
G1 X98.684 Y89.337 E0.05072
G1 X98.684 Y88.620 E0.01831
G1 X96.921 Y90.383 E0.06367
G1 X96.562 Y90.024 E0.01295
G1 X98.684 Y87.903 E0.07662
G1 X98.684 Y87.186 E0.01831
G1 X97.835 Y88.034 E0.03065
G1 X97.476 Y87.676 E0.01295
G1 X98.684 Y86.468 E0.04360
G1 X98.684 Y85.751 E0.01831
G1 X97.118 Y87.317 E0.05655
G1 X96.759 Y86.959 E0.01295
G1 X98.684 Y85.034 E0.06950
G1 X98.684 Y84.317 E0.01831
G1 X96.401 Y86.600 E0.08244
G1 X96.365 Y86.564 E0.00129
G1 X97.996 Y84.933 E0.05891
G1 X97.674 Y84.610 E0.01166
G1 X98.684 Y83.600 E0.03648
G1 X98.684 Y82.883 E0.01831
G1 X97.315 Y84.252 E0.04943
G1 X96.956 Y83.893 E0.01295
G1 X98.684 Y82.166 E0.06238
G1 X98.684 Y81.449 E0.01831
G1 X96.598 Y83.535 E0.07533
G1 X96.365 Y83.302 E0.00841
G1 X97.996 Y81.670 E0.05891
G1 X97.871 Y81.545 E0.00454
G1 X98.684 Y80.731 E0.02937
G1 X98.684 Y80.014 E0.01831
G1 X97.512 Y81.186 E0.04231
G1 X97.154 Y80.828 E0.01295
G1 X98.684 Y79.297 E0.05526
G1 X98.684 Y78.580 E0.01831
G1 X96.795 Y80.469 E0.06821
G1 X96.436 Y80.110 E0.01295
G1 X98.684 Y77.863 E0.08116
G1 X98.684 Y77.154 E0.01810
G1 X99.086 Y76.752 E0.01451
G1 X99.371 Y76.752 E0.00727
G1 X99.401 Y76.722 E0.00109
G1 X99.574 Y76.722 E0.00442
G1 X99.341 Y76.489 E0.00842
G1 X97.709 Y78.121 E0.05891
G1 X97.351 Y77.762 E0.01295
G1 X98.982 Y76.131 E0.05891
G1 X98.624 Y75.772 E0.01295
G1 X96.992 Y77.403 E0.05891
G1 X96.634 Y77.045 E0.01295
G1 X98.363 Y75.316 E0.06244
G1 X99.762 Y76.895 F10800.000
G1 F1200.000
G1 X99.026 Y77.631 E0.03263
G1 X99.026 Y78.697 E0.03344
G1 X99.769 Y77.954 E0.03296
G1 X99.769 Y79.020 E0.03344
G1 X99.026 Y79.764 E0.03296
G1 X99.026 Y80.830 E0.03344
G1 X99.769 Y80.087 E0.03296
G1 X99.769 Y81.153 E0.03344
G1 X99.026 Y81.897 E0.03296
G1 X99.026 Y82.963 E0.03344
G1 X99.769 Y82.220 E0.03296
G1 X99.769 Y83.286 E0.03344
G1 X99.026 Y84.030 E0.03296
G1 X99.026 Y85.096 E0.03344
G1 X99.769 Y84.353 E0.03296
G1 X99.769 Y85.419 E0.03344
G1 X99.026 Y86.163 E0.03296
G1 X99.026 Y87.229 E0.03344
G1 X99.769 Y86.486 E0.03296
G1 X99.769 Y87.553 E0.03344
G1 X99.026 Y88.296 E0.03296
G1 X99.026 Y89.363 E0.03344
G1 X99.769 Y88.619 E0.03296
G1 X99.769 Y89.686 E0.03344
G1 X99.026 Y90.429 E0.03296
G1 X99.026 Y91.496 E0.03344
G1 X99.769 Y90.752 E0.03296
G1 X99.769 Y91.819 E0.03344
G1 X99.026 Y92.562 E0.03296
G1 X99.026 Y93.629 E0.03344
G1 X99.769 Y92.885 E0.03296
G1 X99.769 Y93.952 E0.03344
G1 X99.026 Y94.695 E0.03296
G1 X99.026 Y95.762 E0.03344
G1 X99.769 Y95.018 E0.03296
G1 X99.769 Y96.085 E0.03344
G1 X99.026 Y96.828 E0.03296
G1 X99.026 Y97.895 E0.03344
G1 X99.769 Y97.151 E0.03296
G1 X99.769 Y98.218 E0.03344
G1 X99.026 Y98.961 E0.03296
G1 X99.026 Y100.028 E0.03344
G1 X99.769 Y99.285 E0.03296
G1 X99.769 Y100.351 E0.03344
G1 X99.026 Y101.094 E0.03296
G1 X99.026 Y102.161 E0.03344
G1 X99.769 Y101.418 E0.03296
G1 X99.769 Y102.484 E0.03344
G1 X99.026 Y103.228 E0.03296
G1 X99.026 Y104.294 E0.03344
G1 X99.769 Y103.551 E0.03296
G1 X99.769 Y104.617 E0.03344
G1 X99.019 Y105.368 E0.03328
G1 E-0.80000 F2100.00000
G1 Z0.800 F10800.000
G1 X102.579 Y105.007
G1 Z0.200
G1 E0.80000 F2100.00000
G1 F1200.000
G1 X103.492 Y104.094 E0.04049
G1 X103.492 Y103.027 E0.03344
G1 X102.749 Y103.771 E0.03296
G1 X102.749 Y102.704 E0.03344
G1 X103.492 Y101.961 E0.03296
G1 X103.492 Y100.894 E0.03344
G1 X102.749 Y101.638 E0.03296
G1 X102.749 Y100.571 E0.03344
G1 X103.492 Y99.828 E0.03296
G1 X103.492 Y98.761 E0.03344
G1 X102.749 Y99.505 E0.03296
G1 X102.749 Y98.438 E0.03344
G1 X103.492 Y97.695 E0.03296
G1 X103.492 Y96.628 E0.03344
G1 X102.749 Y97.372 E0.03296
G1 X102.749 Y96.305 E0.03344
G1 X103.492 Y95.562 E0.03296
G1 X103.492 Y94.495 E0.03344
G1 X102.749 Y95.238 E0.03296
G1 X102.749 Y94.172 E0.03344
G1 X103.492 Y93.428 E0.03296
G1 X103.492 Y92.362 E0.03344
G1 X102.749 Y93.105 E0.03296
G1 X102.749 Y92.039 E0.03344
G1 X103.492 Y91.295 E0.03296
G1 X103.492 Y90.229 E0.03344
G1 X102.749 Y90.972 E0.03296
G1 X102.749 Y89.906 E0.03344
G1 X103.492 Y89.162 E0.03296
G1 X103.492 Y88.096 E0.03344
G1 X102.749 Y88.839 E0.03296
G1 X102.749 Y87.773 E0.03344
G1 X103.492 Y87.029 E0.03296
G1 X103.492 Y85.963 E0.03344
G1 X102.749 Y86.706 E0.03296
G1 X102.749 Y85.640 E0.03344
G1 X103.492 Y84.896 E0.03296
G1 X103.492 Y83.830 E0.03344
G1 X102.749 Y84.573 E0.03296
G1 X102.749 Y83.506 E0.03344
G1 X103.492 Y82.763 E0.03296
G1 X103.492 Y81.697 E0.03344
G1 X102.749 Y82.440 E0.03296
G1 X102.749 Y81.373 E0.03344
G1 X103.492 Y80.630 E0.03296
G1 X103.492 Y79.563 E0.03344
G1 X102.749 Y80.307 E0.03296
G1 X102.749 Y79.240 E0.03344
G1 X103.492 Y78.497 E0.03296
G1 X103.492 Y77.430 E0.03344
G1 X102.749 Y78.174 E0.03296
G1 X102.749 Y77.107 E0.03344
G1 X102.961 Y76.895 E0.00942
G1 E-0.80000 F2100.00000
G1 Z0.800 F10800.000
G1 X104.852 Y75.280
G1 Z0.200
G1 E0.80000 F2100.00000
G1 F1200.000
G1 X103.380 Y76.752 E0.05316
G1 X103.433 Y76.752 E0.00134
G1 X103.765 Y77.085 E0.01200
G1 X105.113 Y75.736 E0.04869
G1 X105.472 Y76.095 E0.01295
G1 X103.834 Y77.732 E0.05913
G1 X103.834 Y78.449 E0.01831
G1 X105.830 Y76.453 E0.07207
G1 X106.153 Y76.776 E0.01166
G1 X104.522 Y78.408 E0.05891
G1 X104.558 Y78.443 E0.00129
G1 X103.834 Y79.167 E0.02611
G1 X103.834 Y79.884 E0.01831
G1 X104.916 Y78.802 E0.03906
G1 X105.275 Y79.161 E0.01295
G1 X103.834 Y80.601 E0.05201
G1 X103.834 Y81.318 E0.01831
G1 X105.633 Y79.519 E0.06496
G1 X105.992 Y79.878 E0.01295
G1 X103.834 Y82.035 E0.07790
G1 X103.834 Y82.752 E0.01831
G1 X104.719 Y81.868 E0.03194
G1 X105.078 Y82.226 E0.01295
G1 X103.834 Y83.469 E0.04489
G1 X103.834 Y84.186 E0.01831
G1 X105.436 Y82.585 E0.05784
G1 X105.795 Y82.943 E0.01295
G1 X103.834 Y84.904 E0.07079
G1 X103.834 Y85.621 E0.01831
G1 X106.153 Y83.302 E0.08373
G1 X104.522 Y84.933 E0.05891
G1 X104.880 Y85.292 E0.01295
G1 X103.834 Y86.338 E0.03777
G1 X103.834 Y87.055 E0.01831
G1 X105.239 Y85.650 E0.05072
G1 X105.598 Y86.009 E0.01295
G1 X103.834 Y87.772 E0.06367
G1 X103.834 Y88.489 E0.01831
G1 X105.956 Y86.367 E0.07662
G1 X106.153 Y86.564 E0.00712
G1 X104.522 Y88.196 E0.05891
G1 X104.683 Y88.357 E0.00583
G1 X103.834 Y89.206 E0.03066
G1 X103.834 Y89.923 E0.01831
G1 X105.042 Y88.716 E0.04360
G1 X105.400 Y89.074 E0.01295
G1 X103.834 Y90.640 E0.05655
G1 X103.834 Y91.358 E0.01831
G1 X105.759 Y89.433 E0.06950
G1 X106.118 Y89.792 E0.01295
G1 X103.834 Y92.075 E0.08245
G1 X103.834 Y92.792 E0.01831
G1 X104.845 Y91.781 E0.03648
G1 X105.203 Y92.140 E0.01295
G1 X103.834 Y93.509 E0.04943
G1 X103.834 Y94.226 E0.01831
G1 X105.562 Y92.499 E0.06238
G1 X105.920 Y92.857 E0.01295
G1 X103.834 Y94.943 E0.07533
G1 X103.834 Y95.660 E0.01831
G1 X104.648 Y94.847 E0.02937
G1 X105.006 Y95.206 E0.01295
G1 X103.834 Y96.377 E0.04231
G1 X103.834 Y97.095 E0.01831
G1 X105.365 Y95.564 E0.05526
G1 X105.723 Y95.923 E0.01295
G1 X103.834 Y97.812 E0.06821
G1 X103.834 Y98.529 E0.01831
G1 X106.082 Y96.281 E0.08116
G1 X106.153 Y96.353 E0.00258
G1 X104.522 Y97.984 E0.05891
G1 X104.809 Y98.271 E0.01037
G1 X103.834 Y99.246 E0.03520
G1 X103.834 Y99.963 E0.01831
G1 X105.168 Y98.630 E0.04814
G1 X105.526 Y98.988 E0.01295
G1 X103.834 Y100.680 E0.06109
G1 X103.834 Y101.397 E0.01831
G1 X105.885 Y99.347 E0.07404
G1 X106.153 Y99.615 E0.00969
G1 X104.522 Y101.247 E0.05891
G1 X104.612 Y101.337 E0.00325
G1 X103.834 Y102.114 E0.02808
G1 X103.834 Y102.831 E0.01831
G1 X104.971 Y101.695 E0.04103
G1 X105.329 Y102.054 E0.01295
G1 X103.834 Y103.549 E0.05397
G1 X103.834 Y104.266 E0.01831
G1 X105.688 Y102.412 E0.06692
G1 X106.046 Y102.771 E0.01295
G1 X103.834 Y104.983 E0.07987
G1 X103.834 Y105.276 E0.00750
G1 X103.433 Y105.678 E0.01451
G1 X103.148 Y105.678 E0.00727
G1 X102.784 Y106.034 E0.01299
G1 X103.142 Y106.392 E0.01295
G1 X104.773 Y104.761 E0.05891
G1 X105.132 Y105.119 E0.01295
G1 X103.501 Y106.751 E0.05891
G1 X103.859 Y107.109 E0.01295
G1 X105.491 Y105.478 E0.05891
G1 X105.849 Y105.837 E0.01295
G1 X104.120 Y107.566 E0.06244
G1 X104.218 Y111.901 F10800.000
G1 F1200.000
G1 X110.162 Y105.957 E0.26358
G1 X109.629 Y105.423 E0.02365
G1 X103.804 Y111.248 E0.25826
G1 X103.271 Y110.714 E0.02365
G1 X109.096 Y104.890 E0.25826
G1 X108.715 Y104.509 E0.01688
G1 X110.346 Y102.878 E0.07234
G1 X110.194 Y102.725 E0.00677
G1 X102.738 Y110.181 E0.33060
G1 X102.205 Y109.648 E0.02365
G1 X104.059 Y107.793 E0.08224
G1 X103.526 Y107.260 E0.02365
G1 X101.671 Y109.115 E0.08224
G1 X101.259 Y108.702 E0.01828
G1 X97.997 Y111.965 E0.14467
G1 X97.875 Y111.844 E0.00537
G1 X102.993 Y106.727 E0.22691
G1 X102.459 Y106.193 E0.02365
G1 X97.342 Y111.311 E0.22691
G1 X96.809 Y110.777 E0.02365
G1 X101.843 Y105.743 E0.22322
G1 X100.776 Y105.743 E0.03344
G1 X96.276 Y110.244 E0.19957
G1 X95.742 Y109.711 E0.02365
G1 X97.597 Y107.856 E0.08224
G1 X97.064 Y107.323 E0.02365
G1 X95.209 Y109.178 E0.08224
G1 X94.676 Y108.644 E0.02365
G1 X96.530 Y106.790 E0.08224
G1 X95.997 Y106.256 E0.02365
G1 X94.142 Y108.111 E0.08224
G1 X93.609 Y107.578 E0.02365
G1 X97.095 Y104.092 E0.15457
G1 X96.562 Y103.559 E0.02365
G1 X93.076 Y107.045 E0.15457
G1 X92.543 Y106.511 E0.02365
G1 X96.029 Y103.025 E0.15457
G1 X95.881 Y102.878 E0.00653
G1 X97.513 Y101.247 E0.07234
G1 X97.127 Y100.861 E0.01711
G1 X93.641 Y104.347 E0.15457
G1 X93.107 Y103.813 E0.02365
G1 X96.593 Y100.327 E0.15457
G1 X96.060 Y99.794 E0.02365
G1 X92.574 Y103.280 E0.15457
M73 P1 R59
G1 X92.172 Y102.878 E0.01783
G1 X93.803 Y101.247 E0.07234
G1 X93.672 Y101.115 E0.00582
G1 X97.158 Y97.630 E0.15457
G1 X96.625 Y97.096 E0.02365
G1 X93.139 Y100.582 E0.15457
G1 X92.606 Y100.049 E0.02365
G1 X96.092 Y96.563 E0.15457
G1 X95.881 Y96.353 E0.00933
G1 X97.513 Y94.721 E0.07234
G1 X97.190 Y94.398 E0.01432
G1 X93.704 Y97.884 E0.15457
G1 X93.171 Y97.351 E0.02365
G1 X96.657 Y93.865 E0.15457
G1 X96.123 Y93.332 E0.02365
G1 X92.637 Y96.818 E0.15457
G1 X92.172 Y96.353 E0.02063
G1 X93.803 Y94.721 E0.07234
G1 X93.735 Y94.653 E0.00302
G1 X97.221 Y91.167 E0.15457
G1 X96.688 Y90.634 E0.02365
G1 X93.202 Y94.120 E0.15457
G1 X92.669 Y93.587 E0.02365
G1 X96.155 Y90.101 E0.15457
G1 X95.881 Y89.827 E0.01213
G1 X97.513 Y88.196 E0.07234
G1 X97.253 Y87.936 E0.01152
G1 X93.767 Y91.422 E0.15457
G1 X93.234 Y90.889 E0.02365
G1 X96.720 Y87.403 E0.15457
G1 X96.186 Y86.869 E0.02365
G1 X92.700 Y90.355 E0.15457
G1 X92.172 Y89.827 E0.02342
G1 X97.284 Y84.705 E0.22691
G1 X96.751 Y84.172 E0.02365
G1 X93.265 Y87.658 E0.15457
G1 X92.732 Y87.124 E0.02365
G1 X96.218 Y83.638 E0.15457
G1 X95.881 Y83.302 E0.01492
G1 X97.513 Y81.670 E0.07234
G1 X97.316 Y81.474 E0.00872
G1 X92.199 Y86.591 E0.22691
G1 X92.172 Y86.564 E0.00118
G1 X93.803 Y84.933 E0.07234
G1 X93.297 Y84.426 E0.02247
G1 X96.783 Y80.940 E0.15457
G1 X96.249 Y80.407 E0.02365
G1 X92.763 Y83.893 E0.15457
G1 X92.230 Y83.360 E0.02365
G1 X97.347 Y78.243 E0.22691
G1 X96.814 Y77.709 E0.02365
G1 X93.328 Y81.195 E0.15457
G1 X92.795 Y80.662 E0.02365
G1 X96.281 Y77.176 E0.15457
G1 X95.881 Y76.776 E0.01772
G1 X97.996 Y74.661 E0.09379
G1 X98.396 Y75.061 E0.01772
G1 X105.145 Y68.312 E0.29925
G1 X105.678 Y68.845 E0.02365
G1 X98.929 Y75.594 E0.29925
G1 X99.463 Y76.127 E0.02365
G1 X106.211 Y69.379 E0.29925
G1 X106.745 Y69.912 E0.02365
G1 X99.996 Y76.661 E0.29925
G1 X100.050 Y76.715 E0.00240
G1 X100.078 Y76.687 E0.00122
G1 X101.036 Y76.687 E0.03004
G1 X107.278 Y70.445 E0.27678
G1 X107.811 Y70.979 E0.02365
