; generated by PrusaSlicer 2.2.0+win64 on 2020-11-03 at 18:01:54 UTC

; 

; external perimeters extrusion width = 0.60mm
; perimeters extrusion width = 0.43mm
; infill extrusion width = 0.45mm
; solid infill extrusion width = 0.70mm
; top infill extrusion width = 0.43mm
; support material extrusion width = 0.37mm
; first layer extrusion width = 0.42mm

M73 P0 R268
M201 X9000 Y9000 Z500 E10000 ; sets maximum accelerations, mm/sec^2
M203 X500 Y500 Z12 E120 ; sets maximum feedrates, mm/sec
M204 P2000 R1500 T2000 ; sets acceleration (P, T) and retract acceleration (R), mm/sec^2
M205 X10.00 Y10.00 Z0.20 E2.50 ; sets the jerk limits, mm/sec
M205 S0 T0 ; sets the minimum extruding and travel feed rate, mm/sec
M107
M862.3 P "MK2.5SMMU2S" ; printer model check
M862.1 P0.4 ; nozzle diameter check
M115 U3.8.0 ; tell printer latest fw version
G90 ; use absolute coordinates
M83 ; extruder relative mode
M104 S215 ; set extruder temp
M140 S60 ; set bed temp
Tx
M190 S60 ; wait for bed temp
M109 S215 ; wait for extruder temp
G28 W ; home all without mesh bed level
G80 ; mesh bed leveling

G21 ; set units to millimeters

;go outside print area
G1 Y-3.0 F1000.0
G1 Z0.4 F1000.0
; select extruder
Tc
; purge line
G1 X55.0 F2000.0
G1 Z0.3 F1000.0
G92 E0.0
G1 X240.0 E25.0 F2200.0
M73 P0 R268
G1 Y-2.0 F1000.0
G1 X55.0 E25 F1400.0
G1 Z0.20 F1000.0
G1 X5.0 E4.0 F1000.0
G92 E0.0
G21 ; set units to millimeters
G90 ; use absolute coordinates
M83 ; use relative distances for extrusion
M900 K0.06 ; Filament gcode LA 1.5
M900 K30 ; Filament gcode LA 1.0
;BEFORE_LAYER_CHANGE
G92 E0.0
;0.2


G1 E-0.80000 F2100.00000
G1 Z0.600 F10800.000
;AFTER_LAYER_CHANGE
;0.2
G1 X37.566 Y54.728
G1 Z0.200
G1 E0.80000 F2100.00000
M204 S1000
G1 F1200.000
G1 X38.253 Y54.398 E0.02390
G1 X77.174 Y43.005 E1.27155
G1 X166.548 Y42.996 E2.80225
G1 X167.032 Y43.046 E0.01526
G1 X167.499 Y43.196 E0.01538
G1 X167.922 Y43.436 E0.01526
G1 X168.290 Y43.760 E0.01538
G1 X210.315 Y89.680 E1.95170
G1 X212.223 Y92.189 E0.09886
G1 X212.540 Y92.812 E0.02190
G1 X212.662 Y93.550 E0.02346
G1 X213.012 Y147.223 E1.68293
G1 X213.008 Y158.061 E0.33980
G1 X212.907 Y158.610 E0.01752
G1 X212.680 Y159.125 E0.01763
G1 X208.611 Y165.899 E0.24778
G1 X207.966 Y166.575 E0.02931
G1 X207.352 Y166.883 E0.02154
G1 X206.675 Y167.003 E0.02154
G1 X194.044 Y167.004 E0.39605
G1 X113.892 Y166.571 E2.51315
G1 X41.237 Y136.249 E2.46846
G1 X37.629 Y134.101 E0.13165
G1 X36.977 Y133.469 E0.02849
G1 X36.661 Y132.829 E0.02237
G1 X36.549 Y132.124 E0.02237
G1 X36.550 Y56.658 E2.36618
G1 X36.621 Y56.097 E0.01775
G1 X36.824 Y55.568 E0.01775
G1 X37.144 Y55.105 E0.01763
G1 X37.521 Y54.768 E0.01587
G1 E-0.80000 F2100.00000
G1 Z0.800 F10800.000
G1 X118.628 Y110.347
G1 Z0.200
G1 E0.80000 F2100.00000
G1 F1200.000
G1 X118.628 Y132.499 E0.69455
G1 X119.382 Y132.499 E0.02365
G1 X119.382 Y110.517 E0.68923
G1 X120.136 Y110.517 E0.02365
G1 X120.136 Y132.499 E0.68923
G1 X120.890 Y132.499 E0.02365
G1 X120.890 Y110.517 E0.68923
G1 X121.644 Y110.517 E0.02365
G1 X121.644 Y114.000 E0.10921
G1 X121.674 Y113.970 E0.00131
G1 X122.399 Y113.970 E0.02272
G1 X122.399 Y110.517 E0.10828
G1 X123.153 Y110.517 E0.02365
G1 X123.153 Y113.970 E0.10828
G1 X123.907 Y113.970 E0.02365
G1 X123.907 Y110.517 E0.10828
G1 X124.661 Y110.517 E0.02365
G1 X124.661 Y113.970 E0.10828
G1 X125.415 Y113.970 E0.02365
G1 X125.415 Y110.517 E0.10828
G1 X126.169 Y110.517 E0.02365
G1 X126.169 Y113.970 E0.10828
G1 X126.924 Y113.970 E0.02365
G1 X126.924 Y110.517 E0.10828
G1 X127.678 Y110.517 E0.02365
G1 X127.678 Y113.970 E0.10828
G1 X128.432 Y113.970 E0.02365
G1 X128.432 Y110.517 E0.10828
G1 X129.186 Y110.517 E0.02365
G1 X129.186 Y113.970 E0.10828
G1 X129.940 Y113.970 E0.02365
G1 X129.940 Y110.517 E0.10828
G1 X130.694 Y110.517 E0.02365
G1 X130.694 Y113.970 E0.10828
G1 X131.448 Y113.970 E0.02365
G1 X131.448 Y110.517 E0.10828
G1 X132.203 Y110.517 E0.02365
G1 X132.203 Y113.970 E0.10828
G1 X132.957 Y113.970 E0.02365
G1 X132.957 Y110.517 E0.10828
G1 X133.711 Y110.517 E0.02365
G1 X133.711 Y113.970 E0.10828
G1 X134.465 Y113.970 E0.02365
G1 X134.465 Y110.517 E0.10828
G1 X135.219 Y110.517 E0.02365
G1 X135.219 Y113.970 E0.10828
G1 X135.973 Y113.970 E0.02365
G1 X135.973 Y110.517 E0.10828
G1 X136.728 Y110.517 E0.02365
G1 X136.728 Y113.970 E0.10828
G1 X137.482 Y113.970 E0.02365
G1 X137.482 Y110.517 E0.10828
G1 X138.236 Y110.517 E0.02365
G1 X138.236 Y113.970 E0.10828
G1 X138.990 Y113.970 E0.02365
G1 X138.990 Y110.517 E0.10828
G1 X139.744 Y110.517 E0.02365
G1 X139.744 Y113.970 E0.10828
G1 X140.498 Y113.970 E0.02365
G1 X140.498 Y110.517 E0.10828
G1 X141.253 Y110.517 E0.02365
G1 X141.253 Y113.970 E0.10828
G1 X142.007 Y113.970 E0.02365
G1 X142.007 Y110.517 E0.10828
G1 X142.761 Y110.517 E0.02365
G1 X142.761 Y113.970 E0.10828
G1 X143.515 Y113.970 E0.02365
G1 X143.515 Y110.517 E0.10828
G1 X144.269 Y110.517 E0.02365
G1 X144.269 Y113.970 E0.10828
G1 X145.023 Y113.970 E0.02365
G1 X145.023 Y110.517 E0.10828
G1 X145.777 Y110.517 E0.02365
G1 X145.777 Y113.970 E0.10828
G1 X146.532 Y113.970 E0.02365
G1 X146.532 Y110.517 E0.10828
G1 X147.286 Y110.517 E0.02365
G1 X147.286 Y113.970 E0.10828
G1 X148.040 Y113.970 E0.02365
G1 X148.040 Y110.517 E0.10829
G1 X148.794 Y110.517 E0.02365
G1 X148.794 Y114.140 E0.11361
G1 E-0.80000 F2100.00000
G1 Z0.800 F10800.000
G1 X157.090 Y114.141
G1 Z0.200
G1 E0.80000 F2100.00000
G1 F1200.000
G1 X157.090 Y99.042 E0.47339
G1 X157.844 Y99.042 E0.02365
G1 X157.844 Y113.971 E0.46807
G1 X158.598 Y113.971 E0.02365
G1 X158.598 Y99.042 E0.46807
G1 X159.352 Y99.042 E0.02365
G1 X159.352 Y113.971 E0.46807
G1 X160.107 Y113.971 E0.02365
G1 X160.107 Y99.042 E0.46807
G1 X160.861 Y99.042 E0.02365
G1 X160.861 Y113.971 E0.46808
G1 X161.577 Y113.971 E0.02245
G1 X161.615 Y113.971 E0.00120
G1 X161.615 Y99.042 E0.46808
G1 X162.369 Y99.042 E0.02365
G1 X162.369 Y113.971 E0.46808
G1 X163.123 Y113.971 E0.02365
G1 X163.123 Y99.042 E0.46808
G1 X163.877 Y99.042 E0.02365
G1 X163.877 Y114.067 E0.47108
M73 P0 R267
G1 X164.068 Y114.257 E0.00844
G1 X164.068 Y116.435 E0.06827
G1 X164.631 Y116.435 E0.01768
G1 X164.631 Y99.042 E0.54532
G1 X165.386 Y99.042 E0.02365
G1 X165.386 Y116.435 E0.54532
G1 X166.140 Y116.435 E0.02365
G1 X166.140 Y99.042 E0.54532
G1 X166.894 Y99.042 E0.02365
G1 X166.894 Y116.604 E0.55064
G1 E-0.80000 F2100.00000
G1 Z0.800 F10800.000
G1 X145.777 Y134.774
G1 Z0.200
G1 E0.80000 F2100.00000
G1 F1200.000
G1 X145.777 Y141.678 E0.21649
G1 X146.532 Y141.678 E0.02365
G1 X146.532 Y134.943 E0.21117
G1 X147.286 Y134.943 E0.02365
G1 X147.286 Y141.678 E0.21117
G1 X148.040 Y141.678 E0.02365
G1 X148.040 Y134.943 E0.21117
G1 X148.794 Y134.943 E0.02365
G1 X148.794 Y141.678 E0.21117
G1 X149.548 Y141.678 E0.02365
G1 X149.548 Y134.943 E0.21117
G1 X150.302 Y134.943 E0.02365
G1 X150.302 Y141.678 E0.21117
G1 X151.057 Y141.678 E0.02365
G1 X151.057 Y134.943 E0.21117
G1 X151.811 Y134.944 E0.02365
G1 X151.811 Y141.678 E0.21117
G1 X152.493 Y141.678 E0.02139
G1 X152.493 Y143.973 E0.07195
G1 X152.565 Y143.973 E0.00225
G1 X152.565 Y134.944 E0.28312
G1 X153.319 Y134.944 E0.02365
G1 X153.319 Y143.973 E0.28312
G1 X154.073 Y143.973 E0.02365
G1 X154.073 Y134.944 E0.28312
G1 X154.827 Y134.944 E0.02365
G1 X154.827 Y143.973 E0.28312
G1 X155.582 Y143.973 E0.02365
G1 X155.582 Y134.944 E0.28312
G1 X156.336 Y134.944 E0.02365
G1 X156.336 Y143.973 E0.28311
G1 X157.083 Y143.973 E0.02343
G1 X157.083 Y146.268 E0.07195
G1 X157.090 Y134.944 E0.35507
G1 X157.844 Y134.944 E0.02365
G1 X157.844 Y146.268 E0.35507
G1 X158.598 Y146.268 E0.02365
G1 X158.598 Y134.944 E0.35507
G1 X159.352 Y134.944 E0.02365
G1 X159.352 Y146.268 E0.35507
G1 X160.107 Y146.268 E0.02365
G1 X160.107 Y134.944 E0.35506
G1 X160.861 Y134.944 E0.02365
G1 X160.861 Y146.268 E0.35506
G1 X161.615 Y146.268 E0.02365
G1 X161.615 Y134.944 E0.35506
G1 X162.369 Y134.944 E0.02365
G1 X162.369 Y146.268 E0.35506
G1 X163.123 Y146.268 E0.02365
G1 X163.123 Y134.944 E0.35506
G1 X163.782 Y134.944 E0.02064
G1 X163.877 Y134.848 E0.00425
G1 X163.877 Y146.268 E0.35806
G1 X163.968 Y146.268 E0.00283
G1 X163.968 Y148.563 E0.07195
G1 X164.631 Y148.563 E0.02082
G1 X164.631 Y131.171 E0.54532
G1 X165.386 Y131.171 E0.02365
G1 X165.386 Y148.563 E0.54532
G1 X166.140 Y148.563 E0.02365
G1 X166.140 Y131.171 E0.54532
G1 X166.894 Y131.171 E0.02365
G1 X166.894 Y148.563 E0.54532
G1 X167.648 Y148.563 E0.02365
G1 X167.648 Y131.171 E0.54532
G1 X168.402 Y131.171 E0.02365
G1 X168.402 Y148.563 E0.54532
G1 X169.156 Y148.563 E0.02365
G1 X169.156 Y131.171 E0.54532
G1 X169.911 Y131.171 E0.02365
G1 X169.911 Y148.563 E0.54532
G1 X170.665 Y148.563 E0.02365
G1 X170.665 Y131.171 E0.54532
G1 X171.419 Y131.171 E0.02365
G1 X171.419 Y150.858 E0.61727
G1 X172.173 Y150.858 E0.02365
G1 X172.180 Y131.171 E0.61727
G1 X172.180 Y133.466 E0.07195
G1 X172.927 Y133.466 E0.02343
G1 X172.927 Y150.858 E0.54532
G1 X173.681 Y150.858 E0.02365
G1 X173.681 Y133.466 E0.54532
G1 X174.436 Y133.466 E0.02365
G1 X174.436 Y150.858 E0.54532
G1 X175.190 Y150.858 E0.02365
G1 X175.190 Y133.466 E0.54532
G1 X175.944 Y133.466 E0.02365
G1 X175.944 Y153.153 E0.61727
G1 X176.698 Y153.153 E0.02365
G1 X176.698 Y133.466 E0.61727
G1 X177.452 Y133.466 E0.02365
G1 X177.452 Y153.153 E0.61727
G1 X178.206 Y153.153 E0.02365
G1 X178.206 Y133.466 E0.61727
G1 X178.960 Y133.466 E0.02365
G1 X178.960 Y153.153 E0.61727
G1 X179.715 Y153.153 E0.02365
G1 X179.715 Y135.761 E0.54532
G1 X180.469 Y135.761 E0.02365
G1 X180.469 Y153.153 E0.54532
G1 X181.223 Y153.153 E0.02365
G1 X181.223 Y135.761 E0.54532
G1 X181.977 Y135.761 E0.02365
G1 X181.977 Y153.153 E0.54532
G1 X182.327 Y153.153 E0.01096
G1 X182.327 Y155.448 E0.07195
G1 X182.731 Y155.448 E0.01269
G1 X182.731 Y135.761 E0.61727
G1 X183.485 Y135.761 E0.02365
G1 X183.485 Y155.448 E0.61727
G1 X184.240 Y155.448 E0.02365
G1 X184.240 Y138.056 E0.54532
G1 X184.994 Y138.056 E0.02365
G1 X184.994 Y155.448 E0.54532
G1 X185.748 Y155.448 E0.02365
G1 X185.748 Y138.056 E0.54532
G1 X186.502 Y138.056 E0.02365
G1 X186.502 Y155.448 E0.54532
G1 X186.916 Y155.448 E0.01299
G1 X186.916 Y157.743 E0.07195
G1 X187.256 Y157.743 E0.01066
G1 X187.256 Y138.056 E0.61727
G1 X188.010 Y138.056 E0.02365
G1 X188.010 Y157.743 E0.61727
G1 X188.765 Y157.743 E0.02365
G1 X188.765 Y138.056 E0.61727
G1 X189.519 Y138.056 E0.02365
G1 X189.519 Y157.743 E0.61727
G1 X190.273 Y157.743 E0.02365
G1 X190.273 Y138.056 E0.61727
G1 X190.539 Y138.056 E0.00835
G1 X190.539 Y140.350 E0.07195
G1 X191.027 Y140.350 E0.01530
G1 X191.027 Y157.743 E0.54532
G1 X191.781 Y157.743 E0.02365
G1 X191.781 Y140.350 E0.54532
G1 X192.535 Y140.350 E0.02365
G1 X192.535 Y157.743 E0.54532
G1 X193.290 Y157.743 E0.02365
G1 X193.290 Y140.350 E0.54532
G1 X194.044 Y140.350 E0.02365
G1 X194.044 Y164.627 E0.76118
G1 X194.798 Y164.627 E0.02365
G1 X194.798 Y140.350 E0.76118
G1 X195.129 Y140.350 E0.01038
G1 X195.129 Y142.645 E0.07195
G1 X195.552 Y142.645 E0.01326
G1 X195.552 Y164.627 E0.68923
G1 X196.306 Y164.627 E0.02365
G1 X196.306 Y142.645 E0.68923
M73 P0 R266
G1 X197.060 Y142.645 E0.02365
G1 X197.060 Y164.627 E0.68923
G1 X197.814 Y164.627 E0.02365
G1 X197.814 Y142.645 E0.68923
G1 X198.569 Y142.645 E0.02365
G1 X198.569 Y164.627 E0.68923
G1 X199.323 Y164.627 E0.02365
G1 X199.323 Y142.645 E0.68923
G1 X200.077 Y142.645 E0.02365
G1 X200.077 Y164.627 E0.68923
G1 X200.831 Y164.627 E0.02365
G1 X200.831 Y142.645 E0.68923
G1 X201.585 Y142.645 E0.02365
G1 X201.585 Y164.627 E0.68923
G1 X202.339 Y164.627 E0.02365
G1 X202.339 Y144.940 E0.61727
G1 X203.094 Y144.940 E0.02365
G1 X203.094 Y164.627 E0.61727
G1 X203.848 Y164.627 E0.02365
G1 X203.848 Y144.940 E0.61727
G1 X204.602 Y144.940 E0.02365
G1 X204.602 Y164.627 E0.61727
G1 X205.356 Y164.627 E0.02365
G1 X205.356 Y144.940 E0.61727
G1 X206.110 Y144.940 E0.02365
G1 X206.110 Y164.627 E0.61727
G1 X206.603 Y164.627 E0.01546
G1 X206.603 Y157.743 E0.21586
G1 X206.864 Y157.743 E0.00818
G1 X206.864 Y144.940 E0.40141
G1 X207.619 Y144.940 E0.02365
G1 X207.619 Y157.743 E0.40141
G1 X208.373 Y157.743 E0.02365
G1 X208.373 Y144.940 E0.40141
G1 X208.898 Y144.940 E0.01648
G1 X208.898 Y147.235 E0.07195
G1 X209.127 Y147.235 E0.00717
G1 X209.127 Y157.743 E0.32945
G1 X209.881 Y157.743 E0.02365
G1 X209.881 Y147.235 E0.32945
G1 X210.635 Y147.235 E0.02365
G1 X210.635 Y157.912 E0.33477
G1 E-0.80000 F2100.00000
G1 Z0.800 F10800.000
G1 X162.792 Y133.668
G1 Z0.200
G1 E0.80000 F2100.00000
G1 F1200.000
G1 X122.663 Y133.668 E1.25821
G1 X122.663 Y115.246 E0.57760
G1 X162.792 Y115.247 E1.25821
G1 X162.792 Y133.608 E0.57572
G1 X163.169 Y134.045 F10800.000
G1 F1200.000
G1 X122.286 Y134.045 E1.28185
G1 X122.286 Y114.869 E0.60124
G1 X163.169 Y114.870 E1.28185
G1 X163.169 Y133.985 E0.59936
G1 X162.773 Y133.987 F10800.000
G1 E-0.80000 F2100.00000
G1 Z0.800 F10800.000
G1 X122.777 Y132.792
G1 Z0.200
G1 E0.80000 F2100.00000
G1 F1200.000
G1 X123.370 Y133.385 E0.02632
G1 X123.903 Y133.385 E0.01675
G1 X122.946 Y132.428 E0.04247
G1 X122.946 Y131.894 E0.01675
G1 X124.437 Y133.385 E0.06616
G1 X124.971 Y133.385 E0.01675
G1 X122.946 Y131.360 E0.08984
G1 X122.946 Y130.827 E0.01675
G1 X125.505 Y133.385 E0.11353
G1 X126.038 Y133.385 E0.01675
G1 X122.946 Y130.293 E0.13721
G1 X122.946 Y129.759 E0.01675
G1 X126.572 Y133.385 E0.16089
G1 X127.106 Y133.385 E0.01675
G1 X122.946 Y129.226 E0.18458
G1 X122.946 Y128.692 E0.01675
G1 X127.639 Y133.385 E0.20826
G1 X128.173 Y133.385 E0.01675
G1 X122.946 Y128.158 E0.23195
G1 X122.946 Y127.624 E0.01675
G1 X128.707 Y133.385 E0.25563
G1 X129.240 Y133.385 E0.01675
G1 X122.946 Y127.091 E0.27931
G1 X122.946 Y126.557 E0.01675
G1 X129.774 Y133.385 E0.30300
G1 X130.308 Y133.385 E0.01675
G1 X122.946 Y126.023 E0.32668
G1 X122.946 Y125.490 E0.01675
G1 X130.842 Y133.385 E0.35037
G1 X131.375 Y133.385 E0.01675
G1 X122.946 Y124.956 E0.37405
G1 X122.946 Y124.422 E0.01675
G1 X131.909 Y133.385 E0.39773
G1 X132.443 Y133.385 E0.01675
G1 X122.946 Y123.889 E0.42142
G1 X122.946 Y123.355 E0.01675
G1 X132.976 Y133.385 E0.44510
G1 X133.510 Y133.385 E0.01675
G1 X122.946 Y122.821 E0.46879
G1 X122.946 Y122.288 E0.01675
G1 X134.044 Y133.385 E0.49247
G1 X134.577 Y133.385 E0.01675
G1 X122.946 Y121.754 E0.51615
G1 X122.946 Y121.220 E0.01675
G1 X135.111 Y133.385 E0.53984
G1 X135.645 Y133.385 E0.01675
G1 X122.946 Y120.686 E0.56352
G1 X122.946 Y120.153 E0.01675
G1 X136.179 Y133.385 E0.58721
G1 X136.712 Y133.385 E0.01675
G1 X122.946 Y119.619 E0.61089
G1 X122.946 Y119.085 E0.01675
G1 X137.246 Y133.385 E0.63457
G1 X137.780 Y133.385 E0.01675
G1 X122.946 Y118.552 E0.65826
G1 X122.946 Y118.018 E0.01675
G1 X138.313 Y133.385 E0.68194
G1 X138.847 Y133.385 E0.01675
G1 X122.946 Y117.484 E0.70563
G1 X122.946 Y116.951 E0.01675
G1 X139.381 Y133.385 E0.72931
G1 X139.914 Y133.385 E0.01675
G1 X122.946 Y116.417 E0.75299
G1 X122.946 Y115.883 E0.01675
G1 X140.448 Y133.385 E0.77668
G1 X140.982 Y133.385 E0.01675
G1 X123.125 Y115.529 E0.79241
G1 X123.659 Y115.529 E0.01675
G1 X141.516 Y133.385 E0.79241
G1 X142.049 Y133.385 E0.01675
G1 X124.193 Y115.529 E0.79241
G1 X124.727 Y115.529 E0.01675
G1 X142.583 Y133.385 E0.79241
G1 X143.117 Y133.385 E0.01675
G1 X125.260 Y115.529 E0.79241
M73 P1 R265
G1 X125.794 Y115.529 E0.01675
G1 X143.650 Y133.385 E0.79241
G1 X144.184 Y133.385 E0.01675
G1 X126.328 Y115.529 E0.79241
G1 X126.861 Y115.529 E0.01675
G1 X144.718 Y133.385 E0.79241
G1 X145.251 Y133.385 E0.01675
G1 X127.395 Y115.529 E0.79241
G1 X127.929 Y115.529 E0.01675
G1 X145.785 Y133.385 E0.79241
G1 X146.319 Y133.385 E0.01675
G1 X128.463 Y115.529 E0.79241
G1 X128.996 Y115.529 E0.01675
G1 X146.853 Y133.385 E0.79241
G1 X147.386 Y133.385 E0.01675
G1 X129.530 Y115.529 E0.79241
G1 X130.064 Y115.529 E0.01675
G1 X147.920 Y133.385 E0.79241
G1 X148.454 Y133.385 E0.01675
G1 X130.597 Y115.529 E0.79241
G1 X131.131 Y115.529 E0.01675
G1 X148.987 Y133.385 E0.79241
G1 X149.521 Y133.385 E0.01675
G1 X131.665 Y115.529 E0.79241
G1 X132.198 Y115.529 E0.01675
G1 X150.055 Y133.385 E0.79241
G1 X150.589 Y133.385 E0.01675
G1 X132.732 Y115.529 E0.79241
G1 X133.266 Y115.529 E0.01675
G1 X151.122 Y133.385 E0.79241
G1 X151.656 Y133.385 E0.01675
G1 X133.800 Y115.529 E0.79241
G1 X134.333 Y115.529 E0.01675
G1 X152.190 Y133.385 E0.79241
G1 X152.723 Y133.385 E0.01675
G1 X134.867 Y115.529 E0.79241
