; generated by PrusaSlicer 2.1.1+win64 on 2020-04-23 at 18:14:25 UTC

; 

; external perimeters extrusion width = 0.45mm
; perimeters extrusion width = 0.45mm
; infill extrusion width = 0.45mm
; solid infill extrusion width = 0.45mm
; top infill extrusion width = 0.40mm
; support material extrusion width = 0.35mm
; first layer extrusion width = 0.42mm

M73 P0 R40
M201 X9000 Y9000 Z500 E10000 ; sets maximum accelerations, mm/sec^2
M203 X500 Y500 Z12 E120 ; sets maximum feedrates, mm/sec
M204 P2000 R1500 T2000 ; sets acceleration (P, T) and retract acceleration (R), mm/sec^2
M205 X10.00 Y10.00 Z0.20 E2.50 ; sets the jerk limits, mm/sec
M205 S0 T0 ; sets the minimum extruding and travel feed rate, mm/sec
M107
M862.3 P "MK2.5SMMU2S" ; printer model check
M862.1 P0.4 ; nozzle diameter check
M115 U3.8.0 ; tell printer latest fw version
G90 ; use absolute coordinates
M83 ; extruder relative mode
M104 S215 ; set extruder temp
M140 S60 ; set bed temp
Tx
M190 S60 ; wait for bed temp
M109 S215 ; wait for extruder temp
G28 W ; home all without mesh bed level
G80 ; mesh bed leveling

G21 ; set units to millimeters

;go outside print area
G1 Y-3.0 F1000.0
G1 Z0.4 F1000.0
; select extruder
Tc
; purge line
G1 X55.0 F2000.0
G1 Z0.3 F1000.0
G92 E0.0
G1 X240.0 E25.0 F2200.0
M73 P0 R40
G1 Y-2.0 F1000.0
G1 X55.0 E25 F1400.0
G1 Z0.20 F1000.0
G1 X5.0 E4.0 F1000.0
G92 E0.0
G21 ; set units to millimeters
G90 ; use absolute coordinates
M83 ; use relative distances for extrusion
M900 K30 ; Filament gcode
;BEFORE_LAYER_CHANGE
G92 E0.0
;0.2


G1 E-0.80000 F2100.00000
G1 Z0.600 F10800.000
;AFTER_LAYER_CHANGE
;0.2
G1 X99.505 Y85.723
G1 Z0.200
G1 E0.80000 F2100.00000
M204 S1000
G1 F1200
G1 X100.679 Y85.106 E0.04157
G1 X143.547 Y67.352 E1.45482
G1 X144.950 Y66.929 E0.04594
G1 X146.425 Y66.784 E0.04649
G1 X147.897 Y66.930 E0.04637
G1 X149.313 Y67.359 E0.04637
G1 X150.620 Y68.057 E0.04649
G1 X151.749 Y68.980 E0.04569
G1 X163.736 Y81.867 E0.55187
G1 X165.102 Y83.711 E0.07193
G1 X166.180 Y85.510 E0.06577
G1 X166.702 Y86.542 E0.03624
G1 X167.166 Y87.594 E0.03606
G1 X167.871 Y89.565 E0.06566
G1 X168.422 Y91.753 E0.07074
G1 X168.618 Y92.890 E0.03617
G1 X168.823 Y94.974 E0.06566
G1 X168.826 Y97.230 E0.07074
G1 X168.739 Y98.380 E0.03617
G1 X168.432 Y100.452 E0.06566
G1 X167.887 Y102.641 E0.07074
G1 X167.523 Y103.736 E0.03617
G1 X166.720 Y105.674 E0.06577
G1 X165.640 Y107.696 E0.07188
G1 X164.438 Y109.492 E0.06776
G1 X163.054 Y111.180 E0.06845
G1 X151.813 Y123.212 E0.51626
G1 X150.649 Y124.180 E0.04746
G1 X149.484 Y124.818 E0.04168
G1 X106.347 Y142.688 E1.46398
G1 X104.851 Y143.101 E0.04864
G1 X103.578 Y143.216 E0.04008
G1 X102.309 Y143.101 E0.03997
G1 X100.725 Y142.656 E0.05159
G1 X99.435 Y141.978 E0.04569
G1 X98.192 Y140.961 E0.05036
G1 X86.243 Y128.107 E0.55027
G1 X84.956 Y126.376 E0.06765
G1 X84.311 Y125.358 E0.03777
G1 X83.300 Y123.462 E0.06738
G1 X82.473 Y121.469 E0.06765
G1 X81.819 Y119.321 E0.07040
G1 X81.382 Y117.110 E0.07067
G1 X81.177 Y115.026 E0.06566
G1 X81.147 Y113.922 E0.03464
G1 X81.255 Y111.672 E0.07062
G1 X81.589 Y109.443 E0.07067
G1 X82.098 Y107.412 E0.06566
G1 X82.442 Y106.362 E0.03464
G1 X83.301 Y104.280 E0.07062
G1 X84.360 Y102.304 E0.07028
G1 X85.562 Y100.508 E0.06776
G1 X86.963 Y98.801 E0.06925
G1 X98.200 Y86.775 E0.51603
G1 X99.458 Y85.761 E0.05069
G1 E-0.80000 F2100.00000
G1 Z0.800 F10800.000
G1 X103.620 Y140.149
G1 Z0.200
G1 E0.80000 F2100.00000
G1 F1200
G1 X102.715 Y140.060 E0.02851
G1 X101.845 Y139.796 E0.02851
G1 X101.043 Y139.368 E0.02851
G1 X100.341 Y138.791 E0.02851
G1 X99.764 Y138.088 E0.02851
G1 X99.335 Y137.286 E0.02851
G1 X99.071 Y136.416 E0.02851
G1 X98.982 Y135.511 E0.02851
G1 X99.071 Y134.607 E0.02851
G1 X99.335 Y133.737 E0.02851
G1 X99.764 Y132.935 E0.02851
G1 X100.341 Y132.232 E0.02851
G1 X101.043 Y131.655 E0.02851
G1 X101.846 Y131.226 E0.02852
G1 X102.737 Y130.960 E0.02916
G1 X103.620 Y130.874 E0.02782
G1 X104.525 Y130.963 E0.02851
G1 X105.395 Y131.227 E0.02851
G1 X106.197 Y131.655 E0.02851
G1 X106.900 Y132.232 E0.02851
G1 X107.476 Y132.935 E0.02851
G1 X107.905 Y133.737 E0.02851
G1 X108.169 Y134.607 E0.02851
G1 X108.258 Y135.511 E0.02851
G1 X108.169 Y136.416 E0.02851
G1 X107.905 Y137.286 E0.02851
G1 X107.476 Y138.088 E0.02851
G1 X106.900 Y138.791 E0.02851
G1 X106.197 Y139.368 E0.02851
G1 X105.395 Y139.796 E0.02851
G1 X104.525 Y140.060 E0.02851
G1 X103.680 Y140.143 E0.02663
G1 X103.420 Y140.496 F10800.000
G1 E-0.80000 F2100.00000
G1 Z0.800 F10800.000
G1 X103.579 Y127.587
G1 Z0.200
G1 E0.80000 F2100.00000
G1 F1200
G1 X102.906 Y127.571 E0.02111
G1 X102.235 Y127.521 E0.02111
G1 X101.566 Y127.439 E0.02111
G1 X100.903 Y127.324 E0.02111
G1 X100.246 Y127.176 E0.02111
G1 X99.598 Y126.997 E0.02111
G1 X98.958 Y126.786 E0.02111
G1 X98.330 Y126.543 E0.02111
G1 X97.715 Y126.271 E0.02111
G1 X97.113 Y125.968 E0.02111
G1 X96.528 Y125.636 E0.02111
G1 X95.959 Y125.276 E0.02111
G1 X95.409 Y124.888 E0.02111
G1 X94.878 Y124.474 E0.02111
G1 X94.368 Y124.034 E0.02111
G1 X93.881 Y123.570 E0.02111
G1 X93.416 Y123.083 E0.02111
G1 X92.977 Y122.573 E0.02111
G1 X92.562 Y122.042 E0.02111
G1 X92.175 Y121.492 E0.02111
G1 X91.815 Y120.923 E0.02111
G1 X91.483 Y120.337 E0.02111
G1 X91.180 Y119.736 E0.02111
G1 X90.907 Y119.120 E0.02111
G1 X90.665 Y118.492 E0.02111
G1 X90.454 Y117.853 E0.02111
G1 X90.274 Y117.204 E0.02111
G1 X90.127 Y116.547 E0.02111
G1 X90.012 Y115.884 E0.02111
G1 X89.929 Y115.216 E0.02111
G1 X89.880 Y114.545 E0.02111
G1 X89.863 Y113.872 E0.02111
G1 X89.880 Y113.199 E0.02111
G1 X89.929 Y112.527 E0.02111
G1 X90.012 Y111.859 E0.02111
G1 X90.127 Y111.196 E0.02111
G1 X90.274 Y110.539 E0.02111
G1 X90.454 Y109.890 E0.02111
G1 X90.665 Y109.251 E0.02111
G1 X90.907 Y108.623 E0.02111
G1 X91.180 Y108.007 E0.02111
G1 X91.483 Y107.406 E0.02111
G1 X91.815 Y106.820 E0.02111
G1 X92.175 Y106.252 E0.02111
G1 X92.562 Y105.701 E0.02111
G1 X92.977 Y105.171 E0.02111
G1 X93.416 Y104.661 E0.02111
G1 X93.881 Y104.173 E0.02111
G1 X94.368 Y103.709 E0.02111
G1 X94.878 Y103.269 E0.02111
G1 X95.409 Y102.855 E0.02111
G1 X95.959 Y102.467 E0.02111
G1 X96.528 Y102.107 E0.02111
G1 X97.113 Y101.776 E0.02111
G1 X97.715 Y101.473 E0.02111
G1 X98.330 Y101.200 E0.02111
G1 X98.958 Y100.958 E0.02111
G1 X99.598 Y100.747 E0.02111
G1 X100.246 Y100.567 E0.02111
G1 X100.903 Y100.420 E0.02111
G1 X101.567 Y100.304 E0.02111
G1 X102.235 Y100.222 E0.02112
G1 X102.920 Y100.172 E0.02154
G1 X103.579 Y100.156 E0.02066
G1 X104.252 Y100.173 E0.02111
G1 X104.923 Y100.222 E0.02111
G1 X105.592 Y100.304 E0.02111
G1 X106.255 Y100.420 E0.02111
G1 X106.912 Y100.567 E0.02111
G1 X107.560 Y100.747 E0.02111
G1 X108.200 Y100.958 E0.02111
G1 X108.828 Y101.200 E0.02111
G1 X109.443 Y101.473 E0.02111
G1 X110.045 Y101.776 E0.02111
G1 X110.630 Y102.107 E0.02111
G1 X111.199 Y102.468 E0.02111
G1 X111.749 Y102.855 E0.02111
G1 X112.280 Y103.269 E0.02111
G1 X112.790 Y103.709 E0.02111
G1 X113.277 Y104.173 E0.02111
G1 X113.742 Y104.661 E0.02111
G1 X114.181 Y105.171 E0.02111
G1 X114.596 Y105.701 E0.02111
G1 X114.983 Y106.252 E0.02111
G1 X115.343 Y106.820 E0.02111
G1 X115.675 Y107.406 E0.02111
G1 X115.978 Y108.007 E0.02111
G1 X116.251 Y108.623 E0.02111
G1 X116.493 Y109.251 E0.02111
G1 X116.704 Y109.890 E0.02111
G1 X116.884 Y110.539 E0.02111
G1 X117.031 Y111.196 E0.02111
G1 X117.146 Y111.859 E0.02111
G1 X117.229 Y112.527 E0.02111
G1 X117.278 Y113.199 E0.02111
G1 X117.295 Y113.872 E0.02111
G1 X117.278 Y114.545 E0.02111
G1 X117.229 Y115.216 E0.02111
G1 X117.146 Y115.884 E0.02111
G1 X117.031 Y116.547 E0.02111
G1 X116.884 Y117.204 E0.02111
G1 X116.704 Y117.853 E0.02111
G1 X116.493 Y118.492 E0.02111
G1 X116.251 Y119.120 E0.02111
G1 X115.978 Y119.736 E0.02111
G1 X115.675 Y120.337 E0.02111
G1 X115.343 Y120.923 E0.02111
G1 X114.983 Y121.492 E0.02111
G1 X114.596 Y122.042 E0.02111
G1 X114.181 Y122.573 E0.02111
G1 X113.742 Y123.083 E0.02111
G1 X113.277 Y123.570 E0.02111
G1 X112.790 Y124.034 E0.02111
G1 X112.280 Y124.474 E0.02111
G1 X111.749 Y124.888 E0.02111
G1 X111.199 Y125.276 E0.02111
G1 X110.630 Y125.636 E0.02111
G1 X110.045 Y125.968 E0.02111
G1 X109.443 Y126.271 E0.02111
G1 X108.828 Y126.543 E0.02111
G1 X108.200 Y126.786 E0.02111
G1 X107.560 Y126.997 E0.02111
G1 X106.912 Y127.176 E0.02111
G1 X106.255 Y127.324 E0.02111
G1 X105.591 Y127.439 E0.02111
G1 X104.923 Y127.521 E0.02111
G1 X104.252 Y127.571 E0.02111
G1 X103.639 Y127.586 E0.01923
G1 X103.579 Y127.210 F10800.000
G1 F1200
G1 X102.924 Y127.194 E0.02053
G1 X102.272 Y127.146 E0.02053
G1 X101.622 Y127.066 E0.02053
G1 X100.977 Y126.954 E0.02053
G1 X100.338 Y126.810 E0.02053
G1 X99.707 Y126.636 E0.02053
G1 X99.085 Y126.430 E0.02053
G1 X98.475 Y126.195 E0.02053
G1 X97.876 Y125.930 E0.02053
G1 X97.291 Y125.635 E0.02053
G1 X96.722 Y125.313 E0.02053
G1 X96.169 Y124.962 E0.02053
G1 X95.633 Y124.585 E0.02053
G1 X95.117 Y124.183 E0.02053
G1 X94.621 Y123.755 E0.02053
G1 X94.147 Y123.303 E0.02053
G1 X93.696 Y122.829 E0.02053
G1 X93.268 Y122.334 E0.02053
G1 X92.865 Y121.817 E0.02053
G1 X92.488 Y121.282 E0.02053
G1 X92.138 Y120.729 E0.02053
G1 X91.815 Y120.159 E0.02053
G1 X91.521 Y119.575 E0.02053
G1 X91.256 Y118.976 E0.02053
G1 X91.020 Y118.365 E0.02053
G1 X90.815 Y117.744 E0.02053
G1 X90.640 Y117.113 E0.02053
G1 X90.497 Y116.474 E0.02053
G1 X90.385 Y115.829 E0.02053
G1 X90.305 Y115.179 E0.02053
G1 X90.257 Y114.526 E0.02053
G1 X90.240 Y113.872 E0.02053
G1 X90.257 Y113.217 E0.02053
G1 X90.305 Y112.564 E0.02053
G1 X90.385 Y111.915 E0.02053
G1 X90.497 Y111.269 E0.02053
G1 X90.640 Y110.631 E0.02053
G1 X90.815 Y110.000 E0.02053
G1 X91.020 Y109.378 E0.02053
G1 X91.256 Y108.767 E0.02053
G1 X91.521 Y108.169 E0.02053
G1 X91.815 Y107.584 E0.02053
G1 X92.138 Y107.014 E0.02053
G1 X92.488 Y106.461 E0.02053
G1 X92.865 Y105.926 E0.02053
G1 X93.268 Y105.410 E0.02053
G1 X93.696 Y104.914 E0.02053
G1 X94.147 Y104.440 E0.02053
G1 X94.621 Y103.989 E0.02053
G1 X95.117 Y103.561 E0.02053
G1 X95.633 Y103.158 E0.02053
G1 X96.169 Y102.781 E0.02053
G1 X96.722 Y102.431 E0.02053
G1 X97.291 Y102.108 E0.02053
G1 X97.876 Y101.814 E0.02053
G1 X98.475 Y101.549 E0.02053
G1 X99.085 Y101.313 E0.02053
G1 X99.707 Y101.108 E0.02053
G1 X100.338 Y100.933 E0.02053
G1 X100.977 Y100.789 E0.02053
G1 X101.622 Y100.678 E0.02053
G1 X102.272 Y100.597 E0.02053
G1 X102.939 Y100.549 E0.02096
G1 X103.579 Y100.533 E0.02009
G1 X104.233 Y100.549 E0.02053
G1 X104.886 Y100.597 E0.02053
G1 X105.536 Y100.678 E0.02053
G1 X106.181 Y100.789 E0.02053
G1 X106.820 Y100.933 E0.02053
G1 X107.451 Y101.108 E0.02053
G1 X108.073 Y101.313 E0.02053
G1 X108.683 Y101.549 E0.02053
G1 X109.282 Y101.814 E0.02053
G1 X109.867 Y102.108 E0.02053
G1 X110.436 Y102.431 E0.02053
G1 X110.989 Y102.781 E0.02053
G1 X111.525 Y103.158 E0.02053
G1 X112.041 Y103.561 E0.02053
G1 X112.537 Y103.989 E0.02053
G1 X113.011 Y104.440 E0.02053
G1 X113.462 Y104.914 E0.02053
G1 X113.890 Y105.410 E0.02053
G1 X114.293 Y105.926 E0.02053
G1 X114.670 Y106.461 E0.02053
G1 X115.020 Y107.014 E0.02053
G1 X115.343 Y107.584 E0.02053
G1 X115.637 Y108.169 E0.02053
G1 X115.902 Y108.767 E0.02053
G1 X116.138 Y109.378 E0.02053
G1 X116.343 Y110.000 E0.02053
G1 X116.518 Y110.631 E0.02053
G1 X116.661 Y111.269 E0.02053
G1 X116.773 Y111.915 E0.02053
G1 X116.853 Y112.564 E0.02053
G1 X116.901 Y113.217 E0.02053
G1 X116.917 Y113.872 E0.02053
G1 X116.901 Y114.526 E0.02053
G1 X116.853 Y115.179 E0.02053
G1 X116.773 Y115.829 E0.02053
G1 X116.661 Y116.474 E0.02053
G1 X116.518 Y117.113 E0.02053
G1 X116.343 Y117.744 E0.02053
G1 X116.138 Y118.365 E0.02053
G1 X115.902 Y118.976 E0.02053
G1 X115.637 Y119.575 E0.02053
G1 X115.343 Y120.159 E0.02053
G1 X115.020 Y120.729 E0.02053
G1 X114.670 Y121.282 E0.02053
G1 X114.293 Y121.817 E0.02053
G1 X113.890 Y122.334 E0.02053
G1 X113.462 Y122.829 E0.02053
G1 X113.011 Y123.303 E0.02053
G1 X112.537 Y123.755 E0.02053
G1 X112.041 Y124.183 E0.02053
G1 X111.525 Y124.585 E0.02053
G1 X110.989 Y124.962 E0.02053
G1 X110.436 Y125.313 E0.02053
G1 X109.867 Y125.635 E0.02053
G1 X109.282 Y125.930 E0.02053
G1 X108.683 Y126.195 E0.02053
G1 X108.073 Y126.430 E0.02053
G1 X107.451 Y126.636 E0.02053
G1 X106.820 Y126.810 E0.02053
G1 X106.181 Y126.954 E0.02053
G1 X105.536 Y127.066 E0.02053
G1 X104.886 Y127.146 E0.02053
G1 X104.233 Y127.194 E0.02053
G1 X103.639 Y127.209 E0.01864
G1 X103.379 Y127.557 F10800.000
G1 E-0.80000 F2100.00000
G1 Z0.800 F10800.000
G1 X99.178 Y133.231
G1 Z0.200
G1 E0.80000 F2100.00000
G1 F1200
G1 X98.459 Y132.849 E0.02553
G1 X97.875 Y132.682 E0.01903
G1 X96.957 Y132.379 E0.03032
G1 X96.057 Y132.032 E0.03025
G1 X95.175 Y131.641 E0.03025
G1 X94.313 Y131.207 E0.03025
G1 X93.474 Y130.732 E0.03025
G1 X92.658 Y130.215 E0.03025
G1 X91.870 Y129.660 E0.03025
G1 X91.128 Y129.081 E0.02949
G1 X90.378 Y128.436 E0.03102
G1 X89.680 Y127.771 E0.03024
G1 X89.015 Y127.072 E0.03025
G1 X88.384 Y126.342 E0.03025
G1 X87.791 Y125.581 E0.03025
G1 X87.235 Y124.792 E0.03025
G1 X86.719 Y123.977 E0.03025
G1 X86.244 Y123.138 E0.03025
G1 X85.810 Y122.276 E0.03025
G1 X85.419 Y121.394 E0.03025
G1 X85.072 Y120.494 E0.03025
G1 X84.769 Y119.578 E0.03025
G1 X84.512 Y118.648 E0.03025
G1 X84.300 Y117.706 E0.03025
G1 X84.135 Y116.756 E0.03025
G1 X84.017 Y115.798 E0.03025
G1 X83.946 Y114.836 E0.03025
G1 X83.923 Y113.872 E0.03025
G1 X83.946 Y112.907 E0.03025
G1 X84.015 Y111.969 E0.02949
G1 X84.135 Y110.987 E0.03102
G1 X84.300 Y110.037 E0.03024
G1 X84.512 Y109.096 E0.03025
G1 X84.769 Y108.166 E0.03025
G1 X85.072 Y107.250 E0.03025
G1 X85.419 Y106.350 E0.03025
G1 X85.810 Y105.467 E0.03025
G1 X86.233 Y104.627 E0.02949
G1 X86.719 Y103.766 E0.03102
G1 X87.235 Y102.951 E0.03024
G1 X87.791 Y102.162 E0.03025
G1 X88.384 Y101.402 E0.03025
G1 X89.015 Y100.671 E0.03025
G1 X89.680 Y99.972 E0.03025
G1 X90.361 Y99.324 E0.02949
G1 X91.109 Y98.677 E0.03102
G1 X91.870 Y98.083 E0.03024
G1 X92.658 Y97.528 E0.03025
G1 X93.474 Y97.012 E0.03025
G1 X94.292 Y96.548 E0.02949
G1 X95.175 Y96.102 E0.03102
G1 X96.057 Y95.711 E0.03024
G1 X96.957 Y95.364 E0.03025
G1 X97.875 Y95.061 E0.03032
G1 X98.459 Y94.894 E0.01903
G1 X99.114 Y94.547 E0.02326
G1 X99.367 Y95.019 E0.01680
G1 X99.990 Y95.779 E0.03084
G1 X100.751 Y96.403 E0.03084
G1 X101.618 Y96.867 E0.03084
G1 X102.559 Y97.152 E0.03084
G1 X103.538 Y97.249 E0.03084
G1 X104.517 Y97.152 E0.03084
G1 X105.458 Y96.867 E0.03084
G1 X106.325 Y96.403 E0.03084
G1 X107.085 Y95.779 E0.03084
G1 X107.709 Y95.019 E0.03084
G1 X107.980 Y94.513 E0.01801
G1 X108.699 Y94.894 E0.02553
G1 X109.283 Y95.061 E0.01903
G1 X110.201 Y95.364 E0.03032
G1 X111.101 Y95.712 E0.03025
G1 X111.983 Y96.102 E0.03025
G1 X112.845 Y96.536 E0.03025
G1 X113.684 Y97.012 E0.03025
G1 X114.500 Y97.528 E0.03025
G1 X115.288 Y98.083 E0.03025
G1 X116.049 Y98.677 E0.03025
G1 X116.779 Y99.307 E0.03025
G1 X117.478 Y99.972 E0.03025
G1 X118.143 Y100.671 E0.03025
G1 X118.774 Y101.402 E0.03025
G1 X119.367 Y102.162 E0.03025
G1 X119.923 Y102.951 E0.03025
G1 X120.426 Y103.746 E0.02949
G1 X120.915 Y104.606 E0.03102
G1 X121.348 Y105.467 E0.03024
G1 X121.739 Y106.350 E0.03025
G1 X122.086 Y107.250 E0.03025
G1 X122.389 Y108.166 E0.03025
G1 X122.646 Y109.096 E0.03025
G1 X122.858 Y110.037 E0.03025
G1 X123.023 Y110.988 E0.03025
G1 X123.141 Y111.945 E0.03025
G1 X123.212 Y112.907 E0.03025
G1 X123.235 Y113.872 E0.03025
G1 X123.212 Y114.836 E0.03025
G1 X123.143 Y115.774 E0.02949
G1 X123.023 Y116.756 E0.03102
G1 X122.858 Y117.706 E0.03024
G1 X122.646 Y118.648 E0.03025
G1 X122.389 Y119.578 E0.03025
G1 X122.086 Y120.494 E0.03025
G1 X121.739 Y121.394 E0.03025
G1 X121.348 Y122.276 E0.03025
G1 X120.925 Y123.116 E0.02949
G1 X120.439 Y123.977 E0.03102
G1 X119.923 Y124.792 E0.03024
G1 X119.367 Y125.581 E0.03025
G1 X118.774 Y126.342 E0.03025
G1 X118.143 Y127.072 E0.03025
G1 X117.478 Y127.771 E0.03025
G1 X116.779 Y128.436 E0.03025
G1 X116.049 Y129.066 E0.03025
G1 X115.288 Y129.660 E0.03025
G1 X114.500 Y130.215 E0.03025
G1 X113.684 Y130.732 E0.03025
G1 X112.845 Y131.207 E0.03025
G1 X111.983 Y131.641 E0.03025
G1 X111.101 Y132.032 E0.03025
G1 X110.201 Y132.379 E0.03025
G1 X109.283 Y132.682 E0.03032
G1 X108.699 Y132.849 E0.01903
G1 X108.044 Y133.197 E0.02326
G1 X107.791 Y132.724 E0.01680
G1 X107.168 Y131.964 E0.03084
G1 X106.407 Y131.340 E0.03084
G1 X105.540 Y130.876 E0.03084
