; generated by PrusaSlicer 2.1.1+win64 on 2020-04-23 at 18:17:06 UTC

; 

; external perimeters extrusion width = 0.45mm
; perimeters extrusion width = 0.45mm
; infill extrusion width = 0.45mm
; solid infill extrusion width = 0.45mm
; top infill extrusion width = 0.40mm
; support material extrusion width = 0.35mm
; first layer extrusion width = 0.42mm

M73 P0 R107
M201 X9000 Y9000 Z500 E10000 ; sets maximum accelerations, mm/sec^2
M203 X500 Y500 Z12 E120 ; sets maximum feedrates, mm/sec
M204 P2000 R1500 T2000 ; sets acceleration (P, T) and retract acceleration (R), mm/sec^2
M205 X10.00 Y10.00 Z0.20 E2.50 ; sets the jerk limits, mm/sec
M205 S0 T0 ; sets the minimum extruding and travel feed rate, mm/sec
M107
M862.3 P "MK2.5SMMU2S" ; printer model check
M862.1 P0.4 ; nozzle diameter check
M115 U3.8.0 ; tell printer latest fw version
G90 ; use absolute coordinates
M83 ; extruder relative mode
M104 S215 ; set extruder temp
M140 S60 ; set bed temp
Tx
M190 S60 ; wait for bed temp
M109 S215 ; wait for extruder temp
G28 W ; home all without mesh bed level
G80 ; mesh bed leveling

G21 ; set units to millimeters

;go outside print area
G1 Y-3.0 F1000.0
G1 Z0.4 F1000.0
; select extruder
Tc
; purge line
G1 X55.0 F2000.0
G1 Z0.3 F1000.0
G92 E0.0
G1 X240.0 E25.0 F2200.0
M73 P0 R107
G1 Y-2.0 F1000.0
G1 X55.0 E25 F1400.0
G1 Z0.20 F1000.0
G1 X5.0 E4.0 F1000.0
G92 E0.0
G21 ; set units to millimeters
G90 ; use absolute coordinates
M83 ; use relative distances for extrusion
M900 K30 ; Filament gcode
;BEFORE_LAYER_CHANGE
G92 E0.0
;0.2


G1 E-0.80000 F2100.00000
G1 Z0.600 F10800.000
;AFTER_LAYER_CHANGE
;0.2
G1 X96.549 Y80.693
G1 Z0.200
G1 E0.80000 F2100.00000
M204 S1000
G1 F1200
G1 X98.418 Y78.417 E0.09234
G1 X100.709 Y76.538 E0.09291
G1 X103.317 Y75.146 E0.09268
G1 X106.239 Y74.273 E0.09564
G1 X109.062 Y74.001 E0.08891
G1 X140.924 Y74.001 E0.99901
G1 X143.852 Y74.289 E0.09225
G1 X146.506 Y75.082 E0.08685
G1 X149.469 Y76.669 E0.10538
G1 X151.591 Y78.426 E0.08639
G1 X153.464 Y80.712 E0.09268
G1 X154.850 Y83.307 E0.09222
G1 X155.697 Y86.081 E0.09097
G1 X155.999 Y89.062 E0.09393
G1 X155.996 Y121.034 E1.00245
G1 X155.710 Y123.859 E0.08905
G1 X154.922 Y126.496 E0.08627
G1 X153.451 Y129.307 E0.09949
G1 X151.569 Y131.596 E0.09291
G1 X149.122 Y133.564 E0.09846
G1 X146.690 Y134.852 E0.08628
G1 X144.067 Y135.658 E0.08605
G1 X141.091 Y135.992 E0.09389
G1 X108.941 Y135.995 E1.00806
G1 X106.141 Y135.710 E0.08825
G1 X103.501 Y134.920 E0.08639
G1 X100.693 Y133.451 E0.09937
G1 X98.404 Y131.569 E0.09291
G1 X96.436 Y129.122 E0.09846
G1 X95.148 Y126.690 E0.08628
G1 X94.343 Y124.070 E0.08593
G1 X94.008 Y121.091 E0.09400
G1 X94.005 Y88.941 E1.00806
G1 X94.290 Y86.141 E0.08825
G1 X95.080 Y83.501 E0.08639
G1 X96.521 Y80.746 E0.09749
G1 E-0.80000 F2100.00000
G1 Z0.800 F10800.000
G1 X109.080 Y133.221
G1 Z0.200
G1 E0.80000 F2100.00000
G1 F1200
G1 X106.680 Y132.984 E0.07560
G1 X104.372 Y132.284 E0.07560
G1 X102.246 Y131.148 E0.07560
G1 X100.382 Y129.618 E0.07560
G1 X98.852 Y127.754 E0.07560
G1 X97.716 Y125.628 E0.07560
G1 X97.016 Y123.320 E0.07560
G1 X96.779 Y120.920 E0.07560
G1 X97.016 Y118.521 E0.07560
G1 X97.716 Y116.213 E0.07560
G1 X98.852 Y114.087 E0.07560
G1 X100.382 Y112.223 E0.07560
G1 X102.246 Y110.693 E0.07560
G1 X104.372 Y109.557 E0.07560
G1 X106.680 Y108.857 E0.07560
G1 X109.089 Y108.621 E0.07589
G1 X111.479 Y108.857 E0.07531
G1 X113.787 Y109.557 E0.07560
G1 X115.913 Y110.693 E0.07560
G1 X117.777 Y112.223 E0.07560
G1 X119.307 Y114.087 E0.07560
G1 X120.443 Y116.213 E0.07560
G1 X121.143 Y118.521 E0.07560
G1 X121.380 Y120.920 E0.07560
G1 X121.143 Y123.320 E0.07560
G1 X120.443 Y125.628 E0.07560
G1 X119.307 Y127.754 E0.07560
G1 X117.777 Y129.618 E0.07560
G1 X115.913 Y131.148 E0.07560
G1 X113.787 Y132.284 E0.07560
G1 X111.479 Y132.984 E0.07560
G1 X109.139 Y133.215 E0.07372
G1 X109.080 Y133.600 F10800.000
G1 F1200
G1 X106.606 Y133.356 E0.07793
G1 X104.227 Y132.634 E0.07793
G1 X102.035 Y131.463 E0.07793
G1 X100.114 Y129.886 E0.07793
G1 X98.537 Y127.965 E0.07793
G1 X97.366 Y125.773 E0.07793
G1 X96.644 Y123.394 E0.07793
G1 X96.400 Y120.920 E0.07793
G1 X96.644 Y118.447 E0.07793
G1 X97.366 Y116.068 E0.07793
G1 X98.537 Y113.876 E0.07793
G1 X100.114 Y111.955 E0.07793
G1 X102.035 Y110.378 E0.07793
G1 X104.227 Y109.207 E0.07793
G1 X106.606 Y108.485 E0.07793
G1 X109.089 Y108.242 E0.07822
G1 X111.553 Y108.485 E0.07764
G1 X113.932 Y109.207 E0.07793
G1 X116.124 Y110.378 E0.07793
G1 X118.045 Y111.955 E0.07793
G1 X119.622 Y113.876 E0.07793
G1 X120.793 Y116.068 E0.07793
G1 X121.515 Y118.447 E0.07793
G1 X121.759 Y120.920 E0.07793
G1 X121.515 Y123.394 E0.07793
G1 X120.793 Y125.773 E0.07793
G1 X119.622 Y127.965 E0.07793
G1 X118.045 Y129.886 E0.07793
G1 X116.124 Y131.463 E0.07793
G1 X113.932 Y132.634 E0.07793
G1 X111.553 Y133.356 E0.07793
G1 X109.139 Y133.594 E0.07605
G1 X108.880 Y133.253 F10800.000
G1 E-0.80000 F2100.00000
G1 Z0.800 F10800.000
G1 X104.430 Y132.184
G1 Z0.200
G1 E0.80000 F2100.00000
G1 F1200
G1 X98.223 Y125.976 E0.27842
G1 X97.978 Y125.519 E0.01645
G1 X97.836 Y125.050 E0.01553
G1 X104.950 Y132.164 E0.31907
G1 X105.724 Y132.399 E0.02566
G1 X97.601 Y124.276 E0.36433
G1 X97.366 Y123.502 E0.02566
G1 X106.498 Y132.634 E0.40960
G1 X106.735 Y132.706 E0.00785
G1 X107.151 Y132.746 E0.01323
G1 X97.254 Y122.849 E0.44391
G1 X97.195 Y122.251 E0.01907
G1 X107.749 Y132.805 E0.47339
G1 X108.347 Y132.864 E0.01907
G1 X97.136 Y121.653 E0.50287
G1 X97.077 Y121.054 E0.01907
G1 X108.946 Y132.923 E0.53235
G1 X109.080 Y132.936 E0.00427
G1 X109.461 Y132.899 E0.01215
G1 X97.101 Y120.539 E0.55435
G1 X97.149 Y120.048 E0.01565
G1 X109.952 Y132.851 E0.57421
G1 X110.443 Y132.802 E0.01565
G1 X97.198 Y119.557 E0.59407
G1 X97.246 Y119.066 E0.01565
G1 X110.934 Y132.754 E0.61392
G1 X111.425 Y132.705 E0.01564
G1 X97.295 Y118.575 E0.63376
G1 X97.420 Y118.161 E0.01372
G1 X111.839 Y132.580 E0.64669
G1 X112.252 Y132.454 E0.01372
G1 X97.546 Y117.748 E0.65962
G1 X97.671 Y117.334 E0.01372
G1 X112.666 Y132.329 E0.67256
G1 X113.080 Y132.203 E0.01372
G1 X97.797 Y116.920 E0.68549
G1 X97.922 Y116.506 E0.01372
G1 X113.494 Y132.078 E0.69842
G1 X113.678 Y132.022 E0.00609
G1 X113.873 Y131.917 E0.00703
G1 X98.083 Y116.127 E0.70824
G1 X98.271 Y115.775 E0.01264
G1 X114.225 Y131.729 E0.71558
G1 X114.576 Y131.542 E0.01264
G1 X98.458 Y115.424 E0.72292
G1 X98.646 Y115.072 E0.01264
G1 X114.928 Y131.354 E0.73026
G1 X115.279 Y131.166 E0.01264
G1 X98.834 Y114.721 E0.73760
G1 X99.022 Y114.369 E0.01264
G1 X115.631 Y130.978 E0.74494
G1 X115.755 Y130.911 E0.00448
G1 X115.947 Y130.754 E0.00785
G1 X99.246 Y114.053 E0.74908
G1 X99.489 Y113.757 E0.01216
G1 X116.243 Y130.511 E0.75146
G1 X116.539 Y130.268 E0.01216
G1 X99.732 Y113.461 E0.75384
G1 X99.975 Y113.165 E0.01216
G1 X116.835 Y130.025 E0.75622
G1 X117.132 Y129.782 E0.01216
G1 X100.218 Y112.868 E0.75861
M73 P1 R106
G1 X100.461 Y112.572 E0.01216
G1 X117.428 Y129.539 E0.76099
G1 X117.576 Y129.417 E0.00608
G1 X117.698 Y129.269 E0.00608
G1 X100.731 Y112.302 E0.76099
G1 X101.027 Y112.059 E0.01216
G1 X117.941 Y128.973 E0.75861
G1 X118.184 Y128.676 E0.01216
G1 X101.324 Y111.816 E0.75622
G1 X101.620 Y111.573 E0.01216
G1 X118.427 Y128.380 E0.75384
G1 X118.670 Y128.084 E0.01216
G1 X101.916 Y111.330 E0.75146
G1 X102.212 Y111.087 E0.01216
G1 X118.913 Y127.788 E0.74908
G1 X119.071 Y127.596 E0.00785
G1 X119.137 Y127.472 E0.00447
G1 X102.528 Y110.863 E0.74494
G1 X102.880 Y110.675 E0.01264
G1 X119.325 Y127.120 E0.73760
G1 X119.513 Y126.769 E0.01264
G1 X103.231 Y110.487 E0.73026
G1 X103.583 Y110.299 E0.01264
G1 X119.701 Y126.417 E0.72292
G1 X119.889 Y126.066 E0.01264
G1 X103.934 Y110.111 E0.71558
G1 X104.286 Y109.924 E0.01264
G1 X120.076 Y125.714 E0.70824
G1 X120.181 Y125.519 E0.00703
G1 X120.237 Y125.335 E0.00609
G1 X104.665 Y109.763 E0.69842
G1 X105.079 Y109.638 E0.01372
G1 X120.362 Y124.921 E0.68549
G1 X120.488 Y124.507 E0.01372
G1 X105.493 Y109.512 E0.67256
G1 X105.907 Y109.387 E0.01372
G1 X120.613 Y124.093 E0.65962
G1 X120.739 Y123.680 E0.01372
G1 X106.320 Y109.261 E0.64669
G1 X106.734 Y109.136 E0.01372
G1 X120.864 Y123.266 E0.63376
G1 X120.913 Y122.775 E0.01564
G1 X107.226 Y109.087 E0.61391
G1 X107.717 Y109.039 E0.01566
G1 X120.961 Y122.284 E0.59404
G1 X121.010 Y121.793 E0.01565
G1 X108.208 Y108.991 E0.57417
G1 X108.700 Y108.943 E0.01566
G1 X121.058 Y121.302 E0.55430
G1 X121.096 Y120.920 E0.01215
G1 X121.082 Y120.787 E0.00427
G1 X109.213 Y108.918 E0.53235
G1 X109.812 Y108.977 E0.01907
G1 X121.023 Y120.188 E0.50287
G1 X120.965 Y119.590 E0.01907
G1 X110.410 Y109.035 E0.47339
G1 X111.008 Y109.094 E0.01907
G1 X120.906 Y118.992 E0.44391
G1 X120.865 Y118.576 E0.01324
G1 X120.793 Y118.339 E0.00785
G1 X111.661 Y109.207 E0.40960
G1 X112.435 Y109.442 E0.02566
G1 X120.558 Y117.565 E0.36434
G1 X120.323 Y116.791 E0.02566
G1 X113.209 Y109.677 E0.31908
G1 X113.678 Y109.819 E0.01553
G1 X114.135 Y110.064 E0.01644
G1 X120.343 Y116.271 E0.27842
G1 X119.730 Y115.119 F10800.000
G1 F1200
G1 X114.881 Y110.270 E0.21752
G1 X116.342 Y111.191 F10800.000
G1 F1200
G1 X118.809 Y113.658 E0.11065
G1 E-0.80000 F2100.00000
G1 Z0.800 F10800.000
G1 X103.278 Y131.571
G1 Z0.200
G1 E0.80000 F2100.00000
G1 F1200
G1 X98.429 Y126.722 E0.21751
G1 X99.351 Y128.183 F10800.000
G1 F1200
G1 X101.817 Y130.649 E0.11063
G1 E-0.80000 F2100.00000
G1 Z0.800 F10800.000
G1 X140.920 Y133.221
G1 Z0.200
G1 E0.80000 F2100.00000
G1 F1200
G1 X138.521 Y132.984 E0.07560
G1 X136.213 Y132.284 E0.07560
G1 X134.087 Y131.148 E0.07560
G1 X132.223 Y129.618 E0.07560
G1 X130.693 Y127.754 E0.07560
G1 X129.557 Y125.628 E0.07560
G1 X128.857 Y123.320 E0.07560
G1 X128.620 Y120.920 E0.07560
G1 X128.857 Y118.521 E0.07560
G1 X129.557 Y116.213 E0.07560
G1 X130.693 Y114.087 E0.07560
G1 X132.223 Y112.223 E0.07560
G1 X134.087 Y110.693 E0.07560
G1 X136.213 Y109.557 E0.07560
G1 X138.521 Y108.857 E0.07560
G1 X140.930 Y108.621 E0.07589
G1 X143.320 Y108.857 E0.07531
G1 X145.628 Y109.557 E0.07560
G1 X147.754 Y110.693 E0.07560
G1 X149.618 Y112.223 E0.07560
G1 X151.148 Y114.087 E0.07560
G1 X152.284 Y116.213 E0.07560
G1 X152.984 Y118.521 E0.07560
G1 X153.221 Y120.920 E0.07560
G1 X152.984 Y123.320 E0.07560
G1 X152.284 Y125.628 E0.07560
G1 X151.148 Y127.754 E0.07560
G1 X149.618 Y129.618 E0.07560
G1 X147.754 Y131.148 E0.07560
G1 X145.628 Y132.284 E0.07560
G1 X143.320 Y132.984 E0.07560
G1 X140.980 Y133.215 E0.07372
G1 X140.920 Y133.600 F10800.000
G1 F1200
G1 X138.447 Y133.356 E0.07793
G1 X136.068 Y132.634 E0.07793
G1 X133.876 Y131.463 E0.07793
G1 X131.955 Y129.886 E0.07793
G1 X130.378 Y127.965 E0.07793
G1 X129.207 Y125.773 E0.07793
G1 X128.485 Y123.394 E0.07793
G1 X128.241 Y120.920 E0.07793
G1 X128.485 Y118.447 E0.07793
G1 X129.207 Y116.068 E0.07793
G1 X130.378 Y113.876 E0.07793
G1 X131.955 Y111.955 E0.07793
G1 X133.876 Y110.378 E0.07793
G1 X136.068 Y109.207 E0.07793
G1 X138.447 Y108.485 E0.07793
G1 X140.930 Y108.242 E0.07822
G1 X143.394 Y108.485 E0.07764
G1 X145.773 Y109.207 E0.07793
G1 X147.965 Y110.378 E0.07793
G1 X149.886 Y111.955 E0.07793
G1 X151.463 Y113.876 E0.07793
G1 X152.634 Y116.068 E0.07793
G1 X153.356 Y118.447 E0.07793
G1 X153.600 Y120.920 E0.07793
G1 X153.356 Y123.394 E0.07793
G1 X152.634 Y125.773 E0.07793
G1 X151.463 Y127.965 E0.07793
G1 X149.886 Y129.886 E0.07793
G1 X147.965 Y131.463 E0.07793
G1 X145.773 Y132.634 E0.07793
G1 X143.394 Y133.356 E0.07793
G1 X140.980 Y133.594 E0.07605
G1 X140.720 Y133.253 F10800.000
G1 E-0.80000 F2100.00000
G1 Z0.800 F10800.000
G1 X136.271 Y132.184
G1 Z0.200
G1 E0.80000 F2100.00000
G1 F1200
G1 X130.064 Y125.976 E0.27842
G1 X129.819 Y125.519 E0.01645
G1 X129.677 Y125.050 E0.01553
G1 X136.791 Y132.164 E0.31907
G1 X137.565 Y132.399 E0.02566
G1 X129.442 Y124.276 E0.36433
G1 X129.207 Y123.502 E0.02566
G1 X138.339 Y132.634 E0.40960
G1 X138.576 Y132.706 E0.00785
G1 X138.992 Y132.746 E0.01323
G1 X129.094 Y122.849 E0.44391
G1 X129.035 Y122.251 E0.01907
G1 X139.590 Y132.805 E0.47339
G1 X140.188 Y132.864 E0.01907
G1 X128.977 Y121.653 E0.50287
G1 X128.918 Y121.054 E0.01907
G1 X140.787 Y132.923 E0.53235
G1 X140.920 Y132.936 E0.00427
G1 X141.302 Y132.899 E0.01215
G1 X128.942 Y120.539 E0.55435
G1 X128.990 Y120.048 E0.01565
G1 X141.793 Y132.851 E0.57421
G1 X142.284 Y132.802 E0.01565
G1 X129.039 Y119.557 E0.59407
G1 X129.087 Y119.066 E0.01565
G1 X142.775 Y132.754 E0.61392
G1 X143.266 Y132.705 E0.01564
G1 X129.136 Y118.575 E0.63376
G1 X129.261 Y118.161 E0.01372
G1 X143.679 Y132.580 E0.64669
G1 X144.093 Y132.454 E0.01372
G1 X129.387 Y117.748 E0.65962
G1 X129.512 Y117.334 E0.01372
G1 X144.507 Y132.329 E0.67256
G1 X144.921 Y132.203 E0.01372
G1 X129.638 Y116.920 E0.68549
G1 X129.763 Y116.506 E0.01372
G1 X145.335 Y132.078 E0.69842
G1 X145.519 Y132.022 E0.00609
G1 X145.714 Y131.917 E0.00703
G1 X129.924 Y116.127 E0.70824
G1 X130.111 Y115.775 E0.01264
G1 X146.066 Y131.729 E0.71558
M73 P1 R105
G1 X146.417 Y131.542 E0.01264
G1 X130.299 Y115.424 E0.72292
G1 X130.487 Y115.072 E0.01264
G1 X146.769 Y131.354 E0.73026
G1 X147.120 Y131.166 E0.01264
G1 X130.675 Y114.721 E0.73760
G1 X130.863 Y114.369 E0.01264
G1 X147.472 Y130.978 E0.74494
G1 X147.596 Y130.911 E0.00448
G1 X147.788 Y130.754 E0.00785
G1 X131.087 Y114.053 E0.74908
G1 X131.330 Y113.757 E0.01216
G1 X148.084 Y130.511 E0.75146
G1 X148.380 Y130.268 E0.01216
G1 X131.573 Y113.461 E0.75384
G1 X131.816 Y113.165 E0.01216
G1 X148.676 Y130.025 E0.75622
G1 X148.973 Y129.782 E0.01216
G1 X132.059 Y112.868 E0.75861
G1 X132.302 Y112.572 E0.01216
G1 X149.269 Y129.539 E0.76099
G1 X149.417 Y129.417 E0.00608
G1 X149.539 Y129.269 E0.00608
G1 X132.572 Y112.302 E0.76099
G1 X132.868 Y112.059 E0.01216
G1 X149.782 Y128.973 E0.75861
G1 X150.025 Y128.676 E0.01216
G1 X133.164 Y111.816 E0.75622
G1 X133.461 Y111.573 E0.01216
G1 X150.268 Y128.380 E0.75384
G1 X150.511 Y128.084 E0.01216
G1 X133.757 Y111.330 E0.75146
G1 X134.053 Y111.087 E0.01216
G1 X150.754 Y127.788 E0.74908
G1 X150.911 Y127.596 E0.00785
G1 X150.978 Y127.472 E0.00447
G1 X134.369 Y110.863 E0.74494
G1 X134.721 Y110.675 E0.01264
G1 X151.166 Y127.120 E0.73760
G1 X151.354 Y126.769 E0.01264
G1 X135.072 Y110.487 E0.73026
G1 X135.424 Y110.299 E0.01264
G1 X151.542 Y126.417 E0.72292
G1 X151.729 Y126.066 E0.01264
G1 X135.775 Y110.111 E0.71558
G1 X136.127 Y109.924 E0.01264
G1 X151.917 Y125.714 E0.70824
G1 X152.022 Y125.519 E0.00703
G1 X152.078 Y125.335 E0.00609
G1 X136.506 Y109.763 E0.69842
G1 X136.920 Y109.638 E0.01372
G1 X152.203 Y124.921 E0.68549
G1 X152.329 Y124.507 E0.01372
G1 X137.334 Y109.512 E0.67256
G1 X137.748 Y109.387 E0.01372
G1 X152.454 Y124.093 E0.65962
G1 X152.580 Y123.680 E0.01372
G1 X138.161 Y109.261 E0.64669
G1 X138.575 Y109.136 E0.01372
G1 X152.705 Y123.266 E0.63376
G1 X152.754 Y122.775 E0.01564
G1 X139.066 Y109.087 E0.61391
G1 X139.558 Y109.039 E0.01566
G1 X152.802 Y122.284 E0.59404
G1 X152.851 Y121.793 E0.01565
G1 X140.049 Y108.991 E0.57417
G1 X140.541 Y108.943 E0.01566
G1 X152.899 Y121.302 E0.55430
G1 X152.936 Y120.920 E0.01215
G1 X152.923 Y120.787 E0.00427
G1 X141.054 Y108.918 E0.53235
G1 X141.653 Y108.977 E0.01907
G1 X152.864 Y120.188 E0.50287
G1 X152.805 Y119.590 E0.01907
G1 X142.251 Y109.035 E0.47339
G1 X142.849 Y109.094 E0.01907
G1 X152.746 Y118.992 E0.44391
G1 X152.706 Y118.576 E0.01324
G1 X152.634 Y118.339 E0.00785
G1 X143.501 Y109.207 E0.40960
G1 X144.276 Y109.442 E0.02566
G1 X152.399 Y117.565 E0.36434
G1 X152.164 Y116.791 E0.02566
G1 X145.050 Y109.677 E0.31908
G1 X145.519 Y109.819 E0.01553
G1 X145.976 Y110.064 E0.01644
G1 X152.184 Y116.271 E0.27842
G1 X151.571 Y115.119 F10800.000
G1 F1200
G1 X146.722 Y110.270 E0.21752
G1 X148.183 Y111.191 F10800.000
G1 F1200
G1 X150.650 Y113.658 E0.11065
G1 E-0.80000 F2100.00000
G1 Z0.800 F10800.000
G1 X135.119 Y131.571
G1 Z0.200
G1 E0.80000 F2100.00000
G1 F1200
G1 X130.270 Y126.722 E0.21751
G1 X131.192 Y128.183 F10800.000
G1 F1200
G1 X133.658 Y130.649 E0.11063
G1 E-0.80000 F2100.00000
G1 Z0.800 F10800.000
G1 X109.080 Y101.380
G1 Z0.200
G1 E0.80000 F2100.00000
G1 F1200
G1 X106.680 Y101.143 E0.07560
G1 X104.372 Y100.443 E0.07560
G1 X102.246 Y99.307 E0.07560
G1 X100.382 Y97.777 E0.07560
G1 X98.852 Y95.913 E0.07560
G1 X97.716 Y93.787 E0.07560
G1 X97.016 Y91.479 E0.07560
G1 X96.779 Y89.080 E0.07560
