; generated by PrusaSlicer 2.2.0+win64 on 2020-11-27 at 17:54:12 UTC

; 

; external perimeters extrusion width = 0.45mm
; perimeters extrusion width = 0.45mm
; infill extrusion width = 0.45mm
; solid infill extrusion width = 0.45mm
; top infill extrusion width = 0.40mm
; first layer extrusion width = 0.42mm

M73 P0 R94
M201 X9000 Y9000 Z500 E10000 ; sets maximum accelerations, mm/sec^2
M203 X500 Y500 Z12 E120 ; sets maximum feedrates, mm/sec
M204 P2000 R1500 T2000 ; sets acceleration (P, T) and retract acceleration (R), mm/sec^2
M205 X10.00 Y10.00 Z0.20 E4.50 ; sets the jerk limits, mm/sec
M205 S0 T0 ; sets the minimum extruding and travel feed rate, mm/sec
M107
M862.3 P "MK2.5SMMU2S" ; printer model check
M862.1 P0.4 ; nozzle diameter check
M115 U3.9.1 ; tell printer latest fw version
G90 ; use absolute coordinates
M83 ; extruder relative mode
M104 S215 ; set extruder temp
M140 S60 ; set bed temp
Tx
M190 S60 ; wait for bed temp
M109 S215 ; wait for extruder temp
G28 W ; home all without mesh bed level
G80 ; mesh bed leveling

;go outside print area
G1 Y-3.0 F1000.0
G1 Z0.4 F1000.0
; select extruder
Tc
; purge line
G1 X55.0 F2000.0
G1 Z0.3 F1000.0
G92 E0.0
G1 X240.0 E25.0 F2200.0
M73 P0 R93
G1 Y-2.0 F1000.0
G1 X55.0 E25 F1400.0
G1 Z0.20 F1000.0
G1 X5.0 E4.0 F1000.0
G92 E0.0
G21 ; set units to millimeters
G90 ; use absolute coordinates
M83 ; use relative distances for extrusion
M900 K0.06 ; Filament gcode LA 1.5
M900 K30 ; Filament gcode LA 1.0
;BEFORE_LAYER_CHANGE
G92 E0.0
;0.2


G1 E-0.80000 F2100.00000
G1 Z0.600 F10800.000
;AFTER_LAYER_CHANGE
;0.2
G1 X96.391 Y80.589
G1 Z0.200
G1 E0.80000 F2100.00000
M204 S1000
G1 F1200.000
G1 X98.286 Y78.282 E0.09360
G1 X100.606 Y76.380 E0.09408
G1 X103.247 Y74.971 E0.09384
G1 X106.205 Y74.087 E0.09680
G1 X109.059 Y73.812 E0.08991
G1 X140.924 Y73.812 E0.99910
G1 X143.887 Y74.103 E0.09333
G1 X146.562 Y74.902 E0.08752
G1 X149.585 Y76.521 E0.10754
G1 X151.726 Y78.294 E0.08716
G1 X153.620 Y80.606 E0.09372
G1 X155.024 Y83.233 E0.09336
G1 X155.881 Y86.037 E0.09194
G1 X156.188 Y89.059 E0.09526
G1 X156.184 Y121.046 E1.00292
G1 X155.895 Y123.894 E0.08976
G1 X155.101 Y126.554 E0.08704
G1 X153.609 Y129.411 E0.10105
G1 X151.700 Y131.731 E0.09420
G1 X149.214 Y133.728 E0.09998
G1 X146.764 Y135.025 E0.08693
G1 X144.122 Y135.839 E0.08669
G1 X141.108 Y136.180 E0.09510
G1 X108.927 Y136.183 E1.00900
G1 X106.106 Y135.895 E0.08892
G1 X103.446 Y135.101 E0.08704
G1 X100.589 Y133.609 E0.10105
G1 X98.269 Y131.700 E0.09420
G1 X96.272 Y129.214 E0.09998
G1 X94.975 Y126.764 E0.08693
G1 X94.161 Y124.122 E0.08669
G1 X93.820 Y121.108 E0.09510
G1 X93.817 Y88.927 E1.00900
G1 X94.105 Y86.106 E0.08892
G1 X94.899 Y83.446 E0.08704
G1 X96.363 Y80.642 E0.09917
G1 F8640.000
G1 X98.286 Y78.282 E-0.70288
G1 X98.477 Y78.125 E-0.05712
G1 E-0.04000 F2100.00000
G1 Z0.800 F10800.000
G1 X140.920 Y101.380
G1 Z0.200
G1 E0.80000 F2100.00000
G1 F1200.000
G1 X138.521 Y101.143 E0.07560
G1 X136.213 Y100.443 E0.07560
G1 X134.087 Y99.307 E0.07560
G1 X132.223 Y97.777 E0.07560
G1 X130.693 Y95.913 E0.07560
G1 X129.557 Y93.787 E0.07560
G1 X128.857 Y91.479 E0.07560
G1 X128.620 Y89.080 E0.07560
G1 X128.857 Y86.680 E0.07560
G1 X129.557 Y84.372 E0.07560
G1 X130.693 Y82.246 E0.07560
G1 X132.223 Y80.382 E0.07560
G1 X134.087 Y78.852 E0.07560
G1 X136.213 Y77.716 E0.07560
G1 X138.521 Y77.016 E0.07560
G1 X140.930 Y76.780 E0.07589
G1 X143.320 Y77.016 E0.07531
G1 X145.628 Y77.716 E0.07560
G1 X147.754 Y78.852 E0.07560
G1 X149.618 Y80.382 E0.07560
G1 X151.148 Y82.246 E0.07560
G1 X152.284 Y84.372 E0.07560
G1 X152.984 Y86.680 E0.07560
G1 X153.221 Y89.080 E0.07560
G1 X152.984 Y91.479 E0.07560
G1 X152.284 Y93.787 E0.07560
G1 X151.148 Y95.913 E0.07560
G1 X149.618 Y97.777 E0.07560
G1 X147.754 Y99.307 E0.07560
G1 X145.628 Y100.443 E0.07560
G1 X143.320 Y101.143 E0.07560
G1 X140.980 Y101.374 E0.07372
G1 X140.920 Y101.759 F10800.000
G1 F1200.000
G1 X138.447 Y101.515 E0.07793
G1 X136.068 Y100.793 E0.07793
G1 X133.876 Y99.622 E0.07793
G1 X131.955 Y98.045 E0.07793
G1 X130.378 Y96.124 E0.07793
G1 X129.207 Y93.932 E0.07793
G1 X128.485 Y91.553 E0.07793
G1 X128.241 Y89.080 E0.07793
G1 X128.485 Y86.606 E0.07793
G1 X129.207 Y84.227 E0.07793
G1 X130.378 Y82.035 E0.07793
G1 X131.955 Y80.114 E0.07793
G1 X133.876 Y78.537 E0.07793
G1 X136.068 Y77.366 E0.07793
G1 X138.447 Y76.644 E0.07793
G1 X140.930 Y76.401 E0.07822
G1 X143.394 Y76.644 E0.07764
G1 X145.773 Y77.366 E0.07793
G1 X147.965 Y78.537 E0.07793
G1 X149.886 Y80.114 E0.07793
G1 X151.463 Y82.035 E0.07793
G1 X152.634 Y84.227 E0.07793
G1 X153.356 Y86.606 E0.07793
G1 X153.600 Y89.080 E0.07793
G1 X153.356 Y91.553 E0.07793
G1 X152.634 Y93.932 E0.07793
G1 X151.463 Y96.124 E0.07793
G1 X149.886 Y98.045 E0.07793
G1 X147.965 Y99.622 E0.07793
G1 X145.773 Y100.794 E0.07793
G1 X143.394 Y101.515 E0.07793
G1 X140.980 Y101.753 E0.07605
G1 X140.720 Y101.412 F10800.000
G1 F8640.000
G1 X138.447 Y101.515 E-0.58751
G1 X137.732 Y101.298 E-0.17249
G1 E-0.04000 F2100.00000
G1 Z0.800 F10800.000
G1 X150.650 Y81.817
G1 Z0.200
G1 E0.80000 F2100.00000
G1 F1200.000
G1 X149.407 Y80.574 E0.05575
G1 X147.596 Y79.089 E0.07428
G1 X147.135 Y78.842 E0.01659
G1 X151.158 Y82.865 E0.18045
G1 X151.777 Y84.024 E0.04167
G1 X145.976 Y78.223 E0.26020
G1 X145.519 Y77.978 E0.01644
G1 X145.050 Y77.836 E0.01554
G1 X152.164 Y84.950 E0.31908
G1 X152.399 Y85.724 E0.02566
G1 X144.276 Y77.601 E0.36434
G1 X143.501 Y77.366 E0.02566
G1 X152.634 Y86.499 E0.40960
G1 X152.706 Y86.735 E0.00785
G1 X152.746 Y87.151 E0.01324
G1 X142.849 Y77.254 E0.44391
G1 X142.251 Y77.195 E0.01907
G1 X152.805 Y87.749 E0.47339
G1 X152.864 Y88.347 E0.01907
G1 X141.653 Y77.136 E0.50287
G1 X141.054 Y77.077 E0.01907
G1 X152.923 Y88.946 E0.53235
G1 X152.936 Y89.080 E0.00427
G1 X152.899 Y89.461 E0.01215
G1 X140.541 Y77.102 E0.55430
G1 X140.049 Y77.150 E0.01566
G1 X152.851 Y89.952 E0.57417
G1 X152.802 Y90.443 E0.01565
G1 X139.558 Y77.199 E0.59404
G1 X139.066 Y77.247 E0.01566
G1 X152.754 Y90.934 E0.61391
G1 X152.705 Y91.425 E0.01564
G1 X138.575 Y77.295 E0.63376
G1 X138.161 Y77.420 E0.01372
G1 X152.580 Y91.839 E0.64669
G1 X152.454 Y92.252 E0.01372
G1 X137.748 Y77.546 E0.65962
G1 X137.334 Y77.671 E0.01372
G1 X152.329 Y92.666 E0.67256
G1 X152.203 Y93.080 E0.01372
G1 X136.920 Y77.797 E0.68549
G1 X136.506 Y77.922 E0.01372
G1 X152.078 Y93.494 E0.69842
G1 X152.022 Y93.678 E0.00609
G1 X151.917 Y93.873 E0.00703
G1 X136.127 Y78.083 E0.70824
G1 X135.775 Y78.271 E0.01264
G1 X151.729 Y94.225 E0.71558
G1 X151.542 Y94.576 E0.01264
G1 X135.424 Y78.458 E0.72292
G1 X135.072 Y78.646 E0.01264
G1 X151.354 Y94.928 E0.73026
G1 X151.166 Y95.279 E0.01264
G1 X134.721 Y78.834 E0.73760
G1 X134.369 Y79.022 E0.01264
G1 X150.978 Y95.631 E0.74494
G1 X150.911 Y95.755 E0.00447
G1 X150.754 Y95.947 E0.00785
G1 X134.053 Y79.246 E0.74907
G1 X133.757 Y79.489 E0.01216
G1 X150.511 Y96.243 E0.75146
G1 X150.268 Y96.539 E0.01216
G1 X133.461 Y79.732 E0.75384
G1 X133.164 Y79.975 E0.01216
G1 X150.025 Y96.836 E0.75622
M73 P1 R92
G1 X149.782 Y97.132 E0.01216
G1 X132.868 Y80.218 E0.75861
G1 X132.572 Y80.461 E0.01216
G1 X149.539 Y97.428 E0.76099
G1 X149.417 Y97.576 E0.00608
G1 X149.269 Y97.698 E0.00608
G1 X132.302 Y80.731 E0.76099
G1 X132.059 Y81.027 E0.01216
G1 X148.973 Y97.941 E0.75861
G1 X148.676 Y98.184 E0.01216
G1 X131.816 Y81.324 E0.75622
G1 X131.573 Y81.620 E0.01216
G1 X148.380 Y98.427 E0.75384
G1 X148.084 Y98.670 E0.01216
G1 X131.330 Y81.916 E0.75146
G1 X131.087 Y82.212 E0.01216
G1 X147.788 Y98.913 E0.74907
G1 X147.596 Y99.071 E0.00785
G1 X147.472 Y99.137 E0.00448
G1 X130.863 Y82.528 E0.74494
G1 X130.675 Y82.880 E0.01264
G1 X147.120 Y99.325 E0.73760
G1 X146.769 Y99.513 E0.01264
G1 X130.487 Y83.231 E0.73026
G1 X130.299 Y83.583 E0.01264
G1 X146.417 Y99.701 E0.72292
G1 X146.066 Y99.889 E0.01264
G1 X130.111 Y83.934 E0.71558
G1 X129.924 Y84.286 E0.01264
G1 X145.714 Y100.076 E0.70824
G1 X145.519 Y100.181 E0.00703
G1 X145.335 Y100.237 E0.00609
G1 X129.763 Y84.665 E0.69842
G1 X129.638 Y85.079 E0.01372
G1 X144.921 Y100.362 E0.68549
G1 X144.507 Y100.488 E0.01372
G1 X129.512 Y85.493 E0.67255
G1 X129.387 Y85.907 E0.01372
G1 X144.093 Y100.613 E0.65962
G1 X143.679 Y100.739 E0.01372
G1 X129.261 Y86.321 E0.64669
G1 X129.136 Y86.734 E0.01372
G1 X143.266 Y100.864 E0.63376
G1 X142.775 Y100.913 E0.01564
G1 X129.087 Y87.225 E0.61392
G1 X129.039 Y87.716 E0.01565
G1 X142.284 Y100.961 E0.59406
G1 X141.793 Y101.010 E0.01565
G1 X128.990 Y88.207 E0.57421
G1 X128.942 Y88.698 E0.01565
G1 X141.302 Y101.058 E0.55435
G1 X140.920 Y101.096 E0.01215
G1 X140.787 Y101.082 E0.00427
G1 X128.918 Y89.213 E0.53234
G1 X128.977 Y89.812 E0.01907
G1 X140.188 Y101.023 E0.50286
G1 X139.590 Y100.965 E0.01907
G1 X129.035 Y90.410 E0.47338
G1 X129.094 Y91.009 E0.01907
G1 X138.991 Y100.906 E0.44390
G1 X138.576 Y100.865 E0.01323
G1 X138.339 Y100.793 E0.00785
G1 X129.207 Y91.661 E0.40959
G1 X129.442 Y92.435 E0.02566
G1 X137.565 Y100.558 E0.36433
G1 X136.791 Y100.323 E0.02566
G1 X129.677 Y93.209 E0.31907
G1 X129.819 Y93.678 E0.01553
G1 X130.064 Y94.135 E0.01645
G1 X135.865 Y99.936 E0.26019
G1 X134.706 Y99.317 E0.04167
G1 X130.683 Y95.294 E0.18043
G1 X130.930 Y95.755 E0.01658
G1 X132.416 Y97.566 E0.07430
G1 X133.658 Y98.808 E0.05571
G1 F8640.000
G1 X132.416 Y97.566 E-0.40557
G1 X131.442 Y96.380 E-0.35443
G1 E-0.04000 F2100.00000
G1 Z0.800 F10800.000
G1 X140.920 Y133.221
G1 Z0.200
G1 E0.80000 F2100.00000
G1 F1200.000
G1 X138.521 Y132.984 E0.07560
G1 X136.213 Y132.284 E0.07560
G1 X134.087 Y131.148 E0.07560
G1 X132.223 Y129.618 E0.07560
G1 X130.693 Y127.754 E0.07560
G1 X129.557 Y125.628 E0.07560
G1 X128.857 Y123.320 E0.07560
G1 X128.620 Y120.920 E0.07560
G1 X128.857 Y118.521 E0.07560
G1 X129.557 Y116.213 E0.07560
G1 X130.693 Y114.087 E0.07560
G1 X132.223 Y112.223 E0.07560
G1 X134.087 Y110.693 E0.07560
G1 X136.213 Y109.557 E0.07560
G1 X138.521 Y108.857 E0.07560
G1 X140.930 Y108.621 E0.07589
G1 X143.320 Y108.857 E0.07531
G1 X145.628 Y109.557 E0.07560
G1 X147.754 Y110.693 E0.07560
G1 X149.618 Y112.223 E0.07560
G1 X151.148 Y114.087 E0.07560
G1 X152.284 Y116.213 E0.07560
G1 X152.984 Y118.521 E0.07560
G1 X153.221 Y120.920 E0.07560
G1 X152.984 Y123.320 E0.07560
G1 X152.284 Y125.628 E0.07560
G1 X151.148 Y127.754 E0.07560
G1 X149.618 Y129.618 E0.07560
G1 X147.754 Y131.148 E0.07560
G1 X145.628 Y132.284 E0.07560
G1 X143.320 Y132.984 E0.07560
G1 X140.980 Y133.215 E0.07372
G1 X140.920 Y133.600 F10800.000
G1 F1200.000
G1 X138.447 Y133.356 E0.07793
G1 X136.068 Y132.634 E0.07793
G1 X133.876 Y131.463 E0.07793
G1 X131.955 Y129.886 E0.07793
G1 X130.378 Y127.965 E0.07793
G1 X129.207 Y125.773 E0.07793
G1 X128.485 Y123.394 E0.07793
G1 X128.241 Y120.920 E0.07793
G1 X128.485 Y118.447 E0.07793
G1 X129.207 Y116.068 E0.07793
G1 X130.378 Y113.876 E0.07793
G1 X131.955 Y111.955 E0.07793
G1 X133.876 Y110.378 E0.07793
G1 X136.068 Y109.207 E0.07793
G1 X138.447 Y108.485 E0.07793
G1 X140.930 Y108.242 E0.07822
G1 X143.394 Y108.485 E0.07764
G1 X145.773 Y109.207 E0.07793
G1 X147.965 Y110.378 E0.07793
G1 X149.886 Y111.955 E0.07793
G1 X151.463 Y113.876 E0.07793
G1 X152.634 Y116.068 E0.07793
G1 X153.356 Y118.447 E0.07793
G1 X153.600 Y120.920 E0.07793
G1 X153.356 Y123.394 E0.07793
G1 X152.634 Y125.773 E0.07793
G1 X151.463 Y127.965 E0.07793
G1 X149.886 Y129.886 E0.07793
G1 X147.965 Y131.463 E0.07793
G1 X145.773 Y132.634 E0.07793
G1 X143.394 Y133.356 E0.07793
G1 X140.980 Y133.594 E0.07605
G1 X140.720 Y133.253 F10800.000
G1 F8640.000
G1 X138.447 Y133.356 E-0.58751
G1 X137.732 Y133.139 E-0.17249
G1 E-0.04000 F2100.00000
G1 Z0.800 F10800.000
G1 X150.650 Y113.658
G1 Z0.200
G1 E0.80000 F2100.00000
G1 F1200.000
G1 X149.407 Y112.415 E0.05575
G1 X147.596 Y110.930 E0.07428
G1 X147.135 Y110.683 E0.01659
G1 X151.158 Y114.706 E0.18045
G1 X151.777 Y115.865 E0.04167
G1 X145.976 Y110.064 E0.26020
G1 X145.519 Y109.819 E0.01644
G1 X145.050 Y109.677 E0.01554
G1 X152.164 Y116.791 E0.31908
G1 X152.399 Y117.565 E0.02566
G1 X144.276 Y109.442 E0.36434
G1 X143.501 Y109.207 E0.02566
G1 X152.634 Y118.339 E0.40960
G1 X152.706 Y118.576 E0.00785
G1 X152.746 Y118.992 E0.01324
G1 X142.849 Y109.094 E0.44391
G1 X142.251 Y109.035 E0.01907
G1 X152.805 Y119.590 E0.47339
G1 X152.864 Y120.188 E0.01907
G1 X141.653 Y108.977 E0.50287
G1 X141.054 Y108.918 E0.01907
G1 X152.923 Y120.787 E0.53235
G1 X152.936 Y120.920 E0.00427
G1 X152.899 Y121.302 E0.01215
G1 X140.541 Y108.943 E0.55430
G1 X140.049 Y108.991 E0.01566
G1 X152.851 Y121.793 E0.57417
G1 X152.802 Y122.284 E0.01565
G1 X139.558 Y109.039 E0.59404
G1 X139.066 Y109.087 E0.01566
G1 X152.754 Y122.775 E0.61391
G1 X152.705 Y123.266 E0.01564
G1 X138.575 Y109.136 E0.63376
G1 X138.161 Y109.261 E0.01372
G1 X152.580 Y123.680 E0.64669
G1 X152.454 Y124.093 E0.01372
G1 X137.748 Y109.387 E0.65962
G1 X137.334 Y109.512 E0.01372
G1 X152.329 Y124.507 E0.67256
G1 X152.203 Y124.921 E0.01372
G1 X136.920 Y109.638 E0.68549
G1 X136.506 Y109.763 E0.01372
G1 X152.078 Y125.335 E0.69842
G1 X152.022 Y125.519 E0.00609
G1 X151.917 Y125.714 E0.00703
G1 X136.127 Y109.924 E0.70824
G1 X135.775 Y110.111 E0.01264
G1 X151.729 Y126.066 E0.71558
M73 P2 R91
G1 X151.542 Y126.417 E0.01264
G1 X135.424 Y110.299 E0.72292
G1 X135.072 Y110.487 E0.01264
G1 X151.354 Y126.769 E0.73026
G1 X151.166 Y127.120 E0.01264
G1 X134.721 Y110.675 E0.73760
G1 X134.369 Y110.863 E0.01264
G1 X150.978 Y127.472 E0.74494
G1 X150.911 Y127.596 E0.00447
G1 X150.754 Y127.788 E0.00785
G1 X134.053 Y111.087 E0.74907
G1 X133.757 Y111.330 E0.01216
G1 X150.511 Y128.084 E0.75146
G1 X150.268 Y128.380 E0.01216
G1 X133.461 Y111.573 E0.75384
G1 X133.164 Y111.816 E0.01216
G1 X150.025 Y128.676 E0.75622
G1 X149.782 Y128.973 E0.01216
G1 X132.868 Y112.059 E0.75861
G1 X132.572 Y112.302 E0.01216
G1 X149.539 Y129.269 E0.76099
G1 X149.417 Y129.417 E0.00608
G1 X149.269 Y129.539 E0.00608
G1 X132.302 Y112.572 E0.76099
G1 X132.059 Y112.868 E0.01216
G1 X148.973 Y129.782 E0.75861
G1 X148.676 Y130.025 E0.01216
G1 X131.816 Y113.165 E0.75622
G1 X131.573 Y113.461 E0.01216
G1 X148.380 Y130.268 E0.75384
G1 X148.084 Y130.511 E0.01216
G1 X131.330 Y113.757 E0.75146
G1 X131.087 Y114.053 E0.01216
G1 X147.788 Y130.754 E0.74907
G1 X147.596 Y130.911 E0.00785
G1 X147.472 Y130.978 E0.00448
G1 X130.863 Y114.369 E0.74494
G1 X130.675 Y114.721 E0.01264
G1 X147.120 Y131.166 E0.73760
G1 X146.769 Y131.354 E0.01264
G1 X130.487 Y115.072 E0.73026
G1 X130.299 Y115.424 E0.01264
G1 X146.417 Y131.542 E0.72292
G1 X146.066 Y131.729 E0.01264
G1 X130.111 Y115.775 E0.71558
G1 X129.924 Y116.127 E0.01264
G1 X145.714 Y131.917 E0.70824
G1 X145.519 Y132.022 E0.00703
G1 X145.335 Y132.078 E0.00609
G1 X129.763 Y116.506 E0.69842
G1 X129.638 Y116.920 E0.01372
G1 X144.921 Y132.203 E0.68549
G1 X144.507 Y132.329 E0.01372
G1 X129.512 Y117.334 E0.67255
G1 X129.387 Y117.748 E0.01372
G1 X144.093 Y132.454 E0.65962
G1 X143.679 Y132.580 E0.01372
G1 X129.261 Y118.161 E0.64669
G1 X129.136 Y118.575 E0.01372
G1 X143.266 Y132.705 E0.63376
G1 X142.775 Y132.754 E0.01564
G1 X129.087 Y119.066 E0.61392
G1 X129.039 Y119.557 E0.01565
G1 X142.284 Y132.802 E0.59406
G1 X141.793 Y132.851 E0.01565
G1 X128.990 Y120.048 E0.57421
G1 X128.942 Y120.539 E0.01565
G1 X141.302 Y132.899 E0.55435
G1 X140.920 Y132.936 E0.01215
G1 X140.787 Y132.923 E0.00427
G1 X128.918 Y121.054 E0.53234
G1 X128.977 Y121.653 E0.01907
G1 X140.188 Y132.864 E0.50286
G1 X139.590 Y132.805 E0.01907
G1 X129.035 Y122.251 E0.47338
G1 X129.094 Y122.849 E0.01907
G1 X138.991 Y132.746 E0.44390
G1 X138.576 Y132.706 E0.01323
G1 X138.339 Y132.634 E0.00785
G1 X129.207 Y123.502 E0.40959
G1 X129.442 Y124.276 E0.02566
G1 X137.565 Y132.399 E0.36433
G1 X136.791 Y132.164 E0.02566
G1 X129.677 Y125.050 E0.31907
G1 X129.819 Y125.519 E0.01553
G1 X130.064 Y125.976 E0.01645
G1 X135.865 Y131.777 E0.26019
G1 X134.706 Y131.158 E0.04167
G1 X130.683 Y127.135 E0.18043
G1 X130.930 Y127.596 E0.01658
G1 X132.416 Y129.407 E0.07430
G1 X133.658 Y130.649 E0.05571
G1 F8640.000
G1 X132.416 Y129.407 E-0.40557
G1 X131.442 Y128.221 E-0.35443
G1 E-0.04000 F2100.00000
G1 Z0.800 F10800.000
G1 X109.080 Y133.221
G1 Z0.200
G1 E0.80000 F2100.00000
G1 F1200.000
G1 X106.680 Y132.984 E0.07560
G1 X104.372 Y132.284 E0.07560
G1 X102.246 Y131.148 E0.07560
