; generated by PrusaSlicer 2.2.0+win64 on 2020-08-18 at 17:41:11 UTC

; 

; external perimeters extrusion width = 0.45mm
; perimeters extrusion width = 0.45mm
; infill extrusion width = 0.45mm
; solid infill extrusion width = 0.45mm
; top infill extrusion width = 0.40mm
; first layer extrusion width = 0.42mm

; external perimeters extrusion width = 0.45mm
; perimeters extrusion width = 0.45mm
; infill extrusion width = 0.45mm
; solid infill extrusion width = 0.45mm
; top infill extrusion width = 0.40mm
; first layer extrusion width = 0.42mm

; external perimeters extrusion width = 0.45mm
; perimeters extrusion width = 0.45mm
; infill extrusion width = 0.45mm
; solid infill extrusion width = 0.45mm
; top infill extrusion width = 0.40mm
; first layer extrusion width = 0.42mm

M73 P0 R51
M201 X9000 Y9000 Z500 E10000 ; sets maximum accelerations, mm/sec^2
M203 X500 Y500 Z12 E120 ; sets maximum feedrates, mm/sec
M204 P2000 R1500 T2000 ; sets acceleration (P, T) and retract acceleration (R), mm/sec^2
M205 X10.00 Y10.00 Z0.20 E4.50 ; sets the jerk limits, mm/sec
M205 S0 T0 ; sets the minimum extruding and travel feed rate, mm/sec
M107
M862.3 P "MK2.5SMMU2S" ; printer model check
M862.1 P0.4 ; nozzle diameter check
M115 U3.9.0 ; tell printer latest fw version
G90 ; use absolute coordinates
M83 ; extruder relative mode
M104 S215 ; set extruder temp
M140 S60 ; set bed temp
M190 S60 ; wait for bed temp
M109 S215 ; wait for extruder temp
G28 W ; home all without mesh bed level
G80 ; mesh bed leveling

; Send the filament type to the MMU2.0 unit.
; E stands for extruder number, F stands for filament type (0: default; 1:flex; 2: PVA)
M403 E0 F0
M403 E1 F0
M403 E2 F0
M403 E3 F0
M403 E4 F0


;go outside print area
G1 Y-3.0 F1000.0
G1 Z0.4 F1000.0
; select extruder
T0
; initial load
G1 X55.0 E29.0 F1073.0
M73 P0 R51
G1 X5.0 E29.0 F1800.0
G1 X55.0 E8.0 F2000.0
G1 Z0.3 F1000.0
G92 E0.0
G1 X240.0 E25.0 F2200.0
G1 Y-2.0 F1000.0
G1 X55.0 E25 F1400.0
G1 Z0.20 F1000.0
G1 X5.0 E4.0 F1000.0
G92 E0.0

G92 E0.0
G21 ; set units to millimeters
G90 ; use absolute coordinates
M83 ; use relative distances for extrusion
T0
M900 K0.06 ; Filament gcode LA 1.5
M900 K30 ; Filament gcode LA 1.0
G1 Z0.200 F10800.000
;BEFORE_LAYER_CHANGE
G92 E0.0
;0.2


G1 E-0.80000 F2100.00000
G1 Z0.800 F10800.000
G1 Z0.200
;AFTER_LAYER_CHANGE
;0.2
G1 E-2.20000 F2100.00000
G1 Z0.800 F10800.000
G1 X161.109 Y75.804
G1 Z0.200
G1 E3.00000 F2100.00000
;-------------------------------------
; CP WIPE TOWER FIRST LAYER BRIM START
G1  X161.109 Y89.864  E0.8016 F2400
G1  X158.566 Y90.321   F7000
G1  Y75.347  E0.6260 F2100
G1  X97.652  E2.5466
G1  Y90.321  E0.6260
G1  X158.566  E2.5466
G1  X159.023 Y90.778   F7000
G1  Y74.890  E0.6642 F2100
G1  X97.195  E2.5849
G1  Y90.778  E0.6642
G1  X159.023  E2.5849
G1  X159.480 Y91.235   F7000
G1  Y74.433  E0.7025 F2100
G1  X96.738  E2.6231
G1  Y91.235  E0.7025
G1  X159.480  E2.6231
G1  X159.937 Y91.692   F7000
G1  Y73.976  E0.7407 F2100
G1  X96.281  E2.6613
G1  Y91.692  E0.7407
G1  X159.937  E2.6613
G1  X158.109 Y89.864   F7000
G1  X98.109 
G1  X158.109 
; CP WIPE TOWER FIRST LAYER BRIM END
;-----------------------------------
G1  X157.609 Y76.304   F7200
;--------------------
; CP EMPTY GRID START
; layer #1
G1  X158.109 
G1  Y75.804 
G1  Y89.864  E0.5344 F1450
G1  X98.109  E2.2804
G1  Y75.804  E0.5344
G1  X158.109  E2.2804
G1  X157.609 
G1  Y76.304 
G1  Y89.364  E0.4964
G1  X98.609  E2.2424
G1  Y76.304  E0.4964
G1  X157.609  E2.2424
G1  Y89.364 
G1  X157.109 Y88.841   E0.0275
G1  X99.109  E2.2044
G1  Y88.317  E0.0199
G1  X157.109  E2.2044
G1  Y87.794  E0.0199
G1  X99.109  E2.2044
M73 P2 R50
G1  Y87.271  E0.0199
G1  X157.109  E2.2044
G1  Y86.747  E0.0199
G1  X99.109  E2.2044
G1  Y86.224  E0.0199
G1  X157.109  E2.2044
G1  Y85.701  E0.0199
G1  X99.109  E2.2044
G1  Y85.177  E0.0199
G1  X157.109  E2.2044
G1  Y84.654  E0.0199
G1  X99.109  E2.2044
G1  Y84.131  E0.0199
G1  X157.109  E2.2044
G1  Y83.607  E0.0199
G1  X99.109  E2.2044
G1  Y83.084  E0.0199
G1  X157.109  E2.2044
G1  Y82.561  E0.0199
G1  X99.109  E2.2044
G1  Y82.037  E0.0199
G1  X157.109  E2.2044
G1  Y81.514  E0.0199
G1  X99.109  E2.2044
G1  Y80.991  E0.0199
G1  X157.109  E2.2044
G1  Y80.467  E0.0199
G1  X99.109  E2.2044
G1  Y79.944  E0.0199
G1  X157.109  E2.2044
G1  Y79.421  E0.0199
G1  X99.109  E2.2044
G1  Y78.897  E0.0199
G1  X157.109  E2.2044
G1  Y78.374  E0.0199
G1  X99.109  E2.2044
G1  Y77.851  E0.0199
G1  X157.109  E2.2044
G1  Y77.327  E0.0199
G1  X99.109  E2.2044
G1  Y76.804  E0.0199
G1  X157.109  E2.2044
G1  X99.109 
; CP EMPTY GRID END
;------------------







G1 F8640.000
G1 X95.817 Y76.804 E-0.76000
G1 E-0.04000 F2100.00000
G1 Z0.800 F10800.000
G1 X95.234 Y71.515
G1 Z0.200
G1 E0.80000 F2100.00000
M204 S1000
G1 F1200.000
G1 X96.032 Y71.370 E0.02543
G1 X160.169 Y71.370 E2.01097
G1 X161.025 Y71.531 E0.02731
G1 X161.766 Y71.990 E0.02731
G1 X162.292 Y72.684 E0.02731
G1 X162.532 Y73.525 E0.02743
G1 X164.565 Y116.099 E1.33637
G1 X164.565 Y118.072 E0.06187
G1 X164.358 Y120.087 E0.06351
G1 X163.948 Y122.050 E0.06288
G1 X163.338 Y123.960 E0.06288
G1 X162.535 Y125.798 E0.06288
G1 X161.547 Y127.543 E0.06288
G1 X160.385 Y129.178 E0.06288
M73 P4 R49
G1 X159.061 Y130.684 E0.06288
G1 X157.583 Y132.051 E0.06312
G1 X155.511 Y133.551 E0.08021
G1 X154.239 Y134.296 E0.04623
G1 X152.449 Y135.132 E0.06193
G1 X150.012 Y135.934 E0.08045
G1 X148.577 Y136.256 E0.04611
G1 X146.633 Y136.507 E0.06145
G1 X144.674 Y136.561 E0.06145
G1 X104.363 Y136.560 E1.26393
G1 X102.389 Y136.406 E0.06208
G1 X100.413 Y136.045 E0.06300
G1 X98.491 Y135.485 E0.06276
G1 X96.602 Y134.715 E0.06395
G1 X94.860 Y133.785 E0.06193
G1 X93.172 Y132.647 E0.06383
G1 X91.634 Y131.359 E0.06288
G1 X89.933 Y129.557 E0.07771
G1 X89.000 Y128.352 E0.04779
G1 X87.924 Y126.655 E0.06300
G1 X87.041 Y124.884 E0.06204
G1 X86.327 Y122.986 E0.06360
G1 X85.824 Y121.072 E0.06204
G1 X85.516 Y119.094 E0.06276
G1 X85.413 Y117.091 E0.06288
G1 X85.511 Y115.142 E0.06121
G1 X85.819 Y113.133 E0.06371
G1 X93.725 Y73.262 E1.27446
G1 X94.015 Y72.521 E0.02496
G1 X94.534 Y71.917 E0.02496
G1 X95.182 Y71.545 E0.02343
G1 F8640.000
G1 X96.032 Y71.370 E-0.20040
G1 X98.456 Y71.370 E-0.55960
G1 E-0.04000 F2100.00000
G1 Z0.800 F10800.000
G1 X104.621 Y133.592
G1 Z0.200
G1 E0.80000 F2100.00000
G1 F1200.000
G1 X104.466 Y133.596 E0.00486
G1 X102.771 Y133.465 E0.05331
G1 X101.098 Y133.160 E0.05331
G1 X99.466 Y132.685 E0.05331
G1 X97.891 Y132.045 E0.05331
G1 X96.390 Y131.246 E0.05331
G1 X94.980 Y130.297 E0.05327
G1 X93.612 Y129.147 E0.05605
G1 X92.488 Y127.990 E0.05058
G1 X91.432 Y126.657 E0.05332
G1 X90.520 Y125.222 E0.05331
G1 X89.759 Y123.701 E0.05331
G1 X89.160 Y122.110 E0.05331
G1 X88.727 Y120.466 E0.05331
G1 X88.465 Y118.786 E0.05331
G1 X88.378 Y117.088 E0.05331
G1 X88.465 Y115.390 E0.05331
G1 X88.727 Y113.710 E0.05331
G1 X89.160 Y112.066 E0.05331
G1 X89.759 Y110.475 E0.05331
G1 X90.520 Y108.955 E0.05331
G1 X91.432 Y107.520 E0.05331
G1 X92.487 Y106.187 E0.05331
G1 X93.674 Y104.969 E0.05331
G1 X94.979 Y103.880 E0.05331
G1 X96.390 Y102.931 E0.05331
G1 X97.891 Y102.132 E0.05332
G1 X99.385 Y101.522 E0.05058
G1 X101.100 Y101.016 E0.05606
G1 X102.686 Y100.725 E0.05056
G1 X104.387 Y100.584 E0.05353
G1 X106.166 Y100.624 E0.05578
G1 X107.852 Y100.842 E0.05331
G1 X109.506 Y101.233 E0.05331
G1 X111.112 Y101.791 E0.05331
G1 X112.652 Y102.512 E0.05331
G1 X114.110 Y103.387 E0.05331
G1 X115.470 Y104.408 E0.05331
G1 X116.717 Y105.563 E0.05331
G1 X117.840 Y106.840 E0.05331
G1 X118.825 Y108.226 E0.05331
G1 X119.662 Y109.705 E0.05331
G1 X120.343 Y111.263 E0.05331
G1 X120.860 Y112.883 E0.05331
G1 X121.208 Y114.547 E0.05331
G1 X121.384 Y116.246 E0.05355
G1 X121.405 Y117.087 E0.02638
G1 X121.377 Y118.016 E0.02914
G1 X121.193 Y119.714 E0.05357
G1 X120.861 Y121.292 E0.05056
G1 X120.311 Y122.994 E0.05606
G1 X119.662 Y124.471 E0.05058
G1 X118.825 Y125.951 E0.05332
G1 X117.840 Y127.336 E0.05327
G1 X116.655 Y128.674 E0.05605
G1 X115.470 Y129.769 E0.05058
G1 X114.110 Y130.789 E0.05332
G1 X112.652 Y131.665 E0.05331
G1 X111.112 Y132.385 E0.05331
G1 X109.506 Y132.944 E0.05331
G1 X107.852 Y133.334 E0.05331
G1 X106.166 Y133.553 E0.05331
G1 X104.681 Y133.591 E0.04657
G1 X104.456 Y133.974 F10800.000
G1 F1200.000
G1 X102.722 Y133.840 E0.05453
G1 X101.011 Y133.528 E0.05453
G1 X99.342 Y133.042 E0.05453
G1 X97.731 Y132.387 E0.05453
G1 X96.196 Y131.569 E0.05453
G1 X94.753 Y130.599 E0.05452
G1 X93.355 Y129.423 E0.05728
G1 X92.204 Y128.239 E0.05178
G1 X91.124 Y126.875 E0.05453
G1 X90.191 Y125.408 E0.05453
G1 X89.413 Y123.852 E0.05453
G1 X88.800 Y122.225 E0.05453
G1 X88.357 Y120.543 E0.05453
G1 X88.090 Y118.825 E0.05453
G1 X88.000 Y117.088 E0.05453
G1 X88.090 Y115.352 E0.05453
G1 X88.357 Y113.633 E0.05453
G1 X88.800 Y111.952 E0.05453
G1 X89.413 Y110.324 E0.05453
G1 X90.191 Y108.769 E0.05453
G1 X91.124 Y107.301 E0.05453
G1 X92.204 Y105.938 E0.05453
G1 X93.417 Y104.692 E0.05453
G1 X94.753 Y103.578 E0.05453
G1 X96.196 Y102.607 E0.05453
G1 X97.731 Y101.790 E0.05453
G1 X99.260 Y101.166 E0.05178
G1 X101.012 Y100.649 E0.05728
G1 X102.636 Y100.350 E0.05177
G1 X104.372 Y100.207 E0.05460
G1 X106.195 Y100.248 E0.05718
G1 X107.919 Y100.471 E0.05453
G1 X109.612 Y100.870 E0.05453
G1 X111.254 Y101.442 E0.05453
G1 X112.830 Y102.179 E0.05453
G1 X114.320 Y103.074 E0.05453
G1 X115.711 Y104.118 E0.05453
G1 X116.988 Y105.299 E0.05453
G1 X118.136 Y106.606 E0.05453
G1 X119.143 Y108.023 E0.05453
G1 X120.000 Y109.536 E0.05453
G1 X120.696 Y111.130 E0.05453
G1 X121.225 Y112.787 E0.05453
G1 X121.581 Y114.489 E0.05453
G1 X121.760 Y116.222 E0.05461
G1 X121.782 Y117.088 E0.02717
G1 X121.753 Y118.042 E0.02993
G1 X121.565 Y119.774 E0.05462
G1 X121.225 Y121.390 E0.05177
G1 X120.663 Y123.128 E0.05728
G1 X120.000 Y124.640 E0.05178
G1 X119.143 Y126.154 E0.05453
G1 X118.136 Y127.571 E0.05452
G1 X116.925 Y128.939 E0.05728
G1 X115.712 Y130.059 E0.05178
G1 X114.320 Y131.103 E0.05453
G1 X112.830 Y131.998 E0.05453
G1 X111.254 Y132.735 E0.05453
G1 X109.612 Y133.306 E0.05453
G1 X107.919 Y133.706 E0.05453
G1 X106.195 Y133.929 E0.05453
G1 X104.516 Y133.972 E0.05265
G1 X104.265 Y133.622 F10800.000
G1 F8640.000
G1 X102.722 Y133.840 E-0.41534
G1 X101.254 Y133.572 E-0.34466
G1 E-0.04000 F2100.00000
G1 Z0.800 F10800.000
G1 X119.019 Y108.799
G1 Z0.200
G1 E0.80000 F2100.00000
G1 F1200.000
G1 X113.680 Y103.459 E0.23691
G1 X112.519 Y102.762 E0.04247
G1 X112.388 Y102.701 E0.00455
G1 X119.266 Y109.579 E0.30517
G1 X119.409 Y109.832 E0.00913
G1 X119.738 Y110.585 E0.02577
G1 X111.385 Y102.231 E0.37063
G1 X111.006 Y102.054 E0.01313
G1 X110.496 Y101.877 E0.01691
G1 X120.123 Y111.503 E0.42711
G1 X120.373 Y112.287 E0.02581
G1 X109.678 Y101.592 E0.47451
G1 X109.427 Y101.505 E0.00834
G1 X108.943 Y101.391 E0.01561
G1 X120.607 Y113.055 E0.51752
G1 X120.748 Y113.729 E0.02162
G1 X108.245 Y101.226 E0.55476
G1 X107.801 Y101.121 E0.01431
G1 X107.577 Y101.092 E0.00707
G1 X120.889 Y114.404 E0.59062
G1 X120.928 Y114.591 E0.00599
G1 X120.973 Y115.021 E0.01357
G1 X106.964 Y101.013 E0.62152
G1 X106.352 Y100.933 E0.01939
G1 X121.034 Y115.616 E0.65145
G1 X121.096 Y116.211 E0.01877
G1 X105.783 Y100.898 E0.67940
G1 X105.237 Y100.886 E0.01713
G1 X121.114 Y116.763 E0.70443
G1 X121.116 Y117.298 E0.01680
G1 X104.691 Y100.874 E0.72873
G1 X104.396 Y100.867 E0.00928
G1 X104.170 Y100.886 E0.00711
G1 X121.100 Y117.816 E0.75117
G1 X121.061 Y118.310 E0.01555
G1 X103.677 Y100.927 E0.77129
G1 X103.184 Y100.967 E0.01552
G1 X121.008 Y118.792 E0.79084
G1 X120.956 Y119.273 E0.01519
G1 X102.694 Y101.011 E0.81026
G1 X102.243 Y101.094 E0.01438
G1 X120.897 Y119.747 E0.82763
G1 X120.804 Y120.188 E0.01413
G1 X101.792 Y101.176 E0.84352
G1 X101.341 Y101.259 E0.01438
G1 X120.711 Y120.629 E0.85941
G1 X120.618 Y121.070 E0.01413
G1 X100.914 Y101.366 E0.87424
G1 X100.502 Y101.487 E0.01348
G1 X120.501 Y121.486 E0.88731
G1 X120.370 Y121.889 E0.01330
G1 X100.090 Y101.609 E0.89980
G1 X99.678 Y101.730 E0.01348
G1 X120.240 Y122.292 E0.91230
G1 X120.110 Y122.695 E0.01330
G1 X99.283 Y101.869 E0.92404
G1 X98.904 Y102.024 E0.01284
G1 X119.963 Y123.082 E0.93434
G1 X119.800 Y123.453 E0.01271
G1 X98.525 Y102.178 E0.94393
G1 X98.147 Y102.333 E0.01284
G1 X119.638 Y123.824 E0.95352
G1 X119.475 Y124.195 E0.01271
G1 X97.787 Y102.507 E0.96224
G1 X97.439 Y102.693 E0.01238
G1 X119.294 Y124.548 E0.96967
G1 X119.101 Y124.889 E0.01228
G1 X97.091 Y102.878 E0.97656
G1 X96.743 Y103.064 E0.01238
G1 X118.908 Y125.229 E0.98346
G1 X118.716 Y125.570 E0.01228
G1 X96.406 Y103.261 E0.98982
G1 X96.087 Y103.476 E0.01206
G1 X118.513 Y125.901 E0.99500
M73 P6 R48
G1 X118.292 Y126.213 E0.01201
G1 X95.768 Y103.690 E0.99932
G1 X95.450 Y103.905 E0.01206
G1 X118.070 Y126.525 E1.00363
G1 X117.848 Y126.837 E0.01201
G1 X95.132 Y104.121 E1.00787
G1 X94.841 Y104.364 E0.01189
G1 X117.626 Y127.149 E1.01094
G1 X117.377 Y127.433 E0.01186
G1 X94.550 Y104.606 E1.01278
G1 X94.259 Y104.849 E0.01189
G1 X117.126 Y127.716 E1.01456
G1 X116.876 Y127.999 E0.01186
G1 X93.969 Y105.092 E1.01635
G1 X93.696 Y105.352 E0.01184
G1 X116.625 Y128.282 E1.01735
G1 X116.366 Y128.556 E0.01184
G1 X93.432 Y105.623 E1.01754
G1 X93.169 Y105.893 E0.01184
G1 X116.089 Y128.813 E1.01692
G1 X115.811 Y129.069 E0.01185
G1 X92.905 Y106.163 E1.01629
G1 X92.648 Y106.439 E0.01184
G1 X115.534 Y129.325 E1.01540
G1 X115.253 Y129.578 E0.01185
G1 X92.412 Y106.737 E1.01340
G1 X92.177 Y107.035 E0.01192
G1 X114.948 Y129.807 E1.01034
G1 X114.643 Y130.035 E0.01196
G1 X91.941 Y107.333 E1.00727
G1 X91.705 Y107.631 E0.01192
G1 X114.338 Y130.264 E1.00421
G1 X114.034 Y130.493 E0.01196
G1 X91.493 Y107.952 E1.00011
G1 X91.285 Y108.278 E0.01213
G1 X113.708 Y130.701 E0.99486
G1 X113.375 Y130.901 E0.01220
G1 X91.078 Y108.604 E0.98928
G1 X90.870 Y108.930 E0.01213
G1 X113.041 Y131.101 E0.98369
G1 X112.708 Y131.301 E0.01220
G1 X90.678 Y109.271 E0.97745
G1 X90.500 Y109.627 E0.01248
G1 X112.361 Y131.488 E0.96996
G1 X111.998 Y131.659 E0.01259
G1 X90.322 Y109.983 E0.96173
G1 X90.144 Y110.338 E0.01248
G1 X111.634 Y131.829 E0.95349
G1 X111.271 Y131.999 E0.01259
G1 X89.976 Y110.704 E0.94484
G1 X89.830 Y111.091 E0.01299
G1 X110.899 Y132.160 E0.93480
G1 X110.503 Y132.298 E0.01315
G1 X89.684 Y111.479 E0.92372
G1 X89.537 Y111.866 E0.01299
G1 X110.107 Y132.436 E0.91264
G1 X109.711 Y132.573 E0.01315
G1 X89.400 Y112.263 E0.90115
G1 X89.289 Y112.685 E0.01370
G1 X109.305 Y132.701 E0.88807
G1 X108.873 Y132.803 E0.01392
G1 X89.178 Y113.107 E0.87385
G1 X89.067 Y113.530 E0.01370
G1 X108.442 Y132.905 E0.85963
G1 X108.010 Y133.006 E0.01392
G1 X88.973 Y113.969 E0.84465
G1 X88.901 Y114.431 E0.01466
G1 X107.557 Y133.087 E0.82776
G1 X107.085 Y133.149 E0.01495
G1 X88.829 Y114.893 E0.80999
G1 X88.757 Y115.354 E0.01466
G1 X106.612 Y133.210 E0.79222
G1 X106.139 Y133.270 E0.01496
G1 X88.724 Y115.855 E0.77268
G1 X88.698 Y116.363 E0.01594
G1 X105.619 Y133.284 E0.75076
G1 X105.099 Y133.297 E0.01633
G1 X88.672 Y116.870 E0.72884
G1 X88.661 Y117.088 E0.00685
G1 X88.677 Y117.409 E0.01007
G1 X104.579 Y133.311 E0.70553
M73 P8 R47
G1 X104.012 Y133.278 E0.01780
G1 X88.706 Y117.972 E0.67911
G1 X88.735 Y118.534 E0.01767
G1 X103.434 Y133.233 E0.65216
G1 X102.856 Y133.188 E0.01820
G1 X88.806 Y119.139 E0.62335
G1 X88.905 Y119.771 E0.02007
G1 X102.209 Y133.075 E0.59031
G1 X101.557 Y132.957 E0.02081
G1 X89.003 Y120.403 E0.55699
G1 X89.193 Y121.126 E0.02347
G1 X100.865 Y132.798 E0.51785
G1 X100.112 Y132.579 E0.02459
G1 X89.384 Y121.851 E0.47599
G1 X89.429 Y122.024 E0.00563
G1 X89.675 Y122.676 E0.02184
G1 X99.320 Y132.321 E0.42794
G1 X98.421 Y131.955 E0.03046
G1 X89.998 Y123.532 E0.37372
G1 X90.517 Y124.585 E0.03684
G1 X97.390 Y131.458 E0.30492
G1 X96.536 Y131.003 E0.03036
G1 X96.125 Y130.727 E0.01552
G1 X90.711 Y125.313 E0.24022
G1 F8640.000
G1 X93.039 Y127.640 E-0.76000
G1 E-0.04000 F2100.00000
G1 Z0.800 F10800.000
G1 X144.687 Y133.596
G1 Z0.200
G1 E0.80000 F2100.00000
G1 F1200.000
G1 X142.992 Y133.465 E0.05331
G1 X141.319 Y133.160 E0.05331
G1 X139.686 Y132.685 E0.05331
G1 X138.112 Y132.045 E0.05331
G1 X136.611 Y131.246 E0.05331
G1 X135.201 Y130.297 E0.05327
G1 X133.833 Y129.147 E0.05605
G1 X132.708 Y127.990 E0.05058
G1 X131.653 Y126.657 E0.05332
