; generated by PrusaSlicer 2.2.0+win64 on 2020-08-18 at 17:41:22 UTC

; 

; external perimeters extrusion width = 0.45mm
; perimeters extrusion width = 0.45mm
; infill extrusion width = 0.45mm
; solid infill extrusion width = 0.45mm
; top infill extrusion width = 0.40mm
; first layer extrusion width = 0.42mm

; external perimeters extrusion width = 0.45mm
; perimeters extrusion width = 0.45mm
; infill extrusion width = 0.45mm
; solid infill extrusion width = 0.45mm
; top infill extrusion width = 0.40mm
; first layer extrusion width = 0.42mm

; external perimeters extrusion width = 0.45mm
; perimeters extrusion width = 0.45mm
; infill extrusion width = 0.45mm
; solid infill extrusion width = 0.45mm
; top infill extrusion width = 0.40mm
; first layer extrusion width = 0.42mm

M73 P0 R86
M201 X9000 Y9000 Z500 E10000 ; sets maximum accelerations, mm/sec^2
M203 X500 Y500 Z12 E120 ; sets maximum feedrates, mm/sec
M204 P2000 R1500 T2000 ; sets acceleration (P, T) and retract acceleration (R), mm/sec^2
M205 X10.00 Y10.00 Z0.20 E4.50 ; sets the jerk limits, mm/sec
M205 S0 T0 ; sets the minimum extruding and travel feed rate, mm/sec
M107
M862.3 P "MK2.5SMMU2S" ; printer model check
M862.1 P0.4 ; nozzle diameter check
M115 U3.9.0 ; tell printer latest fw version
G90 ; use absolute coordinates
M83 ; extruder relative mode
M104 S215 ; set extruder temp
M140 S60 ; set bed temp
M190 S60 ; wait for bed temp
M109 S215 ; wait for extruder temp
G28 W ; home all without mesh bed level
G80 ; mesh bed leveling

; Send the filament type to the MMU2.0 unit.
; E stands for extruder number, F stands for filament type (0: default; 1:flex; 2: PVA)
M403 E0 F0
M403 E1 F0
M403 E2 F0
M403 E3 F0
M403 E4 F0


;go outside print area
G1 Y-3.0 F1000.0
G1 Z0.4 F1000.0
; select extruder
T0
; initial load
G1 X55.0 E29.0 F1073.0
M73 P0 R86
G1 X5.0 E29.0 F1800.0
G1 X55.0 E8.0 F2000.0
G1 Z0.3 F1000.0
G92 E0.0
G1 X240.0 E25.0 F2200.0
G1 Y-2.0 F1000.0
G1 X55.0 E25 F1400.0
G1 Z0.20 F1000.0
G1 X5.0 E4.0 F1000.0
G92 E0.0

G92 E0.0
G21 ; set units to millimeters
G90 ; use absolute coordinates
M83 ; use relative distances for extrusion
T0
M900 K0.06 ; Filament gcode LA 1.5
M900 K30 ; Filament gcode LA 1.0
G1 Z0.200 F10800.000
;BEFORE_LAYER_CHANGE
G92 E0.0
;0.2


G1 E-0.80000 F2100.00000
G1 Z0.800 F10800.000
G1 Z0.200
;AFTER_LAYER_CHANGE
;0.2
G1 E-2.20000 F2100.00000
G1 Z0.800 F10800.000
G1 X159.777 Y136.093
G1 Z0.200
G1 E3.00000 F2100.00000
;-------------------------------------
; CP WIPE TOWER FIRST LAYER BRIM START
G1  X159.777 Y150.153  E0.8016 F2400
G1  X157.234 Y150.610   F7000
G1  Y135.636  E0.6260 F2100
G1  X96.320  E2.5466
G1  Y150.610  E0.6260
G1  X157.234  E2.5466
G1  X157.691 Y151.067   F7000
G1  Y135.179  E0.6642 F2100
G1  X95.863  E2.5849
G1  Y151.067  E0.6642
G1  X157.691  E2.5849
G1  X158.148 Y151.524   F7000
G1  Y134.722  E0.7025 F2100
G1  X95.406  E2.6231
G1  Y151.524  E0.7025
G1  X158.148  E2.6231
G1  X158.605 Y151.981   F7000
G1  Y134.265  E0.7407 F2100
G1  X94.949  E2.6613
G1  Y151.981  E0.7407
G1  X158.605  E2.6613
G1  X156.777 Y150.153   F7000
G1  X96.777 
G1  X156.777 
; CP WIPE TOWER FIRST LAYER BRIM END
;-----------------------------------
G1  X156.277 Y136.593   F7200
;--------------------
; CP EMPTY GRID START
; layer #1
G1  X156.777 
G1  Y136.093 
G1  Y150.153  E0.5344 F1450
G1  X96.777  E2.2804
G1  Y136.093  E0.5344
G1  X156.777  E2.2804
G1  X156.277 
G1  Y136.593 
G1  Y149.653  E0.4964
G1  X97.277  E2.2424
G1  Y136.593  E0.4964
G1  X156.277  E2.2424
G1  Y149.653 
G1  X155.777 Y149.130   E0.0275
G1  X97.777  E2.2044
G1  Y148.606  E0.0199
G1  X155.777  E2.2044
G1  Y148.083  E0.0199
G1  X97.777  E2.2044
M73 P1 R85
G1  Y147.560  E0.0199
G1  X155.777  E2.2044
G1  Y147.036  E0.0199
G1  X97.777  E2.2044
G1  Y146.513  E0.0199
G1  X155.777  E2.2044
G1  Y145.990  E0.0199
G1  X97.777  E2.2044
G1  Y145.466  E0.0199
G1  X155.777  E2.2044
G1  Y144.943  E0.0199
G1  X97.777  E2.2044
G1  Y144.420  E0.0199
G1  X155.777  E2.2044
G1  Y143.896  E0.0199
G1  X97.777  E2.2044
G1  Y143.373  E0.0199
G1  X155.777  E2.2044
G1  Y142.850  E0.0199
G1  X97.777  E2.2044
G1  Y142.326  E0.0199
G1  X155.777  E2.2044
G1  Y141.803  E0.0199
G1  X97.777  E2.2044
G1  Y141.280  E0.0199
G1  X155.777  E2.2044
G1  Y140.756  E0.0199
G1  X97.777  E2.2044
G1  Y140.233  E0.0199
G1  X155.777  E2.2044
G1  Y139.710  E0.0199
G1  X97.777  E2.2044
G1  Y139.186  E0.0199
G1  X155.777  E2.2044
G1  Y138.663  E0.0199
G1  X97.777  E2.2044
G1  Y138.140  E0.0199
G1  X155.777  E2.2044
G1  Y137.616  E0.0199
G1  X97.777  E2.2044
G1  Y137.093  E0.0199
G1  X155.777  E2.2044
G1  X97.777 
; CP EMPTY GRID END
;------------------







G1 F8640.000
G1 X94.485 Y137.093 E-0.76000
G1 E-0.04000 F2100.00000
G1 Z0.800 F10800.000
G1 X160.951 Y153.291
G1 Z0.200
G1 E0.80000 F2100.00000
M204 S1000
G1 F1200.000
G1 X160.585 Y153.818 E0.02012
G1 X160.091 Y154.227 E0.02012
G1 X159.505 Y154.490 E0.02012
G1 X158.871 Y154.587 E0.02012
G1 X94.709 Y154.587 E2.01176
G1 X94.161 Y154.520 E0.01728
G1 X93.641 Y154.328 E0.01740
G1 X93.197 Y154.035 E0.01668
G1 X92.829 Y153.650 E0.01668
G1 X92.556 Y153.194 E0.01669
G1 X92.391 Y152.688 E0.01668
G1 X85.733 Y116.473 E1.15453
G1 X85.475 Y114.473 E0.06322
G1 X85.413 Y112.988 E0.04659
G1 X85.426 Y72.316 E1.27525
M73 P2 R84
G1 X85.580 Y70.340 E0.06215
G1 X85.941 Y68.364 E0.06298
G1 X86.502 Y66.439 E0.06286
G1 X87.290 Y64.516 E0.06518
G1 X87.940 Y63.249 E0.04463
G1 X88.704 Y62.021 E0.04534
G1 X89.919 Y60.394 E0.06369
G1 X91.633 Y58.575 E0.07836
G1 X93.157 Y57.297 E0.06237
G1 X94.864 Y56.145 E0.06455
G1 X96.661 Y55.190 E0.06383
G1 X98.527 Y54.435 E0.06312
G1 X100.945 Y53.775 E0.07858
G1 X102.420 Y53.523 E0.04691
G1 X104.431 Y53.371 E0.06324
G1 X145.116 Y53.371 E1.27563
G1 X146.643 Y53.426 E0.04790
G1 X148.604 Y53.681 E0.06201
G1 X150.530 Y54.134 E0.06205
G1 X151.952 Y54.612 E0.04704
G1 X152.966 Y55.026 E0.03432
G1 X154.730 Y55.912 E0.06190
G1 X156.011 Y56.701 E0.04719
G1 X157.613 Y57.906 E0.06285
G1 X159.059 Y59.246 E0.06181
G1 X160.333 Y60.691 E0.06041
G1 X161.837 Y62.872 E0.08307
G1 X162.549 Y64.163 E0.04623
G1 X163.349 Y66.002 E0.06288
G1 X163.948 Y67.884 E0.06193
G1 X164.357 Y69.839 E0.06261
G1 X164.560 Y71.778 E0.06112
G1 X164.590 Y72.832 E0.03309
G1 X164.566 Y113.961 E1.28956
G1 X161.201 Y152.429 E1.21073
G1 X160.968 Y153.233 E0.02625
G1 F8640.000
G1 X160.585 Y153.818 E-0.16137
G1 X160.091 Y154.227 E-0.14818
G1 X159.505 Y154.490 E-0.14818
G1 X158.871 Y154.587 E-0.14818
G1 X158.203 Y154.587 E-0.15408
G1 E-0.04000 F2100.00000
G1 Z0.800 F10800.000
G1 X104.466 Y89.352
G1 Z0.200
G1 E0.80000 F2100.00000
G1 F1200.000
G1 X102.771 Y89.221 E0.05331
G1 X101.098 Y88.916 E0.05331
G1 X99.466 Y88.441 E0.05331
G1 X97.891 Y87.800 E0.05331
G1 X96.390 Y87.001 E0.05331
G1 X94.980 Y86.053 E0.05327
G1 X93.612 Y84.903 E0.05605
G1 X92.488 Y83.746 E0.05058
G1 X91.432 Y82.412 E0.05332
G1 X90.520 Y80.978 E0.05331
G1 X89.759 Y79.457 E0.05331
G1 X89.160 Y77.866 E0.05331
G1 X88.727 Y76.222 E0.05331
G1 X88.465 Y74.542 E0.05331
G1 X88.378 Y72.844 E0.05331
G1 X88.465 Y71.146 E0.05331
G1 X88.727 Y69.466 E0.05331
G1 X89.160 Y67.822 E0.05331
G1 X89.759 Y66.231 E0.05331
G1 X90.520 Y64.710 E0.05331
G1 X91.432 Y63.276 E0.05331
G1 X92.487 Y61.943 E0.05331
G1 X93.674 Y60.725 E0.05331
G1 X94.979 Y59.636 E0.05331
G1 X96.390 Y58.687 E0.05331
G1 X97.891 Y57.887 E0.05332
G1 X99.385 Y57.278 E0.05058
G1 X101.100 Y56.772 E0.05606
G1 X102.686 Y56.480 E0.05056
G1 X104.387 Y56.340 E0.05353
G1 X106.166 Y56.380 E0.05578
G1 X107.852 Y56.598 E0.05331
G1 X109.506 Y56.989 E0.05331
G1 X111.112 Y57.547 E0.05331
G1 X112.652 Y58.268 E0.05331
G1 X114.110 Y59.143 E0.05331
G1 X115.470 Y60.164 E0.05331
G1 X116.717 Y61.318 E0.05331
G1 X117.840 Y62.596 E0.05331
G1 X118.825 Y63.981 E0.05331
G1 X119.662 Y65.461 E0.05331
G1 X120.343 Y67.019 E0.05331
G1 X120.860 Y68.638 E0.05331
G1 X121.208 Y70.303 E0.05331
G1 X121.384 Y72.001 E0.05355
G1 X121.405 Y72.843 E0.02638
G1 X121.377 Y73.772 E0.02914
G1 X121.193 Y75.470 E0.05357
G1 X120.861 Y77.048 E0.05056
G1 X120.311 Y78.749 E0.05606
G1 X119.662 Y80.227 E0.05058
G1 X118.825 Y81.707 E0.05332
G1 X117.840 Y83.092 E0.05327
G1 X116.655 Y84.430 E0.05605
G1 X115.470 Y85.524 E0.05058
G1 X114.110 Y86.545 E0.05332
G1 X112.652 Y87.420 E0.05331
G1 X111.112 Y88.141 E0.05331
G1 X109.506 Y88.700 E0.05331
G1 X107.852 Y89.090 E0.05331
G1 X106.166 Y89.308 E0.05331
G1 X104.526 Y89.351 E0.05143
G1 X104.456 Y89.730 F10800.000
G1 F1200.000
G1 X102.722 Y89.595 E0.05453
G1 X101.011 Y89.284 E0.05453
G1 X99.342 Y88.798 E0.05453
G1 X97.731 Y88.142 E0.05453
G1 X96.196 Y87.325 E0.05453
G1 X94.753 Y86.354 E0.05452
G1 X93.355 Y85.179 E0.05728
G1 X92.204 Y83.995 E0.05178
G1 X91.124 Y82.631 E0.05453
G1 X90.191 Y81.164 E0.05453
G1 X89.413 Y79.608 E0.05453
G1 X88.800 Y77.981 E0.05453
G1 X88.357 Y76.299 E0.05453
G1 X88.090 Y74.581 E0.05453
G1 X88.000 Y72.844 E0.05453
G1 X88.090 Y71.107 E0.05453
G1 X88.357 Y69.389 E0.05453
G1 X88.800 Y67.707 E0.05453
G1 X89.413 Y66.080 E0.05453
G1 X90.191 Y64.524 E0.05453
G1 X91.124 Y63.057 E0.05453
G1 X92.204 Y61.693 E0.05453
G1 X93.417 Y60.448 E0.05453
G1 X94.753 Y59.334 E0.05453
G1 X96.196 Y58.363 E0.05453
G1 X97.731 Y57.546 E0.05453
G1 X99.260 Y56.921 E0.05178
G1 X101.012 Y56.404 E0.05728
G1 X102.636 Y56.106 E0.05177
G1 X104.372 Y55.963 E0.05460
G1 X106.195 Y56.003 E0.05718
G1 X107.919 Y56.227 E0.05453
G1 X109.612 Y56.626 E0.05453
G1 X111.254 Y57.197 E0.05453
G1 X112.830 Y57.935 E0.05453
G1 X114.320 Y58.830 E0.05453
G1 X115.711 Y59.874 E0.05453
G1 X116.988 Y61.055 E0.05453
G1 X118.136 Y62.361 E0.05453
G1 X119.143 Y63.779 E0.05453
G1 X120.000 Y65.292 E0.05453
G1 X120.696 Y66.886 E0.05453
G1 X121.225 Y68.542 E0.05453
G1 X121.581 Y70.245 E0.05453
G1 X121.760 Y71.977 E0.05461
G1 X121.782 Y72.844 E0.02717
G1 X121.753 Y73.798 E0.02993
G1 X121.565 Y75.529 E0.05462
G1 X121.225 Y77.145 E0.05177
G1 X120.663 Y78.883 E0.05728
G1 X120.000 Y80.396 E0.05178
G1 X119.143 Y81.909 E0.05453
G1 X118.136 Y83.326 E0.05452
G1 X116.925 Y84.694 E0.05728
G1 X115.712 Y85.814 E0.05178
G1 X114.320 Y86.858 E0.05453
G1 X112.830 Y87.753 E0.05453
G1 X111.254 Y88.491 E0.05453
G1 X109.612 Y89.062 E0.05453
G1 X107.919 Y89.461 E0.05453
G1 X106.195 Y89.685 E0.05453
G1 X104.516 Y89.728 E0.05265
G1 X104.265 Y89.378 F10800.000
G1 F8640.000
G1 X102.722 Y89.595 E-0.41534
G1 X101.254 Y89.328 E-0.34466
G1 E-0.04000 F2100.00000
G1 Z0.800 F10800.000
G1 X119.019 Y64.554
G1 Z0.200
G1 E0.80000 F2100.00000
G1 F1200.000
G1 X113.680 Y59.215 E0.23691
G1 X112.519 Y58.518 E0.04247
G1 X112.388 Y58.456 E0.00455
G1 X119.266 Y65.334 E0.30517
G1 X119.409 Y65.588 E0.00913
G1 X119.738 Y66.340 E0.02577
G1 X111.385 Y57.987 E0.37063
G1 X111.006 Y57.809 E0.01313
G1 X110.496 Y57.632 E0.01691
G1 X120.123 Y67.259 E0.42711
G1 X120.373 Y68.043 E0.02581
G1 X109.678 Y57.348 E0.47451
G1 X109.427 Y57.260 E0.00834
G1 X108.943 Y57.146 E0.01561
G1 X120.607 Y68.810 E0.51752
G1 X120.748 Y69.485 E0.02162
G1 X108.245 Y56.981 E0.55476
G1 X107.801 Y56.877 E0.01431
G1 X107.577 Y56.848 E0.00707
G1 X120.889 Y70.159 E0.59062
G1 X120.928 Y70.346 E0.00599
G1 X120.973 Y70.776 E0.01357
G1 X106.964 Y56.768 E0.62152
G1 X106.352 Y56.689 E0.01939
G1 X121.034 Y71.372 E0.65145
G1 X121.096 Y71.967 E0.01877
G1 X105.783 Y56.654 E0.67940
G1 X105.237 Y56.642 E0.01713
G1 X121.114 Y72.519 E0.70443
G1 X121.116 Y73.054 E0.01680
G1 X104.691 Y56.630 E0.72873
G1 X104.396 Y56.623 E0.00928
G1 X104.170 Y56.642 E0.00711
G1 X121.100 Y73.572 E0.75117
G1 X121.061 Y74.066 E0.01555
G1 X103.677 Y56.682 E0.77129
G1 X103.184 Y56.723 E0.01552
G1 X121.008 Y74.547 E0.79084
G1 X120.956 Y75.029 E0.01519
G1 X102.694 Y56.766 E0.81026
G1 X102.243 Y56.849 E0.01438
G1 X120.897 Y75.503 E0.82763
G1 X120.804 Y75.944 E0.01413
G1 X101.792 Y56.932 E0.84352
G1 X101.341 Y57.015 E0.01438
G1 X120.711 Y76.385 E0.85941
G1 X120.618 Y76.825 E0.01413
G1 X100.914 Y57.121 E0.87424
G1 X100.502 Y57.243 E0.01348
G1 X120.501 Y77.241 E0.88731
G1 X120.370 Y77.645 E0.01330
G1 X100.090 Y57.364 E0.89980
G1 X99.678 Y57.486 E0.01348
G1 X120.240 Y78.048 E0.91230
G1 X120.110 Y78.451 E0.01330
G1 X99.283 Y57.625 E0.92404
G1 X98.904 Y57.779 E0.01284
G1 X119.963 Y78.838 E0.93434
G1 X119.800 Y79.209 E0.01271
G1 X98.525 Y57.934 E0.94393
G1 X98.147 Y58.089 E0.01284
G1 X119.638 Y79.580 E0.95352
G1 X119.475 Y79.951 E0.01271
G1 X97.787 Y58.263 E0.96224
G1 X97.439 Y58.448 E0.01238
G1 X119.294 Y80.303 E0.96967
G1 X119.101 Y80.644 E0.01228
G1 X97.091 Y58.634 E0.97656
G1 X96.743 Y58.819 E0.01238
G1 X118.908 Y80.985 E0.98346
M73 P3 R83
G1 X118.716 Y81.326 E0.01228
G1 X96.406 Y59.017 E0.98982
G1 X96.087 Y59.231 E0.01206
G1 X118.513 Y81.657 E0.99500
G1 X118.292 Y81.969 E0.01201
G1 X95.768 Y59.446 E0.99932
G1 X95.450 Y59.660 E0.01206
G1 X118.070 Y82.281 E1.00363
G1 X117.848 Y82.593 E0.01201
G1 X95.132 Y59.877 E1.00787
G1 X94.841 Y60.119 E0.01189
G1 X117.626 Y82.904 E1.01094
G1 X117.377 Y83.188 E0.01186
G1 X94.550 Y60.362 E1.01278
G1 X94.259 Y60.605 E0.01189
G1 X117.126 Y83.472 E1.01456
G1 X116.876 Y83.755 E0.01186
G1 X93.969 Y60.847 E1.01635
G1 X93.696 Y61.108 E0.01184
G1 X116.625 Y84.038 E1.01735
G1 X116.366 Y84.312 E0.01184
G1 X93.432 Y61.378 E1.01754
G1 X93.169 Y61.648 E0.01184
G1 X116.089 Y84.568 E1.01692
G1 X115.811 Y84.824 E0.01185
G1 X92.905 Y61.919 E1.01629
G1 X92.648 Y62.195 E0.01184
G1 X115.534 Y85.080 E1.01540
G1 X115.253 Y85.333 E0.01185
G1 X92.412 Y62.493 E1.01340
G1 X92.177 Y62.791 E0.01192
G1 X114.948 Y85.562 E1.01034
G1 X114.643 Y85.791 E0.01196
G1 X91.941 Y63.089 E1.00727
G1 X91.705 Y63.386 E0.01192
G1 X114.338 Y86.020 E1.00421
G1 X114.034 Y86.248 E0.01196
G1 X91.493 Y63.707 E1.00011
G1 X91.285 Y64.034 E0.01213
G1 X113.708 Y86.456 E0.99486
G1 X113.375 Y86.657 E0.01220
G1 X91.078 Y64.360 E0.98928
G1 X90.870 Y64.686 E0.01213
G1 X113.041 Y86.857 E0.98369
G1 X112.708 Y87.057 E0.01220
G1 X90.678 Y65.027 E0.97745
G1 X90.500 Y65.383 E0.01248
G1 X112.361 Y87.244 E0.96996
G1 X111.998 Y87.414 E0.01259
G1 X90.322 Y65.738 E0.96173
G1 X90.144 Y66.094 E0.01248
G1 X111.634 Y87.584 E0.95349
G1 X111.271 Y87.754 E0.01259
G1 X89.976 Y66.459 E0.94484
G1 X89.830 Y66.847 E0.01299
G1 X110.899 Y87.916 E0.93480
G1 X110.503 Y88.053 E0.01315
G1 X89.684 Y67.234 E0.92372
G1 X89.537 Y67.622 E0.01299
G1 X110.107 Y88.191 E0.91264
G1 X109.711 Y88.329 E0.01315
G1 X89.400 Y68.018 E0.90115
G1 X89.289 Y68.441 E0.01370
G1 X109.305 Y88.456 E0.88807
G1 X108.873 Y88.558 E0.01392
G1 X89.178 Y68.863 E0.87385
G1 X89.067 Y69.285 E0.01370
G1 X108.442 Y88.660 E0.85963
G1 X108.010 Y88.762 E0.01392
G1 X88.973 Y69.725 E0.84465
G1 X88.901 Y70.187 E0.01466
G1 X107.557 Y88.843 E0.82776
G1 X107.085 Y88.904 E0.01495
G1 X88.829 Y70.648 E0.80999
G1 X88.757 Y71.110 E0.01466
G1 X106.612 Y88.965 E0.79222
G1 X106.139 Y89.026 E0.01496
G1 X88.724 Y71.611 E0.77268
M73 P5 R82
G1 X88.698 Y72.118 E0.01594
G1 X105.619 Y89.039 E0.75076
G1 X105.099 Y89.053 E0.01633
G1 X88.672 Y72.626 E0.72884
G1 X88.661 Y72.844 E0.00685
G1 X88.677 Y73.165 E0.01007
G1 X104.579 Y89.066 E0.70553
G1 X104.012 Y89.033 E0.01780
G1 X88.706 Y73.727 E0.67911
G1 X88.735 Y74.290 E0.01767
G1 X103.434 Y88.989 E0.65216
G1 X102.856 Y88.944 E0.01820
G1 X88.806 Y74.894 E0.62335
G1 X88.905 Y75.526 E0.02007
G1 X102.209 Y88.831 E0.59031
G1 X101.557 Y88.712 E0.02081
G1 X89.003 Y76.158 E0.55699
G1 X89.193 Y76.882 E0.02347
G1 X100.865 Y88.554 E0.51785
G1 X100.112 Y88.334 E0.02459
G1 X89.384 Y77.606 E0.47599
G1 X89.429 Y77.780 E0.00563
G1 X89.675 Y78.431 E0.02184
G1 X99.320 Y88.076 E0.42794
G1 X98.421 Y87.711 E0.03046
G1 X89.998 Y79.288 E0.37372
G1 X90.517 Y80.341 E0.03684
G1 X97.390 Y87.213 E0.30492
G1 X96.536 Y86.759 E0.03036
G1 X96.125 Y86.482 E0.01552
G1 X90.711 Y81.068 E0.24022
G1 F8640.000
G1 X93.039 Y83.396 E-0.76000
G1 E-0.04000 F2100.00000
G1 Z0.800 F10800.000
G1 X104.466 Y129.493
G1 Z0.200
G1 E0.80000 F2100.00000
G1 F1200.000
G1 X102.771 Y129.362 E0.05331
G1 X101.098 Y129.057 E0.05331
G1 X99.466 Y128.582 E0.05331
G1 X97.891 Y127.942 E0.05331
G1 X96.390 Y127.143 E0.05331
G1 X94.980 Y126.194 E0.05327
G1 X93.612 Y125.044 E0.05605
G1 X92.488 Y123.887 E0.05058
G1 X91.432 Y122.554 E0.05332
G1 X90.520 Y121.119 E0.05331
G1 X89.759 Y119.598 E0.05331
