; generated by PrusaSlicer 2.2.0+win64 on 2020-08-18 at 17:44:19 UTC

; 

; external perimeters extrusion width = 0.45mm
; perimeters extrusion width = 0.45mm
; infill extrusion width = 0.45mm
; solid infill extrusion width = 0.45mm
; top infill extrusion width = 0.40mm
; first layer extrusion width = 0.42mm

; external perimeters extrusion width = 0.45mm
; perimeters extrusion width = 0.45mm
; infill extrusion width = 0.45mm
; solid infill extrusion width = 0.45mm
; top infill extrusion width = 0.40mm
; first layer extrusion width = 0.42mm

; external perimeters extrusion width = 0.45mm
; perimeters extrusion width = 0.45mm
; infill extrusion width = 0.45mm
; solid infill extrusion width = 0.45mm
; top infill extrusion width = 0.40mm
; first layer extrusion width = 0.42mm

; external perimeters extrusion width = 0.45mm
; perimeters extrusion width = 0.45mm
; infill extrusion width = 0.45mm
; solid infill extrusion width = 0.45mm
; top infill extrusion width = 0.40mm
; first layer extrusion width = 0.42mm

M73 P0 R104
M201 X9000 Y9000 Z500 E10000 ; sets maximum accelerations, mm/sec^2
M203 X500 Y500 Z12 E120 ; sets maximum feedrates, mm/sec
M204 P2000 R1500 T2000 ; sets acceleration (P, T) and retract acceleration (R), mm/sec^2
M205 X10.00 Y10.00 Z0.20 E4.50 ; sets the jerk limits, mm/sec
M205 S0 T0 ; sets the minimum extruding and travel feed rate, mm/sec
M107
M862.3 P "MK2.5SMMU2S" ; printer model check
M862.1 P0.4 ; nozzle diameter check
M115 U3.9.0 ; tell printer latest fw version
G90 ; use absolute coordinates
M83 ; extruder relative mode
M104 S215 ; set extruder temp
M140 S60 ; set bed temp
M190 S60 ; wait for bed temp
M109 S215 ; wait for extruder temp
G28 W ; home all without mesh bed level
G80 ; mesh bed leveling

; Send the filament type to the MMU2.0 unit.
; E stands for extruder number, F stands for filament type (0: default; 1:flex; 2: PVA)
M403 E0 F0
M403 E1 F0
M403 E2 F0
M403 E3 F0
M403 E4 F0


;go outside print area
G1 Y-3.0 F1000.0
G1 Z0.4 F1000.0
; select extruder
T0
; initial load
G1 X55.0 E29.0 F1073.0
M73 P0 R104
G1 X5.0 E29.0 F1800.0
G1 X55.0 E8.0 F2000.0
G1 Z0.3 F1000.0
G92 E0.0
G1 X240.0 E25.0 F2200.0
G1 Y-2.0 F1000.0
G1 X55.0 E25 F1400.0
G1 Z0.20 F1000.0
G1 X5.0 E4.0 F1000.0
G92 E0.0

G92 E0.0
G21 ; set units to millimeters
G90 ; use absolute coordinates
M83 ; use relative distances for extrusion
T0
M900 K0.06 ; Filament gcode LA 1.5
M900 K30 ; Filament gcode LA 1.0
G1 Z0.200 F10800.000
;BEFORE_LAYER_CHANGE
G92 E0.0
;0.2


G1 E-0.80000 F2100.00000
G1 Z0.800 F10800.000
G1 Z0.200
;AFTER_LAYER_CHANGE
;0.2
G1 E-2.20000 F2100.00000
G1 Z0.800 F10800.000
G1 X155.943 Y60.890
G1 Z0.200
G1 E3.00000 F2100.00000
;-------------------------------------
; CP WIPE TOWER FIRST LAYER BRIM START
G1  X155.943 Y74.950  E0.8016 F2400
G1  X153.400 Y75.407   F7000
G1  Y60.433  E0.6260 F2100
G1  X92.486  E2.5466
G1  Y75.407  E0.6260
G1  X153.400  E2.5466
G1  X153.857 Y75.864   F7000
G1  Y59.976  E0.6642 F2100
G1  X92.029  E2.5849
G1  Y75.864  E0.6642
G1  X153.857  E2.5849
G1  X154.314 Y76.321   F7000
G1  Y59.519  E0.7025 F2100
G1  X91.572  E2.6231
G1  Y76.321  E0.7025
G1  X154.314  E2.6231
G1  X154.771 Y76.778   F7000
G1  Y59.062  E0.7407 F2100
G1  X91.115  E2.6613
G1  Y76.778  E0.7407
G1  X154.771  E2.6613
G1  X152.943 Y74.950   F7000
G1  X92.943 
G1  X152.943 
; CP WIPE TOWER FIRST LAYER BRIM END
;-----------------------------------

G1 F8640.000
G1 X149.652 Y74.950 E-0.76000
G1 E-0.04000 F2100.00000
G1 Z0.800 F10800.000
G1 X157.111 Y57.740
G1 Z0.200
G1 E0.80000 F2100.00000
M204 S1000
G1 F1200.000
G1 X157.362 Y58.562 E0.02696
G1 X157.373 Y77.152 E0.58285
G1 X150.337 Y143.382 E2.08828
G1 X150.083 Y144.813 E0.04559
G1 X149.534 Y146.323 E0.05037
G1 X148.909 Y147.456 E0.04058
G1 X148.116 Y148.486 E0.04075
G1 X146.888 Y149.636 E0.05276
G1 X145.711 Y150.402 E0.04402
G1 X144.517 Y150.934 E0.04097
G1 X142.786 Y151.373 E0.05599
G1 X141.505 Y151.471 E0.04028
G1 X108.454 Y151.471 E1.03630
G1 X107.660 Y151.430 E0.02492
G1 X106.371 Y151.210 E0.04100
G1 X104.768 Y150.638 E0.05339
G1 X103.631 Y150.007 E0.04077
G1 X102.607 Y149.211 E0.04066
G1 X101.474 Y147.996 E0.05210
G1 X100.601 Y146.598 E0.05167
G1 X100.094 Y145.406 E0.04063
G1 X99.745 Y144.013 E0.04502
G1 X88.528 Y77.307 E2.12087
G1 X88.509 Y58.803 E0.58019
G1 X88.584 Y58.242 E0.01775
G1 X88.789 Y57.714 E0.01775
G1 X89.157 Y57.202 E0.01977
G1 X89.644 Y56.807 E0.01965
G1 X90.220 Y56.552 E0.01977
G1 X90.839 Y56.457 E0.01965
G1 X155.004 Y56.456 E2.01183
G1 X155.849 Y56.613 E0.02696
G1 X156.584 Y57.061 E0.02696
G1 X157.074 Y57.693 E0.02508
G1 F8640.000
G1 X157.362 Y58.562 E-0.21156
G1 X157.363 Y60.938 E-0.54844
G1 E-0.04000 F2100.00000
G1 Z0.800 F10800.000
G1 X111.984 Y146.976
G1 Z0.200
G1 E0.80000 F2100.00000
G1 F1200.000
G1 X108.476 Y146.981 E0.10999
G1 X107.788 Y146.924 E0.02164
G1 X107.094 Y146.749 E0.02245
G1 X106.435 Y146.460 E0.02255
G1 X105.833 Y146.067 E0.02255
G1 X105.296 Y145.574 E0.02286
G1 X104.846 Y144.999 E0.02289
G1 X104.495 Y144.353 E0.02305
G1 X104.253 Y143.656 E0.02315
G1 X104.129 Y142.931 E0.02304
G1 X104.113 Y142.546 E0.01211
G1 X104.113 Y91.897 E1.58804
M73 P1 R103
G1 X104.172 Y91.180 E0.02256
G1 X104.355 Y90.457 E0.02340
G1 X104.656 Y89.773 E0.02341
G1 X105.063 Y89.154 E0.02322
G1 X105.559 Y88.618 E0.02293
G1 X106.139 Y88.170 E0.02297
G1 X106.782 Y87.826 E0.02287
G1 X107.468 Y87.596 E0.02267
G1 X108.168 Y87.485 E0.02222
G1 X115.524 Y87.473 E0.23066
G1 X116.211 Y87.530 E0.02162
G1 X116.905 Y87.706 E0.02245
G1 X117.564 Y87.994 E0.02255
G1 X118.167 Y88.387 E0.02255
G1 X118.704 Y88.880 E0.02286
G1 X119.154 Y89.456 E0.02289
G1 X119.505 Y90.101 E0.02305
G1 X119.747 Y90.799 E0.02315
G1 X119.870 Y91.523 E0.02304
G1 X119.887 Y91.909 E0.01211
G1 X119.887 Y142.557 E1.58804
G1 X119.828 Y143.274 E0.02256
G1 X119.644 Y143.998 E0.02340
G1 X119.344 Y144.681 E0.02341
G1 X118.937 Y145.300 E0.02322
G1 X118.441 Y145.837 E0.02293
G1 X117.861 Y146.284 E0.02297
G1 X117.218 Y146.628 E0.02287
G1 X116.532 Y146.858 E0.02267
G1 X115.822 Y146.971 E0.02255
G1 X112.044 Y146.976 E0.11845
G1 X111.858 Y146.599 F10800.000
G1 F1200.000
G1 X108.491 Y146.604 E0.10555
G1 X107.851 Y146.551 E0.02016
G1 X107.217 Y146.391 E0.02049
G1 X106.615 Y146.127 E0.02060
G1 X106.065 Y145.768 E0.02060
G1 X105.574 Y145.318 E0.02091
G1 X105.163 Y144.791 E0.02094
G1 X104.841 Y144.200 E0.02110
G1 X104.619 Y143.562 E0.02119
G1 X104.505 Y142.891 E0.02132
G1 X104.490 Y142.537 E0.01111
G1 X104.490 Y91.913 E1.58730
G1 X104.545 Y91.242 E0.02109
G1 X104.713 Y90.580 E0.02143
G1 X104.988 Y89.954 E0.02143
G1 X105.361 Y89.388 E0.02125
G1 X105.815 Y88.897 E0.02096
G1 X106.344 Y88.488 E0.02099
G1 X106.932 Y88.174 E0.02089
G1 X107.558 Y87.964 E0.02069
G1 X108.204 Y87.861 E0.02052
G1 X115.509 Y87.850 E0.22902
G1 X116.149 Y87.903 E0.02016
G1 X116.783 Y88.064 E0.02049
G1 X117.384 Y88.327 E0.02060
G1 X117.935 Y88.686 E0.02060
G1 X118.426 Y89.137 E0.02091
G1 X118.837 Y89.663 E0.02094
G1 X119.159 Y90.254 E0.02110
G1 X119.380 Y90.893 E0.02119
G1 X119.495 Y91.563 E0.02132
G1 X119.510 Y91.917 E0.01111
G1 X119.510 Y142.542 E1.58730
G1 X119.454 Y143.212 E0.02109
G1 X119.287 Y143.875 E0.02143
G1 X119.011 Y144.500 E0.02143
G1 X118.639 Y145.067 E0.02125
G1 X118.185 Y145.557 E0.02096
G1 X117.655 Y145.967 E0.02099
G1 X117.068 Y146.281 E0.02089
G1 X116.442 Y146.491 E0.02069
G1 X115.792 Y146.594 E0.02064
G1 X111.918 Y146.599 E0.12147
G1 X111.661 Y146.948 F10800.000
G1 F8640.000
G1 X108.626 Y146.604 E-0.76000
G1 E-0.04000 F2100.00000
G1 Z0.800 F10800.000
G1 X112.000 Y148.507
G1 Z0.200
G1 E0.80000 F2100.00000
G1 F1200.000
G1 X108.512 Y148.507 E0.10935
G1 X108.019 Y148.486 E0.01547
G1 X107.042 Y148.321 E0.03107
G1 X106.125 Y148.002 E0.03045
G1 X105.266 Y147.532 E0.03071
G1 X104.496 Y146.926 E0.03072
G1 X103.835 Y146.200 E0.03078
G1 X103.301 Y145.374 E0.03083
G1 X102.908 Y144.470 E0.03092
G1 X102.669 Y143.515 E0.03087
G1 X102.587 Y142.509 E0.03164
G1 X102.587 Y91.934 E1.58573
G1 X102.610 Y91.402 E0.01671
G1 X102.780 Y90.414 E0.03143
G1 X103.102 Y89.487 E0.03076
G1 X103.572 Y88.623 E0.03084
G1 X104.175 Y87.851 E0.03072
G1 X104.897 Y87.187 E0.03077
G1 X105.712 Y86.655 E0.03049
G1 X106.602 Y86.265 E0.03049
G1 X107.540 Y86.029 E0.03032
G1 X108.524 Y85.947 E0.03096
G1 X115.488 Y85.947 E0.21833
G1 X115.954 Y85.967 E0.01464
G1 X116.958 Y86.134 E0.03192
G1 X117.875 Y86.453 E0.03042
G1 X118.734 Y86.923 E0.03071
G1 X119.504 Y87.528 E0.03072
G1 X120.165 Y88.254 E0.03078
G1 X120.699 Y89.080 E0.03083
G1 X121.091 Y89.985 E0.03092
G1 X121.330 Y90.940 E0.03087
G1 X121.413 Y91.945 E0.03164
G1 X121.413 Y142.520 E1.58573
G1 X121.389 Y143.052 E0.01671
G1 X121.219 Y144.040 E0.03143
G1 X120.898 Y144.967 E0.03076
G1 X120.428 Y145.831 E0.03084
G1 X119.825 Y146.604 E0.03072
G1 X119.102 Y147.268 E0.03077
G1 X118.288 Y147.799 E0.03049
G1 X117.397 Y148.189 E0.03049
G1 X116.460 Y148.426 E0.03032
G1 X115.476 Y148.507 E0.03096
G1 X112.060 Y148.507 E0.10710
G1 X112.000 Y148.884 F10800.000
G1 F1200.000
G1 X108.504 Y148.884 E0.10960
G1 X107.980 Y148.862 E0.01646
G1 X106.948 Y148.687 E0.03280
G1 X105.972 Y148.348 E0.03242
G1 X105.057 Y147.848 E0.03268
G1 X104.238 Y147.203 E0.03269
G1 X103.535 Y146.431 E0.03274
G1 X102.967 Y145.553 E0.03278
G1 X102.550 Y144.591 E0.03287
G1 X102.296 Y143.576 E0.03281
G1 X102.210 Y142.524 E0.03309
G1 X102.210 Y91.926 E1.58647
G1 X102.235 Y91.362 E0.01772
G1 X102.414 Y90.320 E0.03315
G1 X102.756 Y89.334 E0.03271
G1 X103.256 Y88.416 E0.03279
G1 X103.897 Y87.594 E0.03267
G1 X104.665 Y86.888 E0.03272
G1 X105.532 Y86.323 E0.03244
G1 X106.480 Y85.908 E0.03245
G1 X107.478 Y85.655 E0.03228
G1 X108.509 Y85.570 E0.03243
G1 X115.495 Y85.570 E0.21907
G1 X115.993 Y85.591 E0.01561
G1 X117.052 Y85.767 E0.03365
G1 X118.028 Y86.107 E0.03241
G1 X118.942 Y86.607 E0.03268
G1 X119.762 Y87.251 E0.03269
G1 X120.465 Y88.023 E0.03274
G1 X121.033 Y88.901 E0.03278
G1 X121.450 Y89.863 E0.03287
G1 X121.704 Y90.878 E0.03281
G1 X121.790 Y91.930 E0.03309
G1 X121.790 Y142.528 E1.58647
G1 X121.765 Y143.093 E0.01772
G1 X121.586 Y144.135 E0.03315
G1 X121.244 Y145.120 E0.03270
G1 X120.744 Y146.039 E0.03279
G1 X120.103 Y146.860 E0.03267
G1 X119.335 Y147.566 E0.03272
G1 X118.468 Y148.132 E0.03244
G1 X117.520 Y148.547 E0.03245
G1 X116.522 Y148.799 E0.03228
G1 X115.491 Y148.884 E0.03243
G1 X112.060 Y148.884 E0.10759
G1 X111.798 Y148.539 F10800.000
G1 F8640.000
G1 X108.768 Y148.884 E-0.76000
G1 E-0.04000 F2100.00000
G1 Z0.800 F10800.000
G1 X107.284 Y148.247
G1 Z0.200
G1 E0.80000 F2100.00000
G1 F1200.000
G1 X103.098 Y144.061 E0.18565
G1 X103.177 Y144.379 E0.01028
G1 X103.403 Y144.900 E0.01781
G1 X106.524 Y148.021 E0.13842
G1 F8640.000
G1 X104.197 Y145.693 E-0.76000
G1 E-0.04000 F2100.00000
G1 Z0.800 F10800.000
G1 X120.923 Y89.881
G1 Z0.200
G1 E0.80000 F2100.00000
G1 F1200.000
G1 X117.751 Y86.709 E0.14070
G1 X116.933 Y86.425 E0.02714
G1 X120.902 Y90.394 E0.17602
G1 X121.050 Y90.986 E0.01915
G1 X121.058 Y91.083 E0.00306
G1 X119.529 Y89.554 E0.06783
G1 X119.765 Y89.986 E0.01544
G1 X119.943 Y90.501 E0.01709
G1 X121.106 Y91.664 E0.05157
G1 X121.130 Y91.957 E0.00921
G1 X121.130 Y92.222 E0.00830
G1 X120.101 Y91.193 E0.04564
G1 X120.152 Y91.493 E0.00956
G1 X120.165 Y91.790 E0.00932
G1 X121.130 Y92.755 E0.04280
G1 X121.130 Y93.288 E0.01673
G1 X120.170 Y92.328 E0.04259
G1 X120.170 Y92.861 E0.01673
G1 X121.130 Y93.822 E0.04259
G1 X121.130 Y94.355 E0.01673
G1 X120.170 Y93.395 E0.04259
G1 X120.170 Y93.928 E0.01673
G1 X121.130 Y94.888 E0.04259
G1 X121.130 Y95.422 E0.01673
G1 X120.170 Y94.462 E0.04259
G1 X120.170 Y94.995 E0.01673
G1 X121.130 Y95.955 E0.04259
G1 X121.130 Y96.489 E0.01673
G1 X120.170 Y95.528 E0.04259
G1 X120.170 Y96.062 E0.01673
G1 X121.130 Y97.022 E0.04259
G1 X121.130 Y97.555 E0.01673
G1 X120.170 Y96.595 E0.04259
G1 X120.170 Y97.128 E0.01673
G1 X121.130 Y98.089 E0.04259
G1 X121.130 Y98.622 E0.01673
G1 X120.170 Y97.662 E0.04259
G1 X120.170 Y98.195 E0.01673
G1 X121.130 Y99.155 E0.04259
G1 X121.130 Y99.689 E0.01673
G1 X120.170 Y98.729 E0.04259
G1 X120.170 Y99.262 E0.01673
G1 X121.130 Y100.222 E0.04259
G1 X121.130 Y100.756 E0.01673
G1 X120.170 Y99.795 E0.04259
G1 X120.170 Y100.329 E0.01673
G1 X121.130 Y101.289 E0.04259
G1 X121.130 Y101.822 E0.01673
G1 X120.170 Y100.862 E0.04259
G1 X120.170 Y101.395 E0.01673
G1 X121.130 Y102.356 E0.04259
G1 X121.130 Y102.889 E0.01673
G1 X120.170 Y101.929 E0.04259
G1 X120.170 Y102.462 E0.01673
G1 X121.130 Y103.422 E0.04259
G1 X121.130 Y103.956 E0.01673
G1 X120.170 Y102.995 E0.04259
G1 X120.170 Y103.529 E0.01673
G1 X121.130 Y104.489 E0.04259
G1 X121.130 Y105.022 E0.01673
G1 X120.170 Y104.062 E0.04259
G1 X120.170 Y104.596 E0.01673
G1 X121.130 Y105.556 E0.04259
G1 X121.130 Y106.089 E0.01673
G1 X120.170 Y105.129 E0.04259
G1 X120.170 Y105.662 E0.01673
G1 X121.130 Y106.623 E0.04259
G1 X121.130 Y107.156 E0.01673
G1 X120.170 Y106.196 E0.04259
G1 X120.170 Y106.729 E0.01673
G1 X121.130 Y107.689 E0.04259
G1 X121.130 Y108.223 E0.01673
G1 X120.170 Y107.262 E0.04259
G1 X120.170 Y107.796 E0.01673
G1 X121.130 Y108.756 E0.04259
G1 X121.130 Y109.289 E0.01673
G1 X120.170 Y108.329 E0.04259
G1 X120.170 Y108.863 E0.01673
G1 X121.130 Y109.823 E0.04259
G1 X121.130 Y110.356 E0.01673
G1 X120.170 Y109.396 E0.04259
G1 X120.170 Y109.929 E0.01673
G1 X121.130 Y110.890 E0.04259
G1 X121.130 Y111.423 E0.01673
G1 X120.170 Y110.463 E0.04259
G1 X120.170 Y110.996 E0.01673
G1 X121.130 Y111.956 E0.04259
G1 X121.130 Y112.490 E0.01673
G1 X120.170 Y111.529 E0.04259
G1 X120.170 Y112.063 E0.01673
G1 X121.130 Y113.023 E0.04259
G1 X121.130 Y113.556 E0.01673
G1 X120.170 Y112.596 E0.04259
G1 X120.170 Y113.130 E0.01673
G1 X121.130 Y114.090 E0.04259
G1 X121.130 Y114.623 E0.01673
G1 X120.170 Y113.663 E0.04259
G1 X120.170 Y114.196 E0.01673
G1 X121.130 Y115.157 E0.04259
G1 X121.130 Y115.690 E0.01673
G1 X120.170 Y114.730 E0.04259
G1 X120.170 Y115.263 E0.01673
G1 X121.130 Y116.223 E0.04259
G1 X121.130 Y116.757 E0.01673
G1 X120.170 Y115.796 E0.04259
G1 X120.170 Y116.330 E0.01673
G1 X121.130 Y117.290 E0.04259
G1 X121.130 Y117.823 E0.01673
G1 X120.170 Y116.863 E0.04259
G1 X120.170 Y117.396 E0.01673
G1 X121.130 Y118.357 E0.04259
G1 X121.130 Y118.890 E0.01673
G1 X120.170 Y117.930 E0.04259
G1 X120.170 Y118.463 E0.01673
G1 X121.130 Y119.423 E0.04259
G1 X121.130 Y119.957 E0.01673
G1 X120.170 Y118.997 E0.04259
G1 X120.170 Y119.530 E0.01673
G1 X121.130 Y120.490 E0.04259
G1 X121.130 Y121.024 E0.01673
G1 X120.170 Y120.063 E0.04259
G1 X120.170 Y120.597 E0.01673
G1 X121.130 Y121.557 E0.04259
G1 X121.130 Y122.090 E0.01673
G1 X120.170 Y121.130 E0.04259
G1 X120.170 Y121.663 E0.01673
G1 X121.130 Y122.624 E0.04259
G1 X121.130 Y123.157 E0.01673
G1 X120.170 Y122.197 E0.04259
G1 X120.170 Y122.730 E0.01673
G1 X121.130 Y123.690 E0.04259
G1 X121.130 Y124.224 E0.01673
G1 X120.170 Y123.264 E0.04259
G1 X120.170 Y123.797 E0.01673
G1 X121.130 Y124.757 E0.04259
G1 X121.130 Y125.291 E0.01673
G1 X120.170 Y124.330 E0.04259
G1 X120.170 Y124.864 E0.01673
G1 X121.130 Y125.824 E0.04259
G1 X121.130 Y126.357 E0.01673
G1 X120.170 Y125.397 E0.04259
G1 X120.170 Y125.930 E0.01673
G1 X121.130 Y126.891 E0.04259
G1 X121.130 Y127.424 E0.01673
G1 X120.170 Y126.464 E0.04259
G1 X120.170 Y126.997 E0.01673
G1 X121.130 Y127.957 E0.04259
G1 X121.130 Y128.491 E0.01673
G1 X120.170 Y127.531 E0.04259
G1 X120.170 Y128.064 E0.01673
G1 X121.130 Y129.024 E0.04259
G1 X121.130 Y129.558 E0.01673
G1 X120.170 Y128.597 E0.04259
G1 X120.170 Y129.131 E0.01673
G1 X121.130 Y130.091 E0.04259
G1 X121.130 Y130.624 E0.01673
G1 X120.170 Y129.664 E0.04259
G1 X120.170 Y130.197 E0.01673
G1 X121.130 Y131.158 E0.04259
G1 X121.130 Y131.691 E0.01673
G1 X120.170 Y130.731 E0.04259
G1 X120.170 Y131.264 E0.01673
G1 X121.130 Y132.224 E0.04259
G1 X121.130 Y132.758 E0.01673
G1 X120.170 Y131.797 E0.04259
G1 X120.170 Y132.331 E0.01673
G1 X121.130 Y133.291 E0.04259
G1 X121.130 Y133.824 E0.01673
G1 X120.170 Y132.864 E0.04259
G1 X120.170 Y133.398 E0.01673
G1 X121.130 Y134.358 E0.04259
G1 X121.130 Y134.891 E0.01673
G1 X120.170 Y133.931 E0.04259
G1 X120.170 Y134.464 E0.01673
G1 X121.130 Y135.425 E0.04259
G1 X121.130 Y135.958 E0.01673
G1 X120.170 Y134.998 E0.04259
G1 X120.170 Y135.531 E0.01673
