; generated by PrusaSlicer 2.1.1+win64 on 2019-12-20 at 23:52:56 UTC

; 

; external perimeters extrusion width = 0.45mm
; perimeters extrusion width = 0.45mm
; infill extrusion width = 0.45mm
; solid infill extrusion width = 0.45mm
; top infill extrusion width = 0.40mm
; first layer extrusion width = 0.42mm

; external perimeters extrusion width = 0.45mm
; perimeters extrusion width = 0.45mm
; infill extrusion width = 0.45mm
; solid infill extrusion width = 0.45mm
; top infill extrusion width = 0.40mm
; first layer extrusion width = 0.42mm

M73 P0 R38
M201 X9000 Y9000 Z500 E10000 ; sets maximum accelerations, mm/sec^2
M203 X500 Y500 Z12 E120 ; sets maximum feedrates, mm/sec
M204 P2000 R1500 T2000 ; sets acceleration (P, T) and retract acceleration (R), mm/sec^2
M205 X10.00 Y10.00 Z0.20 E2.50 ; sets the jerk limits, mm/sec
M205 S0 T0 ; sets the minimum extruding and travel feed rate, mm/sec
M107
M862.3 P "MK2.5SMMU2S" ; printer model check
M862.1 P0.4 ; nozzle diameter check
M115 U3.8.1 ; tell printer latest fw version
G90 ; use absolute coordinates
M83 ; extruder relative mode
M104 S215 ; set extruder temp
M140 S60 ; set bed temp
M190 S60 ; wait for bed temp
M109 S215 ; wait for extruder temp
G28 W ; home all without mesh bed level
G80 ; mesh bed leveling

; Send the filament type to the MMU2.0 unit.
; E stands for extruder number, F stands for filament type (0: default; 1:flex; 2: PVA)
M403 E0 F0
M403 E1 F0
M403 E2 F0
M403 E3 F0
M403 E4 F0


;go outside print area
G1 Y-3.0 F1000.0
G1 Z0.4 F1000.0
; select extruder
T1
; initial load
G1 X55.0 E29.0 F1073.0
M73 P0 R38
G1 X5.0 E29.0 F1800.0
G1 X55.0 E8.0 F2000.0
G1 Z0.3 F1000.0
G92 E0.0
G1 X240.0 E25.0 F2200.0
G1 Y-2.0 F1000.0
G1 X55.0 E25 F1400.0
G1 Z0.20 F1000.0
G1 X5.0 E4.0 F1000.0
G92 E0.0

G92 E0.0
G21 ; set units to millimeters
G90 ; use absolute coordinates
M83 ; use relative distances for extrusion
T1
M900 K30 ; Filament gcode
G1 Z0.200 F10800.000
;BEFORE_LAYER_CHANGE
G92 E0.0
;0.2


G1 E-0.80000 F2100.00000
G1 Z0.800 F10800.000
G1 Z0.200
;AFTER_LAYER_CHANGE
;0.2
G1 E-2.20000 F2100.00000
G1 Z0.800 F10800.000
G1 X173.069 Y51.506
G1 Z0.200
G1 E3.00000 F2100.00000
;-------------------------------------
; CP WIPE TOWER FIRST LAYER BRIM START
G1  X173.069 Y65.566 E0.8016 F2400
G1  X170.526 Y66.023  F7000
G1  Y51.049 E0.6260 F2100
G1  X109.612 E2.5466
G1  Y66.023 E0.6260
G1  X170.526 E2.5466
G1  X170.983 Y66.480  F7000
G1  Y50.592 E0.6642 F2100
G1  X109.155 E2.5849
G1  Y66.480 E0.6642
G1  X170.983 E2.5849
G1  X171.440 Y66.937  F7000
G1  Y50.135 E0.7025 F2100
G1  X108.698 E2.6231
G1  Y66.937 E0.7025
G1  X171.440 E2.6231
G1  X171.897 Y67.394  F7000
G1  Y49.678 E0.7407 F2100
G1  X108.241 E2.6613
G1  Y67.394 E0.7407
G1  X171.897 E2.6613
G1  X170.069 Y65.566  F7000
G1  X110.069
G1  X170.069
; CP WIPE TOWER FIRST LAYER BRIM END
;-----------------------------------
G1  X169.569 Y52.006  F7200
;--------------------
; CP EMPTY GRID START
; layer #1
G1  X170.069
G1  Y51.506
G1  Y65.566 E0.5344 F1450
G1  X110.069 E2.2804
G1  Y51.506 E0.5344
G1  X170.069 E2.2804
G1  X169.569
G1  Y52.006
G1  Y65.066 E0.4964
G1  X110.569 E2.2424
G1  Y52.006 E0.4964
G1  X169.569 E2.2424
G1  Y65.066
G1  X169.069 Y64.543  E0.0275
G1  X111.069 E2.2044
G1  Y64.019 E0.0199
G1  X169.069 E2.2044
G1  Y63.496 E0.0199
G1  X111.069 E2.2044
M73 P3 R37
G1  Y62.973 E0.0199
G1  X169.069 E2.2044
G1  Y62.449 E0.0199
G1  X111.069 E2.2044
G1  Y61.926 E0.0199
G1  X169.069 E2.2044
G1  Y61.403 E0.0199
G1  X111.069 E2.2044
G1  Y60.879 E0.0199
G1  X169.069 E2.2044
G1  Y60.356 E0.0199
G1  X111.069 E2.2044
G1  Y59.833 E0.0199
G1  X169.069 E2.2044
G1  Y59.309 E0.0199
G1  X111.069 E2.2044
G1  Y58.786 E0.0199
G1  X169.069 E2.2044
G1  Y58.263 E0.0199
G1  X111.069 E2.2044
G1  Y57.739 E0.0199
G1  X169.069 E2.2044
G1  Y57.216 E0.0199
G1  X111.069 E2.2044
G1  Y56.693 E0.0199
G1  X169.069 E2.2044
G1  Y56.169 E0.0199
G1  X111.069 E2.2044
G1  Y55.646 E0.0199
G1  X169.069 E2.2044
G1  Y55.123 E0.0199
G1  X111.069 E2.2044
G1  Y54.599 E0.0199
G1  X169.069 E2.2044
G1  Y54.076 E0.0199
G1  X111.069 E2.2044
G1  Y53.553 E0.0199
G1  X169.069 E2.2044
G1  Y53.029 E0.0199
G1  X111.069 E2.2044
G1  Y52.506 E0.0199
G1  X169.069 E2.2044
G1  X111.069
; CP EMPTY GRID END
;------------------







G1 F8640
G1 X107.778 Y52.506 E-0.76000
G1 E-0.04000 F2100.00000
G1 Z0.800 F10800.000
G1 X73.982 Y118.899
G1 Z0.200
G1 E0.80000 F2100.00000
M204 S1000
G1 F1200
G1 X73.843 Y118.166 E0.02338
G1 X73.649 Y97.381 E0.65173
G1 X73.649 Y54.278 E1.35146
G1 X73.751 Y53.620 E0.02089
G1 X74.037 Y53.038 E0.02032
G1 X74.483 Y52.563 E0.02044
G1 X75.046 Y52.241 E0.02032
G1 X75.682 Y52.099 E0.02044
G1 X95.156 Y52.093 E0.61058
G1 X96.907 Y52.141 E0.05493
G1 X99.038 Y52.449 E0.06751
G1 X100.362 Y52.841 E0.04329
G1 X101.524 Y53.366 E0.03999
G1 X102.862 Y54.249 E0.05025
G1 X103.876 Y55.239 E0.04445
G1 X104.949 Y56.783 E0.05895
G1 X140.079 Y132.213 E2.60899
M73 P6 R36
G1 X140.695 Y133.698 E0.05039
G1 X141.166 Y135.770 E0.06662
G1 X141.314 Y137.977 E0.06935
G1 X141.314 Y150.897 E0.40510
G1 X141.145 Y153.054 E0.06784
G1 X140.637 Y154.985 E0.06261
G1 X139.976 Y156.391 E0.04872
G1 X139.068 Y157.629 E0.04812
G1 X137.733 Y158.816 E0.05602
G1 X136.605 Y159.491 E0.04122
G1 X135.404 Y159.988 E0.04077
G1 X134.111 Y160.342 E0.04203
G1 X132.969 Y160.534 E0.03631
G1 X130.865 Y160.673 E0.06610
G1 X111.052 Y160.677 E0.62123
G1 X110.437 Y160.578 E0.01953
G1 X109.872 Y160.308 E0.01964
G1 X109.439 Y159.928 E0.01805
G1 X74.377 Y119.565 E1.67636
G1 X74.012 Y118.951 E0.02240
G1 F8640
G1 X73.843 Y118.166 E-0.18524
G1 X73.820 Y115.677 E-0.57476
G1 E-0.04000 F2100.00000
G1 Z0.800 F10800.000
G1 X89.953 Y117.545
G1 Z0.200
G1 E0.80000 F2100.00000
G1 F1200
G1 X76.619 Y117.545 E0.41810
G1 X76.619 Y110.785 E0.21195
G1 X94.427 Y110.784 E0.55836
G1 X94.764 Y110.754 E0.01062
G1 X95.124 Y110.604 E0.01223
G1 X95.326 Y110.412 E0.00876
G1 X95.456 Y110.208 E0.00757
G1 X95.546 Y109.975 E0.00782
G1 X95.627 Y109.523 E0.01441
G1 X95.647 Y109.224 E0.00939
G1 X95.647 Y108.584 E0.02006
G1 X95.596 Y108.067 E0.01631
G1 X95.532 Y107.798 E0.00867
G1 X95.339 Y107.420 E0.01327
G1 X95.107 Y107.208 E0.00987
G1 X94.733 Y107.060 E0.01262
G1 X94.250 Y107.033 E0.01515
G1 X81.241 Y107.033 E0.40791
G1 X81.241 Y100.770 E0.19639
G1 X94.669 Y100.763 E0.42103
G1 X95.062 Y100.688 E0.01254
G1 X95.306 Y100.573 E0.00847
G1 X95.516 Y100.407 E0.00839
G1 X95.687 Y100.191 E0.00862
G1 X95.812 Y99.943 E0.00873
G1 X95.898 Y99.668 E0.00903
G1 X95.956 Y99.352 E0.01006
G1 X95.997 Y98.622 E0.02292
G1 X95.954 Y98.012 E0.01918
G1 X95.889 Y97.728 E0.00912
G1 X95.790 Y97.479 E0.00842
G1 X95.647 Y97.253 E0.00837
G1 X95.460 Y97.067 E0.00827
G1 X95.246 Y96.935 E0.00790
G1 X95.013 Y96.850 E0.00777
G1 X94.635 Y96.794 E0.01201
G1 X76.425 Y96.788 E0.57096
G1 X76.425 Y89.799 E0.21914
G1 X95.180 Y89.799 E0.58807
G1 X95.855 Y89.804 E0.02117
G1 X96.667 Y89.837 E0.02547
G1 X97.551 Y89.926 E0.02785
G1 X98.472 Y90.097 E0.02938
G1 X99.396 Y90.375 E0.03025
G1 X100.290 Y90.783 E0.03081
G1 X101.124 Y91.347 E0.03157
G1 X101.875 Y92.093 E0.03319
G1 X102.518 Y93.058 E0.03637
G1 X103.025 Y94.284 E0.04158
G1 X103.360 Y95.810 E0.04898
G1 X103.481 Y97.681 E0.05881
G1 X103.442 Y99.052 E0.04300
G1 X103.331 Y100.165 E0.03507
G1 X103.161 Y101.034 E0.02775
G1 X102.949 Y101.685 E0.02148
G1 X102.710 Y102.150 E0.01639
G1 X102.460 Y102.470 E0.01274
G1 X102.198 Y102.691 E0.01074
G1 X101.912 Y102.851 E0.01027
G1 X101.592 Y102.976 E0.01080
G1 X100.842 Y103.208 E0.02461
G1 X99.221 Y103.854 E0.05471
G1 X100.813 Y104.612 E0.05528
G1 X101.574 Y104.880 E0.02530
G1 X101.900 Y105.017 E0.01108
G1 X102.187 Y105.187 E0.01047
G1 X102.451 Y105.419 E0.01103
G1 X102.704 Y105.757 E0.01324
G1 X102.945 Y106.250 E0.01721
G1 X103.160 Y106.941 E0.02269
G1 X103.330 Y107.864 E0.02941
G1 X103.442 Y109.046 E0.03723
G1 X103.481 Y110.501 E0.04566
G1 X103.361 Y112.173 E0.05256
G1 X103.030 Y113.530 E0.04377
G1 X102.529 Y114.618 E0.03755
G1 X101.891 Y115.477 E0.03356
G1 X101.140 Y116.146 E0.03152
G1 X100.300 Y116.654 E0.03081
G1 X99.393 Y117.024 E0.03069
G1 X98.453 Y117.276 E0.03053
G1 X97.512 Y117.430 E0.02990
G1 X96.610 Y117.511 E0.02840
G1 X95.031 Y117.545 E0.04952
G1 X90.013 Y117.545 E0.15732
G1 X89.953 Y117.922 F10800.000
G1 F1200
G1 X76.242 Y117.922 E0.42992
G1 X76.242 Y110.408 E0.23559
G1 X94.410 Y110.407 E0.56965
G1 X94.673 Y110.384 E0.00827
G1 X94.915 Y110.283 E0.00822
G1 X95.033 Y110.171 E0.00511
G1 X95.118 Y110.037 E0.00497
G1 X95.181 Y109.873 E0.00552
G1 X95.252 Y109.477 E0.01260
G1 X95.270 Y108.603 E0.02742
G1 X95.223 Y108.129 E0.01492
G1 X95.175 Y107.929 E0.00645
G1 X95.034 Y107.652 E0.00974
G1 X94.904 Y107.533 E0.00555
G1 X94.651 Y107.433 E0.00851
G1 X94.240 Y107.410 E0.01291
G1 X80.864 Y107.410 E0.41942
G1 X80.864 Y100.393 E0.22003
G1 X94.633 Y100.386 E0.43173
G1 X94.944 Y100.327 E0.00992
G1 X95.106 Y100.250 E0.00562
G1 X95.248 Y100.138 E0.00567
G1 X95.367 Y99.988 E0.00602
G1 X95.461 Y99.801 E0.00655
G1 X95.531 Y99.577 E0.00736
G1 X95.581 Y99.307 E0.00860
G1 X95.620 Y98.625 E0.02143
G1 X95.580 Y98.068 E0.01750
G1 X95.528 Y97.841 E0.00732
G1 X95.453 Y97.650 E0.00641
G1 X95.352 Y97.491 E0.00591
G1 X95.225 Y97.366 E0.00559
G1 X95.080 Y97.276 E0.00535
G1 X94.920 Y97.217 E0.00535
G1 X94.607 Y97.171 E0.00992
G1 X76.047 Y97.165 E0.58192
G1 X76.047 Y89.422 E0.24278
G1 X95.182 Y89.422 E0.59994
G1 X95.864 Y89.427 E0.02141
G1 X96.693 Y89.461 E0.02602
G1 X97.604 Y89.552 E0.02869
G1 X98.561 Y89.730 E0.03052
G1 X99.529 Y90.021 E0.03171
G1 X100.475 Y90.453 E0.03260
G1 X101.365 Y91.054 E0.03366
G1 X102.167 Y91.852 E0.03550
G1 X102.852 Y92.880 E0.03872
G1 X103.387 Y94.170 E0.04379
G1 X103.734 Y95.757 E0.05093
G1 X103.859 Y97.674 E0.06025
G1 X103.819 Y99.076 E0.04397
G1 X103.704 Y100.220 E0.03604
G1 X103.527 Y101.129 E0.02903
G1 X103.298 Y101.830 E0.02314
G1 X103.029 Y102.354 E0.01845
G1 X102.733 Y102.733 E0.01509
G1 X102.413 Y103.002 E0.01308
G1 X102.074 Y103.193 E0.01221
G1 X101.716 Y103.333 E0.01205
G1 X100.967 Y103.564 E0.02457
G1 X100.162 Y103.885 E0.02717
G1 X100.957 Y104.263 E0.02759
G1 X101.710 Y104.528 E0.02502
G1 X102.069 Y104.679 E0.01224
G1 X102.410 Y104.880 E0.01239
G1 X102.729 Y105.162 E0.01336
G1 X103.027 Y105.560 E0.01558
G1 X103.297 Y106.111 E0.01924
G1 X103.526 Y106.851 E0.02429
G1 X103.704 Y107.811 E0.03063
G1 X103.819 Y109.023 E0.03815
G1 X103.859 Y110.510 E0.04664
G1 X103.735 Y112.232 E0.05414
G1 X103.388 Y113.654 E0.04590
G1 X102.855 Y114.811 E0.03992
G1 X102.171 Y115.733 E0.03600
G1 X101.365 Y116.451 E0.03382
G1 X100.469 Y116.992 E0.03282
G1 X99.514 Y117.382 E0.03235
G1 X98.532 Y117.645 E0.03186
G1 X97.559 Y117.805 E0.03093
G1 X96.630 Y117.887 E0.02923
G1 X95.035 Y117.922 E0.05004
G1 X90.013 Y117.922 E0.15745
G1 X89.753 Y117.576 F10800.000
G1 F8640
G1 X86.722 Y117.922 E-0.76000
G1 E-0.04000 F2100.00000
G1 Z0.800 F10800.000
G1 X102.453 Y114.513
G1 Z0.200
G1 E0.80000 F2100.00000
G1 F1200
G1 X95.849 Y107.910 E0.29431
G1 X95.876 Y108.020 E0.00355
G1 X95.925 Y108.521 E0.01589
G1 X102.110 Y114.707 E0.27570
G1 X101.882 Y115.015 E0.01207
G1 X95.930 Y109.062 E0.26530
G1 X95.905 Y109.574 E0.01615
G1 X101.647 Y115.316 E0.25591
G1 X101.363 Y115.568 E0.01197
G1 X95.824 Y110.029 E0.24690
G1 X95.709 Y110.336 E0.01034
G1 X95.665 Y110.406 E0.00260
G1 X101.080 Y115.821 E0.24135
G1 X100.972 Y115.917 E0.00457
G1 X100.765 Y116.042 E0.00761
G1 X95.428 Y110.705 E0.23787
G1 X95.281 Y110.845 E0.00640
G1 X95.106 Y110.918 E0.00600
G1 X100.431 Y116.244 E0.23736
G1 X100.172 Y116.400 E0.00953
G1 X100.087 Y116.435 E0.00292
G1 X94.695 Y111.044 E0.24028
G1 X94.182 Y111.067 E0.01619
G1 X99.706 Y116.591 E0.24619
G1 X99.325 Y116.746 E0.01296
G1 X93.646 Y111.067 E0.25311
G1 X93.110 Y111.067 E0.01689
G1 X98.905 Y116.862 E0.25826
G1 X98.482 Y116.975 E0.01379
G1 X92.574 Y111.067 E0.26331
G1 X92.038 Y111.067 E0.01689
G1 X98.030 Y117.059 E0.26703
G1 X97.569 Y117.134 E0.01470
G1 X91.502 Y111.067 E0.27041
G1 X90.966 Y111.067 E0.01689
G1 X97.084 Y117.185 E0.27264
G1 X96.591 Y117.228 E0.01558
G1 X90.430 Y111.067 E0.27458
G1 X89.894 Y111.068 E0.01689
G1 X96.067 Y117.240 E0.27510
G1 X95.542 Y117.251 E0.01653
G1 X89.358 Y111.068 E0.27561
G1 X88.822 Y111.068 E0.01689
G1 X95.017 Y117.262 E0.27611
G1 X94.481 Y117.262 E0.01689
G1 X88.286 Y111.068 E0.27611
G1 X87.750 Y111.068 E0.01689
G1 X93.945 Y117.262 E0.27611
G1 X93.409 Y117.262 E0.01689
G1 X87.214 Y111.068 E0.27611
G1 X86.678 Y111.068 E0.01689
G1 X92.873 Y117.262 E0.27610
G1 X92.337 Y117.262 E0.01689
G1 X86.142 Y111.068 E0.27610
G1 X85.606 Y111.068 E0.01689
G1 X91.801 Y117.262 E0.27610
G1 X91.265 Y117.262 E0.01689
G1 X85.070 Y111.068 E0.27610
G1 X84.534 Y111.068 E0.01689
G1 X90.729 Y117.262 E0.27610
G1 X90.193 Y117.262 E0.01689
G1 X83.998 Y111.068 E0.27610
G1 X83.462 Y111.068 E0.01689
G1 X89.657 Y117.262 E0.27610
G1 X89.121 Y117.262 E0.01689
G1 X82.926 Y111.068 E0.27610
G1 X82.390 Y111.068 E0.01689
G1 X88.585 Y117.262 E0.27609
G1 X88.049 Y117.262 E0.01689
G1 X81.854 Y111.068 E0.27609
G1 X81.318 Y111.068 E0.01689
G1 X87.513 Y117.262 E0.27609
G1 X86.977 Y117.262 E0.01689
G1 X80.782 Y111.068 E0.27609
G1 X80.246 Y111.068 E0.01689
G1 X86.441 Y117.262 E0.27609
G1 X85.905 Y117.262 E0.01689
G1 X79.710 Y111.068 E0.27609
G1 X79.175 Y111.068 E0.01689
G1 X85.369 Y117.262 E0.27609
G1 X84.833 Y117.262 E0.01689
G1 X78.639 Y111.068 E0.27608
G1 X78.103 Y111.068 E0.01689
G1 X84.297 Y117.262 E0.27608
G1 X83.761 Y117.262 E0.01689
G1 X77.567 Y111.068 E0.27608
G1 X77.031 Y111.068 E0.01689
G1 X83.225 Y117.262 E0.27608
G1 X82.689 Y117.262 E0.01689
G1 X76.902 Y111.475 E0.25794
G1 X76.902 Y112.011 E0.01689
G1 X82.153 Y117.262 E0.23405
G1 X81.617 Y117.262 E0.01689
G1 X76.902 Y112.547 E0.21016
G1 X76.902 Y113.083 E0.01689
G1 X81.081 Y117.262 E0.18627
G1 X80.545 Y117.262 E0.01689
G1 X76.902 Y113.619 E0.16238
G1 X76.902 Y114.155 E0.01689
G1 X80.009 Y117.262 E0.13849
G1 X79.473 Y117.262 E0.01689
G1 X76.902 Y114.691 E0.11460
G1 X76.902 Y115.227 E0.01689
G1 X78.937 Y117.262 E0.09070
G1 X78.401 Y117.262 E0.01689
G1 X76.902 Y115.763 E0.06681
G1 X76.902 Y116.299 E0.01689
G1 X77.865 Y117.262 E0.04292
G1 X77.329 Y117.262 E0.01689
G1 X76.732 Y116.666 E0.02659
G1 F8640
G1 X77.329 Y117.262 E-0.19484
G1 X77.865 Y117.262 E-0.12377
G1 X76.902 Y116.299 E-0.31447
G1 X76.902 Y115.763 E-0.12377
G1 X76.911 Y115.773 E-0.00315
G1 E-0.04000 F2100.00000
G1 Z0.800 F10800.000
G1 X81.995 Y106.920
G1 Z0.200
G1 E0.80000 F2100.00000
G1 F1200
G1 X81.523 Y106.449 E0.02102
G1 X81.523 Y105.913 E0.01689
G1 X82.361 Y106.751 E0.03735
G1 X82.897 Y106.751 E0.01689
G1 X81.523 Y105.377 E0.06124
G1 X81.523 Y104.841 E0.01689
G1 X83.433 Y106.751 E0.08513
G1 X83.969 Y106.751 E0.01689
G1 X81.523 Y104.305 E0.10902
G1 X81.523 Y103.769 E0.01689
G1 X84.505 Y106.751 E0.13291
G1 X85.041 Y106.751 E0.01689
G1 X81.523 Y103.233 E0.15680
G1 X81.523 Y102.697 E0.01689
G1 X85.578 Y106.751 E0.18069
G1 X86.114 Y106.751 E0.01689
G1 X81.523 Y102.160 E0.20458
G1 X81.523 Y101.624 E0.01689
G1 X86.650 Y106.751 E0.22848
G1 X87.186 Y106.751 E0.01689
G1 X81.523 Y101.088 E0.25237
G1 X81.523 Y101.052 E0.00113
G1 X82.023 Y101.052 E0.01575
G1 X87.722 Y106.751 E0.25398
G1 X88.258 Y106.751 E0.01689
G1 X82.559 Y101.052 E0.25399
G1 X83.095 Y101.052 E0.01688
G1 X88.794 Y106.751 E0.25400
G1 X89.330 Y106.751 E0.01689
G1 X83.630 Y101.051 E0.25402
G1 X84.166 Y101.051 E0.01688
G1 X89.866 Y106.751 E0.25403
G1 X90.402 Y106.751 E0.01689
G1 X84.702 Y101.051 E0.25404
G1 X85.238 Y101.051 E0.01688
G1 X90.938 Y106.751 E0.25405
G1 X91.474 Y106.751 E0.01689
G1 X85.773 Y101.050 E0.25407
G1 X86.309 Y101.050 E0.01688
G1 X92.010 Y106.751 E0.25408
G1 X92.546 Y106.751 E0.01689
G1 X86.845 Y101.050 E0.25409
G1 X87.381 Y101.049 E0.01688
G1 X93.082 Y106.751 E0.25410
G1 X93.618 Y106.751 E0.01689
G1 X87.916 Y101.049 E0.25412
G1 X88.452 Y101.049 E0.01688
G1 X94.154 Y106.751 E0.25413
G1 X94.715 Y106.775 E0.01769
G1 X88.988 Y101.049 E0.25524
G1 X89.524 Y101.048 E0.01688
G1 X102.494 Y114.018 E0.57808
G1 X102.663 Y113.652 E0.01273
G1 X90.059 Y101.048 E0.56174
G1 X90.595 Y101.048 E0.01688
G1 X102.805 Y113.258 E0.54422
G1 X102.910 Y112.827 E0.01398
G1 X91.131 Y101.048 E0.52502
G1 X91.667 Y101.047 E0.01688
