; generated by PrusaSlicer 2.2.0+win64 on 2020-08-18 at 17:01:12 UTC

; 

; external perimeters extrusion width = 0.45mm
; perimeters extrusion width = 0.45mm
; infill extrusion width = 0.45mm
; solid infill extrusion width = 0.45mm
; top infill extrusion width = 0.40mm
; first layer extrusion width = 0.42mm

; external perimeters extrusion width = 0.45mm
; perimeters extrusion width = 0.45mm
; infill extrusion width = 0.45mm
; solid infill extrusion width = 0.45mm
; top infill extrusion width = 0.40mm
; first layer extrusion width = 0.42mm

M73 P0 R82
M201 X9000 Y9000 Z500 E10000 ; sets maximum accelerations, mm/sec^2
M203 X500 Y500 Z12 E120 ; sets maximum feedrates, mm/sec
M204 P2000 R1500 T2000 ; sets acceleration (P, T) and retract acceleration (R), mm/sec^2
M205 X10.00 Y10.00 Z0.20 E4.50 ; sets the jerk limits, mm/sec
M205 S0 T0 ; sets the minimum extruding and travel feed rate, mm/sec
M107
M862.3 P "MK2.5SMMU2S" ; printer model check
M862.1 P0.4 ; nozzle diameter check
M115 U3.9.0 ; tell printer latest fw version
G90 ; use absolute coordinates
M83 ; extruder relative mode
M104 S215 ; set extruder temp
M140 S60 ; set bed temp
M190 S60 ; wait for bed temp
M109 S215 ; wait for extruder temp
G28 W ; home all without mesh bed level
G80 ; mesh bed leveling

; Send the filament type to the MMU2.0 unit.
; E stands for extruder number, F stands for filament type (0: default; 1:flex; 2: PVA)
M403 E0 F0
M403 E1 F0
M403 E2 F0
M403 E3 F0
M403 E4 F0


;go outside print area
G1 Y-3.0 F1000.0
G1 Z0.4 F1000.0
; select extruder
T0
; initial load
G1 X55.0 E29.0 F1073.0
M73 P0 R81
G1 X5.0 E29.0 F1800.0
G1 X55.0 E8.0 F2000.0
G1 Z0.3 F1000.0
G92 E0.0
G1 X240.0 E25.0 F2200.0
G1 Y-2.0 F1000.0
G1 X55.0 E25 F1400.0
G1 Z0.20 F1000.0
G1 X5.0 E4.0 F1000.0
G92 E0.0

G92 E0.0
G21 ; set units to millimeters
G90 ; use absolute coordinates
M83 ; use relative distances for extrusion
T0
M900 K0.06 ; Filament gcode LA 1.5
M900 K30 ; Filament gcode LA 1.0
G1 Z0.200 F10800.000
;BEFORE_LAYER_CHANGE
G92 E0.0
;0.2


G1 E-0.80000 F2100.00000
G1 Z0.800 F10800.000
G1 Z0.200
;AFTER_LAYER_CHANGE
;0.2
G1 E-2.20000 F2100.00000
G1 Z0.800 F10800.000
G1 X129.943 Y95.913
G1 Z0.200
G1 E3.00000 F2100.00000
;-------------------------------------
; CP WIPE TOWER FIRST LAYER BRIM START
G1  X129.943 Y109.973  E0.8016 F2400
G1  X127.400 Y110.430   F7000
G1  Y95.456  E0.6260 F2100
G1  X66.486  E2.5466
G1  Y110.430  E0.6260
G1  X127.400  E2.5466
G1  X127.857 Y110.887   F7000
G1  Y94.999  E0.6642 F2100
G1  X66.029  E2.5849
G1  Y110.887  E0.6642
G1  X127.857  E2.5849
G1  X128.314 Y111.344   F7000
G1  Y94.542  E0.7025 F2100
G1  X65.572  E2.6231
G1  Y111.344  E0.7025
G1  X128.314  E2.6231
G1  X128.771 Y111.801   F7000
G1  Y94.085  E0.7407 F2100
G1  X65.115  E2.6613
G1  Y111.801  E0.7407
G1  X128.771  E2.6613
G1  X126.943 Y109.973   F7000
G1  X66.943 
G1  X126.943 
; CP WIPE TOWER FIRST LAYER BRIM END
;-----------------------------------

G1 F8640.000
G1 X123.652 Y109.973 E-0.76000
G1 E-0.04000 F2100.00000
G1 Z0.800 F10800.000
G1 X183.963 Y34.802
G1 Z0.200
G1 E0.80000 F2100.00000
M204 S1000
G1 F1200.000
G1 X184.727 Y35.308 E0.02872
G1 X185.242 Y36.065 E0.02872
G1 X185.434 Y36.961 E0.02872
G1 X185.434 Y173.004 E4.26553
G1 X185.313 Y173.749 E0.02367
G1 X184.985 Y174.391 E0.02260
G1 X184.476 Y174.907 E0.02272
G1 X183.839 Y175.245 E0.02260
G1 X183.130 Y175.376 E0.02260
G1 X137.049 Y175.377 E1.44484
G1 X136.308 Y175.256 E0.02355
G1 X135.525 Y174.818 E0.02813
G1 X63.117 Y113.618 E2.97259
G1 X62.676 Y112.906 E0.02626
G1 X62.510 Y112.085 E0.02626
G1 X62.509 Y93.841 E0.57204
G1 X62.630 Y93.107 E0.02331
G1 X62.939 Y92.494 E0.02154
G1 X63.410 Y91.993 E0.02154
G1 X135.586 Y35.133 E2.88094
M73 P1 R80
G1 X136.017 Y34.862 E0.01597
G1 X136.519 Y34.685 E0.01668
G1 X137.044 Y34.623 E0.01657
G1 X183.061 Y34.623 E1.44283
G1 X183.904 Y34.791 E0.02696
G1 F8640.000
G1 X184.727 Y35.308 E-0.22439
G1 X185.242 Y36.065 E-0.21151
G1 X185.434 Y36.961 E-0.21151
G1 X185.434 Y37.448 E-0.11259
G1 E-0.04000 F2100.00000
G1 Z0.800 F10800.000
G1 X181.225 Y84.367
G1 Z0.200
G1 E0.80000 F2100.00000
G1 F1200.000
G1 X166.271 Y81.665 E0.47647
G1 X166.271 Y77.738 E0.12313
G1 X181.225 Y75.036 E0.47647
G1 X181.225 Y79.022 E0.12498
G1 X179.514 Y79.269 E0.05419
G1 X179.514 Y80.134 E0.02712
G1 X181.225 Y80.381 E0.05419
G1 X181.225 Y84.307 E0.12310
G1 X180.848 Y83.916 F10800.000
G1 F1200.000
G1 X166.648 Y81.350 E0.45244
G1 X166.648 Y78.053 E0.10337
G1 X180.848 Y75.488 E0.45244
G1 X180.848 Y78.696 E0.10059
G1 X179.137 Y78.943 E0.05419
G1 X179.137 Y80.461 E0.04759
G1 X180.848 Y80.708 E0.05419
G1 X180.848 Y83.856 E0.09871
G1 X180.861 Y84.316 F10800.000
G1 F8640.000
G1 X177.606 Y83.284 E-0.76000
G1 E-0.04000 F2100.00000
G1 Z0.800 F10800.000
G1 X173.270 Y98.089
G1 Z0.200
G1 E0.80000 F2100.00000
G1 F1200.000
G1 X168.338 Y98.077 E0.15463
G1 X168.017 Y98.029 E0.01018
G1 X167.719 Y97.949 E0.00966
G1 X167.435 Y97.832 E0.00962
G1 X167.171 Y97.674 E0.00965
G1 X166.933 Y97.476 E0.00972
G1 X166.727 Y97.240 E0.00983
G1 X166.559 Y96.970 E0.00997
G1 X166.430 Y96.672 E0.01018
G1 X166.340 Y96.350 E0.01049
G1 X166.287 Y96.005 E0.01091
G1 X166.271 Y95.653 E0.01107
G1 X166.271 Y91.349 E0.13493
G1 X168.589 Y90.920 E0.07391
G1 X166.271 Y90.268 E0.07550
G1 X166.271 Y84.278 E0.18780
G1 X170.011 Y83.281 E0.12136
G1 X170.011 Y85.301 E0.06336
G1 X181.225 Y85.301 E0.35161
G1 X181.225 Y89.289 E0.12501
G1 X170.011 Y89.289 E0.35161
G1 X170.011 Y94.234 E0.15507
G1 X172.006 Y94.232 E0.06256
G1 X172.019 Y92.409 E0.05718
G1 X172.105 Y91.933 E0.01514
G1 X172.201 Y91.681 E0.00847
G1 X172.327 Y91.457 E0.00806
G1 X172.491 Y91.254 E0.00818
G1 X172.690 Y91.080 E0.00827
G1 X172.916 Y90.941 E0.00833
G1 X173.164 Y90.839 E0.00841
G1 X173.443 Y90.766 E0.00904
G1 X173.979 Y90.718 E0.01687
G1 X178.940 Y90.730 E0.15555
G1 X179.323 Y90.772 E0.01209
G1 X179.675 Y90.847 E0.01128
G1 X180.005 Y90.964 E0.01098
G1 X180.310 Y91.131 E0.01087
G1 X180.578 Y91.350 E0.01087
G1 X180.800 Y91.618 E0.01090
G1 X180.970 Y91.923 E0.01095
G1 X181.090 Y92.257 E0.01113
G1 X181.168 Y92.616 E0.01151
G1 X181.212 Y93.009 E0.01240
G1 X181.226 Y97.302 E0.13462
G1 X177.485 Y98.023 E0.11947
G1 X177.485 Y94.611 E0.10698
G1 X175.466 Y94.611 E0.06330
G1 X175.461 Y96.200 E0.04985
G1 X175.405 Y96.662 E0.01456
G1 X175.334 Y96.919 E0.00838
G1 X175.229 Y97.165 E0.00837
G1 X175.078 Y97.400 E0.00877
G1 X174.879 Y97.613 E0.00914
G1 X174.634 Y97.790 E0.00947
G1 X174.353 Y97.926 E0.00979
G1 X174.040 Y98.018 E0.01023
G1 X173.697 Y98.072 E0.01088
G1 X173.330 Y98.089 E0.01154
G1 F8640.000
G1 X170.038 Y98.081 E-0.76000
G1 E-0.04000 F2100.00000
G1 Z0.800 F10800.000
G1 X169.634 Y90.822
G1 Z0.200
G1 E0.80000 F2100.00000
G1 F1200.000
G1 X166.648 Y89.982 E0.09726
G1 X166.648 Y84.568 E0.16976
G1 X169.634 Y83.772 E0.09689
G1 X169.634 Y85.679 E0.05979
G1 X180.848 Y85.679 E0.35161
G1 X180.848 Y88.912 E0.10137
G1 X169.634 Y88.912 E0.35161
G1 X169.634 Y90.762 E0.05803
G1 X169.391 Y91.141 F10800.000
G1 F8640.000
G1 X166.648 Y89.982 E-0.71262
G1 X166.648 Y89.777 E-0.04738
G1 E-0.04000 F2100.00000
G1 Z0.800 F10800.000
G1 X173.287 Y97.712
G1 Z0.200
G1 E0.80000 F2100.00000
G1 F1200.000
G1 X168.366 Y97.700 E0.15430
G1 X168.093 Y97.659 E0.00865
G1 X167.840 Y97.592 E0.00820
G1 X167.605 Y97.494 E0.00799
G1 X167.390 Y97.366 E0.00786
G1 X167.197 Y97.206 E0.00784
G1 X167.031 Y97.015 E0.00794
G1 X166.894 Y96.794 E0.00815
G1 X166.786 Y96.546 E0.00849
G1 X166.709 Y96.270 E0.00897
G1 X166.663 Y95.968 E0.00958
G1 X166.648 Y95.644 E0.01017
G1 X166.648 Y91.663 E0.12482
G1 X169.634 Y91.110 E0.09521
G1 X169.634 Y94.467 E0.10525
G1 X169.659 Y94.592 E0.00401
G1 X169.744 Y94.612 E0.00273
G1 X172.282 Y94.609 E0.07958
G1 X172.355 Y94.588 E0.00237
G1 X172.381 Y94.503 E0.00278
G1 X172.396 Y92.444 E0.06458
G1 X172.470 Y92.035 E0.01303
G1 X172.544 Y91.841 E0.00649
G1 X172.641 Y91.669 E0.00619
G1 X172.764 Y91.516 E0.00617
G1 X172.914 Y91.385 E0.00624
G1 X173.088 Y91.278 E0.00640
G1 X173.284 Y91.197 E0.00667
G1 X173.508 Y91.138 E0.00723
G1 X173.995 Y91.095 E0.01535
G1 X178.919 Y91.107 E0.15439
G1 X179.263 Y91.145 E0.01085
G1 X179.572 Y91.211 E0.00991
G1 X179.851 Y91.310 E0.00926
G1 X180.098 Y91.445 E0.00883
G1 X180.311 Y91.619 E0.00863
G1 X180.487 Y91.832 E0.00865
G1 X180.625 Y92.080 E0.00891
G1 X180.727 Y92.362 E0.00940
G1 X180.796 Y92.677 E0.01012
G1 X180.835 Y93.030 E0.01115
G1 X180.848 Y96.991 E0.12418
G1 X177.862 Y97.566 E0.09536
G1 X177.862 Y94.357 E0.10062
G1 X177.847 Y94.242 E0.00362
G1 X175.158 Y94.243 E0.08432
G1 X175.115 Y94.257 E0.00139
G1 X175.104 Y94.283 E0.00090
G1 X175.089 Y94.456 E0.00545
G1 X175.084 Y96.177 E0.05396
G1 X175.034 Y96.588 E0.01299
G1 X174.977 Y96.794 E0.00670
G1 X174.894 Y96.987 E0.00660
G1 X174.779 Y97.168 E0.00671
G1 X174.628 Y97.329 E0.00693
G1 X174.440 Y97.465 E0.00727
G1 X174.217 Y97.573 E0.00778
G1 X173.957 Y97.650 E0.00849
G1 X173.659 Y97.696 E0.00945
G1 X173.347 Y97.711 E0.00980
G1 X173.097 Y98.064 F10800.000
G1 F8640.000
G1 X170.056 Y97.703 E-0.76000
G1 E-0.04000 F2100.00000
G1 Z0.800 F10800.000
G1 X170.011 Y76.134
G1 Z0.200
G1 E0.80000 F2100.00000
G1 F1200.000
G1 X166.271 Y75.081 E0.12182
G1 X166.271 Y69.092 E0.18780
G1 X167.795 Y68.685 E0.04945
G1 X166.271 Y68.685 E0.04778
G1 X166.271 Y64.755 E0.12323
G1 X168.191 Y64.755 E0.06021
G1 X168.017 Y64.730 E0.00552
G1 X167.719 Y64.650 E0.00966
G1 X167.435 Y64.532 E0.00962
G1 X167.171 Y64.375 E0.00965
G1 X166.933 Y64.176 E0.00972
G1 X166.727 Y63.940 E0.00983
G1 X166.559 Y63.670 E0.00997
G1 X166.430 Y63.372 E0.01018
G1 X166.340 Y63.050 E0.01049
G1 X166.287 Y62.706 E0.01091
G1 X166.271 Y62.353 E0.01107
G1 X166.271 Y58.904 E0.10813
G1 X166.287 Y58.552 E0.01107
G1 X166.340 Y58.207 E0.01091
G1 X166.430 Y57.885 E0.01049
G1 X166.559 Y57.587 E0.01018
G1 X166.727 Y57.317 E0.00997
G1 X166.933 Y57.081 E0.00983
G1 X167.171 Y56.883 E0.00972
G1 X167.435 Y56.725 E0.00965
G1 X167.719 Y56.608 E0.00962
G1 X168.017 Y56.528 E0.00966
G1 X168.191 Y56.502 E0.00552
G1 X166.271 Y56.502 E0.06021
G1 X166.271 Y52.836 E0.11496
G1 X167.698 Y52.473 E0.04617
G1 X166.271 Y52.473 E0.04475
G1 X166.271 Y48.467 E0.12561
G1 X181.225 Y48.467 E0.46887
G1 X181.225 Y52.341 E0.12147
G1 X179.514 Y52.781 E0.05538
G1 X181.225 Y52.781 E0.05363
G1 X181.225 Y56.502 E0.11667
G1 X179.137 Y56.502 E0.06547
G1 X179.274 Y56.513 E0.00433
G1 X179.587 Y56.582 E0.01003
G1 X179.881 Y56.684 E0.00978
G1 X180.165 Y56.827 E0.00997
G1 X180.431 Y57.016 E0.01022
G1 X180.668 Y57.253 E0.01051
G1 X180.869 Y57.534 E0.01084
G1 X181.026 Y57.856 E0.01123
G1 X181.137 Y58.214 E0.01175
G1 X181.204 Y58.606 E0.01245
G1 X181.225 Y59.017 E0.01292
G1 X181.225 Y62.240 E0.10106
G1 X181.204 Y62.652 E0.01292
G1 X181.137 Y63.043 E0.01245
G1 X181.026 Y63.401 E0.01175
G1 X180.869 Y63.723 E0.01123
G1 X180.668 Y64.005 E0.01084
G1 X180.431 Y64.241 E0.01051
G1 X180.165 Y64.430 E0.01022
G1 X179.881 Y64.573 E0.00997
G1 X179.573 Y64.680 E0.01024
G1 X179.131 Y64.755 E0.01407
G1 X181.225 Y64.755 E0.06566
G1 X181.225 Y68.685 E0.12323
G1 X170.011 Y68.685 E0.35161
G1 X170.011 Y70.115 E0.04483
G1 X181.225 Y70.115 E0.35161
G1 X181.225 Y74.102 E0.12501
G1 X170.011 Y74.102 E0.35161
G1 X170.011 Y76.074 E0.06182
G1 X169.634 Y75.636 F10800.000
G1 F1200.000
G1 X166.648 Y74.796 E0.09726
G1 X166.648 Y69.381 E0.16976
G1 X169.634 Y68.585 E0.09689
G1 X169.634 Y70.492 E0.05979
G1 X180.848 Y70.492 E0.35161
G1 X180.848 Y73.725 E0.10137
G1 X169.634 Y73.725 E0.35161
G1 X169.634 Y75.576 E0.05803
G1 X169.391 Y75.954 F10800.000
G1 F8640.000
G1 X166.648 Y74.796 E-0.71262
G1 X166.648 Y74.590 E-0.04738
G1 E-0.04000 F2100.00000
G1 Z0.800 F10800.000
G1 X173.057 Y68.308
G1 Z0.200
G1 E0.80000 F2100.00000
G1 F1200.000
G1 X166.648 Y68.308 E0.20095
G1 X166.648 Y65.132 E0.09958
G1 X180.848 Y65.132 E0.44523
G1 X180.848 Y68.308 E0.09958
G1 X173.117 Y68.308 E0.24239
G1 X172.903 Y68.678 F10800.000
G1 F8640.000
G1 X169.825 Y68.308 E-0.76000
G1 E-0.04000 F2100.00000
G1 Z0.800 F10800.000
G1 X172.959 Y64.408
G1 Z0.200
G1 E0.80000 F2100.00000
G1 F1200.000
G1 X168.361 Y64.399 E0.14416
G1 X168.093 Y64.360 E0.00850
G1 X167.840 Y64.292 E0.00820
G1 X167.605 Y64.194 E0.00799
G1 X167.390 Y64.066 E0.00786
G1 X167.197 Y63.906 E0.00784
G1 X167.031 Y63.715 E0.00794
G1 X166.894 Y63.494 E0.00815
G1 X166.786 Y63.246 E0.00849
G1 X166.709 Y62.970 E0.00897
G1 X166.663 Y62.668 E0.00958
G1 X166.648 Y62.344 E0.01017
G1 X166.648 Y58.913 E0.10758
G1 X166.663 Y58.589 E0.01017
G1 X166.709 Y58.287 E0.00958
G1 X166.786 Y58.011 E0.00897
G1 X166.894 Y57.763 E0.00849
G1 X167.031 Y57.542 E0.00815
G1 X167.197 Y57.351 E0.00794
G1 X167.390 Y57.191 E0.00784
G1 X167.605 Y57.063 E0.00786
G1 X167.840 Y56.965 E0.00799
G1 X168.093 Y56.898 E0.00820
G1 X168.361 Y56.858 E0.00850
G1 X168.640 Y56.845 E0.00873
G1 X178.688 Y56.845 E0.31506
G1 X179.219 Y56.887 E0.01669
G1 X179.484 Y56.945 E0.00852
G1 X179.734 Y57.032 E0.00830
G1 X179.970 Y57.151 E0.00828
G1 X180.187 Y57.305 E0.00835
G1 X180.380 Y57.497 E0.00853
G1 X180.543 Y57.728 E0.00886
G1 X180.674 Y57.996 E0.00936
G1 X180.770 Y58.302 E0.01005
G1 X180.828 Y58.647 E0.01096
G1 X180.848 Y59.027 E0.01193
G1 X180.848 Y62.231 E0.10046
G1 X180.828 Y62.610 E0.01193
G1 X180.770 Y62.955 E0.01096
G1 X180.674 Y63.261 E0.01005
G1 X180.543 Y63.530 E0.00936
G1 X180.380 Y63.760 E0.00886
G1 X180.187 Y63.952 E0.00853
G1 X179.970 Y64.106 E0.00835
G1 X179.734 Y64.225 E0.00828
G1 X179.479 Y64.314 E0.00846
G1 X178.956 Y64.402 E0.01664
G1 X173.019 Y64.408 E0.18614
G1 X172.760 Y64.755 F10800.000
G1 F8640.000
G1 X169.728 Y64.402 E-0.76000
G1 E-0.04000 F2100.00000
G1 Z0.800 F10800.000
G1 X173.057 Y56.125
G1 Z0.200
G1 E0.80000 F2100.00000
G1 F1200.000
G1 X166.648 Y56.125 E0.20095
G1 X166.648 Y53.129 E0.09394
G1 X170.711 Y52.096 E0.13145
G1 X166.648 Y52.096 E0.12739
G1 X166.648 Y48.844 E0.10196
G1 X180.848 Y48.844 E0.44523
G1 X180.848 Y52.048 E0.10048
G1 X176.537 Y53.158 E0.13957
G1 X180.848 Y53.158 E0.13517
G1 X180.848 Y56.125 E0.09302
G1 X173.117 Y56.125 E0.24239
G1 X172.900 Y56.493 F10800.000
G1 F8640.000
G1 X169.825 Y56.125 E-0.76000
G1 E-0.04000 F2100.00000
G1 Z0.800 F10800.000
G1 X170.011 Y46.652
G1 Z0.200
G1 E0.80000 F2100.00000
G1 F1200.000
G1 X166.271 Y45.156 E0.12630
G1 X166.271 Y41.225 E0.12324
G1 X177.485 Y41.225 E0.35161
G1 X177.485 Y40.294 E0.02920
G1 X181.225 Y40.294 E0.11727
G1 X181.225 Y46.124 E0.18282
G1 X177.485 Y46.124 E0.11727
G1 X177.485 Y45.231 E0.02801
G1 X170.011 Y45.231 E0.23434
G1 X170.011 Y46.592 E0.04266
G1 X169.634 Y46.095 F10800.000
G1 F1200.000
G1 X166.648 Y44.900 E0.10083
G1 X166.648 Y41.602 E0.10341
G1 X177.862 Y41.602 E0.35161
G1 X177.862 Y40.671 E0.02920
G1 X180.848 Y40.671 E0.09362
G1 X180.848 Y45.747 E0.15917
G1 X177.862 Y45.747 E0.09362
G1 X177.862 Y44.854 E0.02801
G1 X169.634 Y44.854 E0.25798
G1 X169.634 Y46.035 E0.03702
G1 X169.368 Y46.393 F10800.000
G1 F8640.000
G1 X166.648 Y44.900 E-0.73753
G1 X166.648 Y44.803 E-0.02247
G1 E-0.04000 F2100.00000
G1 Z0.800 F10800.000
G1 X173.057 Y101.413
G1 Z0.200
G1 E0.80000 F2100.00000
G1 F1200.000
G1 X163.644 Y101.413 E0.29514
G1 X163.644 Y37.587 E2.00121
G1 X182.470 Y37.587 E0.59027
G1 X182.470 Y101.413 E2.00121
G1 X173.117 Y101.413 E0.29325
G1 X173.057 Y101.790 F10800.000
G1 F1200.000
G1 X163.267 Y101.790 E0.30696
G1 X163.267 Y37.210 E2.02486
G1 X182.847 Y37.210 E0.61392
G1 X182.847 Y101.790 E2.02486
G1 X173.117 Y101.790 E0.30508
G1 X172.721 Y101.573 F10800.000
G1 F8640.000
G1 X169.825 Y101.790 E-0.76000
G1 E-0.04000 F2100.00000
G1 Z0.800 F10800.000
G1 X176.531 Y80.099
G1 Z0.200
G1 E0.80000 F2100.00000
G1 F1200.000
G1 X173.481 Y79.695 E0.09647
G1 X176.531 Y79.304 E0.09642
G1 X176.531 Y80.039 E0.02305
G1 X176.775 Y79.782 F10800.000
G1 F8640.000
G1 X173.481 Y79.695 E-0.70872
G1 X173.701 Y79.667 E-0.05128
G1 E-0.04000 F2100.00000
G1 Z0.800 F10800.000
G1 X172.922 Y60.836
G1 Z0.200
G1 E0.80000 F2100.00000
M73 P2 R79
G1 F1200.000
G1 X169.864 Y60.839 E0.09586
G1 X169.863 Y60.441 E0.01248
G1 X177.633 Y60.437 E0.24365
G1 X177.632 Y60.831 E0.01236
G1 X172.982 Y60.836 E0.14580
G1 X172.944 Y61.213 F10800.000
G1 F1200.000
G1 X169.559 Y61.217 E0.10613
G1 X169.489 Y61.203 E0.00223
G1 X169.484 Y60.088 E0.03496
G1 X169.492 Y60.064 E0.00077
