; generated by PrusaSlicer 2.2.0+win64 on 2020-08-18 at 17:04:37 UTC

; 

; external perimeters extrusion width = 0.45mm
; perimeters extrusion width = 0.45mm
; infill extrusion width = 0.45mm
; solid infill extrusion width = 0.45mm
; top infill extrusion width = 0.40mm
; first layer extrusion width = 0.42mm

; external perimeters extrusion width = 0.45mm
; perimeters extrusion width = 0.45mm
; infill extrusion width = 0.45mm
; solid infill extrusion width = 0.45mm
; top infill extrusion width = 0.40mm
; first layer extrusion width = 0.42mm

M73 P0 R27
M201 X9000 Y9000 Z500 E10000 ; sets maximum accelerations, mm/sec^2
M203 X500 Y500 Z12 E120 ; sets maximum feedrates, mm/sec
M204 P2000 R1500 T2000 ; sets acceleration (P, T) and retract acceleration (R), mm/sec^2
M205 X10.00 Y10.00 Z0.20 E4.50 ; sets the jerk limits, mm/sec
M205 S0 T0 ; sets the minimum extruding and travel feed rate, mm/sec
M107
M862.3 P "MK2.5SMMU2S" ; printer model check
M862.1 P0.4 ; nozzle diameter check
M115 U3.9.0 ; tell printer latest fw version
G90 ; use absolute coordinates
M83 ; extruder relative mode
M104 S215 ; set extruder temp
M140 S60 ; set bed temp
M190 S60 ; wait for bed temp
M109 S215 ; wait for extruder temp
G28 W ; home all without mesh bed level
G80 ; mesh bed leveling

; Send the filament type to the MMU2.0 unit.
; E stands for extruder number, F stands for filament type (0: default; 1:flex; 2: PVA)
M403 E0 F0
M403 E1 F0
M403 E2 F0
M403 E3 F0
M403 E4 F0


;go outside print area
G1 Y-3.0 F1000.0
G1 Z0.4 F1000.0
; select extruder
T0
; initial load
G1 X55.0 E29.0 F1073.0
M73 P1 R27
G1 X5.0 E29.0 F1800.0
G1 X55.0 E8.0 F2000.0
G1 Z0.3 F1000.0
G92 E0.0
G1 X240.0 E25.0 F2200.0
G1 Y-2.0 F1000.0
G1 X55.0 E25 F1400.0
G1 Z0.20 F1000.0
G1 X5.0 E4.0 F1000.0
G92 E0.0

G92 E0.0
G21 ; set units to millimeters
G90 ; use absolute coordinates
M83 ; use relative distances for extrusion
T0
M900 K0.06 ; Filament gcode LA 1.5
M900 K30 ; Filament gcode LA 1.0
G1 Z0.200 F10800.000
;BEFORE_LAYER_CHANGE
G92 E0.0
;0.2


G1 E-0.80000 F2100.00000
G1 Z0.800 F10800.000
G1 Z0.200
;AFTER_LAYER_CHANGE
;0.2
G1 E-2.20000 F2100.00000
G1 Z0.800 F10800.000
G1 X155.943 Y78.450
G1 Z0.200
G1 E3.00000 F2100.00000
;-------------------------------------
; CP WIPE TOWER FIRST LAYER BRIM START
G1  X155.943 Y92.510  E0.8016 F2400
G1  X153.400 Y92.967   F7000
G1  Y77.993  E0.6260 F2100
G1  X92.486  E2.5466
G1  Y92.967  E0.6260
G1  X153.400  E2.5466
G1  X153.857 Y93.424   F7000
G1  Y77.536  E0.6642 F2100
G1  X92.029  E2.5849
G1  Y93.424  E0.6642
G1  X153.857  E2.5849
G1  X154.314 Y93.881   F7000
G1  Y77.079  E0.7025 F2100
G1  X91.572  E2.6231
G1  Y93.881  E0.7025
G1  X154.314  E2.6231
G1  X154.771 Y94.338   F7000
G1  Y76.622  E0.7407 F2100
G1  X91.115  E2.6613
G1  Y94.338  E0.7407
G1  X154.771  E2.6613
G1  X152.943 Y92.510   F7000
G1  X92.943 
G1  X152.943 
; CP WIPE TOWER FIRST LAYER BRIM END
;-----------------------------------

G1 F8640.000
G1 X149.652 Y92.510 E-0.76000
G1 E-0.04000 F2100.00000
G1 Z0.800 F10800.000
G1 X157.154 Y75.389
G1 Z0.200
G1 E0.80000 F2100.00000
M204 S1000
G1 F1200.000
G1 X157.373 Y76.251 E0.02790
G1 X157.950 Y110.213 E1.06499
G1 X157.950 Y123.101 E0.40409
G1 X157.799 Y125.372 E0.07138
G1 X157.305 Y127.515 E0.06894
G1 X156.531 Y129.278 E0.06038
G1 X155.672 Y130.546 E0.04801
G1 X154.621 Y131.606 E0.04680
G1 X153.260 Y132.551 E0.05195
G1 X151.833 Y133.196 E0.04910
G1 X150.674 Y133.541 E0.03793
G1 X149.522 Y133.758 E0.03674
G1 X147.432 Y133.916 E0.06572
G1 X93.081 Y133.921 E1.70414
G1 X92.146 Y133.716 E0.03001
G1 X91.370 Y133.162 E0.02989
G1 X90.933 Y132.497 E0.02496
G1 X90.741 Y131.720 E0.02508
G1 X88.511 Y94.653 E1.16432
G1 X88.511 Y76.302 E0.57538
G1 X88.725 Y75.404 E0.02896
G1 X89.268 Y74.652 E0.02907
G1 X90.008 Y74.185 E0.02743
G1 X90.862 Y74.016 E0.02731
G1 X155.004 Y74.016 E2.01111
G1 X155.878 Y74.184 E0.02790
G1 X156.631 Y74.664 E0.02802
G1 X157.119 Y75.340 E0.02614
G1 F8640.000
G1 X157.373 Y76.251 E-0.21841
G1 X157.413 Y78.597 E-0.54159
G1 E-0.04000 F2100.00000
G1 Z0.800 F10800.000
G1 X107.227 Y130.903
G1 Z0.200
G1 E0.80000 F2100.00000
G1 F1200.000
G1 X93.753 Y130.903 E0.42248
G1 X93.753 Y124.023 E0.21572
G1 X111.912 Y124.013 E0.56938
G1 X112.312 Y123.950 E0.01270
G1 X112.499 Y123.887 E0.00619
G1 X112.680 Y123.792 E0.00639
G1 X112.846 Y123.662 E0.00663
G1 X112.997 Y123.488 E0.00721
G1 X113.127 Y123.258 E0.00828
G1 X113.230 Y122.962 E0.00985
G1 X113.299 Y122.588 E0.01191
G1 X113.324 Y122.129 E0.01441
G1 X113.299 Y121.598 E0.01666
G1 X113.229 Y121.163 E0.01383
G1 X113.123 Y120.815 E0.01139
G1 X112.990 Y120.545 E0.00943
G1 X112.838 Y120.342 E0.00797
G1 X112.672 Y120.192 E0.00701
G1 X112.495 Y120.085 E0.00649
G1 X112.310 Y120.012 E0.00625
G1 X111.934 Y119.943 E0.01199
G1 X111.582 Y119.932 E0.01104
G1 X98.569 Y119.932 E0.40800
G1 X98.569 Y113.778 E0.19295
G1 X111.501 Y113.778 E0.40548
G1 X111.980 Y113.746 E0.01505
G1 X112.288 Y113.645 E0.01016
G1 X112.435 Y113.553 E0.00543
G1 X112.573 Y113.424 E0.00592
G1 X112.700 Y113.247 E0.00683
G1 X112.811 Y113.010 E0.00820
G1 X112.900 Y112.704 E0.01001
G1 X112.959 Y112.318 E0.01222
G1 X112.980 Y111.847 E0.01479
G1 X112.959 Y111.376 E0.01479
G1 X112.900 Y110.990 E0.01223
G1 X112.812 Y110.684 E0.01001
G1 X112.701 Y110.447 E0.00820
G1 X112.575 Y110.270 E0.00681
G1 X112.439 Y110.140 E0.00588
G1 X112.295 Y110.048 E0.00536
G1 X112.150 Y109.988 E0.00493
G1 X111.834 Y109.926 E0.01009
G1 X93.947 Y109.916 E0.56084
G1 X93.947 Y103.266 E0.20853
G1 X113.042 Y103.270 E0.59870
M73 P4 R26
G1 X113.865 Y103.297 E0.02584
G1 X114.752 Y103.373 E0.02790
G1 X115.673 Y103.521 E0.02926
G1 X116.601 Y103.766 E0.03009
G1 X117.506 Y104.133 E0.03064
G1 X118.359 Y104.649 E0.03124
G1 X119.126 Y105.339 E0.03234
G1 X119.775 Y106.224 E0.03440
G1 X120.272 Y107.323 E0.03784
G1 X120.590 Y108.655 E0.04295
G1 X120.702 Y110.239 E0.04977
G1 X120.639 Y111.765 E0.04791
G1 X120.460 Y113.017 E0.03964
G1 X120.180 Y114.028 E0.03289
G1 X119.815 Y114.828 E0.02759
G1 X119.379 Y115.445 E0.02369
G1 X118.891 Y115.904 E0.02099
G1 X118.375 Y116.233 E0.01918
G1 X117.852 Y116.463 E0.01792
G1 X116.622 Y116.837 E0.04031
G1 X117.344 Y117.023 E0.02337
G1 X117.850 Y117.175 E0.01656
G1 X118.371 Y117.393 E0.01773
G1 X118.888 Y117.707 E0.01894
G1 X119.376 Y118.146 E0.02058
G1 X119.813 Y118.736 E0.02301
G1 X120.179 Y119.499 E0.02655
G1 X120.459 Y120.460 E0.03139
G1 X120.639 Y121.646 E0.03760
G1 X120.702 Y123.088 E0.04524
G1 X120.591 Y124.862 E0.05574
G1 X120.275 Y126.352 E0.04776
G1 X119.781 Y127.581 E0.04152
G1 X119.138 Y128.571 E0.03702
G1 X118.377 Y129.344 E0.03403
G1 X117.530 Y129.925 E0.03219
G1 X116.632 Y130.339 E0.03102
G1 X115.713 Y130.615 E0.03008
G1 X114.804 Y130.782 E0.02898
G1 X113.933 Y130.867 E0.02742
G1 X113.131 Y130.898 E0.02517
G1 X107.287 Y130.903 E0.18323
G1 X107.028 Y131.249 F10800.000
G1 X107.227 Y131.334
G1 F1200.000
G1 X93.321 Y131.334 E0.43601
G1 X93.321 Y123.591 E0.24278
G1 X111.881 Y123.585 E0.58192
G1 X112.194 Y123.539 E0.00992
G1 X112.354 Y123.480 E0.00535
G1 X112.499 Y123.391 E0.00535
G1 X112.626 Y123.265 E0.00559
G1 X112.727 Y123.106 E0.00591
G1 X112.802 Y122.916 E0.00641
G1 X112.854 Y122.688 E0.00732
G1 X112.893 Y122.131 E0.01750
G1 X112.855 Y121.449 E0.02143
G1 X112.805 Y121.179 E0.00860
G1 X112.735 Y120.955 E0.00736
G1 X112.641 Y120.769 E0.00655
G1 X112.522 Y120.618 E0.00602
G1 X112.380 Y120.506 E0.00567
G1 X112.218 Y120.430 E0.00562
G1 X111.907 Y120.370 E0.00992
G1 X98.137 Y120.363 E0.43173
G1 X98.137 Y113.346 E0.22003
G1 X111.514 Y113.346 E0.41942
G1 X111.925 Y113.324 E0.01291
G1 X112.178 Y113.224 E0.00851
G1 X112.308 Y113.104 E0.00555
G1 X112.449 Y112.827 E0.00974
G1 X112.497 Y112.627 E0.00645
G1 X112.543 Y112.154 E0.01492
G1 X112.543 Y111.544 E0.01910
G1 X112.526 Y111.279 E0.00834
G1 X112.455 Y110.884 E0.01260
G1 X112.391 Y110.719 E0.00552
G1 X112.307 Y110.586 E0.00497
G1 X112.188 Y110.473 E0.00511
G1 X111.947 Y110.372 E0.00822
G1 X111.684 Y110.349 E0.00827
G1 X93.515 Y110.348 E0.56965
G1 X93.515 Y102.834 E0.23559
G1 X112.340 Y102.834 E0.59024
G1 X113.904 Y102.869 E0.04905
G1 X114.833 Y102.951 E0.02923
G1 X115.806 Y103.112 E0.03093
G1 X116.788 Y103.374 E0.03186
G1 X117.743 Y103.764 E0.03235
G1 X118.639 Y104.306 E0.03282
G1 X119.444 Y105.024 E0.03382
G1 X120.129 Y105.945 E0.03600
G1 X120.662 Y107.102 E0.03992
G1 X121.008 Y108.524 E0.04590
G1 X121.133 Y110.246 E0.05414
G1 X121.092 Y111.734 E0.04664
G1 X120.978 Y112.945 E0.03815
G1 X120.800 Y113.906 E0.03063
G1 X120.570 Y114.645 E0.02429
G1 X120.301 Y115.197 E0.01924
G1 X120.003 Y115.594 E0.01558
G1 X119.683 Y115.876 E0.01336
G1 X119.343 Y116.077 E0.01239
G1 X118.983 Y116.229 E0.01224
G1 X118.231 Y116.494 E0.02502
G1 X117.436 Y116.872 E0.02759
G1 X118.241 Y117.193 E0.02717
G1 X118.990 Y117.424 E0.02457
G1 X119.348 Y117.564 E0.01205
G1 X119.687 Y117.754 E0.01221
G1 X120.006 Y118.023 E0.01308
G1 X120.303 Y118.402 E0.01509
G1 X120.572 Y118.926 E0.01845
G1 X120.801 Y119.627 E0.02314
G1 X120.978 Y120.536 E0.02903
G1 X121.092 Y121.680 E0.03604
G1 X121.133 Y123.082 E0.04397
G1 X121.008 Y124.999 E0.06025
G1 X120.660 Y126.586 E0.05093
G1 X120.126 Y127.876 E0.04379
G1 X119.441 Y128.904 E0.03872
G1 X118.639 Y129.702 E0.03550
G1 X117.749 Y130.303 E0.03366
G1 X116.803 Y130.735 E0.03260
G1 X115.835 Y131.026 E0.03171
G1 X114.878 Y131.204 E0.03052
G1 X113.967 Y131.295 E0.02869
G1 X113.138 Y131.329 E0.02602
G1 X107.287 Y131.334 E0.18346
G1 X107.026 Y130.988 F10800.000
G1 F8640.000
G1 X103.996 Y131.334 E-0.76000
G1 E-0.04000 F2100.00000
G1 Z0.800 F10800.000
G1 X114.771 Y131.000
G1 Z0.200
G1 E0.80000 F2100.00000
G1 F1200.000
G1 X113.947 Y131.081 E0.00376
G1 X113.135 Y131.114 E0.00369
G1 X112.424 Y131.118 E0.00323
G1 X93.542 Y131.114 E0.08574
G1 X93.542 Y123.811 E0.03316
G1 X111.656 Y123.799 E0.08225
G1 X112.506 Y123.671 F10800.000
G1 F1200.000
G1 X112.695 Y123.504 E0.00125
G1 X112.889 Y123.296 E0.00140
G1 X112.878 Y123.265 F10800.000
G1 F1200.000
G1 X112.676 Y123.556 E0.00162
G1 X112.629 Y123.593 F10800.000
G1 F1200.000
G1 X112.265 Y123.740 E0.00176
G1 X112.309 Y123.752 F10800.000
G1 F1200.000
G1 X112.768 Y123.465 E0.00229
G1 X113.068 Y122.670 F10800.000
G1 F1200.000
G1 X113.109 Y122.131 E0.00260
G1 X113.072 Y121.524 E0.00293
G1 F8640.000
G1 X113.109 Y122.131 E-0.14058
G1 X113.068 Y122.670 E-0.12474
G1 E-0.53467 F2100.00000
G1 Z0.800 F10800.000
G1 X111.724 Y120.125
G1 Z0.200
G1 E0.80000 F2100.00000
G1 F1200.000
G1 X112.275 Y120.225 E0.00240
G1 X112.172 Y120.173 F10800.000
G1 F1200.000
G1 X111.578 Y120.151 E0.00263
G1 X98.381 Y120.148 E0.05845
G1 X98.358 Y120.143 E0.00010
G1 X98.353 Y120.120 E0.00010
G1 X98.358 Y113.566 E0.02903
G1 X111.494 Y113.562 E0.05818
G1 X111.783 Y113.545 E0.00128
G1 X111.993 Y113.524 F10800.000
G1 F1200.000
G1 X112.239 Y113.427 E0.00123
G1 F8640.000
G1 X111.993 Y113.524 E-0.06110
G1 E-0.73890 F2100.00000
G1 Z0.800 F10800.000
G1 X112.738 Y112.352
G1 Z0.200
G1 E0.80000 F2100.00000
G1 F1200.000
G1 X112.749 Y112.241 E0.00048
G1 X112.757 Y112.069 F10800.000
G1 F1200.000
G1 X112.757 Y111.625 E0.00219
G1 F8640.000
G1 X112.757 Y112.069 E-0.10271
G1 E-0.69729 F2100.00000
G1 Z0.800 F10800.000
G1 X112.247 Y110.268
G1 Z0.200
G1 E0.80000 F2100.00000
G1 F1200.000
G1 X112.036 Y110.181 E0.00107
G1 X111.893 Y110.154 F10800.000
G1 F1200.000
G1 X111.723 Y110.139 E0.00080
G1 F8640.000
G1 X111.893 Y110.154 E-0.03938
G1 E-0.76062 F2100.00000
G1 Z0.800 F10800.000
G1 X101.939 Y110.135
G1 Z0.200
G1 E0.80000 F2100.00000
G1 F1200.000
G1 X93.736 Y110.127 E0.03972
G1 X93.736 Y103.054 E0.03425
G1 X112.718 Y103.056 E0.09191
G1 X113.706 Y103.078 F10800.000
G1 F1200.000
G1 X114.631 Y103.148 E0.00408
G1 X114.762 Y103.159 F10800.000
G1 F1200.000
G1 X115.163 Y103.222 E0.00175
G1 X115.718 Y103.312 F10800.000
G1 F1200.000
G1 X116.284 Y103.461 E0.00254
G1 X116.656 Y103.559 F10800.000
G1 F1200.000
G1 X117.605 Y103.941 E0.00511
G1 X118.488 Y104.471 E0.00514
G1 X119.293 Y105.192 E0.00540
G1 X119.963 Y106.110 E0.00568
G1 X120.450 Y107.176 E0.00586
G1 X120.805 Y108.642 E0.00754
G1 X120.838 Y109.131 F10800.000
G1 F1200.000
G1 X120.917 Y110.251 E0.00488
G1 X120.867 Y111.720 E0.00638
G1 X120.702 Y113.071 E0.00591
G1 X120.526 Y113.838 E0.01001
G1 X120.444 Y114.116 E0.00370
G1 X120.286 Y114.532 E0.00567
G1 X120.080 Y114.969 E0.00614
G1 X119.783 Y115.391 E0.00657
G1 X119.573 Y115.624 E0.00399
G1 X119.386 Y115.771 E0.00303
G1 X119.243 Y115.878 E0.00159
G1 X119.181 Y115.919 E0.00042
G1 F8640.000
G1 X119.243 Y115.878 E-0.01709
G1 E-0.78291 F2100.00000
G1 Z0.800 F10800.000
G1 X119.253 Y117.753
G1 Z0.200
G1 E0.80000 F2100.00000
G1 F1200.000
G1 X119.399 Y117.857 E0.00130
G1 X119.566 Y117.981 E0.00219
G1 X119.796 Y118.226 E0.00420
G1 X120.053 Y118.562 E0.00529
G1 X120.293 Y119.042 E0.00670
G1 X120.434 Y119.394 E0.00474
G1 X120.529 Y119.698 E0.00398
G1 X120.700 Y120.403 E0.00907
G1 X120.867 Y121.694 E0.00570
G1 X120.917 Y123.078 E0.00606
G1 X120.853 Y124.090 E0.00444
G1 X120.804 Y124.879 F10800.000
G1 F1200.000
G1 X120.498 Y126.327 E0.00736
G1 X120.486 Y126.395 F10800.000
G1 F1200.000
G1 X119.975 Y127.678 E0.00779
G1 X119.307 Y128.711 E0.00563
G1 X118.497 Y129.530 E0.00528
G1 X117.636 Y130.116 E0.00477
G1 X116.709 Y130.540 E0.00467
G1 X115.748 Y130.827 E0.00460
G1 X115.296 Y130.909 F10800.000
G1 F1200.000
G1 X114.811 Y130.997 E0.00210
G1 F8640.000
G1 X115.296 Y130.909 E-0.11377
G1 E-0.68623 F2100.00000
G1 Z0.800 F10800.000
G1 X141.457 Y130.903
G1 Z0.200
G1 E0.80000 F2100.00000
G1 F1200.000
G1 X127.982 Y130.903 E0.42248
G1 X127.982 Y124.023 E0.21572
G1 X146.142 Y124.013 E0.56938
G1 X146.542 Y123.950 E0.01270
G1 X146.729 Y123.887 E0.00619
G1 X146.910 Y123.792 E0.00639
G1 X147.076 Y123.662 E0.00663
G1 X147.227 Y123.488 E0.00721
G1 X147.357 Y123.258 E0.00828
G1 X147.460 Y122.962 E0.00985
G1 X147.529 Y122.588 E0.01191
G1 X147.554 Y122.129 E0.01441
G1 X147.529 Y121.598 E0.01666
G1 X147.459 Y121.163 E0.01383
G1 X147.353 Y120.815 E0.01139
G1 X147.220 Y120.545 E0.00943
G1 X147.068 Y120.342 E0.00797
G1 X146.902 Y120.192 E0.00701
G1 X146.725 Y120.085 E0.00649
G1 X146.540 Y120.012 E0.00625
G1 X146.163 Y119.943 E0.01199
G1 X145.811 Y119.932 E0.01104
G1 X132.799 Y119.932 E0.40800
G1 X132.799 Y113.778 E0.19295
G1 X145.731 Y113.778 E0.40548
G1 X146.210 Y113.746 E0.01505
G1 X146.518 Y113.645 E0.01016
G1 X146.665 Y113.553 E0.00543
G1 X146.803 Y113.424 E0.00592
G1 X146.929 Y113.247 E0.00683
G1 X147.041 Y113.010 E0.00820
G1 X147.130 Y112.704 E0.01001
G1 X147.189 Y112.318 E0.01222
G1 X147.210 Y111.847 E0.01479
G1 X147.189 Y111.376 E0.01479
G1 X147.130 Y110.990 E0.01223
G1 X147.041 Y110.684 E0.01001
G1 X146.931 Y110.447 E0.00820
G1 X146.805 Y110.270 E0.00681
G1 X146.669 Y110.140 E0.00588
G1 X146.525 Y110.048 E0.00536
G1 X146.380 Y109.988 E0.00493
G1 X146.064 Y109.926 E0.01009
G1 X128.177 Y109.916 E0.56084
G1 X128.177 Y103.266 E0.20853
G1 X147.272 Y103.270 E0.59870
G1 X148.095 Y103.297 E0.02584
G1 X148.982 Y103.373 E0.02790
G1 X149.903 Y103.521 E0.02926
G1 X150.831 Y103.766 E0.03009
G1 X151.736 Y104.133 E0.03064
G1 X152.589 Y104.649 E0.03124
G1 X153.356 Y105.339 E0.03234
G1 X154.004 Y106.224 E0.03440
G1 X154.502 Y107.323 E0.03784
G1 X154.820 Y108.655 E0.04295
G1 X154.932 Y110.239 E0.04977
G1 X154.868 Y111.765 E0.04791
G1 X154.690 Y113.017 E0.03964
G1 X154.410 Y114.028 E0.03289
G1 X154.045 Y114.828 E0.02759
G1 X153.609 Y115.445 E0.02369
G1 X153.121 Y115.904 E0.02099
G1 X152.605 Y116.233 E0.01918
G1 X152.082 Y116.463 E0.01792
G1 X150.852 Y116.837 E0.04031
G1 X151.574 Y117.023 E0.02337
G1 X152.080 Y117.175 E0.01656
G1 X152.601 Y117.393 E0.01773
G1 X153.117 Y117.707 E0.01894
G1 X153.605 Y118.146 E0.02058
G1 X154.043 Y118.736 E0.02301
G1 X154.409 Y119.499 E0.02655
G1 X154.689 Y120.460 E0.03139
G1 X154.868 Y121.646 E0.03760
G1 X154.932 Y123.088 E0.04524
G1 X154.820 Y124.862 E0.05574
G1 X154.505 Y126.352 E0.04776
G1 X154.011 Y127.581 E0.04152
G1 X153.368 Y128.571 E0.03702
G1 X152.607 Y129.344 E0.03403
G1 X151.760 Y129.925 E0.03219
G1 X150.861 Y130.339 E0.03102
G1 X149.943 Y130.615 E0.03008
G1 X149.033 Y130.782 E0.02898
G1 X148.163 Y130.867 E0.02742
G1 X147.361 Y130.898 E0.02517
G1 X141.517 Y130.903 E0.18323
G1 X141.258 Y131.249 F10800.000
