; generated by PrusaSlicer 2.2.0+win64 on 2020-08-18 at 17:02:41 UTC

; 

; external perimeters extrusion width = 0.45mm
; perimeters extrusion width = 0.45mm
; infill extrusion width = 0.45mm
; solid infill extrusion width = 0.45mm
; top infill extrusion width = 0.40mm
; first layer extrusion width = 0.42mm

; external perimeters extrusion width = 0.45mm
; perimeters extrusion width = 0.45mm
; infill extrusion width = 0.45mm
; solid infill extrusion width = 0.45mm
; top infill extrusion width = 0.40mm
; first layer extrusion width = 0.42mm

M73 P0 R34
M201 X9000 Y9000 Z500 E10000 ; sets maximum accelerations, mm/sec^2
M203 X500 Y500 Z12 E120 ; sets maximum feedrates, mm/sec
M204 P2000 R1500 T2000 ; sets acceleration (P, T) and retract acceleration (R), mm/sec^2
M205 X10.00 Y10.00 Z0.20 E4.50 ; sets the jerk limits, mm/sec
M205 S0 T0 ; sets the minimum extruding and travel feed rate, mm/sec
M107
M862.3 P "MK2.5SMMU2S" ; printer model check
M862.1 P0.4 ; nozzle diameter check
M115 U3.9.0 ; tell printer latest fw version
G90 ; use absolute coordinates
M83 ; extruder relative mode
M104 S215 ; set extruder temp
M140 S60 ; set bed temp
M190 S60 ; wait for bed temp
M109 S215 ; wait for extruder temp
G28 W ; home all without mesh bed level
G80 ; mesh bed leveling

; Send the filament type to the MMU2.0 unit.
; E stands for extruder number, F stands for filament type (0: default; 1:flex; 2: PVA)
M403 E0 F0
M403 E1 F0
M403 E2 F0
M403 E3 F0
M403 E4 F0


;go outside print area
G1 Y-3.0 F1000.0
G1 Z0.4 F1000.0
; select extruder
T0
; initial load
G1 X55.0 E29.0 F1073.0
M73 P0 R34
G1 X5.0 E29.0 F1800.0
G1 X55.0 E8.0 F2000.0
G1 Z0.3 F1000.0
G92 E0.0
G1 X240.0 E25.0 F2200.0
G1 Y-2.0 F1000.0
G1 X55.0 E25 F1400.0
G1 Z0.20 F1000.0
G1 X5.0 E4.0 F1000.0
G92 E0.0

G92 E0.0
G21 ; set units to millimeters
G90 ; use absolute coordinates
M83 ; use relative distances for extrusion
T0
M900 K0.06 ; Filament gcode LA 1.5
M900 K30 ; Filament gcode LA 1.0
G1 Z0.200 F10800.000
;BEFORE_LAYER_CHANGE
G92 E0.0
;0.2


G1 E-0.80000 F2100.00000
G1 Z0.800 F10800.000
G1 Z0.200
;AFTER_LAYER_CHANGE
;0.2
G1 E-2.20000 F2100.00000
G1 Z0.800 F10800.000
G1 X163.398 Y95.913
G1 Z0.200
G1 E3.00000 F2100.00000
;-------------------------------------
; CP WIPE TOWER FIRST LAYER BRIM START
G1  X163.398 Y109.973  E0.8016 F2400
G1  X160.855 Y110.430   F7000
G1  Y95.456  E0.6260 F2100
G1  X99.941  E2.5466
G1  Y110.430  E0.6260
G1  X160.855  E2.5466
G1  X161.312 Y110.887   F7000
G1  Y94.999  E0.6642 F2100
G1  X99.484  E2.5849
G1  Y110.887  E0.6642
G1  X161.312  E2.5849
G1  X161.769 Y111.344   F7000
G1  Y94.542  E0.7025 F2100
G1  X99.027  E2.6231
G1  Y111.344  E0.7025
G1  X161.769  E2.6231
G1  X162.226 Y111.801   F7000
G1  Y94.085  E0.7407 F2100
G1  X98.570  E2.6613
G1  Y111.801  E0.7407
G1  X162.226  E2.6613
G1  X160.398 Y109.973   F7000
G1  X100.398 
G1  X160.398 
; CP WIPE TOWER FIRST LAYER BRIM END
;-----------------------------------

G1 F8640.000
G1 X157.107 Y109.973 E-0.76000
G1 E-0.04000 F2100.00000
G1 Z0.800 F10800.000
G1 X164.616 Y113.020
G1 Z0.200
G1 E0.80000 F2100.00000
M204 S1000
G1 F1200.000
G1 X164.144 Y113.702 E0.02602
G1 X145.413 Y132.408 E0.83003
G1 X130.821 Y142.562 E0.55737
G1 X130.384 Y142.801 E0.01562
G1 X129.911 Y142.943 E0.01550
G1 X129.415 Y142.984 E0.01560
G1 X96.089 Y142.239 E1.04519
G1 X95.167 Y142.024 E0.02966
G1 X84.200 Y135.868 E0.39434
G1 X83.818 Y135.561 E0.01538
G1 X83.508 Y135.185 E0.01526
G1 X83.282 Y134.755 E0.01526
G1 X83.147 Y134.283 E0.01538
G1 X83.111 Y76.122 E1.82359
G1 X83.167 Y75.620 E0.01585
G1 X83.327 Y75.140 E0.01585
G1 X83.723 Y74.538 E0.02260
G1 X84.278 Y74.084 E0.02249
G1 X95.013 Y68.054 E0.38604
G1 X95.746 Y67.796 E0.02437
G1 X129.472 Y67.015 E1.05773
G1 X130.155 Y67.117 E0.02166
G1 X130.781 Y67.410 E0.02166
G1 X145.252 Y77.464 E0.55248
G1 X163.920 Y91.985 E0.74157
G1 X164.345 Y92.415 E0.01894
G1 X164.702 Y93.080 E0.02367
G1 X164.832 Y93.823 E0.02367
G1 X164.832 Y112.057 E0.57170
G1 X164.774 Y112.551 E0.01562
G1 X164.635 Y112.963 E0.01362
G1 F8640.000
G1 X164.144 Y113.702 E-0.20498
G1 X162.443 Y115.401 E-0.55502
G1 E-0.04000 F2100.00000
G1 Z0.800 F10800.000
G1 X131.830 Y84.861
G1 Z0.200
G1 E0.80000 F2100.00000
G1 F1200.000
G1 X131.830 Y81.023 E0.12034
G1 X122.260 Y81.023 E0.30005
G1 X122.260 Y82.798 E0.05564
G1 X119.386 Y82.798 E0.09010
G1 X119.386 Y75.972 E0.21402
G1 X122.260 Y75.972 E0.09010
G1 X122.260 Y77.746 E0.05564
G1 X131.830 Y77.746 E0.30005
G1 X131.830 Y73.908 E0.12034
G1 X139.713 Y79.385 E0.30097
G1 X131.879 Y84.827 E0.29909
G1 X131.453 Y85.582 F10800.000
G1 F1200.000
G1 X131.453 Y81.400 E0.13113
G1 X122.637 Y81.400 E0.27641
G1 X122.637 Y83.175 E0.05564
G1 X119.009 Y83.175 E0.11374
G1 X119.009 Y75.595 E0.23767
G1 X122.637 Y75.595 E0.11374
G1 X122.637 Y77.369 E0.05564
G1 X131.453 Y77.369 E0.27641
M73 P3 R33
G1 X131.453 Y73.187 E0.13113
G1 X140.374 Y79.385 E0.34060
G1 X131.502 Y85.548 E0.33872
G1 X131.799 Y85.782 F10800.000
G1 F8640.000
G1 X131.463 Y82.257 E-0.76000
G1 E-0.04000 F2100.00000
G1 Z0.800 F10800.000
G1 X132.314 Y84.387
G1 Z0.200
G1 E0.80000 F2100.00000
G1 F1200.000
G1 X132.112 Y84.186 E0.00910
G1 X132.112 Y83.642 E0.01739
G1 X132.513 Y84.043 E0.01810
G1 X132.834 Y83.820 E0.01249
G1 X132.112 Y83.099 E0.03261
G1 X132.112 Y82.555 E0.01739
G1 X133.154 Y83.597 E0.04712
G1 X133.475 Y83.374 E0.01249
G1 X132.112 Y82.011 E0.06163
G1 X132.112 Y81.467 E0.01739
G1 X133.796 Y83.151 E0.07614
G1 X134.117 Y82.928 E0.01249
G1 X129.219 Y78.029 E0.22153
G1 X129.762 Y78.029 E0.01739
G1 X134.438 Y82.705 E0.21144
G1 X134.759 Y82.482 E0.01249
G1 X130.306 Y78.029 E0.20136
G1 X130.850 Y78.029 E0.01739
G1 X135.080 Y82.259 E0.19128
G1 X135.401 Y82.036 E0.01249
G1 X131.394 Y78.029 E0.18120
G1 X131.938 Y78.029 E0.01739
G1 X135.722 Y81.813 E0.17112
G1 X136.043 Y81.590 E0.01249
G1 X132.112 Y77.660 E0.17773
G1 X132.112 Y77.116 E0.01739
G1 X136.364 Y81.367 E0.19224
G1 X136.685 Y81.144 E0.01249
G1 X132.112 Y76.572 E0.20676
G1 X132.112 Y76.028 E0.01739
G1 X137.005 Y80.921 E0.22127
G1 X137.326 Y80.699 E0.01249
G1 X132.112 Y75.485 E0.23578
G1 X132.112 Y74.941 E0.01739
G1 X137.647 Y80.476 E0.25029
G1 X137.968 Y80.253 E0.01249
G1 X132.283 Y74.568 E0.25707
G1 X134.065 Y75.805 E0.06936
G1 X138.289 Y80.030 E0.19103
G1 X138.610 Y79.807 E0.01249
G1 X135.846 Y77.043 E0.12499
G1 X137.627 Y78.280 E0.06936
G1 X139.053 Y79.706 E0.06446
G1 F8640.000
G1 X137.627 Y78.280 E-0.46544
G1 X136.580 Y77.553 E-0.29456
G1 E-0.04000 F2100.00000
G1 Z0.800 F10800.000
G1 X131.556 Y80.910
G1 Z0.200
G1 E0.80000 F2100.00000
G1 F1200.000
G1 X128.675 Y78.029 E0.13028
G1 X128.131 Y78.029 E0.01739
G1 X130.842 Y80.740 E0.12261
G1 X130.298 Y80.740 E0.01739
G1 X127.587 Y78.029 E0.12261
G1 X127.043 Y78.029 E0.01739
G1 X129.754 Y80.740 E0.12261
G1 X129.210 Y80.740 E0.01739
G1 X126.499 Y78.029 E0.12261
G1 X125.955 Y78.029 E0.01739
G1 X128.667 Y80.740 E0.12261
G1 X128.123 Y80.740 E0.01739
G1 X125.412 Y78.029 E0.12261
G1 X124.868 Y78.029 E0.01739
G1 X127.579 Y80.740 E0.12261
G1 X127.035 Y80.740 E0.01739
G1 X124.324 Y78.029 E0.12261
G1 X123.780 Y78.029 E0.01739
G1 X126.491 Y80.740 E0.12261
G1 X125.947 Y80.740 E0.01739
G1 X123.236 Y78.029 E0.12261
G1 X122.692 Y78.029 E0.01739
G1 X125.403 Y80.740 E0.12261
G1 X124.860 Y80.740 E0.01739
G1 X120.374 Y76.255 E0.20285
G1 X120.918 Y76.255 E0.01739
G1 X121.977 Y77.314 E0.04791
G1 X121.977 Y76.770 E0.01739
G1 X121.292 Y76.085 E0.03099
G1 F8640.000
G1 X121.977 Y76.770 E-0.22376
G1 X121.977 Y77.314 E-0.12558
G1 X120.918 Y76.255 E-0.34594
G1 X120.637 Y76.255 E-0.06473
G1 E-0.04000 F2100.00000
G1 Z0.800 F10800.000
G1 X124.485 Y80.910
G1 Z0.200
G1 E0.80000 F2100.00000
G1 F1200.000
G1 X119.830 Y76.255 E0.21053
G1 X119.669 Y76.255 E0.00514
G1 X119.669 Y76.638 E0.01225
G1 X123.772 Y80.740 E0.18553
G1 X123.228 Y80.740 E0.01739
G1 X119.669 Y77.182 E0.16094
G1 X119.669 Y77.725 E0.01739
G1 X122.684 Y80.740 E0.13634
G1 X122.140 Y80.740 E0.01739
G1 X119.669 Y78.269 E0.11175
G1 X119.669 Y78.813 E0.01739
G1 X121.977 Y81.121 E0.10437
G1 X121.977 Y81.665 E0.01739
G1 X119.669 Y79.357 E0.10437
G1 X119.669 Y79.901 E0.01739
G1 X121.977 Y82.209 E0.10437
G1 X121.977 Y82.515 E0.00979
G1 X121.739 Y82.515 E0.00760
G1 X119.669 Y80.445 E0.09362
G1 X119.669 Y80.989 E0.01739
G1 X121.196 Y82.515 E0.06903
G1 X120.652 Y82.515 E0.01739
G1 X119.669 Y81.532 E0.04443
G1 X119.669 Y82.076 E0.01739
G1 X120.278 Y82.685 E0.02751
G1 F8640.000
G1 X119.669 Y82.076 E-0.19866
G1 X119.669 Y81.532 E-0.12558
G1 X120.652 Y82.515 E-0.32084
G1 X121.149 Y82.515 E-0.11492
G1 E-0.04000 F2100.00000
G1 Z0.800 F10800.000
G1 X98.519 Y85.606
G1 Z0.200
G1 E0.80000 F2100.00000
G1 F1200.000
G1 X98.519 Y81.768 E0.12034
G1 X88.949 Y81.768 E0.30005
G1 X88.949 Y83.543 E0.05564
G1 X86.075 Y83.543 E0.09010
G1 X86.075 Y76.717 E0.21402
G1 X88.949 Y76.717 E0.09010
G1 X88.949 Y78.491 E0.05564
G1 X98.519 Y78.491 E0.30005
G1 X98.519 Y74.653 E0.12034
G1 X106.402 Y80.130 E0.30097
G1 X98.568 Y85.572 E0.29909
G1 X98.141 Y86.327 F10800.000
G1 F1200.000
G1 X98.141 Y82.145 E0.13113
G1 X89.326 Y82.145 E0.27641
G1 X89.326 Y83.920 E0.05564
G1 X85.698 Y83.920 E0.11374
G1 X85.698 Y76.340 E0.23767
G1 X89.326 Y76.340 E0.11374
G1 X89.326 Y78.114 E0.05564
G1 X98.141 Y78.114 E0.27641
G1 X98.141 Y73.932 E0.13113
G1 X107.063 Y80.130 E0.34060
G1 X98.191 Y86.293 E0.33872
G1 X98.488 Y86.527 F10800.000
G1 F8640.000
G1 X98.152 Y83.002 E-0.76000
G1 E-0.04000 F2100.00000
G1 Z0.800 F10800.000
G1 X99.002 Y85.132
G1 Z0.200
G1 E0.80000 F2100.00000
G1 F1200.000
G1 X98.801 Y84.931 E0.00910
G1 X98.801 Y84.387 E0.01739
G1 X99.201 Y84.788 E0.01810
G1 X99.522 Y84.565 E0.01249
G1 X98.801 Y83.844 E0.03261
G1 X98.801 Y83.300 E0.01739
G1 X99.843 Y84.342 E0.04712
G1 X100.164 Y84.119 E0.01249
G1 X98.801 Y82.756 E0.06163
G1 X98.801 Y82.212 E0.01739
G1 X100.485 Y83.896 E0.07614
G1 X100.806 Y83.673 E0.01249
G1 X95.907 Y78.774 E0.22153
G1 X96.451 Y78.774 E0.01739
G1 X101.127 Y83.450 E0.21144
G1 X101.448 Y83.227 E0.01249
G1 X96.995 Y78.774 E0.20136
G1 X97.539 Y78.774 E0.01739
G1 X101.769 Y83.004 E0.19128
G1 X102.090 Y82.781 E0.01249
G1 X98.083 Y78.774 E0.18120
G1 X98.627 Y78.774 E0.01739
G1 X102.411 Y82.558 E0.17112
G1 X102.732 Y82.335 E0.01249
G1 X98.801 Y78.405 E0.17773
G1 X98.801 Y77.861 E0.01739
G1 X103.052 Y82.112 E0.19224
G1 X103.373 Y81.889 E0.01249
G1 X98.801 Y77.317 E0.20676
G1 X98.801 Y76.773 E0.01739
G1 X103.694 Y81.666 E0.22127
G1 X104.015 Y81.443 E0.01249
G1 X98.801 Y76.230 E0.23578
G1 X98.801 Y75.686 E0.01739
G1 X104.336 Y81.221 E0.25029
G1 X104.657 Y80.998 E0.01249
G1 X98.972 Y75.313 E0.25707
G1 X100.754 Y76.550 E0.06936
G1 X104.978 Y80.775 E0.19103
G1 X105.299 Y80.552 E0.01249
G1 X102.535 Y77.788 E0.12499
G1 X104.316 Y79.025 E0.06936
G1 X105.742 Y80.451 E0.06446
G1 F8640.000
G1 X104.316 Y79.025 E-0.46544
G1 X103.269 Y78.298 E-0.29456
G1 E-0.04000 F2100.00000
G1 Z0.800 F10800.000
G1 X98.244 Y81.655
G1 Z0.200
G1 E0.80000 F2100.00000
G1 F1200.000
G1 X95.364 Y78.774 E0.13028
G1 X94.820 Y78.774 E0.01739
G1 X97.531 Y81.485 E0.12261
G1 X96.987 Y81.485 E0.01739
G1 X94.276 Y78.774 E0.12261
G1 X93.732 Y78.774 E0.01739
G1 X96.443 Y81.485 E0.12261
G1 X95.899 Y81.485 E0.01739
G1 X93.188 Y78.774 E0.12261
G1 X92.644 Y78.774 E0.01739
G1 X95.355 Y81.485 E0.12261
G1 X94.812 Y81.485 E0.01739
G1 X92.100 Y78.774 E0.12261
G1 X91.557 Y78.774 E0.01739
G1 X94.268 Y81.485 E0.12261
G1 X93.724 Y81.485 E0.01739
G1 X91.013 Y78.774 E0.12261
G1 X90.469 Y78.774 E0.01739
G1 X93.180 Y81.485 E0.12261
G1 X92.636 Y81.485 E0.01739
G1 X89.925 Y78.774 E0.12261
G1 X89.381 Y78.774 E0.01739
G1 X92.092 Y81.485 E0.12261
G1 X91.549 Y81.485 E0.01739
G1 X87.063 Y77.000 E0.20285
G1 X87.607 Y77.000 E0.01739
G1 X88.666 Y78.059 E0.04791
G1 X88.666 Y77.515 E0.01739
G1 X87.981 Y76.830 E0.03099
G1 F8640.000
G1 X88.666 Y77.515 E-0.22376
G1 X88.666 Y78.059 E-0.12558
G1 X87.607 Y77.000 E-0.34594
G1 X87.326 Y77.000 E-0.06473
G1 E-0.04000 F2100.00000
G1 Z0.800 F10800.000
G1 X91.174 Y81.655
G1 Z0.200
G1 E0.80000 F2100.00000
G1 F1200.000
G1 X86.519 Y77.000 E0.21053
G1 X86.358 Y77.000 E0.00514
G1 X86.358 Y77.383 E0.01225
G1 X90.461 Y81.485 E0.18553
G1 X89.917 Y81.485 E0.01739
G1 X86.358 Y77.927 E0.16094
G1 X86.358 Y78.470 E0.01739
G1 X89.373 Y81.485 E0.13634
G1 X88.829 Y81.485 E0.01739
G1 X86.358 Y79.014 E0.11175
G1 X86.358 Y79.558 E0.01739
G1 X88.666 Y81.866 E0.10437
G1 X88.666 Y82.410 E0.01739
G1 X86.358 Y80.102 E0.10437
G1 X86.358 Y80.646 E0.01739
G1 X88.666 Y82.954 E0.10437
G1 X88.666 Y83.260 E0.00979
G1 X88.428 Y83.260 E0.00760
G1 X86.358 Y81.190 E0.09362
G1 X86.358 Y81.734 E0.01739
G1 X87.884 Y83.260 E0.06903
G1 X87.341 Y83.260 E0.01739
G1 X86.358 Y82.277 E0.04443
G1 X86.358 Y82.821 E0.01739
G1 X86.966 Y83.430 E0.02751
G1 F8640.000
G1 X86.358 Y82.821 E-0.19866
G1 X86.358 Y82.277 E-0.12558
G1 X87.341 Y83.260 E-0.32084
G1 X87.838 Y83.260 E-0.11492
G1 E-0.04000 F2100.00000
G1 Z0.800 F10800.000
G1 X98.015 Y131.509
G1 Z0.200
G1 E0.80000 F2100.00000
G1 F1200.000
G1 X88.949 Y131.509 E0.28425
G1 X88.949 Y133.283 E0.05564
G1 X86.075 Y133.283 E0.09010
G1 X86.075 Y126.457 E0.21402
G1 X88.949 Y126.457 E0.09010
G1 X88.949 Y128.232 E0.05564
G1 X98.519 Y128.232 E0.30005
G1 X98.519 Y124.394 E0.12034
G1 X106.402 Y129.870 E0.30097
G1 X98.519 Y135.347 E0.30097
G1 X98.519 Y131.509 E0.12034
G1 X98.075 Y131.509 E0.01392
G1 F8640.000
G1 X94.783 Y131.509 E-0.76000
G1 E-0.04000 F2100.00000
G1 Z0.800 F10800.000
G1 X98.141 Y136.068
G1 Z0.200
G1 E0.80000 F2100.00000
G1 F1200.000
G1 X98.141 Y131.886 E0.13113
G1 X89.326 Y131.886 E0.27641
G1 X89.326 Y133.660 E0.05564
G1 X85.698 Y133.660 E0.11374
G1 X85.698 Y126.080 E0.23767
G1 X89.326 Y126.080 E0.11374
G1 X89.326 Y127.855 E0.05564
G1 X98.141 Y127.855 E0.27641
G1 X98.141 Y123.673 E0.13113
G1 X107.063 Y129.870 E0.34060
G1 X98.191 Y136.034 E0.33872
G1 X98.488 Y136.268 F10800.000
G1 F8640.000
G1 X98.152 Y132.742 E-0.76000
G1 E-0.04000 F2100.00000
G1 Z0.800 F10800.000
G1 X99.002 Y134.873
G1 Z0.200
G1 E0.80000 F2100.00000
G1 F1200.000
G1 X98.801 Y134.672 E0.00910
G1 X98.801 Y134.128 E0.01739
G1 X99.201 Y134.528 E0.01810
G1 X99.522 Y134.305 E0.01249
G1 X98.801 Y133.584 E0.03261
G1 X98.801 Y133.040 E0.01739
G1 X99.843 Y134.082 E0.04712
G1 X100.164 Y133.859 E0.01249
G1 X98.801 Y132.496 E0.06163
G1 X98.801 Y131.952 E0.01739
G1 X100.485 Y133.636 E0.07614
G1 X100.806 Y133.413 E0.01249
G1 X95.907 Y128.515 E0.22153
G1 X96.451 Y128.515 E0.01739
G1 X101.127 Y133.190 E0.21144
G1 X101.448 Y132.967 E0.01249
G1 X96.995 Y128.515 E0.20136
G1 X97.539 Y128.515 E0.01739
G1 X101.769 Y132.744 E0.19128
G1 X102.090 Y132.521 E0.01249
G1 X98.083 Y128.515 E0.18120
G1 X98.627 Y128.515 E0.01739
G1 X102.411 Y132.299 E0.17112
G1 X102.732 Y132.076 E0.01249
G1 X98.801 Y128.145 E0.17773
G1 X98.801 Y127.602 E0.01739
G1 X103.052 Y131.853 E0.19224
G1 X103.373 Y131.630 E0.01249
G1 X98.801 Y127.058 E0.20676
G1 X98.801 Y126.514 E0.01739
G1 X103.694 Y131.407 E0.22127
G1 X104.015 Y131.184 E0.01249
G1 X98.801 Y125.970 E0.23578
G1 X98.801 Y125.426 E0.01739
G1 X104.336 Y130.961 E0.25029
G1 X104.657 Y130.738 E0.01249
G1 X98.972 Y125.053 E0.25707
G1 X100.754 Y126.291 E0.06936
G1 X104.978 Y130.515 E0.19103
G1 X105.299 Y130.292 E0.01249
G1 X102.535 Y127.528 E0.12499
G1 X104.316 Y128.766 E0.06936
G1 X105.742 Y130.191 E0.06446
G1 F8640.000
G1 X104.316 Y128.766 E-0.46544
G1 X103.269 Y128.038 E-0.29456
G1 E-0.04000 F2100.00000
G1 Z0.800 F10800.000
G1 X98.244 Y131.395
G1 Z0.200
G1 E0.80000 F2100.00000
G1 F1200.000
G1 X95.364 Y128.515 E0.13028
G1 X94.820 Y128.515 E0.01739
G1 X97.531 Y131.226 E0.12261
G1 X96.987 Y131.226 E0.01739
G1 X94.276 Y128.515 E0.12261
G1 X93.732 Y128.515 E0.01739
G1 X96.443 Y131.226 E0.12261
G1 X95.899 Y131.226 E0.01739
G1 X93.188 Y128.515 E0.12261
G1 X92.644 Y128.515 E0.01739
G1 X95.355 Y131.226 E0.12261
G1 X94.812 Y131.226 E0.01739
G1 X92.100 Y128.515 E0.12261
G1 X91.557 Y128.515 E0.01739
G1 X94.268 Y131.226 E0.12261
G1 X93.724 Y131.226 E0.01739
G1 X91.013 Y128.515 E0.12261
G1 X90.469 Y128.515 E0.01739
G1 X93.180 Y131.226 E0.12261
G1 X92.636 Y131.226 E0.01739
G1 X89.925 Y128.515 E0.12261
G1 X89.381 Y128.515 E0.01739
G1 X92.092 Y131.226 E0.12261
G1 X91.549 Y131.226 E0.01739
