; generated by PrusaSlicer 2.2.0+win64 on 2020-09-24 at 17:48:43 UTC

; 

; external perimeters extrusion width = 0.45mm
; perimeters extrusion width = 0.45mm
; infill extrusion width = 0.45mm
; solid infill extrusion width = 0.45mm
; top infill extrusion width = 0.40mm
; first layer extrusion width = 0.42mm

; external perimeters extrusion width = 0.45mm
; perimeters extrusion width = 0.45mm
; infill extrusion width = 0.45mm
; solid infill extrusion width = 0.45mm
; top infill extrusion width = 0.40mm
; first layer extrusion width = 0.42mm

M73 P0 R35
M201 X9000 Y9000 Z500 E10000 ; sets maximum accelerations, mm/sec^2
M203 X500 Y500 Z12 E120 ; sets maximum feedrates, mm/sec
M204 P2000 R1500 T2000 ; sets acceleration (P, T) and retract acceleration (R), mm/sec^2
M205 X10.00 Y10.00 Z0.20 E4.50 ; sets the jerk limits, mm/sec
M205 S0 T0 ; sets the minimum extruding and travel feed rate, mm/sec
M107
M862.3 P "MK2.5SMMU2S" ; printer model check
M862.1 P0.4 ; nozzle diameter check
M115 U3.9.0 ; tell printer latest fw version
G90 ; use absolute coordinates
M83 ; extruder relative mode
M104 S215 ; set extruder temp
M140 S60 ; set bed temp
M190 S60 ; wait for bed temp
M109 S215 ; wait for extruder temp
G28 W ; home all without mesh bed level
G80 ; mesh bed leveling

; Send the filament type to the MMU2.0 unit.
; E stands for extruder number, F stands for filament type (0: default; 1:flex; 2: PVA)
M403 E0 F0
M403 E1 F0
M403 E2 F0
M403 E3 F0
M403 E4 F0


;go outside print area
G1 Y-3.0 F1000.0
G1 Z0.4 F1000.0
; select extruder
T0
; initial load
G1 X55.0 E29.0 F1073.0
M73 P0 R35
G1 X5.0 E29.0 F1800.0
G1 X55.0 E8.0 F2000.0
G1 Z0.3 F1000.0
G92 E0.0
G1 X240.0 E25.0 F2200.0
G1 Y-2.0 F1000.0
G1 X55.0 E25 F1400.0
G1 Z0.20 F1000.0
G1 X5.0 E4.0 F1000.0
G92 E0.0

G92 E0.0
G21 ; set units to millimeters
G90 ; use absolute coordinates
M83 ; use relative distances for extrusion
T0
M900 K0.06 ; Filament gcode LA 1.5
M900 K30 ; Filament gcode LA 1.0
G1 Z0.200 F10800.000
;BEFORE_LAYER_CHANGE
G92 E0.0
;0.2


G1 E-0.80000 F2100.00000
G1 Z0.800 F10800.000
G1 Z0.200
;AFTER_LAYER_CHANGE
;0.2
G1 E-2.20000 F2100.00000
G1 Z0.800 F10800.000
G1 X155.943 Y68.972
G1 Z0.200
G1 E3.00000 F2100.00000
;-------------------------------------
; CP WIPE TOWER FIRST LAYER BRIM START
G1  X155.943 Y83.032  E0.8016 F2400
G1  X153.400 Y83.489   F7000
G1  Y68.515  E0.6260 F2100
G1  X92.486  E2.5466
G1  Y83.489  E0.6260
G1  X153.400  E2.5466
G1  X153.857 Y83.946   F7000
G1  Y68.058  E0.6642 F2100
G1  X92.029  E2.5849
G1  Y83.946  E0.6642
G1  X153.857  E2.5849
G1  X154.314 Y84.403   F7000
G1  Y67.601  E0.7025 F2100
G1  X91.572  E2.6231
G1  Y84.403  E0.7025
G1  X154.314  E2.6231
G1  X154.771 Y84.860   F7000
G1  Y67.144  E0.7407 F2100
G1  X91.115  E2.6613
G1  Y84.860  E0.7407
G1  X154.771  E2.6613
G1  X152.943 Y83.032   F7000
G1  X92.943 
G1  X152.943 
; CP WIPE TOWER FIRST LAYER BRIM END
;-----------------------------------

G1 F8640.000
G1 X149.652 Y83.032 E-0.76000
G1 E-0.04000 F2100.00000
G1 Z0.800 F10800.000
G1 X190.314 Y105.890
G1 Z0.200
G1 E0.80000 F2100.00000
M204 S1000
G1 F1200.000
G1 X189.819 Y106.652 E0.02849
G1 X138.032 Y159.283 E2.31512
G1 X123.328 Y169.529 E0.56193
G1 X122.700 Y169.825 E0.02178
G1 X122.013 Y169.926 E0.02178
G1 X121.428 Y169.853 E0.01846
G1 X120.883 Y169.641 E0.01835
G1 X110.170 Y163.624 E0.38526
G1 X109.732 Y163.303 E0.01704
G1 X57.901 Y110.629 E2.31704
G1 X57.454 Y109.952 E0.02543
G1 X57.260 Y109.160 E0.02555
G1 X57.255 Y101.000 E0.25586
G1 X57.412 Y100.151 E0.02708
G1 X57.859 Y99.416 E0.02696
G1 X89.257 Y65.184 E1.45645
G1 X109.898 Y46.557 E0.87172
G1 X120.892 Y40.354 E0.39581
G1 X121.438 Y40.144 E0.01835
G1 X122.015 Y40.074 E0.01823
G1 X122.699 Y40.175 E0.02166
G1 X123.324 Y40.468 E0.02166
G1 X137.794 Y50.520 E0.55241
G1 X156.636 Y65.190 E0.74872
G1 X189.921 Y103.461 E1.59031
M73 P3 R34
G1 X190.341 Y104.181 E0.02614
G1 X190.487 Y105.002 E0.02614
G1 X190.326 Y105.831 E0.02649
G1 F8640.000
G1 X189.819 Y106.652 E-0.22269
G1 X188.187 Y108.310 E-0.53731
G1 E-0.04000 F2100.00000
G1 Z0.800 F10800.000
G1 X124.375 Y57.920
G1 Z0.200
G1 E0.80000 F2100.00000
G1 F1200.000
G1 X124.375 Y54.082 E0.12034
G1 X114.805 Y54.082 E0.30005
G1 X114.805 Y55.856 E0.05564
G1 X111.932 Y55.856 E0.09010
G1 X111.932 Y49.030 E0.21402
G1 X114.805 Y49.030 E0.09010
G1 X114.805 Y50.805 E0.05564
G1 X124.375 Y50.805 E0.30005
G1 X124.375 Y46.967 E0.12034
G1 X132.258 Y52.443 E0.30097
G1 X124.424 Y57.886 E0.29909
G1 X123.998 Y58.641 F10800.000
G1 F1200.000
G1 X123.998 Y54.459 E0.13113
G1 X115.182 Y54.459 E0.27641
G1 X115.182 Y56.233 E0.05564
G1 X111.554 Y56.233 E0.11374
G1 X111.554 Y48.653 E0.23767
G1 X115.182 Y48.653 E0.11374
G1 X115.182 Y50.428 E0.05564
G1 X123.998 Y50.428 E0.27641
G1 X123.998 Y46.246 E0.13113
G1 X132.919 Y52.443 E0.34060
G1 X124.047 Y58.607 E0.33872
G1 X124.344 Y58.841 F10800.000
G1 F8640.000
G1 X124.008 Y55.315 E-0.76000
G1 E-0.04000 F2100.00000
G1 Z0.800 F10800.000
G1 X124.859 Y57.446
G1 Z0.200
G1 E0.80000 F2100.00000
G1 F1200.000
G1 X124.658 Y57.245 E0.00910
G1 X124.658 Y56.701 E0.01739
G1 X125.058 Y57.101 E0.01810
G1 X125.379 Y56.878 E0.01249
G1 X124.658 Y56.157 E0.03261
G1 X124.658 Y55.613 E0.01739
G1 X125.700 Y56.655 E0.04712
G1 X126.020 Y56.432 E0.01249
G1 X124.658 Y55.069 E0.06163
G1 X124.658 Y54.525 E0.01739
G1 X126.341 Y56.209 E0.07614
G1 X126.662 Y55.986 E0.01249
G1 X121.764 Y51.088 E0.22153
G1 X122.307 Y51.088 E0.01739
G1 X126.983 Y55.763 E0.21144
G1 X127.304 Y55.540 E0.01249
G1 X122.851 Y51.088 E0.20136
G1 X123.395 Y51.088 E0.01739
G1 X127.625 Y55.318 E0.19128
G1 X127.946 Y55.095 E0.01249
G1 X123.939 Y51.088 E0.18120
G1 X124.483 Y51.088 E0.01739
G1 X128.267 Y54.872 E0.17112
G1 X128.588 Y54.649 E0.01249
G1 X124.658 Y50.718 E0.17773
G1 X124.658 Y50.175 E0.01739
G1 X128.909 Y54.426 E0.19224
G1 X129.230 Y54.203 E0.01249
G1 X124.658 Y49.631 E0.20676
G1 X124.658 Y49.087 E0.01739
G1 X129.551 Y53.980 E0.22127
G1 X129.871 Y53.757 E0.01249
G1 X124.658 Y48.543 E0.23578
G1 X124.658 Y47.999 E0.01739
G1 X130.192 Y53.534 E0.25029
G1 X130.513 Y53.311 E0.01249
G1 X124.829 Y47.626 E0.25707
G1 X126.610 Y48.864 E0.06936
G1 X130.834 Y53.088 E0.19103
G1 X131.155 Y52.865 E0.01249
G1 X128.391 Y50.101 E0.12499
G1 X130.173 Y51.339 E0.06936
G1 X131.598 Y52.764 E0.06446
G1 F8640.000
G1 X130.173 Y51.339 E-0.46544
G1 X129.125 Y50.611 E-0.29456
G1 E-0.04000 F2100.00000
G1 Z0.800 F10800.000
G1 X124.101 Y53.969
G1 Z0.200
G1 E0.80000 F2100.00000
G1 F1200.000
G1 X121.220 Y51.088 E0.13028
G1 X120.676 Y51.088 E0.01739
G1 X123.387 Y53.799 E0.12261
G1 X122.843 Y53.799 E0.01739
G1 X120.132 Y51.088 E0.12261
G1 X119.588 Y51.088 E0.01739
G1 X122.299 Y53.799 E0.12261
G1 X121.756 Y53.799 E0.01739
G1 X119.044 Y51.088 E0.12261
G1 X118.500 Y51.088 E0.01739
G1 X121.212 Y53.799 E0.12261
G1 X120.668 Y53.799 E0.01739
G1 X117.957 Y51.088 E0.12261
G1 X117.413 Y51.088 E0.01739
G1 X120.124 Y53.799 E0.12261
G1 X119.580 Y53.799 E0.01739
G1 X116.869 Y51.088 E0.12261
G1 X116.325 Y51.088 E0.01739
G1 X119.036 Y53.799 E0.12261
G1 X118.492 Y53.799 E0.01739
G1 X115.781 Y51.088 E0.12261
G1 X115.237 Y51.088 E0.01739
G1 X117.949 Y53.799 E0.12261
G1 X117.405 Y53.799 E0.01739
G1 X112.919 Y49.313 E0.20285
G1 X113.463 Y49.313 E0.01739
G1 X114.522 Y50.373 E0.04791
G1 X114.522 Y49.829 E0.01739
G1 X113.837 Y49.143 E0.03099
G1 F8640.000
G1 X114.522 Y49.829 E-0.22376
G1 X114.522 Y50.373 E-0.12558
G1 X113.463 Y49.313 E-0.34594
G1 X113.183 Y49.313 E-0.06473
G1 E-0.04000 F2100.00000
G1 Z0.800 F10800.000
G1 X117.031 Y53.969
G1 Z0.200
G1 E0.80000 F2100.00000
G1 F1200.000
G1 X112.375 Y49.313 E0.21053
G1 X112.214 Y49.313 E0.00514
G1 X112.214 Y49.696 E0.01225
G1 X116.317 Y53.799 E0.18553
G1 X115.773 Y53.799 E0.01739
G1 X112.214 Y50.240 E0.16094
G1 X112.214 Y50.784 E0.01739
G1 X115.229 Y53.799 E0.13634
G1 X114.685 Y53.799 E0.01739
G1 X112.214 Y51.328 E0.11175
G1 X112.214 Y51.872 E0.01739
G1 X114.522 Y54.180 E0.10437
G1 X114.522 Y54.723 E0.01739
G1 X112.214 Y52.415 E0.10437
G1 X112.214 Y52.959 E0.01739
G1 X114.522 Y55.267 E0.10437
G1 X114.522 Y55.573 E0.00979
G1 X114.285 Y55.573 E0.00760
G1 X112.214 Y53.503 E0.09362
G1 X112.214 Y54.047 E0.01739
G1 X113.741 Y55.573 E0.06903
G1 X113.197 Y55.573 E0.01739
G1 X112.214 Y54.591 E0.04443
G1 X112.214 Y55.135 E0.01739
G1 X112.823 Y55.743 E0.02751
G1 F8640.000
G1 X112.214 Y55.135 E-0.19866
G1 X112.214 Y54.591 E-0.12558
G1 X113.197 Y55.573 E-0.32084
G1 X113.695 Y55.573 E-0.11492
G1 E-0.04000 F2100.00000
G1 Z0.800 F10800.000
G1 X72.158 Y103.362
G1 Z0.200
G1 E0.80000 F2100.00000
G1 F1200.000
G1 X72.662 Y103.362 E0.01580
G1 X72.662 Y99.523 E0.12034
G1 X80.546 Y105.000 E0.30097
G1 X72.662 Y110.477 E0.30097
G1 X72.662 Y106.638 E0.12034
G1 X63.093 Y106.638 E0.30005
G1 X63.093 Y108.413 E0.05564
G1 X60.219 Y108.413 E0.09010
G1 X60.219 Y101.587 E0.21402
G1 X63.093 Y101.587 E0.09010
G1 X63.093 Y103.362 E0.05564
G1 X72.098 Y103.362 E0.28237
G1 F8640.000
G1 X72.662 Y103.362 E-0.13020
G1 X72.662 Y100.634 E-0.62980
G1 E-0.04000 F2100.00000
G1 Z0.800 F10800.000
G1 X72.285 Y111.198
G1 Z0.200
G1 E0.80000 F2100.00000
G1 F1200.000
G1 X72.285 Y107.015 E0.13113
G1 X63.470 Y107.015 E0.27641
G1 X63.470 Y108.790 E0.05564
G1 X59.842 Y108.790 E0.11374
G1 X59.842 Y101.210 E0.23767
G1 X63.470 Y101.210 E0.11374
G1 X63.470 Y102.984 E0.05564
G1 X72.285 Y102.984 E0.27641
G1 X72.285 Y98.802 E0.13113
G1 X81.207 Y105.000 E0.34060
G1 X72.335 Y111.163 E0.33872
G1 X72.632 Y111.398 F10800.000
G1 F8640.000
G1 X72.295 Y107.872 E-0.76000
G1 E-0.04000 F2100.00000
G1 Z0.800 F10800.000
G1 X73.146 Y110.003
G1 Z0.200
G1 E0.80000 F2100.00000
G1 F1200.000
G1 X72.945 Y109.801 E0.00910
G1 X72.945 Y109.258 E0.01739
G1 X73.345 Y109.658 E0.01810
G1 X73.666 Y109.435 E0.01249
G1 X72.945 Y108.714 E0.03261
G1 X72.945 Y108.170 E0.01739
G1 X73.987 Y109.212 E0.04712
G1 X74.308 Y108.989 E0.01249
G1 X72.945 Y107.626 E0.06163
G1 X72.945 Y107.082 E0.01739
G1 X74.629 Y108.766 E0.07614
G1 X74.950 Y108.543 E0.01249
G1 X70.051 Y103.644 E0.22153
G1 X70.595 Y103.644 E0.01739
G1 X75.271 Y108.320 E0.21144
G1 X75.592 Y108.097 E0.01249
G1 X71.139 Y103.644 E0.20136
G1 X71.683 Y103.644 E0.01739
G1 X75.913 Y107.874 E0.19128
G1 X76.234 Y107.651 E0.01249
G1 X72.227 Y103.644 E0.18120
G1 X72.770 Y103.644 E0.01739
G1 X76.554 Y107.428 E0.17112
G1 X76.875 Y107.205 E0.01249
G1 X72.945 Y103.275 E0.17773
G1 X72.945 Y102.731 E0.01739
G1 X77.196 Y106.982 E0.19224
G1 X77.517 Y106.760 E0.01249
G1 X72.945 Y102.187 E0.20676
G1 X72.945 Y101.644 E0.01739
G1 X77.838 Y106.537 E0.22127
G1 X78.159 Y106.314 E0.01249
G1 X72.945 Y101.100 E0.23578
G1 X72.945 Y100.556 E0.01739
G1 X78.480 Y106.091 E0.25029
G1 X78.801 Y105.868 E0.01249
G1 X73.116 Y100.183 E0.25707
G1 X74.897 Y101.421 E0.06936
G1 X79.122 Y105.645 E0.19103
G1 X79.443 Y105.422 E0.01249
G1 X76.679 Y102.658 E0.12499
G1 X78.460 Y103.896 E0.06936
G1 X79.885 Y105.321 E0.06446
G1 F8640.000
G1 X78.460 Y103.896 E-0.46544
G1 X77.412 Y103.168 E-0.29456
G1 E-0.04000 F2100.00000
G1 Z0.800 F10800.000
G1 X72.388 Y106.525
G1 Z0.200
G1 E0.80000 F2100.00000
G1 F1200.000
G1 X69.507 Y103.644 E0.13028
G1 X68.963 Y103.644 E0.01739
G1 X71.675 Y106.356 E0.12261
G1 X71.131 Y106.356 E0.01739
G1 X68.420 Y103.644 E0.12261
G1 X67.876 Y103.644 E0.01739
G1 X70.587 Y106.356 E0.12261
G1 X70.043 Y106.356 E0.01739
G1 X67.332 Y103.644 E0.12261
G1 X66.788 Y103.644 E0.01739
G1 X69.499 Y106.356 E0.12261
G1 X68.955 Y106.356 E0.01739
G1 X66.244 Y103.644 E0.12261
G1 X65.700 Y103.644 E0.01739
G1 X68.412 Y106.356 E0.12261
G1 X67.868 Y106.356 E0.01739
G1 X65.156 Y103.644 E0.12261
G1 X64.613 Y103.644 E0.01739
G1 X67.324 Y106.356 E0.12261
G1 X66.780 Y106.356 E0.01739
G1 X64.069 Y103.644 E0.12261
G1 X63.525 Y103.644 E0.01739
G1 X66.236 Y106.356 E0.12261
G1 X65.692 Y106.356 E0.01739
G1 X61.207 Y101.870 E0.20285
G1 X61.750 Y101.870 E0.01739
G1 X62.810 Y102.929 E0.04791
G1 X62.810 Y102.385 E0.01739
G1 X62.125 Y101.700 E0.03099
G1 F8640.000
G1 X62.810 Y102.385 E-0.22376
G1 X62.810 Y102.929 E-0.12558
G1 X61.750 Y101.870 E-0.34594
G1 X61.470 Y101.870 E-0.06473
G1 E-0.04000 F2100.00000
G1 Z0.800 F10800.000
G1 X65.318 Y106.525
G1 Z0.200
G1 E0.80000 F2100.00000
G1 F1200.000
G1 X60.663 Y101.870 E0.21053
G1 X60.502 Y101.870 E0.00514
G1 X60.502 Y102.253 E0.01225
G1 X64.605 Y106.356 E0.18553
G1 X64.061 Y106.356 E0.01739
G1 X60.502 Y102.797 E0.16094
G1 X60.502 Y103.341 E0.01739
G1 X63.517 Y106.356 E0.13634
G1 X62.973 Y106.356 E0.01739
G1 X60.502 Y103.884 E0.11175
G1 X60.502 Y104.428 E0.01739
G1 X62.810 Y106.736 E0.10437
G1 X62.810 Y107.280 E0.01739
G1 X60.502 Y104.972 E0.10437
G1 X60.502 Y105.516 E0.01739
G1 X62.810 Y107.824 E0.10437
G1 X62.810 Y108.130 E0.00979
G1 X62.572 Y108.130 E0.00760
G1 X60.502 Y106.060 E0.09362
G1 X60.502 Y106.604 E0.01739
G1 X62.028 Y108.130 E0.06903
G1 X61.484 Y108.130 E0.01739
G1 X60.502 Y107.148 E0.04443
G1 X60.502 Y107.691 E0.01739
G1 X61.110 Y108.300 E0.02751
G1 F8640.000
G1 X60.502 Y107.691 E-0.19866
G1 X60.502 Y107.148 E-0.12558
G1 X61.484 Y108.130 E-0.32084
G1 X61.982 Y108.130 E-0.11492
G1 E-0.04000 F2100.00000
G1 Z0.800 F10800.000
G1 X123.871 Y155.918
G1 Z0.200
G1 E0.80000 F2100.00000
G1 F1200.000
G1 X124.375 Y155.918 E0.01580
G1 X124.375 Y152.080 E0.12034
G1 X132.258 Y157.557 E0.30097
G1 X124.375 Y163.033 E0.30097
G1 X124.375 Y159.195 E0.12034
G1 X114.805 Y159.195 E0.30005
G1 X114.805 Y160.970 E0.05564
G1 X111.932 Y160.970 E0.09010
G1 X111.932 Y154.144 E0.21402
G1 X114.805 Y154.144 E0.09010
G1 X114.805 Y155.918 E0.05564
G1 X123.811 Y155.918 E0.28237
G1 F8640.000
G1 X124.375 Y155.918 E-0.13020
G1 X124.375 Y153.191 E-0.62980
G1 E-0.04000 F2100.00000
G1 Z0.800 F10800.000
G1 X123.998 Y163.754
G1 Z0.200
G1 E0.80000 F2100.00000
G1 F1200.000
G1 X123.998 Y159.572 E0.13113
G1 X115.182 Y159.572 E0.27641
G1 X115.182 Y161.347 E0.05564
G1 X111.554 Y161.347 E0.11374
G1 X111.554 Y153.767 E0.23767
G1 X115.182 Y153.767 E0.11374
G1 X115.182 Y155.541 E0.05564
G1 X123.998 Y155.541 E0.27641
G1 X123.998 Y151.359 E0.13113
G1 X132.919 Y157.557 E0.34060
G1 X124.047 Y163.720 E0.33872
G1 X124.344 Y163.954 F10800.000
G1 F8640.000
G1 X124.008 Y160.429 E-0.76000
G1 E-0.04000 F2100.00000
G1 Z0.800 F10800.000
G1 X124.859 Y162.559
G1 Z0.200
G1 E0.80000 F2100.00000
G1 F1200.000
G1 X124.658 Y162.358 E0.00910
G1 X124.658 Y161.814 E0.01739
G1 X125.058 Y162.214 E0.01810
G1 X125.379 Y161.992 E0.01249
G1 X124.658 Y161.270 E0.03261
G1 X124.658 Y160.727 E0.01739
G1 X125.700 Y161.769 E0.04712
G1 X126.020 Y161.546 E0.01249
G1 X124.658 Y160.183 E0.06163
G1 X124.658 Y159.639 E0.01739
G1 X126.341 Y161.323 E0.07614
G1 X126.662 Y161.100 E0.01249
G1 X121.764 Y156.201 E0.22153
G1 X122.307 Y156.201 E0.01739
G1 X126.983 Y160.877 E0.21144
G1 X127.304 Y160.654 E0.01249
G1 X122.851 Y156.201 E0.20136
G1 X123.395 Y156.201 E0.01739
G1 X127.625 Y160.431 E0.19128
G1 X127.946 Y160.208 E0.01249
G1 X123.939 Y156.201 E0.18120
G1 X124.483 Y156.201 E0.01739
G1 X128.267 Y159.985 E0.17112
G1 X128.588 Y159.762 E0.01249
G1 X124.658 Y155.832 E0.17773
G1 X124.658 Y155.288 E0.01739
G1 X128.909 Y159.539 E0.19224
G1 X129.230 Y159.316 E0.01249
G1 X124.658 Y154.744 E0.20676
G1 X124.658 Y154.200 E0.01739
G1 X129.551 Y159.093 E0.22127
G1 X129.871 Y158.870 E0.01249
G1 X124.658 Y153.656 E0.23578
G1 X124.658 Y153.113 E0.01739
G1 X130.192 Y158.647 E0.25029
G1 X130.513 Y158.424 E0.01249
G1 X124.829 Y152.740 E0.25707
G1 X126.610 Y153.977 E0.06936
G1 X130.834 Y158.202 E0.19103
G1 X131.155 Y157.979 E0.01249
G1 X128.391 Y155.215 E0.12499
G1 X130.173 Y156.452 E0.06936
G1 X131.598 Y157.878 E0.06446
G1 F8640.000
G1 X130.173 Y156.452 E-0.46544
G1 X129.125 Y155.724 E-0.29456
G1 E-0.04000 F2100.00000
G1 Z0.800 F10800.000
G1 X124.101 Y159.082
G1 Z0.200
G1 E0.80000 F2100.00000
G1 F1200.000
G1 X121.220 Y156.201 E0.13028
G1 X120.676 Y156.201 E0.01739
G1 X123.387 Y158.912 E0.12261
G1 X122.843 Y158.912 E0.01739
G1 X120.132 Y156.201 E0.12261
G1 X119.588 Y156.201 E0.01739
G1 X122.299 Y158.912 E0.12261
G1 X121.756 Y158.912 E0.01739
G1 X119.044 Y156.201 E0.12261
G1 X118.500 Y156.201 E0.01739
G1 X121.212 Y158.912 E0.12261
G1 X120.668 Y158.912 E0.01739
G1 X117.957 Y156.201 E0.12261
G1 X117.413 Y156.201 E0.01739
G1 X120.124 Y158.912 E0.12261
