; generated by PrusaSlicer 2.2.0+win64 on 2020-08-12 at 16:03:49 UTC

; 

; external perimeters extrusion width = 0.45mm
; perimeters extrusion width = 0.45mm
; infill extrusion width = 0.45mm
; solid infill extrusion width = 0.45mm
; top infill extrusion width = 0.40mm
; first layer extrusion width = 0.42mm

; external perimeters extrusion width = 0.45mm
; perimeters extrusion width = 0.45mm
; infill extrusion width = 0.45mm
; solid infill extrusion width = 0.45mm
; top infill extrusion width = 0.40mm
; first layer extrusion width = 0.42mm

M73 P0 R126
M201 X9000 Y9000 Z500 E10000 ; sets maximum accelerations, mm/sec^2
M203 X500 Y500 Z12 E120 ; sets maximum feedrates, mm/sec
M204 P2000 R1500 T2000 ; sets acceleration (P, T) and retract acceleration (R), mm/sec^2
M205 X10.00 Y10.00 Z0.20 E4.50 ; sets the jerk limits, mm/sec
M205 S0 T0 ; sets the minimum extruding and travel feed rate, mm/sec
M107
M862.3 P "MK2.5SMMU2S" ; printer model check
M862.1 P0.4 ; nozzle diameter check
M115 U3.9.0 ; tell printer latest fw version
G90 ; use absolute coordinates
M83 ; extruder relative mode
M104 S215 ; set extruder temp
M140 S60 ; set bed temp
M190 S60 ; wait for bed temp
M109 S215 ; wait for extruder temp
G28 W ; home all without mesh bed level
G80 ; mesh bed leveling

; Send the filament type to the MMU2.0 unit.
; E stands for extruder number, F stands for filament type (0: default; 1:flex; 2: PVA)
M403 E0 F0
M403 E1 F0
M403 E2 F0
M403 E3 F0
M403 E4 F0


;go outside print area
G1 Y-3.0 F1000.0
G1 Z0.4 F1000.0
; select extruder
T0
; initial load
G1 X55.0 E29.0 F1073.0
M73 P0 R126
G1 X5.0 E29.0 F1800.0
G1 X55.0 E8.0 F2000.0
G1 Z0.3 F1000.0
G92 E0.0
G1 X240.0 E25.0 F2200.0
G1 Y-2.0 F1000.0
G1 X55.0 E25 F1400.0
G1 Z0.20 F1000.0
G1 X5.0 E4.0 F1000.0
G92 E0.0

G92 E0.0
G21 ; set units to millimeters
G90 ; use absolute coordinates
M83 ; use relative distances for extrusion
T0
M900 K0.06 ; Filament gcode LA 1.5
M900 K30 ; Filament gcode LA 1.0
G1 Z0.200 F10800.000
;BEFORE_LAYER_CHANGE
G92 E0.0
;0.2


G1 E-0.80000 F2100.00000
G1 Z0.800 F10800.000
G1 Z0.200
;AFTER_LAYER_CHANGE
;0.2
G1 E-2.20000 F2100.00000
G1 Z0.800 F10800.000
G1 X156.652 Y59.913
G1 Z0.200
G1 E3.00000 F2100.00000
;-------------------------------------
; CP WIPE TOWER FIRST LAYER BRIM START
G1  X156.652 Y73.973  E0.8016 F2400
G1  X154.109 Y74.430   F7000
G1  Y59.456  E0.6260 F2100
G1  X93.195  E2.5466
G1  Y74.430  E0.6260
G1  X154.109  E2.5466
G1  X154.566 Y74.887   F7000
G1  Y58.999  E0.6642 F2100
G1  X92.738  E2.5849
G1  Y74.887  E0.6642
G1  X154.566  E2.5849
G1  X155.023 Y75.344   F7000
G1  Y58.542  E0.7025 F2100
G1  X92.281  E2.6231
G1  Y75.344  E0.7025
G1  X155.023  E2.6231
G1  X155.480 Y75.801   F7000
G1  Y58.085  E0.7407 F2100
G1  X91.824  E2.6613
G1  Y75.801  E0.7407
G1  X155.480  E2.6613
G1  X153.652 Y73.973   F7000
G1  X93.652 
G1  X153.652 
; CP WIPE TOWER FIRST LAYER BRIM END
;-----------------------------------
G1  X153.152 Y60.413   F7200
;--------------------
; CP EMPTY GRID START
; layer #1
G1  X153.652 
G1  Y59.913 
G1  Y73.973  E0.5344 F1450
G1  X93.652  E2.2804
G1  Y59.913  E0.5344
G1  X153.652  E2.2804
G1  X153.152 
G1  Y60.413 
G1  Y73.473  E0.4964
G1  X94.152  E2.2424
G1  Y60.413  E0.4964
G1  X153.152  E2.2424
G1  Y73.473 
G1  X152.652 Y72.950   E0.0275
G1  X94.652  E2.2044
G1  Y72.426  E0.0199
G1  X152.652  E2.2044
G1  Y71.903  E0.0199
G1  X94.652  E2.2044
M73 P1 R125
G1  Y71.380  E0.0199
G1  X152.652  E2.2044
G1  Y70.856  E0.0199
G1  X94.652  E2.2044
G1  Y70.333  E0.0199
G1  X152.652  E2.2044
G1  Y69.810  E0.0199
G1  X94.652  E2.2044
G1  Y69.286  E0.0199
G1  X152.652  E2.2044
G1  Y68.763  E0.0199
G1  X94.652  E2.2044
G1  Y68.240  E0.0199
G1  X152.652  E2.2044
G1  Y67.716  E0.0199
G1  X94.652  E2.2044
G1  Y67.193  E0.0199
G1  X152.652  E2.2044
G1  Y66.670  E0.0199
G1  X94.652  E2.2044
G1  Y66.146  E0.0199
G1  X152.652  E2.2044
G1  Y65.623  E0.0199
G1  X94.652  E2.2044
G1  Y65.100  E0.0199
G1  X152.652  E2.2044
G1  Y64.576  E0.0199
G1  X94.652  E2.2044
G1  Y64.053  E0.0199
G1  X152.652  E2.2044
G1  Y63.530  E0.0199
G1  X94.652  E2.2044
G1  Y63.006  E0.0199
G1  X152.652  E2.2044
G1  Y62.483  E0.0199
G1  X94.652  E2.2044
G1  Y61.960  E0.0199
G1  X152.652  E2.2044
G1  Y61.436  E0.0199
G1  X94.652  E2.2044
G1  Y60.913  E0.0199
G1  X152.652  E2.2044
G1  X94.652 
; CP EMPTY GRID END
;------------------







G1 F8640.000
G1 X91.361 Y60.913 E-0.76000
G1 E-0.04000 F2100.00000
G1 Z0.800 F10800.000
G1 X57.807 Y83.170
G1 Z0.200
G1 E0.80000 F2100.00000
M204 S1000
G1 F1200.000
G1 X58.330 Y82.396 E0.02931
G1 X90.086 Y56.020 E1.29433
G1 X90.501 Y55.746 E0.01562
G1 X90.961 Y55.565 E0.01550
G1 X91.590 Y55.479 E0.01989
G1 X155.713 Y55.479 E2.01053
G1 X156.472 Y55.605 E0.02414
G1 X157.149 Y55.965 E0.02402
G1 X191.459 Y82.210 E1.35444
M73 P1 R124
G1 X191.917 Y82.681 E0.02060
G1 X192.227 Y83.256 E0.02048
G1 X192.377 Y84.080 E0.02626
G1 X192.377 Y150.106 E2.07019
G1 X192.189 Y151.014 E0.02907
G1 X191.670 Y151.778 E0.02896
G1 X190.910 Y152.283 E0.02860
G1 X190.012 Y152.464 E0.02872
G1 X60.000 Y152.464 E4.07645
G1 X59.084 Y152.280 E0.02931
G1 X58.309 Y151.757 E0.02931
G1 X57.806 Y151.001 E0.02849
G1 X57.623 Y150.111 E0.02849
G1 X57.623 Y84.087 E2.07013
G1 X57.795 Y83.229 E0.02743
G1 F8640.000
G1 X58.330 Y82.396 E-0.22867
G1 X60.100 Y80.925 E-0.53133
G1 E-0.04000 F2100.00000
G1 Z0.800 F10800.000
G1 X168.114 Y100.883
G1 Z0.200
G1 E0.80000 F2100.00000
G1 F1200.000
G1 X168.571 Y99.375 E0.04942
G1 X169.314 Y97.984 E0.04942
G1 X170.314 Y96.766 E0.04942
G1 X171.533 Y95.766 E0.04942
G1 X172.923 Y95.023 E0.04942
G1 X174.431 Y94.565 E0.04942
G1 X176.000 Y94.411 E0.04942
G1 X177.569 Y94.565 E0.04942
G1 X179.077 Y95.023 E0.04942
G1 X180.467 Y95.766 E0.04942
G1 X181.686 Y96.766 E0.04942
G1 X182.686 Y97.984 E0.04942
G1 X183.429 Y99.375 E0.04942
G1 X183.886 Y100.883 E0.04942
G1 X184.041 Y102.452 E0.04942
G1 X183.886 Y104.020 E0.04942
G1 X183.429 Y105.529 E0.04942
G1 X182.688 Y106.916 E0.04930
G1 X181.686 Y108.137 E0.04954
G1 X180.467 Y109.137 E0.04943
G1 X179.077 Y109.881 E0.04942
G1 X177.569 Y110.338 E0.04942
G1 X176.000 Y110.493 E0.04942
G1 X174.431 Y110.338 E0.04942
G1 X172.923 Y109.881 E0.04942
G1 X171.533 Y109.137 E0.04942
G1 X170.314 Y108.137 E0.04942
G1 X169.314 Y106.919 E0.04942
G1 X168.571 Y105.529 E0.04942
G1 X168.114 Y104.020 E0.04942
G1 X167.959 Y102.452 E0.04942
G1 X168.108 Y100.943 E0.04754
G1 X168.483 Y100.980 F10800.000
G1 F1200.000
G1 X168.921 Y99.520 E0.04780
G1 X169.629 Y98.195 E0.04709
G1 X170.582 Y97.034 E0.04709
G1 X171.743 Y96.081 E0.04709
G1 X173.068 Y95.373 E0.04709
G1 X174.505 Y94.937 E0.04709
G1 X176.000 Y94.790 E0.04709
G1 X177.495 Y94.937 E0.04709
G1 X178.932 Y95.373 E0.04709
G1 X180.257 Y96.081 E0.04709
G1 X181.418 Y97.034 E0.04709
G1 X182.371 Y98.195 E0.04709
G1 X183.079 Y99.520 E0.04709
G1 X183.515 Y100.957 E0.04709
G1 X183.662 Y102.452 E0.04709
G1 X183.515 Y103.947 E0.04709
G1 X183.079 Y105.384 E0.04709
G1 X182.372 Y106.705 E0.04698
G1 X181.418 Y107.870 E0.04721
G1 X180.257 Y108.822 E0.04710
G1 X178.932 Y109.530 E0.04709
G1 X177.495 Y109.966 E0.04709
G1 X176.000 Y110.114 E0.04709
G1 X174.505 Y109.966 E0.04709
G1 X173.068 Y109.530 E0.04709
G1 X171.743 Y108.822 E0.04709
G1 X170.582 Y107.870 E0.04709
G1 X169.629 Y106.709 E0.04709
G1 X168.921 Y105.384 E0.04709
G1 X168.485 Y103.947 E0.04709
G1 X168.338 Y102.452 E0.04709
G1 X168.477 Y101.039 E0.04450
G1 X168.182 Y100.717 F10800.000
G1 F8640.000
G1 X168.921 Y99.520 E-0.36560
G1 X169.629 Y98.195 E-0.34682
G1 X169.760 Y98.036 E-0.04758
G1 E-0.04000 F2100.00000
G1 Z0.800 F10800.000
G1 X162.787 Y113.300
G1 Z0.200
G1 E0.80000 F2100.00000
G1 F1200.000
G1 X162.787 Y84.874 E0.89127
G1 X189.213 Y84.874 E0.82856
G1 X189.213 Y113.300 E0.89127
G1 X162.847 Y113.300 E0.82668
G1 X162.410 Y113.677 F10800.000
G1 F1200.000
G1 X162.410 Y84.497 E0.91492
G1 X189.590 Y84.497 E0.85221
G1 X189.590 Y113.677 E0.91492
G1 X162.470 Y113.677 E0.85033
G1 X162.509 Y113.289 F10800.000
G1 F8640.000
G1 X162.463 Y110.385 E-0.76000
G1 E-0.04000 F2100.00000
G1 Z0.800 F10800.000
G1 X163.664 Y113.187
G1 Z0.200
G1 E0.80000 F2100.00000
G1 F1200.000
G1 X163.070 Y112.593 E0.02637
G1 X163.070 Y112.059 E0.01677
G1 X164.028 Y113.017 E0.04255
G1 X164.562 Y113.017 E0.01677
G1 X163.070 Y111.525 E0.06627
G1 X163.070 Y110.991 E0.01677
G1 X165.096 Y113.017 E0.08998
G1 X165.630 Y113.017 E0.01677
G1 X163.070 Y110.457 E0.11370
G1 X163.070 Y109.923 E0.01677
G1 X166.164 Y113.017 E0.13741
G1 X166.698 Y113.017 E0.01677
G1 X163.070 Y109.389 E0.16113
G1 X163.070 Y108.854 E0.01677
G1 X167.232 Y113.017 E0.18485
G1 X167.766 Y113.017 E0.01677
G1 X163.070 Y108.320 E0.20856
G1 X163.070 Y107.786 E0.01677
G1 X168.301 Y113.017 E0.23228
G1 X168.835 Y113.017 E0.01677
G1 X163.070 Y107.252 E0.25600
G1 X163.070 Y106.718 E0.01677
G1 X169.369 Y113.017 E0.27971
G1 X169.903 Y113.017 E0.01677
G1 X163.070 Y106.184 E0.30343
G1 X163.070 Y105.650 E0.01677
G1 X170.437 Y113.017 E0.32715
G1 X170.971 Y113.017 E0.01677
G1 X163.070 Y105.116 E0.35086
G1 X163.070 Y104.582 E0.01677
G1 X171.505 Y113.017 E0.37458
G1 X172.039 Y113.017 E0.01677
G1 X163.070 Y104.048 E0.39830
G1 X163.070 Y103.514 E0.01677
G1 X172.573 Y113.017 E0.42201
G1 X173.107 Y113.017 E0.01677
G1 X163.070 Y102.980 E0.44573
G1 X163.070 Y102.446 E0.01677
G1 X173.641 Y113.017 E0.46945
G1 X174.175 Y113.017 E0.01677
G1 X163.070 Y101.912 E0.49316
G1 X163.070 Y101.378 E0.01677
G1 X174.879 Y113.187 E0.52441
G1 F8640.000
G1 X172.552 Y110.859 E-0.76000
G1 E-0.04000 F2100.00000
G1 Z0.800 F10800.000
G1 X189.100 Y104.443
G1 Z0.200
G1 E0.80000 F2100.00000
G1 F1200.000
G1 X183.425 Y98.768 E0.25198
G1 X183.691 Y99.266 E0.01771
G1 X183.823 Y99.700 E0.01425
G1 X188.930 Y104.807 E0.22679
G1 X188.930 Y105.341 E0.01677
G1 X184.056 Y100.467 E0.21646
G1 X184.165 Y100.828 E0.01184
G1 X184.196 Y101.141 E0.00989
G1 X188.930 Y105.875 E0.21023
G1 X188.930 Y106.409 E0.01677
G1 X184.254 Y101.734 E0.20764
G1 X184.313 Y102.326 E0.01869
G1 X188.930 Y106.943 E0.20505
G1 X188.930 Y107.477 E0.01677
G1 X184.287 Y102.835 E0.20617
G1 X184.239 Y103.321 E0.01534
G1 X188.930 Y108.012 E0.20830
G1 X188.930 Y108.546 E0.01677
G1 X184.192 Y103.807 E0.21043
G1 X184.165 Y104.076 E0.00848
G1 X184.110 Y104.259 E0.00601
G1 X188.930 Y109.080 E0.21407
G1 X188.930 Y109.614 E0.01677
G1 X183.985 Y104.669 E0.21959
G1 X183.861 Y105.079 E0.01345
G1 X188.930 Y110.148 E0.22511
G1 X188.930 Y110.682 E0.01677
G1 X183.737 Y105.488 E0.23063
G1 X183.691 Y105.638 E0.00490
G1 X183.573 Y105.859 E0.00788
G1 X188.930 Y111.216 E0.23789
G1 X188.930 Y111.750 E0.01677
G1 X183.387 Y106.207 E0.24615
G1 X183.201 Y106.555 E0.01239
G1 X188.930 Y112.284 E0.25442
G1 X188.930 Y112.818 E0.01677
G1 X183.015 Y106.903 E0.26268
G1 X182.924 Y107.073 E0.00607
G1 X182.801 Y107.223 E0.00608
G1 X188.595 Y113.017 E0.25729
G1 X188.061 Y113.017 E0.01677
G1 X182.561 Y107.517 E0.24426
G1 X182.320 Y107.810 E0.01192
G1 X187.527 Y113.017 E0.23123
G1 X186.993 Y113.017 E0.01677
G1 X182.079 Y108.104 E0.21819
G1 X181.828 Y108.386 E0.01188
G1 X186.459 Y113.017 E0.20563
G1 X185.925 Y113.017 E0.01677
G1 X181.535 Y108.627 E0.19494
G1 X181.242 Y108.868 E0.01192
G1 X185.391 Y113.017 E0.18425
G1 X184.856 Y113.017 E0.01677
G1 X180.948 Y109.109 E0.17356
G1 X180.655 Y109.349 E0.01192
G1 X184.322 Y113.017 E0.16287
G1 X183.788 Y113.017 E0.01677
G1 X180.312 Y109.541 E0.15436
G1 X179.964 Y109.727 E0.01239
G1 X183.254 Y113.017 E0.14610
G1 X182.720 Y113.017 E0.01677
G1 X179.616 Y109.913 E0.13784
G1 X179.268 Y110.099 E0.01239
G1 X182.186 Y113.017 E0.12958
G1 X181.652 Y113.017 E0.01677
G1 X178.873 Y110.238 E0.12341
G1 X178.463 Y110.362 E0.01345
G1 X181.118 Y113.017 E0.11789
G1 X180.584 Y113.017 E0.01677
G1 X178.054 Y110.487 E0.11237
G1 X177.644 Y110.611 E0.01345
G1 X180.050 Y113.017 E0.10685
G1 X179.516 Y113.017 E0.01677
G1 X177.161 Y110.662 E0.10456
G1 X176.675 Y110.710 E0.01534
G1 X178.982 Y113.017 E0.10243
G1 X178.448 Y113.017 E0.01677
G1 X176.189 Y110.758 E0.10031
G1 X176.000 Y110.777 E0.00596
G1 X175.638 Y110.741 E0.01143
G1 X177.914 Y113.017 E0.10107
G1 X177.380 Y113.017 E0.01677
G1 X175.045 Y110.683 E0.10366
G1 X174.453 Y110.624 E0.01869
G1 X176.846 Y113.017 E0.10625
G1 X176.311 Y113.017 E0.01677
G1 X173.709 Y110.415 E0.11557
G1 X172.942 Y110.182 E0.02516
G1 X175.777 Y113.017 E0.12589
G1 X175.243 Y113.017 E0.01677
G1 X171.859 Y109.632 E0.15030
G1 X171.375 Y109.374 E0.01723
G1 X170.113 Y108.338 E0.05125
G1 X169.078 Y107.077 E0.05125
G1 X168.819 Y106.593 E0.01723
G1 X163.070 Y100.844 E0.25532
G1 X163.070 Y100.309 E0.01677
G1 X168.270 Y105.509 E0.23091
G1 X168.037 Y104.743 E0.02516
G1 X163.070 Y99.775 E0.22059
G1 X163.070 Y99.241 E0.01677
G1 X167.827 Y103.999 E0.21127
G1 X167.769 Y103.406 E0.01869
G1 X163.070 Y98.707 E0.20867
G1 X163.070 Y98.173 E0.01677
G1 X167.711 Y102.814 E0.20608
G1 X167.675 Y102.452 E0.01143
G1 X167.694 Y102.263 E0.00596
G1 X163.070 Y97.639 E0.20533
G1 X163.070 Y97.105 E0.01677
G1 X167.741 Y101.777 E0.20745
G1 X167.789 Y101.290 E0.01534
G1 X163.070 Y96.571 E0.20958
G1 X163.070 Y96.037 E0.01677
G1 X167.841 Y100.808 E0.21187
M73 P2 R123
G1 X167.965 Y100.398 E0.01345
G1 X163.070 Y95.503 E0.21739
G1 X163.070 Y94.969 E0.01677
G1 X168.089 Y99.988 E0.22291
G1 X168.214 Y99.579 E0.01345
G1 X163.070 Y94.435 E0.22843
G1 X163.070 Y93.901 E0.01677
G1 X168.353 Y99.183 E0.23460
G1 X168.539 Y98.835 E0.01239
G1 X163.070 Y93.367 E0.24286
G1 X163.070 Y92.833 E0.01677
G1 X168.725 Y98.487 E0.25112
G1 X168.911 Y98.139 E0.01239
G1 X163.070 Y92.298 E0.25938
G1 X163.070 Y91.764 E0.01677
G1 X169.102 Y97.797 E0.26789
G1 X169.343 Y97.504 E0.01192
G1 X163.070 Y91.230 E0.27858
G1 X163.070 Y90.696 E0.01677
G1 X169.584 Y97.210 E0.28927
G1 X169.825 Y96.917 E0.01192
G1 X163.070 Y90.162 E0.29996
G1 X163.070 Y89.628 E0.01677
G1 X170.065 Y96.624 E0.31065
G1 X170.348 Y96.372 E0.01188
G1 X163.070 Y89.094 E0.32321
G1 X163.070 Y88.560 E0.01677
G1 X170.641 Y96.132 E0.33623
G1 X170.935 Y95.891 E0.01192
G1 X163.070 Y88.026 E0.34926
G1 X163.070 Y87.492 E0.01677
G1 X171.228 Y95.650 E0.36229
G1 X171.375 Y95.530 E0.00596
G1 X171.549 Y95.437 E0.00619
G1 X163.070 Y86.958 E0.37653
G1 X163.070 Y86.424 E0.01677
G1 X171.897 Y95.251 E0.39198
G1 X172.245 Y95.065 E0.01239
G1 X163.070 Y85.890 E0.40744
G1 X163.070 Y85.356 E0.01677
G1 X172.593 Y94.879 E0.42289
G1 X172.814 Y94.760 E0.00788
G1 X172.963 Y94.715 E0.00490
G1 X163.405 Y85.157 E0.42446
G1 X163.939 Y85.157 E0.01677
G1 X173.373 Y94.591 E0.41894
G1 X173.783 Y94.467 E0.01345
G1 X164.473 Y85.157 E0.41342
G1 X165.007 Y85.157 E0.01677
G1 X174.193 Y94.342 E0.40790
G1 X174.376 Y94.287 E0.00601
G1 X174.645 Y94.260 E0.00848
G1 X165.541 Y85.157 E0.40426
G1 X166.075 Y85.157 E0.01677
G1 X175.131 Y94.212 E0.40213
G1 X175.617 Y94.164 E0.01534
G1 X166.609 Y85.157 E0.40001
G1 X167.143 Y85.157 E0.01677
G1 X176.126 Y94.139 E0.39888
G1 X176.718 Y94.197 E0.01869
G1 X167.678 Y85.157 E0.40147
G1 X168.212 Y85.157 E0.01677
G1 X177.311 Y94.256 E0.40407
G1 X177.624 Y94.287 E0.00989
G1 X177.985 Y94.396 E0.01184
G1 X168.746 Y85.157 E0.41030
G1 X169.280 Y85.157 E0.01677
G1 X178.752 Y94.629 E0.42063
G1 X179.186 Y94.760 E0.01425
G1 X179.683 Y95.026 E0.01771
G1 X169.814 Y85.157 E0.43828
G1 X170.348 Y85.157 E0.01677
G1 X188.930 Y103.739 E0.82519
G1 X188.930 Y103.205 E0.01677
G1 X170.882 Y85.157 E0.80148
G1 X171.416 Y85.157 E0.01677
G1 X188.930 Y102.671 E0.77776
G1 X188.930 Y102.137 E0.01677
G1 X171.950 Y85.157 E0.75404
G1 X172.484 Y85.157 E0.01677
G1 X188.930 Y101.603 E0.73033
G1 X188.930 Y101.069 E0.01677
G1 X173.018 Y85.157 E0.70661
G1 X173.552 Y85.157 E0.01677
G1 X188.930 Y100.535 E0.68289
G1 X188.930 Y100.001 E0.01677
G1 X174.086 Y85.157 E0.65918
G1 X174.620 Y85.157 E0.01677
G1 X188.930 Y99.466 E0.63546
G1 X188.930 Y98.932 E0.01677
G1 X175.154 Y85.157 E0.61174
G1 X175.688 Y85.157 E0.01677
G1 X188.930 Y98.398 E0.58803
G1 X188.930 Y97.864 E0.01677
G1 X176.223 Y85.157 E0.56431
G1 X176.757 Y85.157 E0.01677
G1 X188.930 Y97.330 E0.54060
G1 X188.930 Y96.796 E0.01677
G1 X177.291 Y85.157 E0.51688
G1 X177.825 Y85.157 E0.01677
G1 X188.930 Y96.262 E0.49316
G1 X188.930 Y95.728 E0.01677
G1 X178.359 Y85.157 E0.46945
G1 X178.893 Y85.157 E0.01677
