; generated by PrusaSlicer 2.2.0+win64 on 2020-10-15 at 20:38:18 UTC

; 

; external perimeters extrusion width = 0.45mm
; perimeters extrusion width = 0.45mm
; infill extrusion width = 0.45mm
; solid infill extrusion width = 0.45mm
; top infill extrusion width = 0.40mm
; first layer extrusion width = 0.42mm

; external perimeters extrusion width = 0.45mm
; perimeters extrusion width = 0.45mm
; infill extrusion width = 0.45mm
; solid infill extrusion width = 0.45mm
; top infill extrusion width = 0.40mm
; first layer extrusion width = 0.42mm

M73 P0 R35
M201 X9000 Y9000 Z500 E10000 ; sets maximum accelerations, mm/sec^2
M203 X500 Y500 Z12 E120 ; sets maximum feedrates, mm/sec
M204 P2000 R1500 T2000 ; sets acceleration (P, T) and retract acceleration (R), mm/sec^2
M205 X10.00 Y10.00 Z0.20 E4.50 ; sets the jerk limits, mm/sec
M205 S0 T0 ; sets the minimum extruding and travel feed rate, mm/sec
M107
M862.3 P "MK2.5SMMU2S" ; printer model check
M862.1 P0.4 ; nozzle diameter check
M115 U3.9.0 ; tell printer latest fw version
G90 ; use absolute coordinates
M83 ; extruder relative mode
M104 S215 ; set extruder temp
M140 S60 ; set bed temp
M190 S60 ; wait for bed temp
M109 S215 ; wait for extruder temp
G28 W ; home all without mesh bed level
G80 ; mesh bed leveling

; Send the filament type to the MMU2.0 unit.
; E stands for extruder number, F stands for filament type (0: default; 1:flex; 2: PVA)
M403 E0 F0
M403 E1 F0
M403 E2 F0
M403 E3 F0
M403 E4 F0


;go outside print area
G1 Y-3.0 F1000.0
G1 Z0.4 F1000.0
; select extruder
T0
; initial load
G1 X55.0 E29.0 F1073.0
M73 P0 R34
G1 X5.0 E29.0 F1800.0
G1 X55.0 E8.0 F2000.0
G1 Z0.3 F1000.0
G92 E0.0
G1 X240.0 E25.0 F2200.0
G1 Y-2.0 F1000.0
G1 X55.0 E25 F1400.0
G1 Z0.20 F1000.0
G1 X5.0 E4.0 F1000.0
G92 E0.0

G92 E0.0
G21 ; set units to millimeters
G90 ; use absolute coordinates
M83 ; use relative distances for extrusion
T0
M900 K0.05 ; Filament gcode LA 1.5
M900 K30 ; Filament gcode LA 1.0
G1 Z0.200 F10800.000
;BEFORE_LAYER_CHANGE
G92 E0.0
;0.2


G1 E-0.80000 F2100.00000
G1 Z0.800 F10800.000
G1 Z0.200
;AFTER_LAYER_CHANGE
;0.2
G1 E-2.20000 F2100.00000
G1 Z0.800 F10800.000
G1 X155.943 Y77.913
G1 Z0.200
G1 E3.00000 F2100.00000
;-------------------------------------
; CP WIPE TOWER FIRST LAYER BRIM START
G1  X155.943 Y91.973  E0.8016 F2400
G1  X153.400 Y92.430   F7000
G1  Y77.456  E0.6260 F2100
G1  X92.486  E2.5466
G1  Y92.430  E0.6260
G1  X153.400  E2.5466
G1  X153.857 Y92.887   F7000
G1  Y76.999  E0.6642 F2100
G1  X92.029  E2.5849
G1  Y92.887  E0.6642
G1  X153.857  E2.5849
G1  X154.314 Y93.344   F7000
G1  Y76.542  E0.7025 F2100
G1  X91.572  E2.6231
G1  Y93.344  E0.7025
G1  X154.314  E2.6231
G1  X154.771 Y93.801   F7000
G1  Y76.085  E0.7407 F2100
G1  X91.115  E2.6613
G1  Y93.801  E0.7407
G1  X154.771  E2.6613
G1  X152.943 Y91.973   F7000
G1  X92.943 
G1  X152.943 
; CP WIPE TOWER FIRST LAYER BRIM END
;-----------------------------------
G1  X152.443 Y78.413   F7200
;--------------------
; CP EMPTY GRID START
; layer #1
G1  X152.943 
G1  Y77.913 
G1  Y91.973  E0.5344 F1450
G1  X92.943  E2.2804
G1  Y77.913  E0.5344
G1  X152.943  E2.2804
G1  X152.443 
G1  Y78.413 
G1  Y91.473  E0.4964
G1  X93.443  E2.2424
G1  Y78.413  E0.4964
G1  X152.443  E2.2424
G1  Y91.473 
G1  X151.943 Y90.950   E0.0275
G1  X93.943  E2.2044
G1  Y90.426  E0.0199
G1  X151.943  E2.2044
G1  Y89.903  E0.0199
G1  X93.943  E2.2044
M73 P3 R33
G1  Y89.380  E0.0199
G1  X151.943  E2.2044
G1  Y88.856  E0.0199
G1  X93.943  E2.2044
G1  Y88.333  E0.0199
G1  X151.943  E2.2044
G1  Y87.810  E0.0199
G1  X93.943  E2.2044
G1  Y87.286  E0.0199
G1  X151.943  E2.2044
G1  Y86.763  E0.0199
G1  X93.943  E2.2044
G1  Y86.240  E0.0199
G1  X151.943  E2.2044
G1  Y85.716  E0.0199
G1  X93.943  E2.2044
G1  Y85.193  E0.0199
G1  X151.943  E2.2044
G1  Y84.670  E0.0199
G1  X93.943  E2.2044
G1  Y84.146  E0.0199
G1  X151.943  E2.2044
G1  Y83.623  E0.0199
G1  X93.943  E2.2044
G1  Y83.100  E0.0199
G1  X151.943  E2.2044
G1  Y82.576  E0.0199
G1  X93.943  E2.2044
G1  Y82.053  E0.0199
G1  X151.943  E2.2044
G1  Y81.530  E0.0199
G1  X93.943  E2.2044
G1  Y81.006  E0.0199
G1  X151.943  E2.2044
G1  Y80.483  E0.0199
G1  X93.943  E2.2044
G1  Y79.960  E0.0199
G1  X151.943  E2.2044
G1  Y79.436  E0.0199
G1  X93.943  E2.2044
G1  Y78.913  E0.0199
G1  X151.943  E2.2044
G1  X93.943 
; CP EMPTY GRID END
;------------------







G1 F8640.000
G1 X90.652 Y78.913 E-0.76000
G1 E-0.04000 F2100.00000
G1 Z0.800 F10800.000
G1 X88.714 Y74.891
G1 Z0.200
G1 E0.80000 F2100.00000
M204 S1000
G1 F1200.000
G1 X89.229 Y74.152 E0.02825
G1 X89.979 Y73.659 E0.02813
G1 X90.862 Y73.479 E0.02825
G1 X155.004 Y73.479 E2.01111
G1 X155.835 Y73.631 E0.02649
G1 X156.558 Y74.061 E0.02637
G1 X157.087 Y74.719 E0.02649
G1 X157.353 Y75.521 E0.02649
G1 X159.082 Y101.955 E0.83059
G1 X159.085 Y132.140 E0.94643
M73 P6 R32
G1 X158.889 Y133.035 E0.02872
G1 X158.366 Y133.791 E0.02884
G1 X157.616 Y134.284 E0.02813
G1 X156.733 Y134.464 E0.02825
G1 X94.709 Y134.464 E1.94472
G1 X93.782 Y134.276 E0.02966
G1 X93.004 Y133.744 E0.02954
G1 X92.559 Y133.102 E0.02449
G1 X92.347 Y132.354 E0.02437
G1 X88.514 Y94.180 E1.20293
G1 X88.511 Y75.773 E0.57716
G1 X88.701 Y74.949 E0.02649
G1 F8640.000
G1 X89.229 Y74.152 E-0.22097
G1 X89.979 Y73.659 E-0.20719
G1 X90.862 Y73.479 E-0.20806
G1 X91.398 Y73.479 E-0.12378
G1 E-0.04000 F2100.00000
G1 Z0.800 F10800.000
G1 X142.709 Y128.292
G1 Z0.200
G1 E0.80000 F2100.00000
G1 F1200.000
G1 X141.179 Y128.141 E0.04819
G1 X139.709 Y127.695 E0.04819
G1 X138.353 Y126.970 E0.04819
G1 X137.165 Y125.995 E0.04819
G1 X136.190 Y124.807 E0.04819
G1 X135.466 Y123.452 E0.04819
G1 X135.020 Y121.981 E0.04819
G1 X134.869 Y120.452 E0.04819
G1 X135.020 Y118.922 E0.04819
G1 X135.466 Y117.452 E0.04819
G1 X136.190 Y116.096 E0.04819
G1 X137.165 Y114.908 E0.04819
G1 X138.353 Y113.933 E0.04819
G1 X139.709 Y113.209 E0.04819
G1 X141.179 Y112.762 E0.04819
G1 X142.709 Y112.612 E0.04819
G1 X144.238 Y112.762 E0.04819
G1 X145.709 Y113.209 E0.04819
G1 X147.065 Y113.933 E0.04819
G1 X148.253 Y114.908 E0.04819
G1 X149.228 Y116.096 E0.04819
G1 X149.952 Y117.452 E0.04819
G1 X150.398 Y118.922 E0.04819
G1 X150.549 Y120.452 E0.04819
G1 X150.398 Y121.981 E0.04819
G1 X149.952 Y123.452 E0.04819
G1 X149.229 Y124.805 E0.04809
G1 X148.253 Y125.995 E0.04828
G1 X147.065 Y126.970 E0.04819
G1 X145.709 Y127.695 E0.04819
G1 X144.238 Y128.141 E0.04819
G1 X142.769 Y128.286 E0.04631
G1 X142.709 Y127.913 F10800.000
G1 F1200.000
G1 X141.253 Y127.769 E0.04586
G1 X139.854 Y127.345 E0.04586
G1 X138.564 Y126.655 E0.04586
G1 X137.433 Y125.727 E0.04586
G1 X136.505 Y124.597 E0.04586
G1 X135.816 Y123.307 E0.04586
G1 X135.391 Y121.907 E0.04586
G1 X135.248 Y120.452 E0.04586
G1 X135.391 Y118.996 E0.04586
G1 X135.816 Y117.597 E0.04586
G1 X136.505 Y116.307 E0.04586
G1 X137.433 Y115.176 E0.04586
G1 X138.564 Y114.248 E0.04586
G1 X139.854 Y113.559 E0.04586
G1 X141.253 Y113.134 E0.04586
G1 X142.709 Y112.991 E0.04586
G1 X144.164 Y113.134 E0.04586
G1 X145.564 Y113.559 E0.04586
G1 X146.854 Y114.248 E0.04586
G1 X147.985 Y115.176 E0.04586
G1 X148.913 Y116.307 E0.04586
G1 X149.602 Y117.597 E0.04586
G1 X150.027 Y118.996 E0.04586
G1 X150.170 Y120.452 E0.04586
G1 X150.027 Y121.907 E0.04586
G1 X149.602 Y123.307 E0.04586
G1 X148.914 Y124.594 E0.04577
G1 X147.985 Y125.727 E0.04595
G1 X146.854 Y126.655 E0.04586
G1 X145.564 Y127.345 E0.04586
G1 X144.164 Y127.769 E0.04586
G1 X142.769 Y127.907 E0.04398
G1 X142.509 Y128.259 F10800.000
G1 F8640.000
G1 X141.253 Y127.769 E-0.35132
G1 X139.854 Y127.345 E-0.33772
G1 X139.583 Y127.200 E-0.07096
G1 E-0.04000 F2100.00000
G1 Z0.800 F10800.000
G1 X142.709 Y131.500
G1 Z0.200
G1 E0.80000 F2100.00000
G1 F1200.000
G1 X129.296 Y131.500 E0.42055
G1 X129.296 Y102.674 E0.90381
G1 X156.122 Y102.674 E0.84111
G1 X156.122 Y131.500 E0.90381
G1 X142.769 Y131.500 E0.41867
G1 X142.709 Y131.877 F10800.000
G1 F1200.000
G1 X128.919 Y131.877 E0.43238
G1 X128.919 Y102.297 E0.92746
G1 X156.499 Y102.297 E0.86475
G1 X156.499 Y131.877 E0.92746
G1 X142.769 Y131.877 E0.43050
G1 X142.395 Y131.629 F10800.000
G1 F8640.000
G1 X139.477 Y131.877 E-0.76000
G1 E-0.04000 F2100.00000
G1 Z0.800 F10800.000
G1 X136.520 Y125.387
G1 Z0.200
G1 E0.80000 F2100.00000
G1 F1200.000
G1 X129.579 Y118.446 E0.30973
G1 X129.579 Y117.910 E0.01693
G1 X135.192 Y123.522 E0.25046
G1 X134.958 Y122.752 E0.02540
G1 X129.579 Y117.373 E0.24003
G1 X129.579 Y116.836 E0.01693
G1 X134.737 Y121.994 E0.23016
G1 X134.678 Y121.399 E0.01887
G1 X129.579 Y116.300 E0.22754
G1 X129.579 Y115.763 E0.01693
G1 X134.619 Y120.804 E0.22493
G1 X134.585 Y120.452 E0.01116
G1 X134.605 Y120.252 E0.00633
G1 X129.579 Y115.226 E0.22426
G1 X129.579 Y114.690 E0.01693
G1 X134.653 Y119.763 E0.22641
G1 X134.701 Y119.275 E0.01549
G1 X129.579 Y114.153 E0.22855
G1 X129.579 Y113.616 E0.01693
G1 X134.761 Y118.799 E0.23126
G1 X134.886 Y118.387 E0.01358
G1 X129.579 Y113.080 E0.23684
G1 X129.579 Y112.543 E0.01693
G1 X135.011 Y117.976 E0.24241
G1 X135.136 Y117.564 E0.01358
G1 X129.579 Y112.006 E0.24798
G1 X129.579 Y111.470 E0.01693
G1 X135.290 Y117.181 E0.25484
G1 X135.477 Y116.831 E0.01251
G1 X129.579 Y110.933 E0.26318
G1 X129.579 Y110.396 E0.01693
G1 X135.664 Y116.481 E0.27152
G1 X135.851 Y116.132 E0.01251
G1 X129.579 Y109.860 E0.27986
G1 X129.579 Y109.323 E0.01693
G1 X136.062 Y115.807 E0.28930
G1 X136.304 Y115.512 E0.01203
G1 X129.579 Y108.787 E0.30009
G1 X129.579 Y108.250 E0.01693
G1 X136.546 Y115.217 E0.31089
G1 X136.788 Y114.922 E0.01203
G1 X129.579 Y107.713 E0.32168
G1 X129.579 Y107.177 E0.01693
G1 X137.044 Y114.642 E0.33311
G1 X137.339 Y114.400 E0.01203
G1 X129.579 Y106.640 E0.34627
G1 X129.579 Y106.103 E0.01693
G1 X137.633 Y114.158 E0.35942
G1 X137.928 Y113.916 E0.01203
G1 X129.579 Y105.567 E0.37257
G1 X129.579 Y105.030 E0.01693
G1 X138.228 Y113.679 E0.38595
G1 X138.578 Y113.492 E0.01251
G1 X129.579 Y104.493 E0.40156
G1 X129.579 Y103.957 E0.01693
G1 X138.928 Y113.305 E0.41716
G1 X139.277 Y113.119 E0.01251
G1 X129.579 Y103.420 E0.43277
G1 X129.579 Y102.957 E0.01462
G1 X129.652 Y102.957 E0.00231
G1 X139.632 Y112.936 E0.44532
G1 X140.043 Y112.812 E0.01358
G1 X130.189 Y102.957 E0.43974
G1 X130.725 Y102.957 E0.01693
G1 X140.455 Y112.687 E0.43417
G1 X140.867 Y112.562 E0.01358
G1 X131.262 Y102.957 E0.42860
G1 X131.799 Y102.957 E0.01693
G1 X141.308 Y112.466 E0.42431
G1 X141.796 Y112.418 E0.01549
G1 X132.335 Y102.957 E0.42216
G1 X132.872 Y102.957 E0.01693
G1 X142.285 Y112.369 E0.42002
G1 X142.709 Y112.328 E0.01345
G1 X142.787 Y112.335 E0.00248
G1 X133.409 Y102.957 E0.41850
G1 X133.945 Y102.957 E0.01693
G1 X143.382 Y112.394 E0.42111
G1 X143.978 Y112.453 E0.01887
G1 X134.482 Y102.957 E0.42373
G1 X135.019 Y102.957 E0.01693
G1 X144.655 Y112.593 E0.43001
G1 X145.425 Y112.827 E0.02540
G1 X135.555 Y102.957 E0.44044
G1 X136.092 Y102.957 E0.01693
G1 X146.797 Y113.662 E0.47768
G1 F8640.000
G1 X144.469 Y111.334 E-0.76000
G1 E-0.04000 F2100.00000
G1 Z0.800 F10800.000
G1 X156.009 Y103.554
G1 Z0.200
G1 E0.80000 F2100.00000
G1 F1200.000
G1 X155.411 Y102.957 E0.02667
G1 X154.874 Y102.957 E0.01693
G1 X155.839 Y103.921 E0.04304
G1 X155.839 Y104.458 E0.01693
G1 X154.338 Y102.957 E0.06699
G1 X153.801 Y102.957 E0.01693
G1 X155.839 Y104.995 E0.09094
G1 X155.839 Y105.531 E0.01693
G1 X153.264 Y102.957 E0.11488
G1 X152.728 Y102.957 E0.01693
G1 X155.839 Y106.068 E0.13883
G1 X155.839 Y106.605 E0.01693
G1 X152.191 Y102.957 E0.16277
G1 X151.655 Y102.957 E0.01693
G1 X155.839 Y107.141 E0.18672
G1 X155.839 Y107.678 E0.01693
G1 X151.118 Y102.957 E0.21067
G1 X150.581 Y102.957 E0.01693
G1 X155.839 Y108.215 E0.23461
G1 X155.839 Y108.751 E0.01693
G1 X150.045 Y102.957 E0.25856
G1 X149.508 Y102.957 E0.01693
G1 X155.839 Y109.288 E0.28251
G1 X155.839 Y109.824 E0.01693
G1 X148.971 Y102.957 E0.30645
G1 X148.435 Y102.957 E0.01693
G1 X155.839 Y110.361 E0.33040
G1 X155.839 Y110.898 E0.01693
G1 X147.898 Y102.957 E0.35435
G1 X147.361 Y102.957 E0.01693
G1 X155.839 Y111.434 E0.37829
G1 X155.839 Y111.971 E0.01693
G1 X146.825 Y102.957 E0.40224
G1 X146.288 Y102.957 E0.01693
G1 X155.839 Y112.508 E0.42619
G1 X155.839 Y113.044 E0.01693
G1 X145.751 Y102.957 E0.45013
G1 X145.215 Y102.957 E0.01693
G1 X155.839 Y113.581 E0.47408
G1 X155.839 Y114.118 E0.01693
G1 X144.678 Y102.957 E0.49802
G1 X144.142 Y102.957 E0.01693
G1 X155.839 Y114.654 E0.52197
G1 X155.839 Y115.191 E0.01693
G1 X143.605 Y102.957 E0.54592
G1 X143.068 Y102.957 E0.01693
G1 X155.839 Y115.728 E0.56986
M73 P9 R31
G1 X155.839 Y116.264 E0.01693
G1 X142.532 Y102.957 E0.59381
G1 X141.995 Y102.957 E0.01693
G1 X155.839 Y116.801 E0.61776
G1 X155.839 Y117.337 E0.01693
G1 X141.458 Y102.957 E0.64170
G1 X140.922 Y102.957 E0.01693
G1 X155.839 Y117.874 E0.66565
G1 X155.839 Y118.411 E0.01693
G1 X140.385 Y102.957 E0.68960
G1 X139.848 Y102.957 E0.01693
G1 X155.839 Y118.947 E0.71354
G1 X155.839 Y119.484 E0.01693
G1 X139.312 Y102.957 E0.73749
G1 X138.775 Y102.957 E0.01693
G1 X155.839 Y120.021 E0.76143
G1 X155.839 Y120.557 E0.01693
G1 X138.238 Y102.957 E0.78538
G1 X137.702 Y102.957 E0.01693
G1 X155.839 Y121.094 E0.80933
G1 X155.839 Y121.631 E0.01693
G1 X137.165 Y102.957 E0.83327
G1 X136.628 Y102.957 E0.01693
G1 X155.839 Y122.167 E0.85722
G1 X155.839 Y122.704 E0.01693
G1 X149.912 Y116.777 E0.26447
G1 X150.215 Y117.343 E0.02024
G1 X150.334 Y117.735 E0.01294
G1 X155.839 Y123.241 E0.24566
G1 X155.839 Y123.777 E0.01693
G1 X150.567 Y118.505 E0.23524
G1 X150.677 Y118.867 E0.01191
G1 X150.708 Y119.183 E0.01002
G1 X155.839 Y124.314 E0.22896
G1 X155.839 Y124.851 E0.01693
G1 X150.767 Y119.778 E0.22634
G1 X150.825 Y120.373 E0.01887
G1 X155.839 Y125.387 E0.22373
G1 X155.839 Y125.924 E0.01693
G1 X150.791 Y120.876 E0.22525
G1 X150.743 Y121.365 E0.01549
G1 X155.839 Y126.460 E0.22739
G1 X155.839 Y126.997 E0.01693
G1 X150.695 Y121.853 E0.22954
G1 X150.677 Y122.037 E0.00582
G1 X150.599 Y122.294 E0.00847
G1 X155.839 Y127.534 E0.23383
G1 X155.839 Y128.070 E0.01693
G1 X150.474 Y122.705 E0.23940
G1 X150.349 Y123.117 E0.01358
G1 X155.839 Y128.607 E0.24497
G1 X155.839 Y129.144 E0.01693
G1 X150.224 Y123.529 E0.25055
G1 X150.042 Y123.883 E0.01258
G1 X155.839 Y129.680 E0.25867
G1 X155.839 Y130.217 E0.01693
G1 X149.855 Y124.233 E0.26701
G1 X149.668 Y124.583 E0.01251
G1 X155.839 Y130.754 E0.27536
G1 X155.839 Y131.217 E0.01462
G1 X155.766 Y131.217 E0.00231
G1 X149.481 Y124.933 E0.28043
G1 X149.244 Y125.232 E0.01205
G1 X155.229 Y131.217 E0.26706
G1 X154.692 Y131.217 E0.01693
G1 X149.002 Y125.527 E0.25390
G1 X148.761 Y125.822 E0.01203
G1 X154.156 Y131.217 E0.24074
G1 X153.619 Y131.217 E0.01693
G1 X148.519 Y126.117 E0.22759
G1 X148.454 Y126.196 E0.00325
G1 X148.238 Y126.373 E0.00879
G1 X153.083 Y131.217 E0.21616
G1 X152.546 Y131.217 E0.01693
G1 X147.944 Y126.615 E0.20536
G1 X147.649 Y126.857 E0.01203
G1 X152.009 Y131.217 E0.19457
G1 X151.473 Y131.217 E0.01693
G1 X147.354 Y127.099 E0.18377
G1 X147.222 Y127.207 E0.00538
G1 X147.029 Y127.310 E0.00692
G1 X150.936 Y131.217 E0.17434
G1 X150.399 Y131.217 E0.01693
G1 X146.679 Y127.497 E0.16600
G1 X146.330 Y127.684 E0.01251
G1 X149.863 Y131.217 E0.15765
G1 X149.326 Y131.217 E0.01693
G1 X145.980 Y127.871 E0.14931
G1 X145.818 Y127.957 E0.00579
G1 X145.597 Y128.024 E0.00729
G1 X148.789 Y131.217 E0.14246
G1 X148.253 Y131.217 E0.01693
G1 X145.185 Y128.149 E0.13688
G1 X144.773 Y128.274 E0.01358
G1 X147.716 Y131.217 E0.13131
G1 X147.179 Y131.217 E0.01693
G1 X144.362 Y128.399 E0.12574
G1 X143.886 Y128.460 E0.01514
G1 X146.643 Y131.217 E0.12303
G1 X146.106 Y131.217 E0.01693
G1 X143.397 Y128.508 E0.12088
G1 X142.909 Y128.556 E0.01549
G1 X145.569 Y131.217 E0.11873
G1 X145.033 Y131.217 E0.01693
G1 X142.357 Y128.541 E0.11940
G1 X141.762 Y128.483 E0.01887
G1 X144.496 Y131.217 E0.12202
G1 X143.960 Y131.217 E0.01693
G1 X141.166 Y128.424 E0.12463
G1 X140.409 Y128.203 E0.02491
G1 X143.423 Y131.217 E0.13451
G1 X142.886 Y131.217 E0.01693
G1 X139.638 Y127.969 E0.14493
G1 X138.504 Y127.372 E0.04043
G1 X142.350 Y131.217 E0.17158
G1 X141.813 Y131.217 E0.01693
G1 X129.579 Y118.983 E0.54592
G1 X129.579 Y119.519 E0.01693
G1 X141.276 Y131.217 E0.52197
G1 X140.740 Y131.217 E0.01693
G1 X129.579 Y120.056 E0.49802
G1 X129.579 Y120.593 E0.01693
