; generated by PrusaSlicer 2.2.0+win64 on 2020-10-15 at 20:38:39 UTC

; 

; external perimeters extrusion width = 0.45mm
; perimeters extrusion width = 0.45mm
; infill extrusion width = 0.45mm
; solid infill extrusion width = 0.45mm
; top infill extrusion width = 0.40mm
; first layer extrusion width = 0.42mm

; external perimeters extrusion width = 0.45mm
; perimeters extrusion width = 0.45mm
; infill extrusion width = 0.45mm
; solid infill extrusion width = 0.45mm
; top infill extrusion width = 0.40mm
; first layer extrusion width = 0.42mm

M73 P0 R118
M201 X9000 Y9000 Z500 E10000 ; sets maximum accelerations, mm/sec^2
M203 X500 Y500 Z12 E120 ; sets maximum feedrates, mm/sec
M204 P2000 R1500 T2000 ; sets acceleration (P, T) and retract acceleration (R), mm/sec^2
M205 X10.00 Y10.00 Z0.20 E4.50 ; sets the jerk limits, mm/sec
M205 S0 T0 ; sets the minimum extruding and travel feed rate, mm/sec
M107
M862.3 P "MK2.5SMMU2S" ; printer model check
M862.1 P0.4 ; nozzle diameter check
M115 U3.9.0 ; tell printer latest fw version
G90 ; use absolute coordinates
M83 ; extruder relative mode
M104 S215 ; set extruder temp
M140 S60 ; set bed temp
M190 S60 ; wait for bed temp
M109 S215 ; wait for extruder temp
G28 W ; home all without mesh bed level
G80 ; mesh bed leveling

; Send the filament type to the MMU2.0 unit.
; E stands for extruder number, F stands for filament type (0: default; 1:flex; 2: PVA)
M403 E0 F0
M403 E1 F0
M403 E2 F0
M403 E3 F0
M403 E4 F0


;go outside print area
G1 Y-3.0 F1000.0
G1 Z0.4 F1000.0
; select extruder
T0
; initial load
G1 X55.0 E29.0 F1073.0
M73 P0 R118
G1 X5.0 E29.0 F1800.0
G1 X55.0 E8.0 F2000.0
G1 Z0.3 F1000.0
G92 E0.0
G1 X240.0 E25.0 F2200.0
G1 Y-2.0 F1000.0
G1 X55.0 E25 F1400.0
G1 Z0.20 F1000.0
G1 X5.0 E4.0 F1000.0
G92 E0.0

G92 E0.0
G21 ; set units to millimeters
G90 ; use absolute coordinates
M83 ; use relative distances for extrusion
T0
M900 K0.05 ; Filament gcode LA 1.5
M900 K30 ; Filament gcode LA 1.0
G1 Z0.200 F10800.000
;BEFORE_LAYER_CHANGE
G92 E0.0
;0.2


G1 E-0.80000 F2100.00000
G1 Z0.800 F10800.000
G1 Z0.200
;AFTER_LAYER_CHANGE
;0.2
G1 E-2.20000 F2100.00000
G1 Z0.800 F10800.000
G1 X156.652 Y59.913
G1 Z0.200
G1 E3.00000 F2100.00000
;-------------------------------------
; CP WIPE TOWER FIRST LAYER BRIM START
G1  X156.652 Y73.973  E0.8016 F2400
G1  X154.109 Y74.430   F7000
G1  Y59.456  E0.6260 F2100
G1  X93.195  E2.5466
G1  Y74.430  E0.6260
G1  X154.109  E2.5466
G1  X154.566 Y74.887   F7000
G1  Y58.999  E0.6642 F2100
G1  X92.738  E2.5849
G1  Y74.887  E0.6642
G1  X154.566  E2.5849
G1  X155.023 Y75.344   F7000
G1  Y58.542  E0.7025 F2100
G1  X92.281  E2.6231
G1  Y75.344  E0.7025
G1  X155.023  E2.6231
G1  X155.480 Y75.801   F7000
G1  Y58.085  E0.7407 F2100
G1  X91.824  E2.6613
G1  Y75.801  E0.7407
G1  X155.480  E2.6613
G1  X153.652 Y73.973   F7000
G1  X93.652 
G1  X153.652 
; CP WIPE TOWER FIRST LAYER BRIM END
;-----------------------------------
G1  X153.152 Y60.413   F7200
;--------------------
; CP EMPTY GRID START
; layer #1
G1  X153.652 
G1  Y59.913 
G1  Y73.973  E0.5344 F1450
G1  X93.652  E2.2804
G1  Y59.913  E0.5344
G1  X153.652  E2.2804
G1  X153.152 
G1  Y60.413 
G1  Y73.473  E0.4964
G1  X94.152  E2.2424
G1  Y60.413  E0.4964
G1  X153.152  E2.2424
G1  Y73.473 
G1  X152.652 Y72.950   E0.0275
G1  X94.652  E2.2044
G1  Y72.426  E0.0199
G1  X152.652  E2.2044
G1  Y71.903  E0.0199
G1  X94.652  E2.2044
M73 P1 R117
G1  Y71.380  E0.0199
G1  X152.652  E2.2044
G1  Y70.856  E0.0199
G1  X94.652  E2.2044
G1  Y70.333  E0.0199
G1  X152.652  E2.2044
G1  Y69.810  E0.0199
G1  X94.652  E2.2044
G1  Y69.286  E0.0199
G1  X152.652  E2.2044
G1  Y68.763  E0.0199
G1  X94.652  E2.2044
G1  Y68.240  E0.0199
G1  X152.652  E2.2044
G1  Y67.716  E0.0199
G1  X94.652  E2.2044
G1  Y67.193  E0.0199
G1  X152.652  E2.2044
G1  Y66.670  E0.0199
G1  X94.652  E2.2044
G1  Y66.146  E0.0199
G1  X152.652  E2.2044
G1  Y65.623  E0.0199
G1  X94.652  E2.2044
G1  Y65.100  E0.0199
G1  X152.652  E2.2044
G1  Y64.576  E0.0199
G1  X94.652  E2.2044
G1  Y64.053  E0.0199
G1  X152.652  E2.2044
G1  Y63.530  E0.0199
G1  X94.652  E2.2044
G1  Y63.006  E0.0199
G1  X152.652  E2.2044
G1  Y62.483  E0.0199
G1  X94.652  E2.2044
G1  Y61.960  E0.0199
G1  X152.652  E2.2044
G1  Y61.436  E0.0199
G1  X94.652  E2.2044
G1  Y60.913  E0.0199
G1  X152.652  E2.2044
G1  X94.652 
; CP EMPTY GRID END
;------------------







G1 F8640.000
G1 X91.361 Y60.913 E-0.76000
G1 E-0.04000 F2100.00000
G1 Z0.800 F10800.000
G1 X57.807 Y83.170
G1 Z0.200
G1 E0.80000 F2100.00000
M204 S1000
G1 F1200.000
G1 X58.330 Y82.396 E0.02931
G1 X90.086 Y56.020 E1.29433
G1 X90.501 Y55.746 E0.01562
G1 X90.961 Y55.565 E0.01550
G1 X91.590 Y55.479 E0.01989
G1 X155.713 Y55.479 E2.01053
G1 X156.472 Y55.605 E0.02414
G1 X157.149 Y55.965 E0.02402
G1 X191.459 Y82.210 E1.35444
M73 P1 R115
G1 X191.917 Y82.681 E0.02060
G1 X192.227 Y83.256 E0.02048
G1 X192.377 Y84.080 E0.02626
G1 X192.377 Y150.106 E2.07019
G1 X192.189 Y151.014 E0.02907
G1 X191.670 Y151.778 E0.02896
G1 X190.910 Y152.283 E0.02860
G1 X190.012 Y152.464 E0.02872
G1 X60.000 Y152.464 E4.07645
G1 X59.084 Y152.280 E0.02931
G1 X58.309 Y151.757 E0.02931
G1 X57.806 Y151.001 E0.02849
G1 X57.623 Y150.111 E0.02849
G1 X57.623 Y84.087 E2.07013
G1 X57.795 Y83.229 E0.02743
G1 F8640.000
G1 X58.330 Y82.396 E-0.22867
G1 X60.100 Y80.925 E-0.53133
G1 E-0.04000 F2100.00000
G1 Z0.800 F10800.000
G1 X176.000 Y110.292
G1 Z0.200
G1 E0.80000 F2100.00000
G1 F1200.000
G1 X174.471 Y110.141 E0.04819
G1 X173.000 Y109.695 E0.04819
G1 X171.644 Y108.970 E0.04819
G1 X170.456 Y107.995 E0.04819
G1 X169.481 Y106.807 E0.04819
G1 X168.757 Y105.452 E0.04819
G1 X168.311 Y103.981 E0.04819
G1 X168.160 Y102.452 E0.04819
G1 X168.311 Y100.922 E0.04819
G1 X168.757 Y99.452 E0.04819
G1 X169.481 Y98.096 E0.04819
G1 X170.456 Y96.908 E0.04819
G1 X171.644 Y95.933 E0.04819
G1 X173.000 Y95.209 E0.04819
G1 X174.470 Y94.762 E0.04819
G1 X176.000 Y94.612 E0.04819
G1 X177.529 Y94.762 E0.04819
G1 X179.000 Y95.209 E0.04819
G1 X180.356 Y95.933 E0.04819
G1 X181.544 Y96.908 E0.04819
G1 X182.519 Y98.096 E0.04819
G1 X183.243 Y99.452 E0.04819
G1 X183.689 Y100.922 E0.04819
G1 X183.840 Y102.452 E0.04819
G1 X183.689 Y103.981 E0.04819
G1 X183.243 Y105.452 E0.04819
G1 X182.520 Y106.805 E0.04809
G1 X181.544 Y107.995 E0.04828
G1 X180.356 Y108.970 E0.04819
G1 X179.000 Y109.695 E0.04819
G1 X177.529 Y110.141 E0.04819
G1 X176.060 Y110.286 E0.04631
G1 X176.000 Y109.913 F10800.000
G1 F1200.000
G1 X174.544 Y109.769 E0.04586
G1 X173.145 Y109.345 E0.04586
G1 X171.855 Y108.655 E0.04586
G1 X170.724 Y107.727 E0.04586
G1 X169.796 Y106.597 E0.04586
G1 X169.107 Y105.307 E0.04586
G1 X168.682 Y103.907 E0.04586
G1 X168.539 Y102.452 E0.04586
G1 X168.682 Y100.996 E0.04586
G1 X169.107 Y99.597 E0.04586
G1 X169.796 Y98.307 E0.04586
G1 X170.724 Y97.176 E0.04586
G1 X171.855 Y96.248 E0.04586
G1 X173.145 Y95.559 E0.04586
G1 X174.544 Y95.134 E0.04586
G1 X176.000 Y94.991 E0.04586
G1 X177.456 Y95.134 E0.04586
G1 X178.855 Y95.559 E0.04586
G1 X180.145 Y96.248 E0.04586
G1 X181.276 Y97.176 E0.04586
G1 X182.204 Y98.307 E0.04586
G1 X182.893 Y99.597 E0.04586
G1 X183.318 Y100.996 E0.04586
G1 X183.461 Y102.452 E0.04586
G1 X183.318 Y103.907 E0.04586
G1 X182.893 Y105.307 E0.04586
G1 X182.205 Y106.594 E0.04577
G1 X181.276 Y107.727 E0.04595
G1 X180.145 Y108.655 E0.04586
G1 X178.855 Y109.345 E0.04586
G1 X177.456 Y109.769 E0.04586
G1 X176.060 Y109.907 E0.04398
G1 X175.800 Y110.259 F10800.000
G1 F8640.000
G1 X174.544 Y109.769 E-0.35132
G1 X173.145 Y109.345 E-0.33772
G1 X172.874 Y109.200 E-0.07096
G1 E-0.04000 F2100.00000
G1 Z0.800 F10800.000
G1 X176.000 Y113.500
G1 Z0.200
G1 E0.80000 F2100.00000
G1 F1200.000
G1 X162.587 Y113.500 E0.42055
G1 X162.587 Y84.674 E0.90381
G1 X189.413 Y84.674 E0.84111
G1 X189.413 Y113.500 E0.90381
G1 X176.060 Y113.500 E0.41867
G1 X176.000 Y113.877 F10800.000
G1 F1200.000
G1 X162.210 Y113.877 E0.43238
G1 X162.210 Y84.297 E0.92746
G1 X189.790 Y84.297 E0.86475
G1 X189.790 Y113.877 E0.92746
G1 X176.060 Y113.877 E0.43050
G1 X175.686 Y113.629 F10800.000
G1 F8640.000
G1 X172.769 Y113.877 E-0.76000
G1 E-0.04000 F2100.00000
G1 Z0.800 F10800.000
G1 X169.811 Y107.387
G1 Z0.200
G1 E0.80000 F2100.00000
G1 F1200.000
G1 X162.870 Y100.446 E0.30973
G1 X162.870 Y99.910 E0.01693
G1 X168.483 Y105.522 E0.25046
G1 X168.249 Y104.752 E0.02540
G1 X162.870 Y99.373 E0.24003
G1 X162.870 Y98.836 E0.01693
G1 X168.028 Y103.994 E0.23016
G1 X167.969 Y103.399 E0.01887
G1 X162.870 Y98.300 E0.22754
G1 X162.870 Y97.763 E0.01693
G1 X167.911 Y102.804 E0.22493
G1 X167.876 Y102.452 E0.01116
G1 X167.896 Y102.252 E0.00633
G1 X162.870 Y97.226 E0.22426
G1 X162.870 Y96.690 E0.01693
G1 X167.944 Y101.763 E0.22641
G1 X167.992 Y101.275 E0.01549
G1 X162.870 Y96.153 E0.22855
G1 X162.870 Y95.616 E0.01693
G1 X168.053 Y100.799 E0.23126
G1 X168.177 Y100.387 E0.01358
G1 X162.870 Y95.080 E0.23684
G1 X162.870 Y94.543 E0.01693
G1 X168.302 Y99.976 E0.24241
G1 X168.427 Y99.564 E0.01358
G1 X162.870 Y94.006 E0.24798
G1 X162.870 Y93.470 E0.01693
G1 X168.581 Y99.181 E0.25484
G1 X168.768 Y98.831 E0.01251
G1 X162.870 Y92.933 E0.26318
G1 X162.870 Y92.396 E0.01693
G1 X168.955 Y98.481 E0.27152
G1 X169.142 Y98.132 E0.01251
G1 X162.870 Y91.860 E0.27986
G1 X162.870 Y91.323 E0.01693
G1 X169.353 Y97.807 E0.28930
G1 X169.595 Y97.512 E0.01203
G1 X162.870 Y90.787 E0.30009
G1 X162.870 Y90.250 E0.01693
G1 X169.837 Y97.217 E0.31089
G1 X170.079 Y96.922 E0.01203
G1 X162.870 Y89.713 E0.32168
G1 X162.870 Y89.177 E0.01693
G1 X170.335 Y96.642 E0.33311
G1 X170.630 Y96.400 E0.01203
G1 X162.870 Y88.640 E0.34627
G1 X162.870 Y88.103 E0.01693
G1 X170.925 Y96.158 E0.35942
G1 X171.219 Y95.916 E0.01203
G1 X162.870 Y87.567 E0.37257
G1 X162.870 Y87.030 E0.01693
G1 X171.519 Y95.679 E0.38595
G1 X171.869 Y95.492 E0.01251
G1 X162.870 Y86.493 E0.40156
G1 X162.870 Y85.957 E0.01693
G1 X172.219 Y95.305 E0.41716
G1 X172.568 Y95.119 E0.01251
G1 X162.870 Y85.420 E0.43277
G1 X162.870 Y84.957 E0.01462
G1 X162.943 Y84.957 E0.00231
G1 X172.923 Y94.936 E0.44532
G1 X173.335 Y94.812 E0.01358
G1 X163.480 Y84.957 E0.43974
G1 X164.016 Y84.957 E0.01693
G1 X173.746 Y94.687 E0.43417
G1 X174.158 Y94.562 E0.01358
G1 X164.553 Y84.957 E0.42860
G1 X165.090 Y84.957 E0.01693
G1 X174.599 Y94.466 E0.42431
G1 X175.087 Y94.418 E0.01549
G1 X165.626 Y84.957 E0.42216
G1 X166.163 Y84.957 E0.01693
G1 X175.576 Y94.369 E0.42002
G1 X176.000 Y94.328 E0.01345
G1 X176.078 Y94.335 E0.00248
G1 X166.700 Y84.957 E0.41850
G1 X167.236 Y84.957 E0.01693
G1 X176.674 Y94.394 E0.42111
G1 X177.269 Y94.453 E0.01887
G1 X167.773 Y84.957 E0.42373
G1 X168.310 Y84.957 E0.01693
G1 X177.946 Y94.593 E0.43001
G1 X178.717 Y94.827 E0.02540
G1 X168.846 Y84.957 E0.44044
G1 X169.383 Y84.957 E0.01693
G1 X180.088 Y95.662 E0.47768
G1 F8640.000
G1 X177.760 Y93.334 E-0.76000
G1 E-0.04000 F2100.00000
G1 Z0.800 F10800.000
G1 X189.300 Y85.554
G1 Z0.200
G1 E0.80000 F2100.00000
G1 F1200.000
G1 X188.702 Y84.957 E0.02667
G1 X188.166 Y84.957 E0.01693
G1 X189.130 Y85.921 E0.04304
G1 X189.130 Y86.458 E0.01693
G1 X187.629 Y84.957 E0.06699
G1 X187.092 Y84.957 E0.01693
G1 X189.130 Y86.995 E0.09094
G1 X189.130 Y87.531 E0.01693
G1 X186.556 Y84.957 E0.11488
G1 X186.019 Y84.957 E0.01693
G1 X189.130 Y88.068 E0.13883
G1 X189.130 Y88.605 E0.01693
G1 X185.482 Y84.957 E0.16277
G1 X184.946 Y84.957 E0.01693
G1 X189.130 Y89.141 E0.18672
G1 X189.130 Y89.678 E0.01693
G1 X184.409 Y84.957 E0.21067
G1 X183.872 Y84.957 E0.01693
G1 X189.130 Y90.215 E0.23461
G1 X189.130 Y90.751 E0.01693
G1 X183.336 Y84.957 E0.25856
G1 X182.799 Y84.957 E0.01693
G1 X189.130 Y91.288 E0.28251
G1 X189.130 Y91.824 E0.01693
G1 X182.262 Y84.957 E0.30645
G1 X181.726 Y84.957 E0.01693
G1 X189.130 Y92.361 E0.33040
M73 P2 R114
G1 X189.130 Y92.898 E0.01693
G1 X181.189 Y84.957 E0.35435
G1 X180.652 Y84.957 E0.01693
G1 X189.130 Y93.434 E0.37829
G1 X189.130 Y93.971 E0.01693
G1 X180.116 Y84.957 E0.40224
G1 X179.579 Y84.957 E0.01693
G1 X189.130 Y94.508 E0.42619
G1 X189.130 Y95.044 E0.01693
G1 X179.043 Y84.957 E0.45013
G1 X178.506 Y84.957 E0.01693
G1 X189.130 Y95.581 E0.47408
G1 X189.130 Y96.118 E0.01693
G1 X177.969 Y84.957 E0.49802
G1 X177.433 Y84.957 E0.01693
G1 X189.130 Y96.654 E0.52197
G1 X189.130 Y97.191 E0.01693
G1 X176.896 Y84.957 E0.54592
G1 X176.359 Y84.957 E0.01693
G1 X189.130 Y97.728 E0.56986
G1 X189.130 Y98.264 E0.01693
G1 X175.823 Y84.957 E0.59381
G1 X175.286 Y84.957 E0.01693
G1 X189.130 Y98.801 E0.61776
G1 X189.130 Y99.337 E0.01693
G1 X174.749 Y84.957 E0.64170
G1 X174.213 Y84.957 E0.01693
G1 X189.130 Y99.874 E0.66565
G1 X189.130 Y100.411 E0.01693
G1 X173.676 Y84.957 E0.68960
G1 X173.139 Y84.957 E0.01693
G1 X189.130 Y100.947 E0.71354
G1 X189.130 Y101.484 E0.01693
G1 X172.603 Y84.957 E0.73749
G1 X172.066 Y84.957 E0.01693
G1 X189.130 Y102.021 E0.76143
G1 X189.130 Y102.557 E0.01693
G1 X171.529 Y84.957 E0.78538
G1 X170.993 Y84.957 E0.01693
G1 X189.130 Y103.094 E0.80933
G1 X189.130 Y103.631 E0.01693
G1 X170.456 Y84.957 E0.83327
G1 X169.920 Y84.957 E0.01693
G1 X189.130 Y104.167 E0.85722
G1 X189.130 Y104.704 E0.01693
G1 X183.203 Y98.777 E0.26447
G1 X183.506 Y99.343 E0.02024
G1 X183.625 Y99.735 E0.01294
G1 X189.130 Y105.241 E0.24566
G1 X189.130 Y105.777 E0.01693
G1 X183.858 Y100.505 E0.23524
G1 X183.968 Y100.867 E0.01191
G1 X183.999 Y101.183 E0.01002
G1 X189.130 Y106.314 E0.22896
G1 X189.130 Y106.851 E0.01693
G1 X184.058 Y101.778 E0.22634
G1 X184.116 Y102.373 E0.01887
G1 X189.130 Y107.387 E0.22373
G1 X189.130 Y107.924 E0.01693
G1 X184.082 Y102.876 E0.22525
G1 X184.034 Y103.365 E0.01549
G1 X189.130 Y108.460 E0.22739
G1 X189.130 Y108.997 E0.01693
G1 X183.986 Y103.853 E0.22954
G1 X183.968 Y104.037 E0.00582
G1 X183.890 Y104.294 E0.00847
G1 X189.130 Y109.534 E0.23383
G1 X189.130 Y110.070 E0.01693
G1 X183.765 Y104.705 E0.23940
G1 X183.640 Y105.117 E0.01358
G1 X189.130 Y110.607 E0.24497
G1 X189.130 Y111.144 E0.01693
G1 X183.515 Y105.529 E0.25055
G1 X183.333 Y105.883 E0.01258
G1 X189.130 Y111.680 E0.25867
G1 X189.130 Y112.217 E0.01693
G1 X183.146 Y106.233 E0.26701
G1 X182.959 Y106.583 E0.01251
G1 X189.130 Y112.754 E0.27536
G1 X189.130 Y113.217 E0.01462
G1 X189.057 Y113.217 E0.00231
G1 X182.772 Y106.933 E0.28043
G1 X182.535 Y107.232 E0.01205
G1 X188.520 Y113.217 E0.26706
G1 X187.984 Y113.217 E0.01693
G1 X182.294 Y107.527 E0.25390
G1 X182.052 Y107.822 E0.01203
G1 X187.447 Y113.217 E0.24074
G1 X186.910 Y113.217 E0.01693
G1 X181.810 Y108.117 E0.22759
G1 X181.745 Y108.196 E0.00325
G1 X181.529 Y108.373 E0.00879
G1 X186.374 Y113.217 E0.21616
G1 X185.837 Y113.217 E0.01693
G1 X181.235 Y108.615 E0.20536
G1 X180.940 Y108.857 E0.01203
G1 X185.300 Y113.217 E0.19457
G1 X184.764 Y113.217 E0.01693
G1 X180.645 Y109.099 E0.18377
G1 X180.513 Y109.207 E0.00538
G1 X180.320 Y109.310 E0.00692
G1 X184.227 Y113.217 E0.17434
G1 X183.690 Y113.217 E0.01693
G1 X179.970 Y109.497 E0.16600
G1 X179.621 Y109.684 E0.01251
G1 X183.154 Y113.217 E0.15765
G1 X182.617 Y113.217 E0.01693
G1 X179.271 Y109.871 E0.14931
G1 X179.109 Y109.957 E0.00579
G1 X178.888 Y110.024 E0.00729
G1 X182.080 Y113.217 E0.14246
G1 X181.544 Y113.217 E0.01693
G1 X178.476 Y110.149 E0.13688
G1 X178.064 Y110.274 E0.01358
G1 X181.007 Y113.217 E0.13131
G1 X180.470 Y113.217 E0.01693
G1 X177.653 Y110.399 E0.12574
G1 X177.177 Y110.460 E0.01514
G1 X179.934 Y113.217 E0.12303
G1 X179.397 Y113.217 E0.01693
G1 X176.688 Y110.508 E0.12088
G1 X176.200 Y110.556 E0.01549
G1 X178.861 Y113.217 E0.11873
G1 X178.324 Y113.217 E0.01693
G1 X175.648 Y110.541 E0.11940
G1 X175.053 Y110.483 E0.01887
G1 X177.787 Y113.217 E0.12202
G1 X177.251 Y113.217 E0.01693
G1 X174.457 Y110.424 E0.12463
G1 X173.700 Y110.203 E0.02491
G1 X176.714 Y113.217 E0.13451
G1 X176.177 Y113.217 E0.01693
G1 X172.929 Y109.969 E0.14493
G1 X171.795 Y109.372 E0.04043
G1 X175.641 Y113.217 E0.17158
G1 X175.104 Y113.217 E0.01693
G1 X162.870 Y100.983 E0.54592
G1 X162.870 Y101.519 E0.01693
G1 X174.567 Y113.217 E0.52197
G1 X174.031 Y113.217 E0.01693
G1 X162.870 Y102.056 E0.49802
G1 X162.870 Y102.593 E0.01693
G1 X173.494 Y113.217 E0.47408
G1 X172.957 Y113.217 E0.01693
G1 X162.870 Y103.129 E0.45013
G1 X162.870 Y103.666 E0.01693
G1 X172.421 Y113.217 E0.42618
G1 X171.884 Y113.217 E0.01693
