; generated by PrusaSlicer 2.2.0+win64 on 2020-10-15 at 20:38:27 UTC

; 

; external perimeters extrusion width = 0.45mm
; perimeters extrusion width = 0.45mm
; infill extrusion width = 0.45mm
; solid infill extrusion width = 0.45mm
; top infill extrusion width = 0.40mm
; first layer extrusion width = 0.42mm

; external perimeters extrusion width = 0.45mm
; perimeters extrusion width = 0.45mm
; infill extrusion width = 0.45mm
; solid infill extrusion width = 0.45mm
; top infill extrusion width = 0.40mm
; first layer extrusion width = 0.42mm

M73 P0 R62
M201 X9000 Y9000 Z500 E10000 ; sets maximum accelerations, mm/sec^2
M203 X500 Y500 Z12 E120 ; sets maximum feedrates, mm/sec
M204 P2000 R1500 T2000 ; sets acceleration (P, T) and retract acceleration (R), mm/sec^2
M205 X10.00 Y10.00 Z0.20 E4.50 ; sets the jerk limits, mm/sec
M205 S0 T0 ; sets the minimum extruding and travel feed rate, mm/sec
M107
M862.3 P "MK2.5SMMU2S" ; printer model check
M862.1 P0.4 ; nozzle diameter check
M115 U3.9.0 ; tell printer latest fw version
G90 ; use absolute coordinates
M83 ; extruder relative mode
M104 S215 ; set extruder temp
M140 S60 ; set bed temp
M190 S60 ; wait for bed temp
M109 S215 ; wait for extruder temp
G28 W ; home all without mesh bed level
G80 ; mesh bed leveling

; Send the filament type to the MMU2.0 unit.
; E stands for extruder number, F stands for filament type (0: default; 1:flex; 2: PVA)
M403 E0 F0
M403 E1 F0
M403 E2 F0
M403 E3 F0
M403 E4 F0


;go outside print area
G1 Y-3.0 F1000.0
G1 Z0.4 F1000.0
; select extruder
T0
; initial load
G1 X55.0 E29.0 F1073.0
M73 P0 R62
G1 X5.0 E29.0 F1800.0
G1 X55.0 E8.0 F2000.0
G1 Z0.3 F1000.0
G92 E0.0
G1 X240.0 E25.0 F2200.0
G1 Y-2.0 F1000.0
G1 X55.0 E25 F1400.0
G1 Z0.20 F1000.0
G1 X5.0 E4.0 F1000.0
G92 E0.0

G92 E0.0
G21 ; set units to millimeters
G90 ; use absolute coordinates
M83 ; use relative distances for extrusion
T0
M900 K0.05 ; Filament gcode LA 1.5
M900 K30 ; Filament gcode LA 1.0
G1 Z0.200 F10800.000
;BEFORE_LAYER_CHANGE
G92 E0.0
;0.2


G1 E-0.80000 F2100.00000
G1 Z0.800 F10800.000
G1 Z0.200
;AFTER_LAYER_CHANGE
;0.2
G1 E-2.20000 F2100.00000
G1 Z0.800 F10800.000
G1 X138.943 Y83.826
G1 Z0.200
G1 E3.00000 F2100.00000
;-------------------------------------
; CP WIPE TOWER FIRST LAYER BRIM START
G1  X138.943 Y97.886  E0.8016 F2400
G1  X136.400 Y98.343   F7000
G1  Y83.369  E0.6260 F2100
G1  X75.486  E2.5466
G1  Y98.343  E0.6260
G1  X136.400  E2.5466
G1  X136.857 Y98.800   F7000
G1  Y82.912  E0.6642 F2100
G1  X75.029  E2.5849
G1  Y98.800  E0.6642
G1  X136.857  E2.5849
G1  X137.314 Y99.257   F7000
G1  Y82.455  E0.7025 F2100
G1  X74.572  E2.6231
G1  Y99.257  E0.7025
G1  X137.314  E2.6231
G1  X137.771 Y99.714   F7000
G1  Y81.998  E0.7407 F2100
G1  X74.115  E2.6613
G1  Y99.714  E0.7407
G1  X137.771  E2.6613
G1  X135.943 Y97.886   F7000
G1  X75.943 
G1  X135.943 
; CP WIPE TOWER FIRST LAYER BRIM END
;-----------------------------------
G1  X135.443 Y84.326   F7200
;--------------------
; CP EMPTY GRID START
; layer #1
G1  X135.943 
G1  Y83.826 
G1  Y97.886  E0.5344 F1450
G1  X75.943  E2.2804
G1  Y83.826  E0.5344
G1  X135.943  E2.2804
G1  X135.443 
G1  Y84.326 
G1  Y97.386  E0.4964
G1  X76.443  E2.2424
G1  Y84.326  E0.4964
G1  X135.443  E2.2424
G1  Y97.386 
G1  X134.943 Y96.863   E0.0275
G1  X76.943  E2.2044
G1  Y96.339  E0.0199
G1  X134.943  E2.2044
G1  Y95.816  E0.0199
G1  X76.943  E2.2044
M73 P2 R61
G1  Y95.293  E0.0199
G1  X134.943  E2.2044
G1  Y94.769  E0.0199
G1  X76.943  E2.2044
G1  Y94.246  E0.0199
G1  X134.943  E2.2044
G1  Y93.723  E0.0199
G1  X76.943  E2.2044
G1  Y93.199  E0.0199
G1  X134.943  E2.2044
G1  Y92.676  E0.0199
G1  X76.943  E2.2044
G1  Y92.153  E0.0199
G1  X134.943  E2.2044
G1  Y91.629  E0.0199
G1  X76.943  E2.2044
G1  Y91.106  E0.0199
G1  X134.943  E2.2044
G1  Y90.583  E0.0199
G1  X76.943  E2.2044
G1  Y90.059  E0.0199
G1  X134.943  E2.2044
G1  Y89.536  E0.0199
G1  X76.943  E2.2044
G1  Y89.013  E0.0199
G1  X134.943  E2.2044
G1  Y88.489  E0.0199
G1  X76.943  E2.2044
G1  Y87.966  E0.0199
G1  X134.943  E2.2044
G1  Y87.443  E0.0199
G1  X76.943  E2.2044
G1  Y86.919  E0.0199
G1  X134.943  E2.2044
G1  Y86.396  E0.0199
G1  X76.943  E2.2044
G1  Y85.873  E0.0199
G1  X134.943  E2.2044
G1  Y85.349  E0.0199
G1  X76.943  E2.2044
G1  Y84.826  E0.0199
G1  X134.943  E2.2044
G1  X76.943 
; CP EMPTY GRID END
;------------------







G1 F8640.000
G1 X73.652 Y84.826 E-0.76000
G1 E-0.04000 F2100.00000
G1 Z0.800 F10800.000
G1 X174.927 Y69.788
G1 Z0.200
G1 E0.80000 F2100.00000
M204 S1000
G1 F1200.000
G1 X175.677 Y70.261 E0.02778
G1 X176.200 Y70.971 E0.02767
G1 X176.428 Y71.828 E0.02778
G1 X176.434 Y102.015 E0.94651
G1 X174.662 Y138.173 E1.13508
G1 X174.565 Y138.693 E0.01657
G1 X174.358 Y139.175 E0.01645
G1 X174.050 Y139.599 E0.01645
G1 X173.653 Y139.948 E0.01657
G1 X173.010 Y140.266 E0.02249
G1 X172.301 Y140.377 E0.02249
G1 X76.276 Y140.377 E3.01081
M73 P3 R60
G1 X75.714 Y140.306 E0.01775
G1 X75.189 Y140.106 E0.01763
G1 X74.722 Y139.785 E0.01775
G1 X74.344 Y139.364 E0.01775
G1 X74.051 Y138.797 E0.02000
G1 X73.920 Y138.172 E0.02000
G1 X71.510 Y100.017 E1.19872
G1 X71.512 Y81.651 E0.57584
G1 X71.600 Y81.119 E0.01692
G1 X71.806 Y80.620 E0.01692
G1 X72.119 Y80.180 E0.01692
G1 X72.523 Y79.822 E0.01692
G1 X73.018 Y79.556 E0.01763
G1 X73.559 Y79.415 E0.01752
G1 X145.817 Y69.635 E2.28628
G1 X174.061 Y69.623 E0.88555
G1 X174.868 Y69.777 E0.02578
G1 F8640.000
G1 X175.677 Y70.261 E-0.21756
G1 X176.200 Y70.971 E-0.20374
G1 X176.428 Y71.828 E-0.20460
G1 X176.428 Y72.408 E-0.13410
G1 E-0.04000 F2100.00000
G1 Z0.800 F10800.000
G1 X160.057 Y98.205
G1 Z0.200
G1 E0.80000 F2100.00000
G1 F1200.000
G1 X158.527 Y98.054 E0.04819
G1 X157.057 Y97.608 E0.04819
G1 X155.701 Y96.884 E0.04819
G1 X154.513 Y95.909 E0.04819
G1 X153.538 Y94.720 E0.04819
G1 X152.814 Y93.365 E0.04819
G1 X152.368 Y91.894 E0.04819
G1 X152.217 Y90.365 E0.04819
G1 X152.368 Y88.835 E0.04819
G1 X152.814 Y87.365 E0.04819
G1 X153.538 Y86.009 E0.04819
G1 X154.513 Y84.821 E0.04819
G1 X155.701 Y83.846 E0.04819
G1 X157.057 Y83.122 E0.04819
G1 X158.527 Y82.676 E0.04819
G1 X160.057 Y82.525 E0.04819
G1 X161.586 Y82.676 E0.04819
G1 X163.057 Y83.122 E0.04819
G1 X164.412 Y83.846 E0.04819
G1 X165.601 Y84.821 E0.04819
G1 X166.576 Y86.009 E0.04819
G1 X167.300 Y87.365 E0.04819
G1 X167.746 Y88.835 E0.04819
G1 X167.897 Y90.365 E0.04819
G1 X167.746 Y91.894 E0.04819
G1 X167.300 Y93.365 E0.04819
G1 X166.577 Y94.718 E0.04809
G1 X165.601 Y95.908 E0.04828
G1 X164.412 Y96.884 E0.04819
G1 X163.057 Y97.608 E0.04819
G1 X161.586 Y98.054 E0.04819
G1 X160.117 Y98.199 E0.04631
G1 X160.057 Y97.826 F10800.000
G1 F1200.000
G1 X158.601 Y97.683 E0.04586
G1 X157.202 Y97.258 E0.04586
G1 X155.912 Y96.568 E0.04586
G1 X154.781 Y95.641 E0.04586
G1 X153.853 Y94.510 E0.04586
G1 X153.164 Y93.220 E0.04586
G1 X152.739 Y91.820 E0.04586
G1 X152.596 Y90.365 E0.04586
G1 X152.739 Y88.909 E0.04586
G1 X153.164 Y87.510 E0.04586
G1 X153.853 Y86.220 E0.04586
G1 X154.781 Y85.089 E0.04586
G1 X155.912 Y84.161 E0.04586
G1 X157.202 Y83.472 E0.04586
G1 X158.601 Y83.047 E0.04586
G1 X160.057 Y82.904 E0.04586
G1 X161.512 Y83.047 E0.04586
G1 X162.912 Y83.472 E0.04586
G1 X164.202 Y84.161 E0.04586
G1 X165.333 Y85.089 E0.04586
G1 X166.260 Y86.220 E0.04586
G1 X166.950 Y87.510 E0.04586
G1 X167.374 Y88.909 E0.04586
G1 X167.518 Y90.365 E0.04586
G1 X167.374 Y91.820 E0.04586
G1 X166.950 Y93.220 E0.04586
G1 X166.262 Y94.507 E0.04577
G1 X165.333 Y95.641 E0.04595
G1 X164.202 Y96.568 E0.04586
G1 X162.912 Y97.258 E0.04586
G1 X161.512 Y97.683 E0.04586
G1 X160.117 Y97.820 E0.04398
G1 X159.857 Y98.172 F10800.000
G1 F8640.000
G1 X158.601 Y97.683 E-0.35132
G1 X157.202 Y97.258 E-0.33772
G1 X156.931 Y97.113 E-0.07096
G1 E-0.04000 F2100.00000
G1 Z0.800 F10800.000
G1 X160.057 Y101.413
G1 Z0.200
G1 E0.80000 F2100.00000
G1 F1200.000
G1 X146.644 Y101.413 E0.42055
G1 X146.644 Y72.587 E0.90381
G1 X173.470 Y72.587 E0.84111
G1 X173.470 Y101.413 E0.90381
G1 X160.117 Y101.413 E0.41867
G1 X160.057 Y101.790 F10800.000
G1 F1200.000
G1 X146.267 Y101.790 E0.43238
G1 X146.267 Y72.210 E0.92746
G1 X173.847 Y72.210 E0.86475
G1 X173.847 Y101.790 E0.92746
G1 X160.117 Y101.790 E0.43050
G1 X159.743 Y101.542 F10800.000
G1 F8640.000
G1 X156.825 Y101.790 E-0.76000
G1 E-0.04000 F2100.00000
G1 Z0.800 F10800.000
G1 X153.868 Y95.300
G1 Z0.200
G1 E0.80000 F2100.00000
G1 F1200.000
G1 X146.927 Y88.359 E0.30973
G1 X146.927 Y87.823 E0.01693
G1 X152.540 Y93.436 E0.25046
G1 X152.306 Y92.665 E0.02540
G1 X146.927 Y87.286 E0.24003
G1 X146.927 Y86.749 E0.01693
G1 X152.085 Y91.907 E0.23016
G1 X152.026 Y91.312 E0.01887
G1 X146.927 Y86.213 E0.22754
G1 X146.927 Y85.676 E0.01693
G1 X151.967 Y90.717 E0.22493
G1 X151.933 Y90.365 E0.01116
G1 X151.952 Y90.165 E0.00633
G1 X146.927 Y85.139 E0.22426
G1 X146.927 Y84.603 E0.01693
G1 X152.001 Y89.677 E0.22641
G1 X152.049 Y89.188 E0.01549
G1 X146.927 Y84.066 E0.22855
G1 X146.927 Y83.530 E0.01693
G1 X152.109 Y88.712 E0.23126
G1 X152.234 Y88.300 E0.01358
G1 X146.927 Y82.993 E0.23684
G1 X146.927 Y82.456 E0.01693
G1 X152.359 Y87.889 E0.24241
G1 X152.484 Y87.477 E0.01358
G1 X146.927 Y81.920 E0.24798
G1 X146.927 Y81.383 E0.01693
G1 X152.638 Y87.094 E0.25484
G1 X152.825 Y86.744 E0.01251
G1 X146.927 Y80.846 E0.26318
G1 X146.927 Y80.310 E0.01693
G1 X153.012 Y86.395 E0.27152
G1 X153.199 Y86.045 E0.01251
G1 X146.927 Y79.773 E0.27986
G1 X146.927 Y79.236 E0.01693
G1 X153.410 Y85.720 E0.28930
G1 X153.652 Y85.425 E0.01203
G1 X146.927 Y78.700 E0.30009
G1 X146.927 Y78.163 E0.01693
G1 X153.894 Y85.130 E0.31089
G1 X154.136 Y84.835 E0.01203
G1 X146.927 Y77.626 E0.32168
G1 X146.927 Y77.090 E0.01693
G1 X154.392 Y84.555 E0.33311
G1 X154.687 Y84.313 E0.01203
G1 X146.927 Y76.553 E0.34627
G1 X146.927 Y76.016 E0.01693
G1 X154.981 Y84.071 E0.35942
G1 X155.276 Y83.829 E0.01203
G1 X146.927 Y75.480 E0.37257
G1 X146.927 Y74.943 E0.01693
G1 X155.576 Y83.592 E0.38595
G1 X155.926 Y83.406 E0.01251
G1 X146.927 Y74.407 E0.40156
G1 X146.927 Y73.870 E0.01693
G1 X156.275 Y83.219 E0.41716
G1 X156.625 Y83.032 E0.01251
G1 X146.927 Y73.333 E0.43277
G1 X146.927 Y72.870 E0.01462
G1 X147.000 Y72.870 E0.00231
G1 X156.980 Y82.850 E0.44532
G1 X157.391 Y82.725 E0.01358
G1 X147.537 Y72.870 E0.43974
G1 X148.073 Y72.870 E0.01693
G1 X157.803 Y82.600 E0.43417
G1 X158.215 Y82.475 E0.01358
G1 X148.610 Y72.870 E0.42860
G1 X149.147 Y72.870 E0.01693
G1 X158.656 Y82.379 E0.42431
G1 X159.144 Y82.331 E0.01549
G1 X149.683 Y72.870 E0.42216
G1 X150.220 Y72.870 E0.01693
G1 X159.633 Y82.283 E0.42002
G1 X160.057 Y82.241 E0.01345
G1 X160.135 Y82.249 E0.00248
G1 X150.757 Y72.870 E0.41850
G1 X151.293 Y72.870 E0.01693
G1 X160.730 Y82.307 E0.42111
G1 X161.326 Y82.366 E0.01887
G1 X151.830 Y72.870 E0.42373
G1 X152.366 Y72.870 E0.01693
G1 X162.003 Y82.506 E0.43001
G1 X162.773 Y82.740 E0.02540
G1 X152.903 Y72.870 E0.44044
G1 X153.440 Y72.870 E0.01693
G1 X164.145 Y83.575 E0.47768
G1 F8640.000
G1 X161.817 Y81.247 E-0.76000
G1 E-0.04000 F2100.00000
G1 Z0.800 F10800.000
G1 X173.357 Y73.468
G1 Z0.200
G1 E0.80000 F2100.00000
G1 F1200.000
G1 X172.759 Y72.870 E0.02667
G1 X172.222 Y72.870 E0.01693
G1 X173.187 Y73.834 E0.04304
G1 X173.187 Y74.371 E0.01693
G1 X171.686 Y72.870 E0.06699
G1 X171.149 Y72.870 E0.01693
G1 X173.187 Y74.908 E0.09094
G1 X173.187 Y75.444 E0.01693
G1 X170.612 Y72.870 E0.11488
G1 X170.076 Y72.870 E0.01693
G1 X173.187 Y75.981 E0.13883
G1 X173.187 Y76.518 E0.01693
G1 X169.539 Y72.870 E0.16277
G1 X169.002 Y72.870 E0.01693
G1 X173.187 Y77.054 E0.18672
G1 X173.187 Y77.591 E0.01693
G1 X168.466 Y72.870 E0.21067
G1 X167.929 Y72.870 E0.01693
G1 X173.187 Y78.128 E0.23461
G1 X173.187 Y78.664 E0.01693
G1 X167.393 Y72.870 E0.25856
G1 X166.856 Y72.870 E0.01693
G1 X173.187 Y79.201 E0.28251
G1 X173.187 Y79.738 E0.01693
G1 X166.319 Y72.870 E0.30645
G1 X165.783 Y72.870 E0.01693
G1 X173.187 Y80.274 E0.33040
G1 X173.187 Y80.811 E0.01693
G1 X165.246 Y72.870 E0.35435
G1 X164.709 Y72.870 E0.01693
G1 X173.187 Y81.348 E0.37829
G1 X173.187 Y81.884 E0.01693
G1 X164.173 Y72.870 E0.40224
G1 X163.636 Y72.870 E0.01693
G1 X173.187 Y82.421 E0.42619
G1 X173.187 Y82.957 E0.01693
G1 X163.099 Y72.870 E0.45013
G1 X162.563 Y72.870 E0.01693
G1 X173.187 Y83.494 E0.47408
G1 X173.187 Y84.031 E0.01693
G1 X162.026 Y72.870 E0.49802
G1 X161.489 Y72.870 E0.01693
G1 X173.187 Y84.567 E0.52197
M73 P5 R59
G1 X173.187 Y85.104 E0.01693
G1 X160.953 Y72.870 E0.54592
G1 X160.416 Y72.870 E0.01693
G1 X173.187 Y85.641 E0.56986
G1 X173.187 Y86.177 E0.01693
G1 X159.880 Y72.870 E0.59381
G1 X159.343 Y72.870 E0.01693
G1 X173.187 Y86.714 E0.61776
G1 X173.187 Y87.251 E0.01693
G1 X158.806 Y72.870 E0.64170
G1 X158.270 Y72.870 E0.01693
G1 X173.187 Y87.787 E0.66565
G1 X173.187 Y88.324 E0.01693
G1 X157.733 Y72.870 E0.68960
G1 X157.196 Y72.870 E0.01693
G1 X173.187 Y88.861 E0.71354
G1 X173.187 Y89.397 E0.01693
G1 X156.660 Y72.870 E0.73749
G1 X156.123 Y72.870 E0.01693
G1 X173.187 Y89.934 E0.76143
G1 X173.187 Y90.471 E0.01693
G1 X155.586 Y72.870 E0.78538
G1 X155.050 Y72.870 E0.01693
G1 X173.187 Y91.007 E0.80933
G1 X173.187 Y91.544 E0.01693
G1 X154.513 Y72.870 E0.83327
G1 X153.976 Y72.870 E0.01693
G1 X173.187 Y92.080 E0.85722
G1 X173.187 Y92.617 E0.01693
G1 X167.260 Y86.690 E0.26447
G1 X167.563 Y87.256 E0.02024
G1 X167.682 Y87.648 E0.01294
G1 X173.187 Y93.154 E0.24566
G1 X173.187 Y93.690 E0.01693
G1 X167.915 Y88.419 E0.23524
G1 X168.025 Y88.780 E0.01191
G1 X168.056 Y89.096 E0.01002
G1 X173.187 Y94.227 E0.22896
G1 X173.187 Y94.764 E0.01693
G1 X168.115 Y89.691 E0.22634
G1 X168.173 Y90.287 E0.01887
G1 X173.187 Y95.300 E0.22373
G1 X173.187 Y95.837 E0.01693
G1 X168.139 Y90.789 E0.22525
G1 X168.091 Y91.278 E0.01549
G1 X173.187 Y96.374 E0.22739
G1 X173.187 Y96.910 E0.01693
G1 X168.043 Y91.766 E0.22954
G1 X168.025 Y91.950 E0.00582
G1 X167.947 Y92.207 E0.00847
G1 X173.187 Y97.447 E0.23383
G1 X173.187 Y97.984 E0.01693
G1 X167.822 Y92.619 E0.23940
G1 X167.697 Y93.030 E0.01358
G1 X173.187 Y98.520 E0.24497
G1 X173.187 Y99.057 E0.01693
G1 X167.572 Y93.442 E0.25055
G1 X167.390 Y93.797 E0.01258
G1 X173.187 Y99.593 E0.25867
G1 X173.187 Y100.130 E0.01693
G1 X167.203 Y94.146 E0.26701
G1 X167.016 Y94.496 E0.01251
G1 X173.187 Y100.667 E0.27536
G1 X173.187 Y101.130 E0.01462
G1 X173.114 Y101.130 E0.00231
G1 X166.829 Y94.846 E0.28043
G1 X166.592 Y95.145 E0.01205
G1 X172.577 Y101.130 E0.26706
G1 X172.040 Y101.130 E0.01693
G1 X166.350 Y95.440 E0.25390
G1 X166.109 Y95.735 E0.01203
G1 X171.504 Y101.130 E0.24074
G1 X170.967 Y101.130 E0.01693
G1 X165.867 Y96.030 E0.22759
G1 X165.802 Y96.109 E0.00325
G1 X165.586 Y96.286 E0.00879
G1 X170.430 Y101.130 E0.21616
G1 X169.894 Y101.130 E0.01693
G1 X165.292 Y96.528 E0.20536
G1 X164.997 Y96.770 E0.01203
G1 X169.357 Y101.130 E0.19457
G1 X168.821 Y101.130 E0.01693
G1 X164.702 Y97.012 E0.18377
G1 X164.570 Y97.120 E0.00538
G1 X164.377 Y97.223 E0.00692
G1 X168.284 Y101.130 E0.17434
G1 X167.747 Y101.130 E0.01693
G1 X164.027 Y97.410 E0.16600
G1 X163.677 Y97.597 E0.01251
G1 X167.211 Y101.130 E0.15765
G1 X166.674 Y101.130 E0.01693
G1 X163.328 Y97.784 E0.14931
G1 X163.166 Y97.871 E0.00579
G1 X162.945 Y97.938 E0.00729
G1 X166.137 Y101.130 E0.14246
G1 X165.601 Y101.130 E0.01693
G1 X162.533 Y98.062 E0.13688
G1 X162.121 Y98.187 E0.01358
G1 X165.064 Y101.130 E0.13131
G1 X164.527 Y101.130 E0.01693
G1 X161.710 Y98.312 E0.12574
G1 X161.234 Y98.373 E0.01514
G1 X163.991 Y101.130 E0.12303
G1 X163.454 Y101.130 E0.01693
G1 X160.745 Y98.421 E0.12088
G1 X160.257 Y98.469 E0.01549
G1 X162.917 Y101.130 E0.11873
G1 X162.381 Y101.130 E0.01693
G1 X159.705 Y98.454 E0.11940
G1 X159.110 Y98.396 E0.01887
G1 X161.844 Y101.130 E0.12202
G1 X161.307 Y101.130 E0.01693
G1 X158.514 Y98.337 E0.12463
G1 X157.757 Y98.116 E0.02491
G1 X160.771 Y101.130 E0.13451
G1 X160.234 Y101.130 E0.01693
G1 X156.986 Y97.882 E0.14493
G1 X155.852 Y97.285 E0.04043
G1 X159.698 Y101.130 E0.17158
G1 X159.161 Y101.130 E0.01693
G1 X146.927 Y88.896 E0.54592
G1 X146.927 Y89.433 E0.01693
G1 X158.624 Y101.130 E0.52197
G1 X158.088 Y101.130 E0.01693
G1 X146.927 Y89.969 E0.49802
G1 X146.927 Y90.506 E0.01693
G1 X157.551 Y101.130 E0.47408
G1 X157.014 Y101.130 E0.01693
G1 X146.927 Y91.043 E0.45013
