; generated by PrusaSlicer 2.2.0+win64 on 2020-08-12 at 16:04:02 UTC

; 

; external perimeters extrusion width = 0.45mm
; perimeters extrusion width = 0.45mm
; infill extrusion width = 0.45mm
; solid infill extrusion width = 0.45mm
; top infill extrusion width = 0.40mm
; first layer extrusion width = 0.42mm

; external perimeters extrusion width = 0.45mm
; perimeters extrusion width = 0.45mm
; infill extrusion width = 0.45mm
; solid infill extrusion width = 0.45mm
; top infill extrusion width = 0.40mm
; first layer extrusion width = 0.42mm

M73 P0 R156
M201 X9000 Y9000 Z500 E10000 ; sets maximum accelerations, mm/sec^2
M203 X500 Y500 Z12 E120 ; sets maximum feedrates, mm/sec
M204 P2000 R1500 T2000 ; sets acceleration (P, T) and retract acceleration (R), mm/sec^2
M205 X10.00 Y10.00 Z0.20 E4.50 ; sets the jerk limits, mm/sec
M205 S0 T0 ; sets the minimum extruding and travel feed rate, mm/sec
M107
M862.3 P "MK2.5SMMU2S" ; printer model check
M862.1 P0.4 ; nozzle diameter check
M115 U3.9.0 ; tell printer latest fw version
G90 ; use absolute coordinates
M83 ; extruder relative mode
M104 S215 ; set extruder temp
M140 S60 ; set bed temp
M190 S60 ; wait for bed temp
M109 S215 ; wait for extruder temp
G28 W ; home all without mesh bed level
G80 ; mesh bed leveling

; Send the filament type to the MMU2.0 unit.
; E stands for extruder number, F stands for filament type (0: default; 1:flex; 2: PVA)
M403 E0 F0
M403 E1 F0
M403 E2 F0
M403 E3 F0
M403 E4 F0


;go outside print area
G1 Y-3.0 F1000.0
G1 Z0.4 F1000.0
; select extruder
T0
; initial load
G1 X55.0 E29.0 F1073.0
M73 P0 R156
G1 X5.0 E29.0 F1800.0
G1 X55.0 E8.0 F2000.0
G1 Z0.3 F1000.0
G92 E0.0
G1 X240.0 E25.0 F2200.0
G1 Y-2.0 F1000.0
G1 X55.0 E25 F1400.0
G1 Z0.20 F1000.0
G1 X5.0 E4.0 F1000.0
G92 E0.0

G92 E0.0
G21 ; set units to millimeters
G90 ; use absolute coordinates
M83 ; use relative distances for extrusion
T0
M900 K0.06 ; Filament gcode LA 1.5
M900 K30 ; Filament gcode LA 1.0
G1 Z0.200 F10800.000
;BEFORE_LAYER_CHANGE
G92 E0.0
;0.2


G1 E-0.80000 F2100.00000
G1 Z0.800 F10800.000
G1 Z0.200
;AFTER_LAYER_CHANGE
;0.2
G1 E-2.20000 F2100.00000
G1 Z0.800 F10800.000
G1 X156.826 Y77.913
G1 Z0.200
G1 E3.00000 F2100.00000
;-------------------------------------
; CP WIPE TOWER FIRST LAYER BRIM START
G1  X156.826 Y91.973  E0.8016 F2400
G1  X154.283 Y92.430   F7000
G1  Y77.456  E0.6260 F2100
G1  X93.369  E2.5466
G1  Y92.430  E0.6260
G1  X154.283  E2.5466
G1  X154.740 Y92.887   F7000
G1  Y76.999  E0.6642 F2100
G1  X92.912  E2.5849
G1  Y92.887  E0.6642
G1  X154.740  E2.5849
G1  X155.197 Y93.344   F7000
G1  Y76.542  E0.7025 F2100
G1  X92.455  E2.6231
G1  Y93.344  E0.7025
G1  X155.197  E2.6231
G1  X155.654 Y93.801   F7000
G1  Y76.085  E0.7407 F2100
G1  X91.998  E2.6613
G1  Y93.801  E0.7407
G1  X155.654  E2.6613
G1  X153.826 Y91.973   F7000
G1  X93.826 
G1  X153.826 
; CP WIPE TOWER FIRST LAYER BRIM END
;-----------------------------------
G1  X153.326 Y78.413   F7200
;--------------------
; CP EMPTY GRID START
; layer #1
G1  X153.826 
G1  Y77.913 
G1  Y91.973  E0.5344 F1450
G1  X93.826  E2.2804
G1  Y77.913  E0.5344
G1  X153.826  E2.2804
G1  X153.326 
G1  Y78.413 
G1  Y91.473  E0.4964
G1  X94.326  E2.2424
G1  Y78.413  E0.4964
G1  X153.326  E2.2424
G1  Y91.473 
G1  X152.826 Y90.950   E0.0275
G1  X94.826  E2.2044
G1  Y90.426  E0.0199
G1  X152.826  E2.2044
G1  Y89.903  E0.0199
G1  X94.826  E2.2044
M73 P0 R155
G1  Y89.380  E0.0199
G1  X152.826  E2.2044
G1  Y88.856  E0.0199
G1  X94.826  E2.2044
G1  Y88.333  E0.0199
G1  X152.826  E2.2044
G1  Y87.810  E0.0199
G1  X94.826  E2.2044
G1  Y87.286  E0.0199
G1  X152.826  E2.2044
G1  Y86.763  E0.0199
G1  X94.826  E2.2044
G1  Y86.240  E0.0199
G1  X152.826  E2.2044
G1  Y85.716  E0.0199
G1  X94.826  E2.2044
G1  Y85.193  E0.0199
G1  X152.826  E2.2044
G1  Y84.670  E0.0199
G1  X94.826  E2.2044
G1  Y84.146  E0.0199
G1  X152.826  E2.2044
G1  Y83.623  E0.0199
G1  X94.826  E2.2044
G1  Y83.100  E0.0199
G1  X152.826  E2.2044
G1  Y82.576  E0.0199
G1  X94.826  E2.2044
G1  Y82.053  E0.0199
G1  X152.826  E2.2044
G1  Y81.530  E0.0199
G1  X94.826  E2.2044
G1  Y81.006  E0.0199
G1  X152.826  E2.2044
G1  Y80.483  E0.0199
G1  X94.826  E2.2044
G1  Y79.960  E0.0199
G1  X152.826  E2.2044
G1  Y79.436  E0.0199
G1  X94.826  E2.2044
G1  Y78.913  E0.0199
G1  X152.826  E2.2044
G1  X94.826 
; CP EMPTY GRID END
;------------------







G1 F8640.000
G1 X91.535 Y78.913 E-0.76000
G1 E-0.04000 F2100.00000
G1 Z0.800 F10800.000
G1 X58.233 Y64.322
G1 Z0.200
G1 E0.80000 F2100.00000
M204 S1000
G1 F1200.000
G1 X58.797 Y63.944 E0.02130
G1 X110.293 Y39.644 E1.78536
G1 X110.991 Y39.536 E0.02213
G1 X139.004 Y39.536 E0.87833
G1 X139.510 Y39.591 E0.01597
G1 X139.990 Y39.752 E0.01585
G1 X140.427 Y40.012 E0.01597
G1 X140.797 Y40.357 E0.01585
G1 X191.987 Y100.550 E2.47749
M73 P1 R154
G1 X192.373 Y101.185 E0.02331
G1 X192.551 Y102.080 E0.02860
G1 X192.551 Y168.094 E2.06984
G1 X192.460 Y168.737 E0.02036
G1 X192.201 Y169.329 E0.02024
G1 X191.823 Y169.799 E0.01894
G1 X191.341 Y170.158 E0.01882
G1 X190.781 Y170.385 E0.01894
G1 X190.186 Y170.464 E0.01882
G1 X60.166 Y170.464 E4.07669
G1 X59.523 Y170.373 E0.02036
G1 X58.932 Y170.114 E0.02024
G1 X58.467 Y169.741 E0.01870
G1 X58.107 Y169.261 E0.01882
G1 X57.879 Y168.705 E0.01882
G1 X57.797 Y168.111 E0.01882
G1 X57.449 Y96.095 E2.25804
G1 X57.449 Y66.087 E0.94087
G1 X57.538 Y65.444 E0.02036
G1 X57.799 Y64.845 E0.02048
G1 X58.195 Y64.369 E0.01942
G1 F8640.000
G1 X58.797 Y63.944 E-0.17023
G1 X61.107 Y62.854 E-0.58977
G1 E-0.04000 F2100.00000
G1 Z0.800 F10800.000
G1 X116.959 Y60.278
G1 Z0.200
G1 E0.80000 F2100.00000
G1 F1200.000
G1 X117.114 Y58.709 E0.04942
G1 X117.571 Y57.201 E0.04942
G1 X118.314 Y55.811 E0.04942
G1 X119.314 Y54.592 E0.04942
G1 X120.533 Y53.592 E0.04942
G1 X121.923 Y52.849 E0.04942
G1 X123.431 Y52.392 E0.04942
G1 X125.000 Y52.237 E0.04942
G1 X126.569 Y52.392 E0.04942
G1 X128.077 Y52.849 E0.04942
G1 X129.467 Y53.592 E0.04942
G1 X130.686 Y54.592 E0.04942
G1 X131.686 Y55.811 E0.04942
G1 X132.429 Y57.201 E0.04942
G1 X132.886 Y58.709 E0.04942
G1 X133.041 Y60.278 E0.04942
G1 X132.886 Y61.847 E0.04942
G1 X132.429 Y63.355 E0.04942
G1 X131.688 Y64.742 E0.04930
G1 X130.686 Y65.964 E0.04954
G1 X129.467 Y66.964 E0.04943
G1 X128.077 Y67.707 E0.04942
G1 X126.569 Y68.164 E0.04942
G1 X125.000 Y68.319 E0.04942
G1 X123.431 Y68.164 E0.04942
G1 X121.923 Y67.707 E0.04942
G1 X120.533 Y66.964 E0.04942
G1 X119.314 Y65.964 E0.04942
G1 X118.314 Y64.745 E0.04942
G1 X117.571 Y63.355 E0.04942
G1 X117.114 Y61.847 E0.04942
G1 X116.965 Y60.338 E0.04754
G1 X117.340 Y60.301 F10800.000
G1 F1200.000
G1 X117.485 Y58.783 E0.04780
G1 X117.921 Y57.346 E0.04709
G1 X118.629 Y56.021 E0.04709
G1 X119.582 Y54.860 E0.04709
G1 X120.743 Y53.907 E0.04709
G1 X122.068 Y53.199 E0.04709
G1 X123.505 Y52.763 E0.04709
G1 X125.000 Y52.616 E0.04709
G1 X126.495 Y52.763 E0.04709
G1 X127.932 Y53.199 E0.04709
G1 X129.257 Y53.907 E0.04709
G1 X130.418 Y54.860 E0.04709
G1 X131.371 Y56.021 E0.04709
G1 X132.079 Y57.346 E0.04709
G1 X132.515 Y58.783 E0.04709
G1 X132.662 Y60.278 E0.04709
G1 X132.515 Y61.773 E0.04709
G1 X132.079 Y63.210 E0.04709
G1 X131.372 Y64.532 E0.04698
G1 X130.418 Y65.696 E0.04721
G1 X129.257 Y66.649 E0.04710
G1 X127.932 Y67.357 E0.04709
G1 X126.495 Y67.793 E0.04709
G1 X125.000 Y67.940 E0.04709
G1 X123.505 Y67.793 E0.04709
G1 X122.068 Y67.357 E0.04709
G1 X120.743 Y66.649 E0.04709
G1 X119.582 Y65.696 E0.04709
G1 X118.629 Y64.535 E0.04709
G1 X117.921 Y63.210 E0.04709
G1 X117.485 Y61.773 E0.04709
G1 X117.346 Y60.360 E0.04450
G1 X116.993 Y60.102 F10800.000
G1 F8640.000
G1 X117.485 Y58.783 E-0.36560
G1 X117.921 Y57.346 E-0.34682
G1 X118.018 Y57.164 E-0.04758
G1 E-0.04000 F2100.00000
G1 Z0.800 F10800.000
G1 X111.787 Y71.126
G1 Z0.200
G1 E0.80000 F2100.00000
G1 F1200.000
G1 X111.787 Y42.700 E0.89127
G1 X138.213 Y42.700 E0.82856
G1 X138.213 Y71.126 E0.89127
G1 X111.847 Y71.126 E0.82668
G1 X111.410 Y71.503 F10800.000
G1 F1200.000
G1 X111.410 Y42.323 E0.91492
G1 X138.590 Y42.323 E0.85221
G1 X138.590 Y71.503 E0.91492
G1 X111.470 Y71.503 E0.85033
G1 X111.509 Y71.116 F10800.000
G1 F8640.000
G1 X111.463 Y68.212 E-0.76000
G1 E-0.04000 F2100.00000
G1 Z0.800 F10800.000
G1 X112.664 Y71.013
G1 Z0.200
G1 E0.80000 F2100.00000
G1 F1200.000
G1 X112.070 Y70.419 E0.02637
G1 X112.070 Y69.885 E0.01677
G1 X113.028 Y70.843 E0.04255
G1 X113.562 Y70.843 E0.01677
G1 X112.070 Y69.351 E0.06627
G1 X112.070 Y68.817 E0.01677
G1 X114.096 Y70.843 E0.08998
G1 X114.630 Y70.843 E0.01677
G1 X112.070 Y68.283 E0.11370
G1 X112.070 Y67.749 E0.01677
G1 X115.164 Y70.843 E0.13741
G1 X115.698 Y70.843 E0.01677
G1 X112.070 Y67.215 E0.16113
G1 X112.070 Y66.681 E0.01677
G1 X116.232 Y70.843 E0.18485
G1 X116.766 Y70.843 E0.01677
G1 X112.070 Y66.147 E0.20856
G1 X112.070 Y65.613 E0.01677
G1 X117.301 Y70.843 E0.23228
G1 X117.835 Y70.843 E0.01677
G1 X112.070 Y65.079 E0.25600
G1 X112.070 Y64.544 E0.01677
G1 X118.369 Y70.843 E0.27971
G1 X118.903 Y70.843 E0.01677
G1 X112.070 Y64.010 E0.30343
G1 X112.070 Y63.476 E0.01677
G1 X119.437 Y70.843 E0.32715
G1 X119.971 Y70.843 E0.01677
G1 X112.070 Y62.942 E0.35086
G1 X112.070 Y62.408 E0.01677
G1 X120.505 Y70.843 E0.37458
G1 X121.039 Y70.843 E0.01677
G1 X112.070 Y61.874 E0.39830
G1 X112.070 Y61.340 E0.01677
G1 X121.573 Y70.843 E0.42201
G1 X122.107 Y70.843 E0.01677
G1 X112.070 Y60.806 E0.44573
G1 X112.070 Y60.272 E0.01677
G1 X122.641 Y70.843 E0.46945
G1 X123.175 Y70.843 E0.01677
G1 X112.070 Y59.738 E0.49316
G1 X112.070 Y59.204 E0.01677
G1 X123.879 Y71.013 E0.52441
G1 F8640.000
G1 X121.552 Y68.686 E-0.76000
G1 E-0.04000 F2100.00000
G1 Z0.800 F10800.000
G1 X138.100 Y62.269
G1 Z0.200
G1 E0.80000 F2100.00000
G1 F1200.000
G1 X132.425 Y56.595 E0.25198
G1 X132.691 Y57.092 E0.01771
G1 X132.823 Y57.526 E0.01425
G1 X137.930 Y62.633 E0.22679
G1 X137.930 Y63.167 E0.01677
G1 X133.056 Y58.293 E0.21646
G1 X133.165 Y58.654 E0.01184
G1 X133.196 Y58.967 E0.00989
G1 X137.930 Y63.702 E0.21023
G1 X137.930 Y64.236 E0.01677
G1 X133.254 Y59.560 E0.20764
G1 X133.313 Y60.152 E0.01869
G1 X137.930 Y64.770 E0.20505
G1 X137.930 Y65.304 E0.01677
G1 X133.287 Y60.661 E0.20617
G1 X133.239 Y61.147 E0.01534
G1 X137.930 Y65.838 E0.20830
G1 X137.930 Y66.372 E0.01677
G1 X133.192 Y61.633 E0.21043
G1 X133.165 Y61.902 E0.00848
G1 X133.110 Y62.085 E0.00601
G1 X137.930 Y66.906 E0.21407
G1 X137.930 Y67.440 E0.01677
G1 X132.985 Y62.495 E0.21959
G1 X132.861 Y62.905 E0.01345
G1 X137.930 Y67.974 E0.22511
G1 X137.930 Y68.508 E0.01677
G1 X132.737 Y63.315 E0.23063
G1 X132.691 Y63.464 E0.00490
G1 X132.573 Y63.685 E0.00788
G1 X137.930 Y69.042 E0.23789
G1 X137.930 Y69.576 E0.01677
G1 X132.387 Y64.033 E0.24615
G1 X132.201 Y64.381 E0.01239
G1 X137.930 Y70.110 E0.25442
G1 X137.930 Y70.644 E0.01677
G1 X132.015 Y64.729 E0.26268
G1 X131.924 Y64.900 E0.00607
G1 X131.801 Y65.049 E0.00608
G1 X137.595 Y70.843 E0.25729
G1 X137.061 Y70.843 E0.01677
G1 X131.561 Y65.343 E0.24426
G1 X131.320 Y65.636 E0.01192
G1 X136.527 Y70.843 E0.23123
G1 X135.993 Y70.843 E0.01677
G1 X131.079 Y65.930 E0.21819
G1 X130.828 Y66.213 E0.01188
G1 X135.459 Y70.843 E0.20563
G1 X134.925 Y70.843 E0.01677
G1 X130.535 Y66.453 E0.19494
G1 X130.242 Y66.694 E0.01192
G1 X134.391 Y70.843 E0.18425
G1 X133.857 Y70.843 E0.01677
G1 X129.948 Y66.935 E0.17356
G1 X129.655 Y67.176 E0.01192
G1 X133.322 Y70.843 E0.16287
G1 X132.788 Y70.843 E0.01677
G1 X129.312 Y67.367 E0.15436
G1 X128.964 Y67.553 E0.01239
G1 X132.254 Y70.843 E0.14610
G1 X131.720 Y70.843 E0.01677
G1 X128.616 Y67.739 E0.13784
G1 X128.268 Y67.925 E0.01239
G1 X131.186 Y70.843 E0.12958
G1 X130.652 Y70.843 E0.01677
G1 X127.873 Y68.064 E0.12341
G1 X127.463 Y68.189 E0.01345
G1 X130.118 Y70.843 E0.11789
G1 X129.584 Y70.843 E0.01677
G1 X127.054 Y68.313 E0.11237
G1 X126.644 Y68.437 E0.01345
G1 X129.050 Y70.843 E0.10685
G1 X128.516 Y70.843 E0.01677
G1 X126.161 Y68.489 E0.10456
G1 X125.675 Y68.537 E0.01534
G1 X127.982 Y70.843 E0.10243
G1 X127.448 Y70.843 E0.01677
G1 X125.189 Y68.584 E0.10031
G1 X125.000 Y68.603 E0.00596
G1 X124.638 Y68.567 E0.01143
G1 X126.914 Y70.843 E0.10107
G1 X126.380 Y70.843 E0.01677
G1 X124.045 Y68.509 E0.10366
G1 X123.453 Y68.451 E0.01869
G1 X125.846 Y70.843 E0.10625
G1 X125.311 Y70.843 E0.01677
G1 X122.709 Y68.241 E0.11557
G1 X121.942 Y68.008 E0.02516
G1 X124.777 Y70.843 E0.12589
G1 X124.243 Y70.843 E0.01677
G1 X120.859 Y67.459 E0.15030
G1 X120.375 Y67.200 E0.01723
G1 X119.113 Y66.165 E0.05125
G1 X118.078 Y64.903 E0.05125
G1 X117.819 Y64.419 E0.01723
G1 X112.070 Y58.670 E0.25532
G1 X112.070 Y58.136 E0.01677
G1 X117.270 Y63.336 E0.23091
G1 X117.037 Y62.569 E0.02516
G1 X112.070 Y57.602 E0.22059
G1 X112.070 Y57.068 E0.01677
G1 X116.827 Y61.825 E0.21127
G1 X116.769 Y61.233 E0.01869
G1 X112.070 Y56.534 E0.20867
G1 X112.070 Y55.999 E0.01677
G1 X116.711 Y60.640 E0.20608
M73 P2 R153
G1 X116.675 Y60.278 E0.01143
G1 X116.694 Y60.089 E0.00596
G1 X112.070 Y55.465 E0.20533
G1 X112.070 Y54.931 E0.01677
G1 X116.741 Y59.603 E0.20745
G1 X116.789 Y59.117 E0.01534
G1 X112.070 Y54.397 E0.20958
G1 X112.070 Y53.863 E0.01677
G1 X116.841 Y58.634 E0.21187
G1 X116.965 Y58.224 E0.01345
G1 X112.070 Y53.329 E0.21739
G1 X112.070 Y52.795 E0.01677
G1 X117.089 Y57.815 E0.22291
G1 X117.214 Y57.405 E0.01345
G1 X112.070 Y52.261 E0.22843
G1 X112.070 Y51.727 E0.01677
G1 X117.353 Y57.010 E0.23460
G1 X117.539 Y56.662 E0.01239
G1 X112.070 Y51.193 E0.24286
G1 X112.070 Y50.659 E0.01677
G1 X117.725 Y56.314 E0.25112
G1 X117.911 Y55.966 E0.01239
G1 X112.070 Y50.125 E0.25938
G1 X112.070 Y49.591 E0.01677
G1 X118.102 Y55.623 E0.26789
G1 X118.343 Y55.330 E0.01192
G1 X112.070 Y49.057 E0.27858
G1 X112.070 Y48.523 E0.01677
G1 X118.584 Y55.036 E0.28927
G1 X118.825 Y54.743 E0.01192
G1 X112.070 Y47.989 E0.29996
G1 X112.070 Y47.454 E0.01677
G1 X119.065 Y54.450 E0.31065
G1 X119.348 Y54.199 E0.01188
G1 X112.070 Y46.920 E0.32321
G1 X112.070 Y46.386 E0.01677
G1 X119.641 Y53.958 E0.33623
G1 X119.935 Y53.717 E0.01192
G1 X112.070 Y45.852 E0.34926
G1 X112.070 Y45.318 E0.01677
G1 X120.228 Y53.476 E0.36229
G1 X120.375 Y53.356 E0.00596
G1 X120.549 Y53.263 E0.00619
G1 X112.070 Y44.784 E0.37653
G1 X112.070 Y44.250 E0.01677
G1 X120.897 Y53.077 E0.39198
G1 X121.245 Y52.891 E0.01239
G1 X112.070 Y43.716 E0.40744
G1 X112.070 Y43.182 E0.01677
G1 X121.593 Y52.705 E0.42289
G1 X121.814 Y52.587 E0.00788
G1 X121.963 Y52.541 E0.00490
G1 X112.405 Y42.983 E0.42446
G1 X112.939 Y42.983 E0.01677
G1 X122.373 Y52.417 E0.41894
G1 X122.783 Y52.293 E0.01345
G1 X113.473 Y42.983 E0.41342
G1 X114.007 Y42.983 E0.01677
G1 X123.193 Y52.168 E0.40790
G1 X123.376 Y52.113 E0.00601
G1 X123.645 Y52.086 E0.00848
G1 X114.541 Y42.983 E0.40426
G1 X115.075 Y42.983 E0.01677
G1 X124.131 Y52.039 E0.40213
G1 X124.617 Y51.991 E0.01534
G1 X115.609 Y42.983 E0.40001
G1 X116.143 Y42.983 E0.01677
G1 X125.126 Y51.965 E0.39888
G1 X125.718 Y52.024 E0.01869
G1 X116.678 Y42.983 E0.40147
G1 X117.212 Y42.983 E0.01677
G1 X126.311 Y52.082 E0.40407
G1 X126.624 Y52.113 E0.00989
G1 X126.985 Y52.222 E0.01184
G1 X117.746 Y42.983 E0.41030
G1 X118.280 Y42.983 E0.01677
G1 X127.752 Y52.455 E0.42063
G1 X128.186 Y52.587 E0.01425
G1 X128.683 Y52.853 E0.01771
G1 X118.814 Y42.983 E0.43828
G1 X119.348 Y42.983 E0.01677
G1 X137.930 Y61.565 E0.82519
G1 X137.930 Y61.031 E0.01677
G1 X119.882 Y42.983 E0.80148
G1 X120.416 Y42.983 E0.01677
G1 X137.930 Y60.497 E0.77776
G1 X137.930 Y59.963 E0.01677
G1 X120.950 Y42.983 E0.75404
G1 X121.484 Y42.983 E0.01677
G1 X137.930 Y59.429 E0.73033
G1 X137.930 Y58.895 E0.01677
G1 X122.018 Y42.983 E0.70661
G1 X122.552 Y42.983 E0.01677
G1 X137.930 Y58.361 E0.68289
G1 X137.930 Y57.827 E0.01677
G1 X123.086 Y42.983 E0.65918
G1 X123.620 Y42.983 E0.01677
G1 X137.930 Y57.293 E0.63546
G1 X137.930 Y56.759 E0.01677
G1 X124.154 Y42.983 E0.61174
G1 X124.688 Y42.983 E0.01677
G1 X137.930 Y56.225 E0.58803
G1 X137.930 Y55.691 E0.01677
G1 X125.223 Y42.983 E0.56431
G1 X125.757 Y42.983 E0.01677
G1 X137.930 Y55.157 E0.54060
G1 X137.930 Y54.622 E0.01677
G1 X126.291 Y42.983 E0.51688
G1 X126.825 Y42.983 E0.01677
G1 X137.930 Y54.088 E0.49316
G1 X137.930 Y53.554 E0.01677
G1 X127.359 Y42.983 E0.46945
G1 X127.893 Y42.983 E0.01677
G1 X137.930 Y53.020 E0.44573
