; generated by PrusaSlicer 2.2.0+win64 on 2020-08-12 at 16:02:26 UTC

; 

; external perimeters extrusion width = 0.45mm
; perimeters extrusion width = 0.45mm
; infill extrusion width = 0.45mm
; solid infill extrusion width = 0.45mm
; top infill extrusion width = 0.40mm
; first layer extrusion width = 0.42mm

; external perimeters extrusion width = 0.45mm
; perimeters extrusion width = 0.45mm
; infill extrusion width = 0.45mm
; solid infill extrusion width = 0.45mm
; top infill extrusion width = 0.40mm
; first layer extrusion width = 0.42mm

M73 P0 R37
M201 X9000 Y9000 Z500 E10000 ; sets maximum accelerations, mm/sec^2
M203 X500 Y500 Z12 E120 ; sets maximum feedrates, mm/sec
M204 P2000 R1500 T2000 ; sets acceleration (P, T) and retract acceleration (R), mm/sec^2
M205 X10.00 Y10.00 Z0.20 E4.50 ; sets the jerk limits, mm/sec
M205 S0 T0 ; sets the minimum extruding and travel feed rate, mm/sec
M107
M862.3 P "MK2.5SMMU2S" ; printer model check
M862.1 P0.4 ; nozzle diameter check
M115 U3.9.0 ; tell printer latest fw version
G90 ; use absolute coordinates
M83 ; extruder relative mode
M104 S215 ; set extruder temp
M140 S60 ; set bed temp
M190 S60 ; wait for bed temp
M109 S215 ; wait for extruder temp
G28 W ; home all without mesh bed level
G80 ; mesh bed leveling

; Send the filament type to the MMU2.0 unit.
; E stands for extruder number, F stands for filament type (0: default; 1:flex; 2: PVA)
M403 E0 F0
M403 E1 F0
M403 E2 F0
M403 E3 F0
M403 E4 F0


;go outside print area
G1 Y-3.0 F1000.0
G1 Z0.4 F1000.0
; select extruder
T0
; initial load
G1 X55.0 E29.0 F1073.0
M73 P0 R36
G1 X5.0 E29.0 F1800.0
G1 X55.0 E8.0 F2000.0
G1 Z0.3 F1000.0
G92 E0.0
G1 X240.0 E25.0 F2200.0
G1 Y-2.0 F1000.0
G1 X55.0 E25 F1400.0
G1 Z0.20 F1000.0
G1 X5.0 E4.0 F1000.0
G92 E0.0

G92 E0.0
G21 ; set units to millimeters
G90 ; use absolute coordinates
M83 ; use relative distances for extrusion
T0
M900 K0.06 ; Filament gcode LA 1.5
M900 K30 ; Filament gcode LA 1.0
G1 Z0.200 F10800.000
;BEFORE_LAYER_CHANGE
G92 E0.0
;0.2


G1 E-0.80000 F2100.00000
G1 Z0.800 F10800.000
G1 Z0.200
;AFTER_LAYER_CHANGE
;0.2
G1 E-2.20000 F2100.00000
G1 Z0.800 F10800.000
G1 X172.943 Y68.972
G1 Z0.200
G1 E3.00000 F2100.00000
;-------------------------------------
; CP WIPE TOWER FIRST LAYER BRIM START
G1  X172.943 Y83.032  E0.8016 F2400
G1  X170.400 Y83.489   F7000
G1  Y68.515  E0.6260 F2100
G1  X109.486  E2.5466
G1  Y83.489  E0.6260
G1  X170.400  E2.5466
G1  X170.857 Y83.946   F7000
G1  Y68.058  E0.6642 F2100
G1  X109.029  E2.5849
G1  Y83.946  E0.6642
G1  X170.857  E2.5849
G1  X171.314 Y84.403   F7000
G1  Y67.601  E0.7025 F2100
G1  X108.572  E2.6231
G1  Y84.403  E0.7025
G1  X171.314  E2.6231
G1  X171.771 Y84.860   F7000
G1  Y67.144  E0.7407 F2100
G1  X108.115  E2.6613
G1  Y84.860  E0.7407
G1  X171.771  E2.6613
G1  X169.943 Y83.032   F7000
G1  X109.943 
G1  X169.943 
; CP WIPE TOWER FIRST LAYER BRIM END
;-----------------------------------
G1  X169.443 Y69.472   F7200
;--------------------
; CP EMPTY GRID START
; layer #1
G1  X169.943 
G1  Y68.972 
G1  Y83.032  E0.5344 F1450
G1  X109.943  E2.2804
G1  Y68.972  E0.5344
G1  X169.943  E2.2804
G1  X169.443 
G1  Y69.472 
G1  Y82.532  E0.4964
G1  X110.443  E2.2424
G1  Y69.472  E0.4964
G1  X169.443  E2.2424
G1  Y82.532 
G1  X168.943 Y82.009   E0.0275
G1  X110.943  E2.2044
G1  Y81.485  E0.0199
G1  X168.943  E2.2044
G1  Y80.962  E0.0199
G1  X110.943  E2.2044
M73 P3 R35
G1  Y80.439  E0.0199
G1  X168.943  E2.2044
G1  Y79.915  E0.0199
G1  X110.943  E2.2044
G1  Y79.392  E0.0199
G1  X168.943  E2.2044
G1  Y78.869  E0.0199
G1  X110.943  E2.2044
G1  Y78.345  E0.0199
G1  X168.943  E2.2044
G1  Y77.822  E0.0199
G1  X110.943  E2.2044
G1  Y77.299  E0.0199
G1  X168.943  E2.2044
G1  Y76.775  E0.0199
G1  X110.943  E2.2044
G1  Y76.252  E0.0199
G1  X168.943  E2.2044
G1  Y75.729  E0.0199
G1  X110.943  E2.2044
G1  Y75.205  E0.0199
G1  X168.943  E2.2044
G1  Y74.682  E0.0199
G1  X110.943  E2.2044
G1  Y74.159  E0.0199
G1  X168.943  E2.2044
G1  Y73.635  E0.0199
G1  X110.943  E2.2044
G1  Y73.112  E0.0199
G1  X168.943  E2.2044
G1  Y72.589  E0.0199
G1  X110.943  E2.2044
G1  Y72.065  E0.0199
G1  X168.943  E2.2044
G1  Y71.542  E0.0199
G1  X110.943  E2.2044
G1  Y71.019  E0.0199
G1  X168.943  E2.2044
G1  Y70.495  E0.0199
G1  X110.943  E2.2044
G1  Y69.972  E0.0199
G1  X168.943  E2.2044
G1  X110.943 
; CP EMPTY GRID END
;------------------







G1 F8640.000
G1 X107.652 Y69.972 E-0.76000
G1 E-0.04000 F2100.00000
G1 Z0.800 F10800.000
G1 X172.871 Y64.703
G1 Z0.200
G1 E0.80000 F2100.00000
M204 S1000
G1 F1200.000
G1 X173.615 Y65.170 E0.02755
G1 X174.140 Y65.879 E0.02767
G1 X174.370 Y66.727 E0.02755
G1 X174.376 Y85.161 E0.57797
G1 X174.205 Y85.977 E0.02614
G1 X173.765 Y86.681 E0.02602
G1 X105.369 Y138.525 E2.69097
G1 X104.715 Y138.871 E0.02319
G1 X103.983 Y139.000 E0.02331
G1 X75.909 Y139.000 E0.88024
M73 P6 R34
G1 X75.374 Y138.931 E0.01692
G1 X74.864 Y138.741 E0.01704
G1 X74.414 Y138.443 E0.01692
G1 X74.043 Y138.051 E0.01692
G1 X73.691 Y137.384 E0.02367
G1 X73.566 Y136.639 E0.02367
G1 X73.566 Y70.608 E2.07037
G1 X73.632 Y70.068 E0.01704
G1 X73.820 Y69.554 E0.01716
G1 X74.121 Y69.097 E0.01716
G1 X74.515 Y68.723 E0.01704
G1 X75.050 Y68.420 E0.01929
G1 X75.646 Y68.264 E0.01929
G1 X107.783 Y64.540 E1.01439
G1 X172.004 Y64.538 E2.01360
G1 X172.812 Y64.692 E0.02578
G1 F8640.000
G1 X173.615 Y65.170 E-0.21584
G1 X174.140 Y65.879 E-0.20374
G1 X174.370 Y66.727 E-0.20287
G1 X174.370 Y67.323 E-0.13755
G1 E-0.04000 F2100.00000
G1 Z0.800 F10800.000
G1 X97.830 Y87.419
G1 Z0.200
G1 E0.80000 F2100.00000
G1 F1200.000
G1 X97.984 Y88.988 E0.04942
G1 X97.830 Y90.556 E0.04942
G1 X97.372 Y92.065 E0.04942
G1 X96.631 Y93.452 E0.04930
G1 X95.629 Y94.673 E0.04954
G1 X94.410 Y95.673 E0.04943
G1 X93.020 Y96.417 E0.04942
G1 X91.512 Y96.874 E0.04942
G1 X89.943 Y97.029 E0.04942
G1 X88.374 Y96.874 E0.04942
G1 X86.866 Y96.417 E0.04942
G1 X85.476 Y95.673 E0.04942
G1 X84.257 Y94.673 E0.04942
G1 X83.257 Y93.455 E0.04942
G1 X82.514 Y92.065 E0.04942
G1 X82.057 Y90.556 E0.04942
G1 X81.902 Y88.988 E0.04942
G1 X82.057 Y87.419 E0.04942
G1 X82.514 Y85.911 E0.04942
G1 X83.257 Y84.520 E0.04942
G1 X84.257 Y83.302 E0.04942
G1 X85.476 Y82.302 E0.04942
G1 X86.866 Y81.559 E0.04942
G1 X88.374 Y81.101 E0.04942
G1 X89.943 Y80.947 E0.04942
G1 X91.512 Y81.101 E0.04942
G1 X93.020 Y81.559 E0.04942
G1 X94.410 Y82.302 E0.04942
G1 X95.629 Y83.302 E0.04942
G1 X96.629 Y84.520 E0.04942
G1 X97.372 Y85.911 E0.04942
G1 X97.812 Y87.362 E0.04754
G1 X97.451 Y87.471 F10800.000
G1 F1200.000
G1 X97.605 Y88.988 E0.04780
G1 X97.458 Y90.482 E0.04709
G1 X97.022 Y91.920 E0.04709
G1 X96.316 Y93.241 E0.04698
G1 X95.361 Y94.406 E0.04721
G1 X94.200 Y95.358 E0.04710
G1 X92.875 Y96.066 E0.04709
G1 X91.438 Y96.502 E0.04709
G1 X89.943 Y96.650 E0.04709
G1 X88.448 Y96.502 E0.04709
G1 X87.011 Y96.066 E0.04709
G1 X85.686 Y95.358 E0.04709
G1 X84.525 Y94.406 E0.04709
G1 X83.572 Y93.244 E0.04709
G1 X82.864 Y91.920 E0.04709
G1 X82.428 Y90.482 E0.04709
G1 X82.281 Y88.988 E0.04709
G1 X82.428 Y87.493 E0.04709
G1 X82.864 Y86.056 E0.04709
G1 X83.572 Y84.731 E0.04709
G1 X84.525 Y83.570 E0.04709
G1 X85.686 Y82.617 E0.04709
G1 X87.011 Y81.909 E0.04709
G1 X88.448 Y81.473 E0.04709
G1 X89.943 Y81.326 E0.04709
G1 X91.438 Y81.473 E0.04709
G1 X92.875 Y81.909 E0.04709
G1 X94.200 Y82.617 E0.04709
G1 X95.361 Y83.570 E0.04709
G1 X96.314 Y84.731 E0.04709
G1 X97.022 Y86.056 E0.04709
G1 X97.434 Y87.414 E0.04450
G1 X97.830 Y87.599 F10800.000
G1 F8640.000
G1 X97.605 Y88.988 E-0.36560
G1 X97.458 Y90.482 E-0.34682
G1 X97.398 Y90.680 E-0.04758
G1 E-0.04000 F2100.00000
G1 Z0.800 F10800.000
G1 X103.156 Y99.836
G1 Z0.200
G1 E0.80000 F2100.00000
G1 F1200.000
G1 X76.730 Y99.836 E0.82856
G1 X76.730 Y71.410 E0.89127
G1 X103.156 Y71.410 E0.82856
G1 X103.156 Y99.776 E0.88939
G1 X103.533 Y100.213 F10800.000
G1 F1200.000
G1 X76.353 Y100.213 E0.85221
G1 X76.353 Y71.033 E0.91492
G1 X103.533 Y71.033 E0.85221
G1 X103.533 Y100.153 E0.91304
G1 X103.148 Y100.105 F10800.000
G1 F8640.000
G1 X100.242 Y100.160 E-0.76000
G1 E-0.04000 F2100.00000
G1 Z0.800 F10800.000
G1 X103.043 Y90.979
G1 Z0.200
G1 E0.80000 F2100.00000
G1 F1200.000
G1 X97.369 Y85.304 E0.25198
G1 X97.634 Y85.802 E0.01771
G1 X97.766 Y86.236 E0.01425
G1 X102.873 Y91.343 E0.22679
G1 X102.873 Y91.877 E0.01677
G1 X97.999 Y87.003 E0.21646
G1 X98.108 Y87.364 E0.01184
G1 X98.139 Y87.677 E0.00989
G1 X102.873 Y92.411 E0.21023
G1 X102.873 Y92.945 E0.01677
G1 X98.197 Y88.269 E0.20764
G1 X98.256 Y88.862 E0.01869
G1 X102.873 Y93.479 E0.20505
G1 X102.873 Y94.013 E0.01677
G1 X98.230 Y89.371 E0.20617
G1 X98.183 Y89.857 E0.01534
G1 X102.873 Y94.547 E0.20830
G1 X102.873 Y95.082 E0.01677
G1 X98.135 Y90.343 E0.21043
G1 X98.108 Y90.612 E0.00848
G1 X98.053 Y90.795 E0.00601
G1 X102.873 Y95.616 E0.21407
G1 X102.873 Y96.150 E0.01677
G1 X97.928 Y91.205 E0.21959
G1 X97.804 Y91.615 E0.01345
G1 X102.873 Y96.684 E0.22511
G1 X102.873 Y97.218 E0.01677
G1 X97.680 Y92.024 E0.23063
G1 X97.634 Y92.174 E0.00490
G1 X97.516 Y92.395 E0.00788
G1 X102.873 Y97.752 E0.23789
G1 X102.873 Y98.286 E0.01677
G1 X97.330 Y92.743 E0.24615
G1 X97.144 Y93.091 E0.01239
G1 X102.873 Y98.820 E0.25442
G1 X102.873 Y99.354 E0.01677
G1 X96.958 Y93.439 E0.26268
G1 X96.867 Y93.609 E0.00607
G1 X96.744 Y93.759 E0.00608
G1 X102.538 Y99.553 E0.25729
G1 X102.004 Y99.553 E0.01677
G1 X96.504 Y94.053 E0.24426
G1 X96.263 Y94.346 E0.01192
G1 X101.470 Y99.553 E0.23123
G1 X100.936 Y99.553 E0.01677
G1 X96.022 Y94.640 E0.21819
G1 X95.771 Y94.922 E0.01188
G1 X100.402 Y99.553 E0.20563
G1 X99.868 Y99.553 E0.01677
G1 X95.478 Y95.163 E0.19494
G1 X95.185 Y95.404 E0.01192
G1 X99.334 Y99.553 E0.18425
G1 X98.800 Y99.553 E0.01677
G1 X94.891 Y95.645 E0.17356
G1 X94.598 Y95.885 E0.01192
G1 X98.266 Y99.553 E0.16287
G1 X97.732 Y99.553 E0.01677
G1 X94.255 Y96.077 E0.15436
G1 X93.907 Y96.263 E0.01239
G1 X97.197 Y99.553 E0.14610
G1 X96.663 Y99.553 E0.01677
G1 X93.559 Y96.449 E0.13784
G1 X93.211 Y96.635 E0.01239
G1 X96.129 Y99.553 E0.12958
G1 X95.595 Y99.553 E0.01677
G1 X92.816 Y96.774 E0.12341
G1 X92.406 Y96.898 E0.01345
G1 X95.061 Y99.553 E0.11789
G1 X94.527 Y99.553 E0.01677
G1 X91.997 Y97.023 E0.11237
G1 X91.587 Y97.147 E0.01345
G1 X93.993 Y99.553 E0.10685
G1 X93.459 Y99.553 E0.01677
G1 X91.104 Y97.198 E0.10456
G1 X90.618 Y97.246 E0.01534
G1 X92.925 Y99.553 E0.10243
G1 X92.391 Y99.553 E0.01677
G1 X90.132 Y97.294 E0.10031
G1 X89.943 Y97.313 E0.00596
G1 X89.581 Y97.277 E0.01143
G1 X91.857 Y99.553 E0.10107
G1 X91.323 Y99.553 E0.01677
G1 X88.989 Y97.219 E0.10366
G1 X88.396 Y97.160 E0.01869
G1 X90.789 Y99.553 E0.10625
G1 X90.255 Y99.553 E0.01677
G1 X87.652 Y96.951 E0.11557
G1 X86.886 Y96.718 E0.02516
G1 X89.721 Y99.553 E0.12589
G1 X89.187 Y99.553 E0.01677
G1 X85.802 Y96.168 E0.15030
G1 X85.318 Y95.910 E0.01723
G1 X84.056 Y94.874 E0.05125
G1 X83.021 Y93.613 E0.05125
G1 X82.762 Y93.129 E0.01723
G1 X77.013 Y87.379 E0.25532
G1 X77.013 Y86.845 E0.01677
G1 X82.213 Y92.045 E0.23091
G1 X81.980 Y91.279 E0.02516
G1 X77.013 Y86.311 E0.22059
G1 X77.013 Y85.777 E0.01677
G1 X81.770 Y90.535 E0.21127
G1 X81.712 Y89.942 E0.01869
G1 X77.013 Y85.243 E0.20867
G1 X77.013 Y84.709 E0.01677
G1 X81.654 Y89.350 E0.20608
G1 X81.618 Y88.988 E0.01143
G1 X81.637 Y88.799 E0.00596
G1 X77.013 Y84.175 E0.20533
G1 X77.013 Y83.641 E0.01677
G1 X81.685 Y88.313 E0.20745
G1 X81.732 Y87.826 E0.01534
G1 X77.013 Y83.107 E0.20958
G1 X77.013 Y82.573 E0.01677
G1 X81.784 Y87.344 E0.21187
G1 X81.908 Y86.934 E0.01345
G1 X77.013 Y82.039 E0.21739
G1 X77.013 Y81.505 E0.01677
G1 X82.033 Y86.524 E0.22291
G1 X82.157 Y86.115 E0.01345
G1 X77.013 Y80.971 E0.22843
G1 X77.013 Y80.437 E0.01677
G1 X82.296 Y85.719 E0.23460
G1 X82.482 Y85.371 E0.01239
G1 X77.013 Y79.903 E0.24286
G1 X77.013 Y79.369 E0.01677
G1 X82.668 Y85.023 E0.25112
G1 X82.854 Y84.675 E0.01239
G1 X77.013 Y78.834 E0.25938
G1 X77.013 Y78.300 E0.01677
G1 X83.045 Y84.333 E0.26789
G1 X83.286 Y84.040 E0.01192
G1 X77.013 Y77.766 E0.27858
G1 X77.013 Y77.232 E0.01677
G1 X83.527 Y83.746 E0.28927
G1 X83.768 Y83.453 E0.01192
G1 X77.013 Y76.698 E0.29996
G1 X77.013 Y76.164 E0.01677
G1 X84.008 Y83.160 E0.31065
G1 X84.291 Y82.908 E0.01188
G1 X77.013 Y75.630 E0.32321
G1 X77.013 Y75.096 E0.01677
G1 X84.585 Y82.668 E0.33623
G1 X84.878 Y82.427 E0.01192
G1 X77.013 Y74.562 E0.34926
G1 X77.013 Y74.028 E0.01677
G1 X85.171 Y82.186 E0.36229
G1 X85.318 Y82.066 E0.00596
G1 X85.492 Y81.973 E0.00619
G1 X77.013 Y73.494 E0.37653
G1 X77.013 Y72.960 E0.01677
G1 X85.840 Y81.787 E0.39198
G1 X86.188 Y81.601 E0.01239
G1 X77.013 Y72.426 E0.40744
G1 X77.013 Y71.892 E0.01677
G1 X86.536 Y81.415 E0.42289
G1 X86.757 Y81.296 E0.00788
G1 X86.907 Y81.251 E0.00490
G1 X77.348 Y71.693 E0.42446
G1 X77.882 Y71.693 E0.01677
G1 X87.316 Y81.127 E0.41894
G1 X87.726 Y81.002 E0.01345
G1 X78.416 Y71.693 E0.41342
G1 X78.950 Y71.693 E0.01677
G1 X88.136 Y80.878 E0.40790
G1 X88.319 Y80.823 E0.00601
G1 X88.588 Y80.796 E0.00848
G1 X79.484 Y71.693 E0.40426
G1 X80.018 Y71.693 E0.01677
G1 X89.074 Y80.748 E0.40213
G1 X89.560 Y80.700 E0.01534
G1 X80.553 Y71.693 E0.40001
G1 X81.087 Y71.693 E0.01677
G1 X90.069 Y80.675 E0.39888
G1 X90.661 Y80.733 E0.01869
G1 X81.621 Y71.693 E0.40147
M73 P9 R33
G1 X82.155 Y71.693 E0.01677
G1 X91.254 Y80.792 E0.40407
G1 X91.567 Y80.823 E0.00989
G1 X91.928 Y80.932 E0.01184
G1 X82.689 Y71.693 E0.41030
G1 X83.223 Y71.693 E0.01677
G1 X92.695 Y81.165 E0.42063
G1 X93.129 Y81.296 E0.01425
G1 X93.626 Y81.562 E0.01771
G1 X83.757 Y71.693 E0.43828
G1 X84.291 Y71.693 E0.01677
G1 X102.873 Y90.275 E0.82519
G1 X102.873 Y89.741 E0.01677
G1 X84.825 Y71.693 E0.80148
G1 X85.359 Y71.693 E0.01677
G1 X102.873 Y89.207 E0.77776
G1 X102.873 Y88.673 E0.01677
G1 X85.893 Y71.693 E0.75404
G1 X86.427 Y71.693 E0.01677
G1 X102.873 Y88.139 E0.73033
G1 X102.873 Y87.605 E0.01677
G1 X86.961 Y71.693 E0.70661
G1 X87.495 Y71.693 E0.01677
G1 X102.873 Y87.071 E0.68289
G1 X102.873 Y86.537 E0.01677
G1 X88.029 Y71.693 E0.65918
G1 X88.564 Y71.693 E0.01677
G1 X102.873 Y86.002 E0.63546
G1 X102.873 Y85.468 E0.01677
G1 X89.098 Y71.693 E0.61174
G1 X89.632 Y71.693 E0.01677
G1 X102.873 Y84.934 E0.58803
G1 X102.873 Y84.400 E0.01677
G1 X90.166 Y71.693 E0.56431
G1 X90.700 Y71.693 E0.01677
G1 X102.873 Y83.866 E0.54060
G1 X102.873 Y83.332 E0.01677
G1 X91.234 Y71.693 E0.51688
G1 X91.768 Y71.693 E0.01677
G1 X102.873 Y82.798 E0.49316
G1 X102.873 Y82.264 E0.01677
G1 X92.302 Y71.693 E0.46945
G1 X92.836 Y71.693 E0.01677
G1 X102.873 Y81.730 E0.44573
G1 X102.873 Y81.196 E0.01677
G1 X93.370 Y71.693 E0.42201
G1 X93.904 Y71.693 E0.01677
G1 X102.873 Y80.662 E0.39830
G1 X102.873 Y80.128 E0.01677
G1 X94.438 Y71.693 E0.37458
G1 X94.972 Y71.693 E0.01677
G1 X102.873 Y79.594 E0.35086
G1 X102.873 Y79.060 E0.01677
G1 X95.506 Y71.693 E0.32715
G1 X96.040 Y71.693 E0.01677
G1 X102.873 Y78.526 E0.30343
G1 X102.873 Y77.992 E0.01677
G1 X96.574 Y71.693 E0.27971
G1 X97.109 Y71.693 E0.01677
G1 X102.873 Y77.457 E0.25600
G1 X102.873 Y76.923 E0.01677
G1 X97.643 Y71.693 E0.23228
G1 X98.177 Y71.693 E0.01677
G1 X102.873 Y76.389 E0.20856
G1 X102.873 Y75.855 E0.01677
G1 X98.711 Y71.693 E0.18485
G1 X99.245 Y71.693 E0.01677
G1 X102.873 Y75.321 E0.16113
G1 X102.873 Y74.787 E0.01677
G1 X99.779 Y71.693 E0.13742
G1 X100.313 Y71.693 E0.01677
G1 X102.873 Y74.253 E0.11370
G1 X102.873 Y73.719 E0.01677
G1 X100.847 Y71.693 E0.08998
G1 X101.381 Y71.693 E0.01677
G1 X102.873 Y73.185 E0.06627
G1 X102.873 Y72.651 E0.01677
G1 X101.915 Y71.693 E0.04255
G1 X102.449 Y71.693 E0.01677
G1 X103.043 Y72.286 E0.02637
G1 F8640.000
G1 X102.449 Y71.693 E-0.19389
G1 X101.915 Y71.693 E-0.12332
G1 X102.873 Y72.651 E-0.31288
G1 X102.873 Y73.185 E-0.12332
G1 X102.853 Y73.165 E-0.00659
G1 E-0.04000 F2100.00000
G1 Z0.800 F10800.000
G1 X88.822 Y99.723
G1 Z0.200
G1 E0.80000 F2100.00000
G1 F1200.000
G1 X77.013 Y87.914 E0.52441
G1 X77.013 Y88.448 E0.01677
G1 X88.118 Y99.553 E0.49316
G1 X87.584 Y99.553 E0.01677
G1 X77.013 Y88.982 E0.46945
G1 X77.013 Y89.516 E0.01677
G1 X87.050 Y99.553 E0.44573
G1 X86.516 Y99.553 E0.01677
G1 X77.013 Y90.050 E0.42201
G1 X77.013 Y90.584 E0.01677
G1 X85.982 Y99.553 E0.39830
G1 X85.448 Y99.553 E0.01677
G1 X77.013 Y91.118 E0.37458
G1 X77.013 Y91.652 E0.01677
