; generated by PrusaSlicer 2.2.0+win64 on 2020-10-15 at 20:38:50 UTC

; 

; external perimeters extrusion width = 0.45mm
; perimeters extrusion width = 0.45mm
; infill extrusion width = 0.45mm
; solid infill extrusion width = 0.45mm
; top infill extrusion width = 0.40mm
; first layer extrusion width = 0.42mm

; external perimeters extrusion width = 0.45mm
; perimeters extrusion width = 0.45mm
; infill extrusion width = 0.45mm
; solid infill extrusion width = 0.45mm
; top infill extrusion width = 0.40mm
; first layer extrusion width = 0.42mm

M73 P0 R146
M201 X9000 Y9000 Z500 E10000 ; sets maximum accelerations, mm/sec^2
M203 X500 Y500 Z12 E120 ; sets maximum feedrates, mm/sec
M204 P2000 R1500 T2000 ; sets acceleration (P, T) and retract acceleration (R), mm/sec^2
M205 X10.00 Y10.00 Z0.20 E4.50 ; sets the jerk limits, mm/sec
M205 S0 T0 ; sets the minimum extruding and travel feed rate, mm/sec
M107
M862.3 P "MK2.5SMMU2S" ; printer model check
M862.1 P0.4 ; nozzle diameter check
M115 U3.9.0 ; tell printer latest fw version
G90 ; use absolute coordinates
M83 ; extruder relative mode
M104 S215 ; set extruder temp
M140 S60 ; set bed temp
M190 S60 ; wait for bed temp
M109 S215 ; wait for extruder temp
G28 W ; home all without mesh bed level
G80 ; mesh bed leveling

; Send the filament type to the MMU2.0 unit.
; E stands for extruder number, F stands for filament type (0: default; 1:flex; 2: PVA)
M403 E0 F0
M403 E1 F0
M403 E2 F0
M403 E3 F0
M403 E4 F0


;go outside print area
G1 Y-3.0 F1000.0
G1 Z0.4 F1000.0
; select extruder
T0
; initial load
G1 X55.0 E29.0 F1073.0
M73 P0 R145
G1 X5.0 E29.0 F1800.0
G1 X55.0 E8.0 F2000.0
G1 Z0.3 F1000.0
G92 E0.0
G1 X240.0 E25.0 F2200.0
G1 Y-2.0 F1000.0
G1 X55.0 E25 F1400.0
G1 Z0.20 F1000.0
G1 X5.0 E4.0 F1000.0
G92 E0.0

G92 E0.0
G21 ; set units to millimeters
G90 ; use absolute coordinates
M83 ; use relative distances for extrusion
T0
M900 K0.05 ; Filament gcode LA 1.5
M900 K30 ; Filament gcode LA 1.0
G1 Z0.200 F10800.000
;BEFORE_LAYER_CHANGE
G92 E0.0
;0.2


G1 E-0.80000 F2100.00000
G1 Z0.800 F10800.000
G1 Z0.200
;AFTER_LAYER_CHANGE
;0.2
G1 E-2.20000 F2100.00000
G1 Z0.800 F10800.000
G1 X156.826 Y77.913
G1 Z0.200
G1 E3.00000 F2100.00000
;-------------------------------------
; CP WIPE TOWER FIRST LAYER BRIM START
G1  X156.826 Y91.973  E0.8016 F2400
G1  X154.283 Y92.430   F7000
G1  Y77.456  E0.6260 F2100
G1  X93.369  E2.5466
G1  Y92.430  E0.6260
G1  X154.283  E2.5466
G1  X154.740 Y92.887   F7000
G1  Y76.999  E0.6642 F2100
G1  X92.912  E2.5849
G1  Y92.887  E0.6642
G1  X154.740  E2.5849
G1  X155.197 Y93.344   F7000
G1  Y76.542  E0.7025 F2100
G1  X92.455  E2.6231
G1  Y93.344  E0.7025
G1  X155.197  E2.6231
G1  X155.654 Y93.801   F7000
G1  Y76.085  E0.7407 F2100
G1  X91.998  E2.6613
G1  Y93.801  E0.7407
G1  X155.654  E2.6613
G1  X153.826 Y91.973   F7000
G1  X93.826 
G1  X153.826 
; CP WIPE TOWER FIRST LAYER BRIM END
;-----------------------------------
G1  X153.326 Y78.413   F7200
;--------------------
; CP EMPTY GRID START
; layer #1
G1  X153.826 
G1  Y77.913 
G1  Y91.973  E0.5344 F1450
G1  X93.826  E2.2804
G1  Y77.913  E0.5344
G1  X153.826  E2.2804
G1  X153.326 
G1  Y78.413 
G1  Y91.473  E0.4964
G1  X94.326  E2.2424
G1  Y78.413  E0.4964
G1  X153.326  E2.2424
G1  Y91.473 
G1  X152.826 Y90.950   E0.0275
G1  X94.826  E2.2044
G1  Y90.426  E0.0199
G1  X152.826  E2.2044
G1  Y89.903  E0.0199
G1  X94.826  E2.2044
M73 P0 R144
G1  Y89.380  E0.0199
G1  X152.826  E2.2044
G1  Y88.856  E0.0199
G1  X94.826  E2.2044
G1  Y88.333  E0.0199
G1  X152.826  E2.2044
G1  Y87.810  E0.0199
G1  X94.826  E2.2044
G1  Y87.286  E0.0199
G1  X152.826  E2.2044
G1  Y86.763  E0.0199
G1  X94.826  E2.2044
G1  Y86.240  E0.0199
G1  X152.826  E2.2044
G1  Y85.716  E0.0199
G1  X94.826  E2.2044
G1  Y85.193  E0.0199
G1  X152.826  E2.2044
G1  Y84.670  E0.0199
G1  X94.826  E2.2044
G1  Y84.146  E0.0199
G1  X152.826  E2.2044
G1  Y83.623  E0.0199
G1  X94.826  E2.2044
G1  Y83.100  E0.0199
G1  X152.826  E2.2044
G1  Y82.576  E0.0199
G1  X94.826  E2.2044
G1  Y82.053  E0.0199
G1  X152.826  E2.2044
G1  Y81.530  E0.0199
G1  X94.826  E2.2044
G1  Y81.006  E0.0199
G1  X152.826  E2.2044
G1  Y80.483  E0.0199
G1  X94.826  E2.2044
G1  Y79.960  E0.0199
G1  X152.826  E2.2044
G1  Y79.436  E0.0199
G1  X94.826  E2.2044
G1  Y78.913  E0.0199
G1  X152.826  E2.2044
G1  X94.826 
; CP EMPTY GRID END
;------------------







G1 F8640.000
G1 X91.535 Y78.913 E-0.76000
G1 E-0.04000 F2100.00000
G1 Z0.800 F10800.000
G1 X58.233 Y64.322
G1 Z0.200
G1 E0.80000 F2100.00000
M204 S1000
G1 F1200.000
G1 X58.797 Y63.944 E0.02130
G1 X110.293 Y39.644 E1.78536
G1 X110.991 Y39.536 E0.02213
G1 X139.004 Y39.536 E0.87833
G1 X139.510 Y39.591 E0.01597
G1 X139.990 Y39.752 E0.01585
G1 X140.427 Y40.012 E0.01597
G1 X140.797 Y40.357 E0.01585
G1 X191.987 Y100.550 E2.47749
M73 P1 R143
G1 X192.373 Y101.185 E0.02331
G1 X192.551 Y102.080 E0.02860
G1 X192.551 Y168.094 E2.06984
G1 X192.460 Y168.737 E0.02036
G1 X192.201 Y169.329 E0.02024
G1 X191.823 Y169.799 E0.01894
G1 X191.341 Y170.158 E0.01882
G1 X190.781 Y170.385 E0.01894
G1 X190.186 Y170.464 E0.01882
G1 X60.166 Y170.464 E4.07669
G1 X59.523 Y170.373 E0.02036
G1 X58.932 Y170.114 E0.02024
G1 X58.467 Y169.741 E0.01870
G1 X58.107 Y169.261 E0.01882
G1 X57.879 Y168.705 E0.01882
G1 X57.797 Y168.111 E0.01882
G1 X57.449 Y96.095 E2.25804
G1 X57.449 Y66.087 E0.94087
G1 X57.538 Y65.444 E0.02036
G1 X57.799 Y64.845 E0.02048
G1 X58.195 Y64.369 E0.01942
G1 F8640.000
G1 X58.797 Y63.944 E-0.17023
G1 X61.107 Y62.854 E-0.58977
G1 E-0.04000 F2100.00000
G1 Z0.800 F10800.000
G1 X125.000 Y68.118
G1 Z0.200
G1 E0.80000 F2100.00000
G1 F1200.000
G1 X123.471 Y67.967 E0.04819
G1 X122.000 Y67.521 E0.04819
G1 X120.644 Y66.797 E0.04819
G1 X119.456 Y65.822 E0.04819
G1 X118.481 Y64.634 E0.04819
G1 X117.757 Y63.278 E0.04819
G1 X117.311 Y61.808 E0.04819
G1 X117.160 Y60.278 E0.04819
G1 X117.311 Y58.749 E0.04819
G1 X117.757 Y57.278 E0.04819
G1 X118.481 Y55.922 E0.04819
G1 X119.456 Y54.734 E0.04819
G1 X120.644 Y53.759 E0.04819
G1 X122.000 Y53.035 E0.04819
G1 X123.471 Y52.589 E0.04819
G1 X125.000 Y52.438 E0.04819
G1 X126.529 Y52.589 E0.04819
G1 X128.000 Y53.035 E0.04819
G1 X129.356 Y53.759 E0.04819
G1 X130.544 Y54.734 E0.04819
G1 X131.519 Y55.922 E0.04819
G1 X132.243 Y57.278 E0.04819
G1 X132.689 Y58.749 E0.04819
G1 X132.840 Y60.278 E0.04819
G1 X132.689 Y61.808 E0.04819
G1 X132.243 Y63.278 E0.04819
G1 X131.520 Y64.631 E0.04809
G1 X130.544 Y65.822 E0.04828
G1 X129.356 Y66.797 E0.04819
G1 X128.000 Y67.521 E0.04819
G1 X126.529 Y67.967 E0.04819
G1 X125.060 Y68.112 E0.04631
G1 X125.000 Y67.739 F10800.000
G1 F1200.000
G1 X123.544 Y67.596 E0.04586
G1 X122.145 Y67.171 E0.04586
G1 X120.855 Y66.482 E0.04586
G1 X119.724 Y65.554 E0.04586
G1 X118.796 Y64.423 E0.04586
G1 X118.107 Y63.133 E0.04586
G1 X117.682 Y61.734 E0.04586
G1 X117.539 Y60.278 E0.04586
G1 X117.682 Y58.822 E0.04586
G1 X118.107 Y57.423 E0.04586
G1 X118.796 Y56.133 E0.04586
G1 X119.724 Y55.002 E0.04586
G1 X120.855 Y54.074 E0.04586
G1 X122.145 Y53.385 E0.04586
G1 X123.544 Y52.960 E0.04586
G1 X125.000 Y52.817 E0.04586
G1 X126.456 Y52.960 E0.04586
G1 X127.855 Y53.385 E0.04586
G1 X129.145 Y54.074 E0.04586
G1 X130.276 Y55.002 E0.04586
G1 X131.204 Y56.133 E0.04586
G1 X131.893 Y57.423 E0.04586
G1 X132.318 Y58.822 E0.04586
G1 X132.461 Y60.278 E0.04586
G1 X132.318 Y61.734 E0.04586
G1 X131.893 Y63.133 E0.04586
G1 X131.205 Y64.421 E0.04577
G1 X130.276 Y65.554 E0.04595
G1 X129.145 Y66.482 E0.04586
G1 X127.855 Y67.171 E0.04586
G1 X126.456 Y67.596 E0.04586
G1 X125.060 Y67.733 E0.04398
G1 X124.800 Y68.085 F10800.000
G1 F8640.000
G1 X123.544 Y67.596 E-0.35132
G1 X122.145 Y67.171 E-0.33772
G1 X121.874 Y67.026 E-0.07096
G1 E-0.04000 F2100.00000
G1 Z0.800 F10800.000
G1 X125.000 Y71.326
G1 Z0.200
G1 E0.80000 F2100.00000
G1 F1200.000
G1 X111.587 Y71.326 E0.42055
G1 X111.587 Y42.500 E0.90381
G1 X138.413 Y42.500 E0.84111
G1 X138.413 Y71.326 E0.90381
G1 X125.060 Y71.326 E0.41867
G1 X125.000 Y71.703 F10800.000
G1 F1200.000
G1 X111.210 Y71.703 E0.43238
G1 X111.210 Y42.123 E0.92746
G1 X138.790 Y42.123 E0.86475
G1 X138.790 Y71.703 E0.92746
G1 X125.060 Y71.703 E0.43050
G1 X124.686 Y71.455 F10800.000
G1 F8640.000
G1 X121.769 Y71.703 E-0.76000
G1 E-0.04000 F2100.00000
G1 Z0.800 F10800.000
G1 X118.811 Y65.214
G1 Z0.200
G1 E0.80000 F2100.00000
G1 F1200.000
G1 X111.870 Y58.272 E0.30973
G1 X111.870 Y57.736 E0.01693
G1 X117.483 Y63.349 E0.25046
G1 X117.249 Y62.578 E0.02540
G1 X111.870 Y57.199 E0.24003
G1 X111.870 Y56.663 E0.01693
G1 X117.028 Y61.821 E0.23016
G1 X116.969 Y61.225 E0.01887
G1 X111.870 Y56.126 E0.22754
G1 X111.870 Y55.589 E0.01693
G1 X116.911 Y60.630 E0.22493
G1 X116.876 Y60.278 E0.01116
G1 X116.896 Y60.078 E0.00633
G1 X111.870 Y55.053 E0.22426
G1 X111.870 Y54.516 E0.01693
G1 X116.944 Y59.590 E0.22641
G1 X116.992 Y59.101 E0.01549
G1 X111.870 Y53.979 E0.22855
G1 X111.870 Y53.443 E0.01693
G1 X117.053 Y58.625 E0.23126
G1 X117.177 Y58.214 E0.01358
G1 X111.870 Y52.906 E0.23684
G1 X111.870 Y52.369 E0.01693
G1 X117.302 Y57.802 E0.24241
G1 X117.427 Y57.390 E0.01358
G1 X111.870 Y51.833 E0.24798
G1 X111.870 Y51.296 E0.01693
G1 X117.581 Y57.007 E0.25484
G1 X117.768 Y56.657 E0.01251
G1 X111.870 Y50.759 E0.26318
G1 X111.870 Y50.223 E0.01693
G1 X117.955 Y56.308 E0.27152
G1 X118.142 Y55.958 E0.01251
G1 X111.870 Y49.686 E0.27986
G1 X111.870 Y49.149 E0.01693
G1 X118.353 Y55.633 E0.28930
G1 X118.595 Y55.338 E0.01203
G1 X111.870 Y48.613 E0.30009
G1 X111.870 Y48.076 E0.01693
G1 X118.837 Y55.043 E0.31089
G1 X119.079 Y54.749 E0.01203
G1 X111.870 Y47.540 E0.32168
G1 X111.870 Y47.003 E0.01693
G1 X119.335 Y54.468 E0.33311
G1 X119.630 Y54.226 E0.01203
G1 X111.870 Y46.466 E0.34627
G1 X111.870 Y45.930 E0.01693
G1 X119.925 Y53.984 E0.35942
G1 X120.219 Y53.742 E0.01203
G1 X111.870 Y45.393 E0.37257
G1 X111.870 Y44.856 E0.01693
G1 X120.519 Y53.506 E0.38595
G1 X120.869 Y53.319 E0.01251
G1 X111.870 Y44.320 E0.40156
G1 X111.870 Y43.783 E0.01693
G1 X121.219 Y53.132 E0.41716
G1 X121.568 Y52.945 E0.01251
G1 X111.870 Y43.246 E0.43277
G1 X111.870 Y42.783 E0.01462
G1 X111.943 Y42.783 E0.00231
G1 X121.923 Y52.763 E0.44532
G1 X122.335 Y52.638 E0.01358
G1 X112.480 Y42.783 E0.43974
G1 X113.016 Y42.783 E0.01693
G1 X122.746 Y52.513 E0.43417
G1 X123.158 Y52.388 E0.01358
G1 X113.553 Y42.783 E0.42860
G1 X114.090 Y42.783 E0.01693
G1 X123.599 Y52.292 E0.42431
G1 X124.087 Y52.244 E0.01549
G1 X114.626 Y42.783 E0.42216
G1 X115.163 Y42.783 E0.01693
G1 X124.576 Y52.196 E0.42002
G1 X125.000 Y52.154 E0.01345
G1 X125.078 Y52.162 E0.00248
G1 X115.700 Y42.783 E0.41850
G1 X116.236 Y42.783 E0.01693
G1 X125.674 Y52.220 E0.42111
G1 X126.269 Y52.279 E0.01887
G1 X116.773 Y42.783 E0.42373
G1 X117.310 Y42.783 E0.01693
G1 X126.946 Y52.420 E0.43001
G1 X127.717 Y52.653 E0.02540
G1 X117.846 Y42.783 E0.44044
G1 X118.383 Y42.783 E0.01693
G1 X129.088 Y53.488 E0.47768
G1 F8640.000
G1 X126.761 Y51.161 E-0.76000
G1 E-0.04000 F2100.00000
G1 Z0.800 F10800.000
G1 X138.300 Y43.381
G1 Z0.200
G1 E0.80000 F2100.00000
G1 F1200.000
G1 X137.702 Y42.783 E0.02667
G1 X137.166 Y42.783 E0.01693
G1 X138.130 Y43.748 E0.04304
G1 X138.130 Y44.284 E0.01693
G1 X136.629 Y42.783 E0.06699
G1 X136.092 Y42.783 E0.01693
G1 X138.130 Y44.821 E0.09094
G1 X138.130 Y45.358 E0.01693
G1 X135.556 Y42.783 E0.11488
G1 X135.019 Y42.783 E0.01693
G1 X138.130 Y45.894 E0.13883
G1 X138.130 Y46.431 E0.01693
G1 X134.482 Y42.783 E0.16277
G1 X133.946 Y42.783 E0.01693
G1 X138.130 Y46.968 E0.18672
G1 X138.130 Y47.504 E0.01693
G1 X133.409 Y42.783 E0.21067
G1 X132.872 Y42.783 E0.01693
G1 X138.130 Y48.041 E0.23461
G1 X138.130 Y48.577 E0.01693
G1 X132.336 Y42.783 E0.25856
M73 P2 R142
G1 X131.799 Y42.783 E0.01693
G1 X138.130 Y49.114 E0.28251
G1 X138.130 Y49.651 E0.01693
G1 X131.262 Y42.783 E0.30645
G1 X130.726 Y42.783 E0.01693
G1 X138.130 Y50.187 E0.33040
G1 X138.130 Y50.724 E0.01693
G1 X130.189 Y42.783 E0.35435
G1 X129.652 Y42.783 E0.01693
G1 X138.130 Y51.261 E0.37829
G1 X138.130 Y51.797 E0.01693
G1 X129.116 Y42.783 E0.40224
G1 X128.579 Y42.783 E0.01693
G1 X138.130 Y52.334 E0.42619
G1 X138.130 Y52.871 E0.01693
G1 X128.043 Y42.783 E0.45013
G1 X127.506 Y42.783 E0.01693
G1 X138.130 Y53.407 E0.47408
G1 X138.130 Y53.944 E0.01693
G1 X126.969 Y42.783 E0.49802
G1 X126.433 Y42.783 E0.01693
G1 X138.130 Y54.481 E0.52197
G1 X138.130 Y55.017 E0.01693
G1 X125.896 Y42.783 E0.54592
G1 X125.359 Y42.783 E0.01693
G1 X138.130 Y55.554 E0.56986
G1 X138.130 Y56.090 E0.01693
G1 X124.823 Y42.783 E0.59381
G1 X124.286 Y42.783 E0.01693
G1 X138.130 Y56.627 E0.61776
G1 X138.130 Y57.164 E0.01693
G1 X123.749 Y42.783 E0.64170
G1 X123.213 Y42.783 E0.01693
G1 X138.130 Y57.700 E0.66565
G1 X138.130 Y58.237 E0.01693
G1 X122.676 Y42.783 E0.68960
G1 X122.139 Y42.783 E0.01693
G1 X138.130 Y58.774 E0.71354
G1 X138.130 Y59.310 E0.01693
G1 X121.603 Y42.783 E0.73749
G1 X121.066 Y42.783 E0.01693
G1 X138.130 Y59.847 E0.76143
G1 X138.130 Y60.384 E0.01693
G1 X120.529 Y42.783 E0.78538
G1 X119.993 Y42.783 E0.01693
G1 X138.130 Y60.920 E0.80933
G1 X138.130 Y61.457 E0.01693
G1 X119.456 Y42.783 E0.83327
G1 X118.920 Y42.783 E0.01693
G1 X138.130 Y61.994 E0.85722
G1 X138.130 Y62.530 E0.01693
G1 X132.203 Y56.603 E0.26447
G1 X132.506 Y57.169 E0.02024
G1 X132.625 Y57.561 E0.01294
G1 X138.130 Y63.067 E0.24566
G1 X138.130 Y63.604 E0.01693
G1 X132.858 Y58.332 E0.23524
G1 X132.968 Y58.693 E0.01191
G1 X132.999 Y59.009 E0.01002
G1 X138.130 Y64.140 E0.22896
G1 X138.130 Y64.677 E0.01693
G1 X133.058 Y59.604 E0.22634
G1 X133.116 Y60.200 E0.01887
G1 X138.130 Y65.213 E0.22373
G1 X138.130 Y65.750 E0.01693
G1 X133.082 Y60.702 E0.22525
G1 X133.034 Y61.191 E0.01549
G1 X138.130 Y66.287 E0.22739
G1 X138.130 Y66.823 E0.01693
G1 X132.986 Y61.679 E0.22954
G1 X132.968 Y61.863 E0.00582
G1 X132.890 Y62.120 E0.00847
G1 X138.130 Y67.360 E0.23383
G1 X138.130 Y67.897 E0.01693
G1 X132.765 Y62.532 E0.23940
G1 X132.640 Y62.943 E0.01358
G1 X138.130 Y68.433 E0.24497
G1 X138.130 Y68.970 E0.01693
G1 X132.515 Y63.355 E0.25055
G1 X132.333 Y63.710 E0.01258
G1 X138.130 Y69.507 E0.25867
G1 X138.130 Y70.043 E0.01693
G1 X132.146 Y64.059 E0.26701
G1 X131.959 Y64.409 E0.01251
G1 X138.130 Y70.580 E0.27536
G1 X138.130 Y71.043 E0.01462
G1 X138.057 Y71.043 E0.00231
G1 X131.772 Y64.759 E0.28043
G1 X131.535 Y65.058 E0.01205
G1 X137.520 Y71.043 E0.26706
G1 X136.984 Y71.043 E0.01693
G1 X131.294 Y65.353 E0.25390
G1 X131.052 Y65.648 E0.01203
G1 X136.447 Y71.043 E0.24074
G1 X135.910 Y71.043 E0.01693
G1 X130.810 Y65.943 E0.22759
G1 X130.745 Y66.022 E0.00325
G1 X130.529 Y66.199 E0.00879
G1 X135.374 Y71.043 E0.21616
G1 X134.837 Y71.043 E0.01693
G1 X130.235 Y66.441 E0.20536
G1 X129.940 Y66.683 E0.01203
G1 X134.300 Y71.043 E0.19457
G1 X133.764 Y71.043 E0.01693
G1 X129.645 Y66.925 E0.18377
G1 X129.513 Y67.033 E0.00538
G1 X129.320 Y67.136 E0.00692
G1 X133.227 Y71.043 E0.17434
G1 X132.690 Y71.043 E0.01693
G1 X128.970 Y67.323 E0.16600
G1 X128.621 Y67.510 E0.01251
G1 X132.154 Y71.043 E0.15765
G1 X131.617 Y71.043 E0.01693
G1 X128.271 Y67.697 E0.14931
G1 X128.109 Y67.784 E0.00579
G1 X127.888 Y67.851 E0.00729
G1 X131.080 Y71.043 E0.14246
G1 X130.544 Y71.043 E0.01693
G1 X127.476 Y67.976 E0.13688
G1 X127.064 Y68.101 E0.01358
G1 X130.007 Y71.043 E0.13131
G1 X129.470 Y71.043 E0.01693
G1 X126.653 Y68.225 E0.12574
G1 X126.177 Y68.286 E0.01514
G1 X128.934 Y71.043 E0.12303
G1 X128.397 Y71.043 E0.01693
G1 X125.688 Y68.334 E0.12088
G1 X125.200 Y68.382 E0.01549
G1 X127.861 Y71.043 E0.11873
G1 X127.324 Y71.043 E0.01693
G1 X124.648 Y68.367 E0.11940
G1 X124.053 Y68.309 E0.01887
G1 X126.787 Y71.043 E0.12202
G1 X126.251 Y71.043 E0.01693
G1 X123.458 Y68.250 E0.12463
G1 X122.700 Y68.029 E0.02491
G1 X125.714 Y71.043 E0.13451
G1 X125.177 Y71.043 E0.01693
G1 X121.929 Y67.795 E0.14493
G1 X120.796 Y67.198 E0.04043
G1 X124.641 Y71.043 E0.17158
G1 X124.104 Y71.043 E0.01693
G1 X111.870 Y58.809 E0.54592
G1 X111.870 Y59.346 E0.01693
G1 X123.567 Y71.043 E0.52197
G1 X123.031 Y71.043 E0.01693
G1 X111.870 Y59.882 E0.49802
G1 X111.870 Y60.419 E0.01693
G1 X122.494 Y71.043 E0.47408
G1 X121.957 Y71.043 E0.01693
G1 X111.870 Y60.956 E0.45013
G1 X111.870 Y61.492 E0.01693
G1 X121.421 Y71.043 E0.42618
G1 X120.884 Y71.043 E0.01693
