; generated by PrusaSlicer 2.2.0+win64 on 2020-10-15 at 20:38:02 UTC

; 

; external perimeters extrusion width = 0.45mm
; perimeters extrusion width = 0.45mm
; infill extrusion width = 0.45mm
; solid infill extrusion width = 0.45mm
; top infill extrusion width = 0.40mm
; first layer extrusion width = 0.42mm

; external perimeters extrusion width = 0.45mm
; perimeters extrusion width = 0.45mm
; infill extrusion width = 0.45mm
; solid infill extrusion width = 0.45mm
; top infill extrusion width = 0.40mm
; first layer extrusion width = 0.42mm

M73 P0 R23
M201 X9000 Y9000 Z500 E10000 ; sets maximum accelerations, mm/sec^2
M203 X500 Y500 Z12 E120 ; sets maximum feedrates, mm/sec
M204 P2000 R1500 T2000 ; sets acceleration (P, T) and retract acceleration (R), mm/sec^2
M205 X10.00 Y10.00 Z0.20 E4.50 ; sets the jerk limits, mm/sec
M205 S0 T0 ; sets the minimum extruding and travel feed rate, mm/sec
M107
M862.3 P "MK2.5SMMU2S" ; printer model check
M862.1 P0.4 ; nozzle diameter check
M115 U3.9.0 ; tell printer latest fw version
G90 ; use absolute coordinates
M83 ; extruder relative mode
M104 S215 ; set extruder temp
M140 S60 ; set bed temp
M190 S60 ; wait for bed temp
M109 S215 ; wait for extruder temp
G28 W ; home all without mesh bed level
G80 ; mesh bed leveling

; Send the filament type to the MMU2.0 unit.
; E stands for extruder number, F stands for filament type (0: default; 1:flex; 2: PVA)
M403 E0 F0
M403 E1 F0
M403 E2 F0
M403 E3 F0
M403 E4 F0


;go outside print area
G1 Y-3.0 F1000.0
G1 Z0.4 F1000.0
; select extruder
T0
; initial load
G1 X55.0 E29.0 F1073.0
M73 P1 R23
G1 X5.0 E29.0 F1800.0
G1 X55.0 E8.0 F2000.0
G1 Z0.3 F1000.0
G92 E0.0
G1 X240.0 E25.0 F2200.0
G1 Y-2.0 F1000.0
G1 X55.0 E25 F1400.0
G1 Z0.20 F1000.0
G1 X5.0 E4.0 F1000.0
G92 E0.0

G92 E0.0
G21 ; set units to millimeters
G90 ; use absolute coordinates
M83 ; use relative distances for extrusion
T0
M900 K0.05 ; Filament gcode LA 1.5
M900 K30 ; Filament gcode LA 1.0
G1 Z0.200 F10800.000
;BEFORE_LAYER_CHANGE
G92 E0.0
;0.2


G1 E-0.80000 F2100.00000
G1 Z0.800 F10800.000
G1 Z0.200
;AFTER_LAYER_CHANGE
;0.2
G1 E-2.20000 F2100.00000
G1 Z0.800 F10800.000
G1 X233.000 Y140.000
G1 Z0.200
G1 E3.00000 F2100.00000
;-------------------------------------
; CP WIPE TOWER FIRST LAYER BRIM START
G1  X233.000 Y154.060  E0.8016 F2400
G1  X230.457 Y154.517   F7000
G1  Y139.543  E0.6260 F2100
G1  X169.543  E2.5466
G1  Y154.517  E0.6260
G1  X230.457  E2.5466
G1  X230.914 Y154.974   F7000
G1  Y139.086  E0.6642 F2100
G1  X169.086  E2.5849
G1  Y154.974  E0.6642
G1  X230.914  E2.5849
G1  X231.371 Y155.431   F7000
G1  Y138.629  E0.7025 F2100
G1  X168.629  E2.6231
G1  Y155.431  E0.7025
G1  X231.371  E2.6231
G1  X231.828 Y155.888   F7000
G1  Y138.172  E0.7407 F2100
G1  X168.172  E2.6613
G1  Y155.888  E0.7407
G1  X231.828  E2.6613
G1  X230.000 Y154.060   F7000
G1  X170.000 
G1  X230.000 
; CP WIPE TOWER FIRST LAYER BRIM END
;-----------------------------------
G1  X229.500 Y140.500   F7200
;--------------------
; CP EMPTY GRID START
; layer #1
G1  X230.000 
G1  Y140.000 
G1  Y154.060  E0.5344 F1450
G1  X170.000  E2.2804
G1  Y140.000  E0.5344
G1  X230.000  E2.2804
G1  X229.500 
G1  Y140.500 
G1  Y153.560  E0.4964
G1  X170.500  E2.2424
G1  Y140.500  E0.4964
G1  X229.500  E2.2424
G1  Y153.560 
G1  X229.000 Y153.037   E0.0275
G1  X171.000  E2.2044
G1  Y152.513  E0.0199
G1  X229.000  E2.2044
G1  Y151.990  E0.0199
G1  X171.000  E2.2044
M73 P5 R22
G1  Y151.467  E0.0199
G1  X229.000  E2.2044
G1  Y150.943  E0.0199
G1  X171.000  E2.2044
G1  Y150.420  E0.0199
G1  X229.000  E2.2044
G1  Y149.897  E0.0199
G1  X171.000  E2.2044
G1  Y149.373  E0.0199
G1  X229.000  E2.2044
G1  Y148.850  E0.0199
G1  X171.000  E2.2044
G1  Y148.327  E0.0199
G1  X229.000  E2.2044
G1  Y147.803  E0.0199
G1  X171.000  E2.2044
G1  Y147.280  E0.0199
G1  X229.000  E2.2044
G1  Y146.757  E0.0199
G1  X171.000  E2.2044
G1  Y146.233  E0.0199
G1  X229.000  E2.2044
G1  Y145.710  E0.0199
G1  X171.000  E2.2044
G1  Y145.187  E0.0199
G1  X229.000  E2.2044
G1  Y144.663  E0.0199
G1  X171.000  E2.2044
G1  Y144.140  E0.0199
G1  X229.000  E2.2044
G1  Y143.617  E0.0199
G1  X171.000  E2.2044
G1  Y143.093  E0.0199
G1  X229.000  E2.2044
G1  Y142.570  E0.0199
G1  X171.000  E2.2044
G1  Y142.047  E0.0199
G1  X229.000  E2.2044
G1  Y141.523  E0.0199
G1  X171.000  E2.2044
G1  Y141.000  E0.0199
G1  X229.000  E2.2044
G1  X171.000 
; CP EMPTY GRID END
;------------------







G1 F8640.000
G1 X167.709 Y141.000 E-0.76000
G1 E-0.04000 F2100.00000
G1 Z0.800 F10800.000
G1 X167.289 Y158.402
G1 Z0.200
G1 E0.80000 F2100.00000
M204 S1000
G1 F1200.000
G1 X166.672 Y158.126 E0.02119
G1 X109.446 Y121.799 E2.12529
G1 X109.103 Y121.432 E0.01574
G1 X108.843 Y120.999 E0.01585
G1 X108.680 Y120.520 E0.01585
G1 X108.623 Y120.017 E0.01585
G1 X108.623 Y89.958 E0.94248
G1 X108.780 Y89.151 E0.02579
G1 X109.202 Y88.445 E0.02579
G1 X109.563 Y88.107 E0.01550
G1 X109.982 Y87.852 E0.01538
G1 X110.448 Y87.688 E0.01550
G1 X110.934 Y87.624 E0.01538
G1 X139.004 Y87.623 E0.88010
M73 P10 R21
G1 X139.558 Y87.689 E0.01752
G1 X140.082 Y87.884 E0.01752
G1 X233.466 Y136.029 E3.29420
G1 X233.864 Y136.399 E0.01704
G1 X234.166 Y136.846 E0.01692
G1 X234.360 Y137.354 E0.01704
G1 X234.433 Y137.888 E0.01692
G1 X234.433 Y156.174 E0.57333
G1 X234.307 Y156.884 E0.02260
G1 X233.971 Y157.526 E0.02272
G1 X233.598 Y157.926 E0.01716
G1 X233.143 Y158.231 E0.01716
G1 X232.631 Y158.424 E0.01716
G1 X232.088 Y158.494 E0.01716
G1 X167.939 Y158.494 E2.01135
G1 X167.348 Y158.411 E0.01871
G1 F8640.000
G1 X166.672 Y158.126 E-0.16938
G1 X164.513 Y156.755 E-0.59062
G1 E-0.04000 F2100.00000
G1 Z0.800 F10800.000
G1 X125.000 Y116.205
G1 Z0.200
G1 E0.80000 F2100.00000
G1 F1200.000
G1 X123.471 Y116.054 E0.04819
G1 X122.000 Y115.608 E0.04819
G1 X120.644 Y114.884 E0.04819
G1 X119.456 Y113.909 E0.04819
G1 X118.481 Y112.720 E0.04819
G1 X117.757 Y111.365 E0.04819
G1 X117.311 Y109.894 E0.04819
G1 X117.160 Y108.365 E0.04819
G1 X117.311 Y106.835 E0.04819
G1 X117.757 Y105.365 E0.04819
G1 X118.481 Y104.009 E0.04819
G1 X119.456 Y102.821 E0.04819
G1 X120.644 Y101.846 E0.04819
G1 X122.000 Y101.122 E0.04819
G1 X123.471 Y100.676 E0.04819
G1 X125.000 Y100.525 E0.04819
G1 X126.529 Y100.676 E0.04819
G1 X128.000 Y101.122 E0.04819
G1 X129.356 Y101.846 E0.04819
G1 X130.544 Y102.821 E0.04819
G1 X131.519 Y104.009 E0.04819
G1 X132.243 Y105.365 E0.04819
G1 X132.689 Y106.835 E0.04819
G1 X132.840 Y108.365 E0.04819
G1 X132.689 Y109.894 E0.04819
G1 X132.243 Y111.365 E0.04819
G1 X131.520 Y112.718 E0.04809
G1 X130.544 Y113.908 E0.04828
G1 X129.356 Y114.884 E0.04819
G1 X128.000 Y115.608 E0.04819
G1 X126.529 Y116.054 E0.04819
G1 X125.060 Y116.199 E0.04631
G1 X125.000 Y115.826 F10800.000
G1 F1200.000
G1 X123.544 Y115.683 E0.04586
G1 X122.145 Y115.258 E0.04586
G1 X120.855 Y114.568 E0.04586
G1 X119.724 Y113.641 E0.04586
G1 X118.796 Y112.510 E0.04586
G1 X118.107 Y111.220 E0.04586
G1 X117.682 Y109.820 E0.04586
G1 X117.539 Y108.365 E0.04586
G1 X117.682 Y106.909 E0.04586
G1 X118.107 Y105.510 E0.04586
G1 X118.796 Y104.220 E0.04586
G1 X119.724 Y103.089 E0.04586
G1 X120.855 Y102.161 E0.04586
G1 X122.145 Y101.472 E0.04586
G1 X123.544 Y101.047 E0.04586
G1 X125.000 Y100.904 E0.04586
G1 X126.456 Y101.047 E0.04586
G1 X127.855 Y101.472 E0.04586
G1 X129.145 Y102.161 E0.04586
G1 X130.276 Y103.089 E0.04586
G1 X131.204 Y104.220 E0.04586
G1 X131.893 Y105.510 E0.04586
G1 X132.318 Y106.909 E0.04586
G1 X132.461 Y108.365 E0.04586
G1 X132.318 Y109.820 E0.04586
G1 X131.893 Y111.220 E0.04586
G1 X131.205 Y112.507 E0.04577
G1 X130.276 Y113.641 E0.04595
G1 X129.145 Y114.568 E0.04586
G1 X127.855 Y115.258 E0.04586
G1 X126.456 Y115.683 E0.04586
G1 X125.060 Y115.820 E0.04398
G1 X124.800 Y116.172 F10800.000
G1 F8640.000
G1 X123.544 Y115.683 E-0.35132
G1 X122.145 Y115.258 E-0.33772
G1 X121.874 Y115.113 E-0.07096
G1 E-0.04000 F2100.00000
G1 Z0.800 F10800.000
G1 X125.000 Y119.413
G1 Z0.200
G1 E0.80000 F2100.00000
G1 F1200.000
G1 X111.587 Y119.413 E0.42055
G1 X111.587 Y90.587 E0.90381
G1 X138.413 Y90.587 E0.84111
G1 X138.413 Y119.413 E0.90381
G1 X125.060 Y119.413 E0.41867
G1 X125.000 Y119.790 F10800.000
G1 F1200.000
G1 X111.210 Y119.790 E0.43238
G1 X111.210 Y90.210 E0.92746
G1 X138.790 Y90.210 E0.86475
G1 X138.790 Y119.790 E0.92746
G1 X125.060 Y119.790 E0.43050
G1 X124.686 Y119.542 F10800.000
G1 F8640.000
G1 X121.769 Y119.790 E-0.76000
G1 E-0.04000 F2100.00000
G1 Z0.800 F10800.000
G1 X118.811 Y113.300
G1 Z0.200
G1 E0.80000 F2100.00000
G1 F1200.000
G1 X111.870 Y106.359 E0.30973
G1 X111.870 Y105.823 E0.01693
G1 X117.483 Y111.436 E0.25046
G1 X117.249 Y110.665 E0.02540
G1 X111.870 Y105.286 E0.24003
G1 X111.870 Y104.749 E0.01693
G1 X117.028 Y109.907 E0.23016
G1 X116.969 Y109.312 E0.01887
G1 X111.870 Y104.213 E0.22754
G1 X111.870 Y103.676 E0.01693
G1 X116.911 Y108.717 E0.22493
G1 X116.876 Y108.365 E0.01116
G1 X116.896 Y108.165 E0.00633
G1 X111.870 Y103.139 E0.22426
G1 X111.870 Y102.603 E0.01693
G1 X116.944 Y107.677 E0.22641
G1 X116.992 Y107.188 E0.01549
G1 X111.870 Y102.066 E0.22855
G1 X111.870 Y101.530 E0.01693
G1 X117.053 Y106.712 E0.23126
G1 X117.177 Y106.300 E0.01358
G1 X111.870 Y100.993 E0.23684
G1 X111.870 Y100.456 E0.01693
G1 X117.302 Y105.889 E0.24241
G1 X117.427 Y105.477 E0.01358
G1 X111.870 Y99.920 E0.24798
G1 X111.870 Y99.383 E0.01693
G1 X117.581 Y105.094 E0.25484
G1 X117.768 Y104.744 E0.01251
G1 X111.870 Y98.846 E0.26318
G1 X111.870 Y98.310 E0.01693
G1 X117.955 Y104.395 E0.27152
G1 X118.142 Y104.045 E0.01251
G1 X111.870 Y97.773 E0.27986
G1 X111.870 Y97.236 E0.01693
G1 X118.353 Y103.720 E0.28930
G1 X118.595 Y103.425 E0.01203
G1 X111.870 Y96.700 E0.30009
G1 X111.870 Y96.163 E0.01693
G1 X118.837 Y103.130 E0.31089
G1 X119.079 Y102.835 E0.01203
G1 X111.870 Y95.626 E0.32168
G1 X111.870 Y95.090 E0.01693
G1 X119.335 Y102.555 E0.33311
G1 X119.630 Y102.313 E0.01203
G1 X111.870 Y94.553 E0.34627
G1 X111.870 Y94.016 E0.01693
G1 X119.925 Y102.071 E0.35942
G1 X120.219 Y101.829 E0.01203
G1 X111.870 Y93.480 E0.37257
G1 X111.870 Y92.943 E0.01693
G1 X120.519 Y101.592 E0.38595
G1 X120.869 Y101.406 E0.01251
G1 X111.870 Y92.407 E0.40156
G1 X111.870 Y91.870 E0.01693
G1 X121.219 Y101.219 E0.41716
G1 X121.568 Y101.032 E0.01251
G1 X111.870 Y91.333 E0.43277
G1 X111.870 Y90.870 E0.01462
G1 X111.943 Y90.870 E0.00231
G1 X121.923 Y100.850 E0.44532
G1 X122.335 Y100.725 E0.01358
G1 X112.480 Y90.870 E0.43974
G1 X113.016 Y90.870 E0.01693
G1 X122.746 Y100.600 E0.43417
G1 X123.158 Y100.475 E0.01358
G1 X113.553 Y90.870 E0.42860
G1 X114.090 Y90.870 E0.01693
G1 X123.599 Y100.379 E0.42431
G1 X124.087 Y100.331 E0.01549
G1 X114.626 Y90.870 E0.42216
G1 X115.163 Y90.870 E0.01693
G1 X124.576 Y100.283 E0.42002
G1 X125.000 Y100.241 E0.01345
G1 X125.078 Y100.249 E0.00248
G1 X115.700 Y90.870 E0.41850
G1 X116.236 Y90.870 E0.01693
G1 X125.674 Y100.307 E0.42111
G1 X126.269 Y100.366 E0.01887
G1 X116.773 Y90.870 E0.42373
G1 X117.310 Y90.870 E0.01693
G1 X126.946 Y100.506 E0.43001
G1 X127.717 Y100.740 E0.02540
G1 X117.846 Y90.870 E0.44044
G1 X118.383 Y90.870 E0.01693
G1 X129.088 Y101.575 E0.47768
G1 F8640.000
G1 X126.761 Y99.247 E-0.76000
G1 E-0.04000 F2100.00000
G1 Z0.800 F10800.000
G1 X138.300 Y91.468
G1 Z0.200
G1 E0.80000 F2100.00000
G1 F1200.000
G1 X137.702 Y90.870 E0.02667
G1 X137.166 Y90.870 E0.01693
G1 X138.130 Y91.834 E0.04304
G1 X138.130 Y92.371 E0.01693
G1 X136.629 Y90.870 E0.06699
G1 X136.092 Y90.870 E0.01693
G1 X138.130 Y92.908 E0.09094
G1 X138.130 Y93.444 E0.01693
G1 X135.556 Y90.870 E0.11488
G1 X135.019 Y90.870 E0.01693
G1 X138.130 Y93.981 E0.13883
G1 X138.130 Y94.518 E0.01693
G1 X134.482 Y90.870 E0.16277
G1 X133.946 Y90.870 E0.01693
G1 X138.130 Y95.054 E0.18672
G1 X138.130 Y95.591 E0.01693
G1 X133.409 Y90.870 E0.21067
G1 X132.872 Y90.870 E0.01693
G1 X138.130 Y96.128 E0.23461
G1 X138.130 Y96.664 E0.01693
G1 X132.336 Y90.870 E0.25856
G1 X131.799 Y90.870 E0.01693
G1 X138.130 Y97.201 E0.28251
G1 X138.130 Y97.738 E0.01693
G1 X131.262 Y90.870 E0.30645
G1 X130.726 Y90.870 E0.01693
G1 X138.130 Y98.274 E0.33040
G1 X138.130 Y98.811 E0.01693
G1 X130.189 Y90.870 E0.35435
G1 X129.652 Y90.870 E0.01693
G1 X138.130 Y99.348 E0.37829
G1 X138.130 Y99.884 E0.01693
G1 X129.116 Y90.870 E0.40224
G1 X128.579 Y90.870 E0.01693
G1 X138.130 Y100.421 E0.42619
G1 X138.130 Y100.957 E0.01693
G1 X128.043 Y90.870 E0.45013
G1 X127.506 Y90.870 E0.01693
G1 X138.130 Y101.494 E0.47408
M73 P14 R20
G1 X138.130 Y102.031 E0.01693
G1 X126.969 Y90.870 E0.49802
G1 X126.433 Y90.870 E0.01693
G1 X138.130 Y102.567 E0.52197
G1 X138.130 Y103.104 E0.01693
G1 X125.896 Y90.870 E0.54592
G1 X125.359 Y90.870 E0.01693
G1 X138.130 Y103.641 E0.56986
G1 X138.130 Y104.177 E0.01693
G1 X124.823 Y90.870 E0.59381
G1 X124.286 Y90.870 E0.01693
G1 X138.130 Y104.714 E0.61776
G1 X138.130 Y105.251 E0.01693
G1 X123.749 Y90.870 E0.64170
G1 X123.213 Y90.870 E0.01693
G1 X138.130 Y105.787 E0.66565
G1 X138.130 Y106.324 E0.01693
G1 X122.676 Y90.870 E0.68960
G1 X122.139 Y90.870 E0.01693
G1 X138.130 Y106.861 E0.71354
G1 X138.130 Y107.397 E0.01693
G1 X121.603 Y90.870 E0.73749
G1 X121.066 Y90.870 E0.01693
G1 X138.130 Y107.934 E0.76143
G1 X138.130 Y108.471 E0.01693
G1 X120.529 Y90.870 E0.78538
G1 X119.993 Y90.870 E0.01693
G1 X138.130 Y109.007 E0.80933
G1 X138.130 Y109.544 E0.01693
G1 X119.456 Y90.870 E0.83327
G1 X118.920 Y90.870 E0.01693
G1 X138.130 Y110.080 E0.85722
G1 X138.130 Y110.617 E0.01693
G1 X132.203 Y104.690 E0.26447
G1 X132.506 Y105.256 E0.02024
G1 X132.625 Y105.648 E0.01294
G1 X138.130 Y111.154 E0.24566
G1 X138.130 Y111.690 E0.01693
G1 X132.858 Y106.419 E0.23524
G1 X132.968 Y106.780 E0.01191
G1 X132.999 Y107.096 E0.01002
G1 X138.130 Y112.227 E0.22896
G1 X138.130 Y112.764 E0.01693
G1 X133.058 Y107.691 E0.22634
G1 X133.116 Y108.287 E0.01887
G1 X138.130 Y113.300 E0.22373
G1 X138.130 Y113.837 E0.01693
G1 X133.082 Y108.789 E0.22525
G1 X133.034 Y109.278 E0.01549
G1 X138.130 Y114.374 E0.22739
G1 X138.130 Y114.910 E0.01693
G1 X132.986 Y109.766 E0.22954
G1 X132.968 Y109.950 E0.00582
G1 X132.890 Y110.207 E0.00847
G1 X138.130 Y115.447 E0.23383
G1 X138.130 Y115.984 E0.01693
G1 X132.765 Y110.619 E0.23940
G1 X132.640 Y111.030 E0.01358
G1 X138.130 Y116.520 E0.24497
G1 X138.130 Y117.057 E0.01693
G1 X132.515 Y111.442 E0.25055
G1 X132.333 Y111.797 E0.01258
G1 X138.130 Y117.593 E0.25867
G1 X138.130 Y118.130 E0.01693
G1 X132.146 Y112.146 E0.26701
G1 X131.959 Y112.496 E0.01251
G1 X138.130 Y118.667 E0.27536
G1 X138.130 Y119.130 E0.01462
G1 X138.057 Y119.130 E0.00231
G1 X131.772 Y112.846 E0.28043
G1 X131.535 Y113.145 E0.01205
G1 X137.520 Y119.130 E0.26706
G1 X136.984 Y119.130 E0.01693
G1 X131.294 Y113.440 E0.25390
G1 X131.052 Y113.735 E0.01203
G1 X136.447 Y119.130 E0.24074
G1 X135.910 Y119.130 E0.01693
G1 X130.810 Y114.030 E0.22759
G1 X130.745 Y114.109 E0.00325
G1 X130.529 Y114.286 E0.00879
G1 X135.374 Y119.130 E0.21616
G1 X134.837 Y119.130 E0.01693
G1 X130.235 Y114.528 E0.20536
G1 X129.940 Y114.770 E0.01203
G1 X134.300 Y119.130 E0.19457
G1 X133.764 Y119.130 E0.01693
G1 X129.645 Y115.012 E0.18377
G1 X129.513 Y115.120 E0.00538
G1 X129.320 Y115.223 E0.00692
G1 X133.227 Y119.130 E0.17434
G1 X132.690 Y119.130 E0.01693
G1 X128.970 Y115.410 E0.16600
G1 X128.621 Y115.597 E0.01251
G1 X132.154 Y119.130 E0.15765
G1 X131.617 Y119.130 E0.01693
G1 X128.271 Y115.784 E0.14931
G1 X128.109 Y115.871 E0.00579
G1 X127.888 Y115.938 E0.00729
G1 X131.080 Y119.130 E0.14246
G1 X130.544 Y119.130 E0.01693
G1 X127.476 Y116.062 E0.13688
G1 X127.064 Y116.187 E0.01358
G1 X130.007 Y119.130 E0.13131
G1 X129.470 Y119.130 E0.01693
G1 X126.653 Y116.312 E0.12574
G1 X126.177 Y116.373 E0.01514
G1 X128.934 Y119.130 E0.12303
G1 X128.397 Y119.130 E0.01693
G1 X125.688 Y116.421 E0.12088
G1 X125.200 Y116.469 E0.01549
G1 X127.861 Y119.130 E0.11873
G1 X127.324 Y119.130 E0.01693
G1 X124.648 Y116.454 E0.11940
G1 X124.053 Y116.396 E0.01887
G1 X126.787 Y119.130 E0.12202
G1 X126.251 Y119.130 E0.01693
G1 X123.458 Y116.337 E0.12463
G1 X122.700 Y116.116 E0.02491
G1 X125.714 Y119.130 E0.13451
G1 X125.177 Y119.130 E0.01693
G1 X121.929 Y115.882 E0.14493
G1 X120.796 Y115.285 E0.04043
G1 X124.641 Y119.130 E0.17158
G1 X124.104 Y119.130 E0.01693
