; generated by PrusaSlicer 2.0.0+ on 2019-08-14 at 16:55:39

; 

; external perimeters extrusion width = 0.35mm
; perimeters extrusion width = 0.35mm
; infill extrusion width = 0.45mm
; solid infill extrusion width = 0.45mm
; top infill extrusion width = 0.40mm
; first layer extrusion width = 0.42mm

; external perimeters extrusion width = 0.35mm
; perimeters extrusion width = 0.35mm
; infill extrusion width = 0.45mm
; solid infill extrusion width = 0.45mm
; top infill extrusion width = 0.40mm
; first layer extrusion width = 0.42mm

M73 P0 R24
M201 X9000 Y9000 Z500 E10000 ; sets maximum accelerations, mm/sec^2
M203 X500 Y500 Z12 E120 ; sets maximum feedrates, mm/sec
M204 P2000 R1500 T2000 ; sets acceleration (P, T) and retract acceleration (R), mm/sec^2
M205 X10.00 Y10.00 Z0.20 E2.50 ; sets the jerk limits, mm/sec
M205 S0 T0 ; sets the minimum extruding and travel feed rate, mm/sec
M107
M115 U3.7.2 ; tell printer latest fw version
G90 ; use absolute coordinates
M83 ; extruder relative mode
M104 S215 ; set extruder temp
M140 S60 ; set bed temp
M190 S60 ; wait for bed temp
M109 S215 ; wait for extruder temp
G28 W ; home all without mesh bed level
G80 ; mesh bed leveling
G21 ; set units to millimeters

; Send the filament type to the MMU2.0 unit.
; E stands for extruder number, F stands for filament type (0: default; 1:flex; 2: PVA)
M403 E0 F0
M403 E1 F0
M403 E2 F0
M403 E3 F0
M403 E4 F0


;go outside print area
G1 Y-3.0 F1000.0
G1 Z0.4 F1000.0
; select extruder
T0
; initial load
G1 X55.0 E29.0 F1073.0
M73 P1 R23
G1 X5.0 E29.0 F1800.0
G1 X55.0 E8.0 F2000.0
G1 Z0.3 F1000.0
G92 E0.0
G1 X240.0 E25.0 F2200.0
G1 Y-2.0 F1000.0
G1 X55.0 E25 F1400.0
G1 Z0.20 F1000.0
G1 X5.0 E4.0 F1000.0
G92 E0.0

G92 E0.0
G21 ; set units to millimeters
G90 ; use absolute coordinates
M83 ; use relative distances for extrusion
T0
M900 K30 ; Filament gcode
G1 Z0.200 F10800.000
;BEFORE_LAYER_CHANGE
G92 E0.0
;0.2


G1 E-0.80000 F2100.00000
G1 Z0.800 F10800.000
G1 Z0.200
;AFTER_LAYER_CHANGE
;0.2
M900 K0
G1 E-2.20000 F2100.00000
G1 Z0.800 F10800.000
G1 X219.668 Y81.413
G1 Z0.200
G1 E3.00000 F2100.00000
;-------------------------------------
; CP WIPE TOWER FIRST LAYER BRIM START
G1 X219.668 Y95.473 E0.8016 F2400
G1 X217.125 Y95.930  F7000
G1 Y80.956 E0.6260 F2100
G1 X156.211 E2.5466
G1 Y95.930 E0.6260
G1 X217.125 E2.5466
G1 X217.582 Y96.387  F7000
G1 Y80.499 E0.6642 F2100
G1 X155.754 E2.5849
G1 Y96.387 E0.6642
G1 X217.582 E2.5849
G1 X218.039 Y96.844  F7000
G1 Y80.042 E0.7025 F2100
G1 X155.297 E2.6231
G1 Y96.844 E0.7025
G1 X218.039 E2.6231
G1 X218.496 Y97.301  F7000
G1 Y79.585 E0.7407 F2100
G1 X154.840 E2.6613
G1 Y97.301 E0.7407
G1 X218.496 E2.6613
G1 X216.668 Y95.473  F7000
G1 X156.668
G1 X216.668
; CP WIPE TOWER FIRST LAYER BRIM END
;-----------------------------------
G1 X216.168 Y81.913  F7200
;--------------------
; CP EMPTY GRID START
; layer #1
G1 X216.668
G1 Y81.413
G1 Y95.473 E0.5344 F1450
G1 X156.668 E2.2804
G1 Y81.413 E0.5344
G1 X216.668 E2.2804
G1 X216.168
G1 Y81.913
G1 Y94.973 E0.4964
G1 X157.168 E2.2424
G1 Y81.913 E0.4964
G1 X216.168 E2.2424
G1 Y94.973
G1 X215.668 Y94.450  E0.0275
G1 X157.668 E2.2044
G1 Y93.926 E0.0199
G1 X215.668 E2.2044
G1 Y93.403 E0.0199
G1 X157.668 E2.2044
M73 P5 R22
G1 Y92.880 E0.0199
G1 X215.668 E2.2044
G1 Y92.356 E0.0199
G1 X157.668 E2.2044
G1 Y91.833 E0.0199
G1 X215.668 E2.2044
G1 Y91.310 E0.0199
G1 X157.668 E2.2044
G1 Y90.786 E0.0199
G1 X215.668 E2.2044
G1 Y90.263 E0.0199
G1 X157.668 E2.2044
G1 Y89.740 E0.0199
G1 X215.668 E2.2044
G1 Y89.216 E0.0199
G1 X157.668 E2.2044
G1 Y88.693 E0.0199
G1 X215.668 E2.2044
G1 Y88.170 E0.0199
G1 X157.668 E2.2044
G1 Y87.646 E0.0199
G1 X215.668 E2.2044
G1 Y87.123 E0.0199
G1 X157.668 E2.2044
G1 Y86.600 E0.0199
G1 X215.668 E2.2044
G1 Y86.076 E0.0199
G1 X157.668 E2.2044
G1 Y85.553 E0.0199
G1 X215.668 E2.2044
G1 Y85.030 E0.0199
G1 X157.668 E2.2044
G1 Y84.506 E0.0199
G1 X215.668 E2.2044
G1 Y83.983 E0.0199
G1 X157.668 E2.2044
G1 Y83.460 E0.0199
G1 X215.668 E2.2044
G1 Y82.936 E0.0199
G1 X157.668 E2.2044
G1 Y82.413 E0.0199
G1 X215.668 E2.2044
G1 X157.668
; CP EMPTY GRID END
;------------------







M900 K30 ; Filament gcode
G1 F8640
G1 X154.377 Y82.413 E-0.76000
G1 E-0.04000 F2100.00000
G1 Z0.800 F10800.000
G1 X107.165 Y101.177
G1 Z0.200
G1 E0.80000 F2100.00000
M204 S1000
G1 F1200
G1 X107.360 Y101.979 E0.02586
G1 X107.362 Y132.123 E0.94517
G1 X107.216 Y132.873 E0.02394
G1 X106.824 Y133.524 E0.02383
G1 X106.090 Y134.074 E0.02878
G1 X105.191 Y134.275 E0.02889
G1 X77.134 Y134.275 E0.87971
G1 X76.388 Y134.129 E0.02383
G1 X75.737 Y133.737 E0.02383
G1 X75.185 Y133.000 E0.02889
G1 X74.985 Y132.100 E0.02889
G1 X74.986 Y102.050 E0.94219
G1 X75.130 Y101.304 E0.02383
G1 X75.523 Y100.650 E0.02394
G1 X76.241 Y100.107 E0.02822
G1 X77.117 Y99.899 E0.02822
G1 X105.178 Y99.898 E0.87982
M73 P9 R21
G1 X105.991 Y100.056 E0.02597
G1 X106.684 Y100.503 E0.02586
G1 X107.130 Y101.129 E0.02409
G1 F8640
G1 X107.360 Y101.979 E-0.20335
G1 X107.360 Y104.389 E-0.55665
G1 E-0.04000 F2100.00000
G1 Z0.800 F10800.000
G1 X104.964 Y102.297
G1 Z0.200
G1 E0.80000 F2100.00000
G1 F1200
G1 X104.964 Y131.877 E0.92746
G1 X77.384 Y131.877 E0.86475
G1 X77.384 Y102.297 E0.92746
G1 X104.904 Y102.297 E0.86287
G1 X104.865 Y102.684 F10800.000
G1 F8640
G1 X104.911 Y105.588 E-0.76000
G1 E-0.04000 F2100.00000
G1 Z0.800 F10800.000
G1 X77.761 Y108.969
G1 Z0.200
G1 E0.80000 F2100.00000
G1 F1200
G1 X77.761 Y102.674 E0.19738
G1 X104.587 Y102.674 E0.84111
G1 X104.587 Y131.500 E0.90381
G1 X77.761 Y131.500 E0.84110
G1 X77.761 Y109.029 E0.70455
G1 F8640
G1 X77.761 Y105.738 E-0.76000
G1 E-0.04000 F2100.00000
G1 Z0.800 F10800.000
G1 X85.638 Y115.493
G1 Z0.200
G1 E0.80000 F2100.00000
G1 F1200
G1 X85.898 Y115.176 E0.01287
G1 X87.029 Y114.248 E0.04586
G1 X88.319 Y113.559 E0.04586
G1 X89.718 Y113.134 E0.04586
G1 X91.174 Y112.991 E0.04586
G1 X92.630 Y113.134 E0.04586
G1 X94.029 Y113.559 E0.04586
G1 X95.319 Y114.248 E0.04586
G1 X96.450 Y115.176 E0.04586
G1 X97.378 Y116.307 E0.04586
G1 X98.067 Y117.597 E0.04586
G1 X98.492 Y118.996 E0.04586
G1 X98.635 Y120.452 E0.04586
G1 X98.492 Y121.907 E0.04586
G1 X98.067 Y123.307 E0.04586
G1 X97.379 Y124.594 E0.04577
G1 X96.450 Y125.727 E0.04595
G1 X95.319 Y126.655 E0.04586
G1 X94.029 Y127.345 E0.04586
G1 X92.630 Y127.769 E0.04586
G1 X91.174 Y127.913 E0.04586
G1 X89.718 Y127.769 E0.04586
G1 X88.319 Y127.345 E0.04586
G1 X87.029 Y126.655 E0.04586
G1 X85.898 Y125.727 E0.04586
G1 X84.970 Y124.597 E0.04586
G1 X84.281 Y123.307 E0.04586
G1 X83.856 Y121.907 E0.04586
G1 X83.713 Y120.452 E0.04586
G1 X83.856 Y118.996 E0.04586
G1 X84.281 Y117.597 E0.04586
G1 X84.970 Y116.307 E0.04586
G1 X85.600 Y115.540 E0.03111
G1 X85.483 Y115.125 F10800.000
G1 X85.308 Y115.300
G1 F1200
G1 X85.630 Y114.908 E0.01592
G1 X86.818 Y113.933 E0.04819
G1 X88.174 Y113.209 E0.04819
G1 X89.644 Y112.762 E0.04819
G1 X91.174 Y112.612 E0.04819
G1 X92.703 Y112.762 E0.04819
G1 X94.174 Y113.209 E0.04819
G1 X95.530 Y113.933 E0.04819
G1 X96.718 Y114.908 E0.04819
G1 X97.693 Y116.096 E0.04819
G1 X98.417 Y117.452 E0.04819
G1 X98.863 Y118.922 E0.04819
G1 X99.014 Y120.452 E0.04819
G1 X98.863 Y121.981 E0.04819
G1 X98.417 Y123.452 E0.04819
G1 X97.694 Y124.805 E0.04809
G1 X96.718 Y125.995 E0.04828
G1 X95.530 Y126.970 E0.04819
G1 X94.174 Y127.695 E0.04819
G1 X92.703 Y128.141 E0.04819
G1 X91.174 Y128.292 E0.04819
G1 X89.644 Y128.141 E0.04819
G1 X88.174 Y127.695 E0.04819
G1 X86.818 Y126.970 E0.04819
G1 X85.630 Y125.995 E0.04819
G1 X84.655 Y124.807 E0.04819
G1 X83.931 Y123.452 E0.04819
G1 X83.485 Y121.981 E0.04819
G1 X83.334 Y120.452 E0.04819
G1 X83.485 Y118.922 E0.04819
G1 X83.931 Y117.452 E0.04819
G1 X84.655 Y116.096 E0.04819
G1 X85.270 Y115.347 E0.03039
G1 F8640
G1 X85.630 Y114.908 E-0.13107
G1 X86.818 Y113.933 E-0.35487
G1 X87.865 Y113.374 E-0.27406
G1 E-0.04000 F2100.00000
G1 Z0.800 F10800.000
G1 X84.254 Y124.656
G1 Z0.200
G1 E0.80000 F2100.00000
G1 F1200
G1 X78.044 Y118.446 E0.27711
G1 X78.044 Y117.910 E0.01693
G1 X83.657 Y123.522 E0.25046
G1 X83.423 Y122.752 E0.02540
G1 X78.044 Y117.373 E0.24003
G1 X78.044 Y116.836 E0.01693
G1 X83.202 Y121.994 E0.23016
G1 X83.143 Y121.399 E0.01887
G1 X78.044 Y116.300 E0.22754
G1 X78.044 Y115.763 E0.01693
G1 X83.085 Y120.804 E0.22493
G1 X83.050 Y120.452 E0.01116
G1 X83.070 Y120.252 E0.00633
G1 X78.044 Y115.226 E0.22426
G1 X78.044 Y114.690 E0.01693
G1 X83.118 Y119.763 E0.22641
G1 X83.166 Y119.275 E0.01549
G1 X78.044 Y114.153 E0.22855
G1 X78.044 Y113.616 E0.01693
G1 X83.227 Y118.799 E0.23126
G1 X83.351 Y118.387 E0.01358
G1 X78.044 Y113.080 E0.23684
G1 X78.044 Y112.543 E0.01693
G1 X83.476 Y117.976 E0.24241
G1 X83.601 Y117.564 E0.01358
G1 X78.044 Y112.006 E0.24798
G1 X78.044 Y111.470 E0.01693
G1 X83.755 Y117.181 E0.25484
G1 X83.942 Y116.831 E0.01251
G1 X78.044 Y110.933 E0.26318
G1 X78.044 Y110.396 E0.01693
G1 X84.129 Y116.481 E0.27152
G1 X84.316 Y116.132 E0.01251
G1 X78.044 Y109.860 E0.27986
G1 X78.044 Y109.323 E0.01693
G1 X84.527 Y115.807 E0.28930
G1 X84.769 Y115.512 E0.01203
G1 X78.044 Y108.787 E0.30009
G1 X78.044 Y108.250 E0.01693
G1 X85.011 Y115.217 E0.31089
G1 X85.253 Y114.922 E0.01203
G1 X78.044 Y107.713 E0.32168
G1 X78.044 Y107.177 E0.01693
G1 X85.509 Y114.642 E0.33311
G1 X85.804 Y114.400 E0.01203
G1 X78.044 Y106.640 E0.34627
G1 X78.044 Y106.103 E0.01693
G1 X86.099 Y114.158 E0.35942
G1 X86.393 Y113.916 E0.01203
G1 X78.044 Y105.567 E0.37257
G1 X78.044 Y105.030 E0.01693
G1 X86.693 Y113.679 E0.38595
G1 X87.043 Y113.492 E0.01251
G1 X78.044 Y104.493 E0.40156
G1 X78.044 Y103.957 E0.01693
G1 X87.393 Y113.305 E0.41716
G1 X87.742 Y113.119 E0.01251
G1 X78.044 Y103.420 E0.43277
G1 X78.044 Y102.957 E0.01462
G1 X78.117 Y102.957 E0.00231
G1 X88.097 Y112.936 E0.44532
G1 X88.509 Y112.812 E0.01358
G1 X78.654 Y102.957 E0.43974
G1 X79.190 Y102.957 E0.01693
G1 X88.920 Y112.687 E0.43417
G1 X89.332 Y112.562 E0.01358
G1 X79.727 Y102.957 E0.42860
G1 X80.264 Y102.957 E0.01693
G1 X89.773 Y112.466 E0.42431
G1 X90.261 Y112.418 E0.01549
G1 X80.800 Y102.957 E0.42216
G1 X81.337 Y102.957 E0.01693
G1 X90.750 Y112.369 E0.42002
G1 X91.174 Y112.328 E0.01345
G1 X91.252 Y112.335 E0.00248
G1 X81.874 Y102.957 E0.41850
G1 X82.410 Y102.957 E0.01693
G1 X91.848 Y112.394 E0.42111
G1 X92.443 Y112.453 E0.01887
G1 X82.947 Y102.957 E0.42373
G1 X83.484 Y102.957 E0.01693
G1 X93.120 Y112.593 E0.43001
G1 X93.891 Y112.827 E0.02540
G1 X84.020 Y102.957 E0.44044
G1 X84.557 Y102.957 E0.01693
G1 X95.262 Y113.662 E0.47768
G1 F8640
G1 X92.934 Y111.334 E-0.76000
G1 E-0.04000 F2100.00000
G1 Z0.800 F10800.000
G1 X104.474 Y103.554
G1 Z0.200
G1 E0.80000 F2100.00000
G1 F1200
G1 X103.876 Y102.957 E0.02667
G1 X103.339 Y102.957 E0.01693
G1 X104.304 Y103.921 E0.04304
G1 X104.304 Y104.458 E0.01693
G1 X102.803 Y102.957 E0.06699
G1 X102.266 Y102.957 E0.01693
G1 X104.304 Y104.995 E0.09094
G1 X104.304 Y105.531 E0.01693
G1 X101.730 Y102.957 E0.11488
G1 X101.193 Y102.957 E0.01693
G1 X104.304 Y106.068 E0.13883
G1 X104.304 Y106.605 E0.01693
G1 X100.656 Y102.957 E0.16277
G1 X100.120 Y102.957 E0.01693
G1 X104.304 Y107.141 E0.18672
G1 X104.304 Y107.678 E0.01693
G1 X99.583 Y102.957 E0.21067
G1 X99.046 Y102.957 E0.01693
G1 X104.304 Y108.215 E0.23461
G1 X104.304 Y108.751 E0.01693
G1 X98.510 Y102.957 E0.25856
G1 X97.973 Y102.957 E0.01693
G1 X104.304 Y109.288 E0.28251
G1 X104.304 Y109.824 E0.01693
G1 X97.436 Y102.957 E0.30645
G1 X96.900 Y102.957 E0.01693
G1 X104.304 Y110.361 E0.33040
G1 X104.304 Y110.898 E0.01693
G1 X96.363 Y102.957 E0.35435
G1 X95.826 Y102.957 E0.01693
G1 X104.304 Y111.434 E0.37829
G1 X104.304 Y111.971 E0.01693
G1 X95.290 Y102.957 E0.40224
G1 X94.753 Y102.957 E0.01693
G1 X104.304 Y112.508 E0.42618
G1 X104.304 Y113.044 E0.01693
G1 X94.217 Y102.957 E0.45013
G1 X93.680 Y102.957 E0.01693
G1 X104.304 Y113.581 E0.47408
G1 X104.304 Y114.118 E0.01693
G1 X93.143 Y102.957 E0.49802
G1 X92.607 Y102.957 E0.01693
G1 X104.304 Y114.654 E0.52197
G1 X104.304 Y115.191 E0.01693
G1 X92.070 Y102.957 E0.54592
G1 X91.533 Y102.957 E0.01693
G1 X104.304 Y115.728 E0.56986
G1 X104.304 Y116.264 E0.01693
G1 X90.997 Y102.957 E0.59381
G1 X90.460 Y102.957 E0.01693
G1 X104.304 Y116.801 E0.61776
G1 X104.304 Y117.337 E0.01693
G1 X89.923 Y102.957 E0.64170
G1 X89.387 Y102.957 E0.01693
G1 X104.304 Y117.874 E0.66565
G1 X104.304 Y118.411 E0.01693
G1 X88.850 Y102.957 E0.68960
G1 X88.313 Y102.957 E0.01693
G1 X104.304 Y118.947 E0.71354
M73 P14 R20
G1 X104.304 Y119.484 E0.01693
G1 X87.777 Y102.957 E0.73749
G1 X87.240 Y102.957 E0.01693
G1 X104.304 Y120.021 E0.76143
G1 X104.304 Y120.557 E0.01693
G1 X86.703 Y102.957 E0.78538
G1 X86.167 Y102.957 E0.01693
G1 X104.304 Y121.094 E0.80933
G1 X104.304 Y121.631 E0.01693
G1 X85.630 Y102.957 E0.83327
G1 X85.094 Y102.957 E0.01693
G1 X104.304 Y122.167 E0.85722
G1 X104.304 Y122.704 E0.01693
G1 X98.377 Y116.777 E0.26447
G1 X98.680 Y117.343 E0.02024
G1 X98.799 Y117.735 E0.01294
G1 X104.304 Y123.241 E0.24566
G1 X104.304 Y123.777 E0.01693
G1 X99.032 Y118.505 E0.23524
G1 X99.142 Y118.867 E0.01191
G1 X99.173 Y119.183 E0.01002
G1 X104.304 Y124.314 E0.22896
G1 X104.304 Y124.851 E0.01693
G1 X99.232 Y119.778 E0.22634
G1 X99.290 Y120.373 E0.01887
G1 X104.304 Y125.387 E0.22373
G1 X104.304 Y125.924 E0.01693
G1 X99.256 Y120.876 E0.22525
G1 X99.208 Y121.365 E0.01549
G1 X104.304 Y126.460 E0.22739
G1 X104.304 Y126.997 E0.01693
G1 X99.160 Y121.853 E0.22954
G1 X99.142 Y122.037 E0.00582
G1 X99.064 Y122.294 E0.00847
G1 X104.304 Y127.534 E0.23383
G1 X104.304 Y128.070 E0.01693
G1 X98.939 Y122.705 E0.23940
G1 X98.814 Y123.117 E0.01358
G1 X104.304 Y128.607 E0.24497
G1 X104.304 Y129.144 E0.01693
G1 X98.689 Y123.529 E0.25055
G1 X98.507 Y123.883 E0.01258
G1 X104.304 Y129.680 E0.25867
G1 X104.304 Y130.217 E0.01693
G1 X98.320 Y124.233 E0.26701
G1 X98.133 Y124.583 E0.01251
G1 X104.304 Y130.754 E0.27536
G1 X104.304 Y131.217 E0.01462
G1 X104.231 Y131.217 E0.00231
G1 X97.946 Y124.933 E0.28043
G1 X97.709 Y125.232 E0.01205
G1 X103.694 Y131.217 E0.26706
G1 X103.158 Y131.217 E0.01693
G1 X97.467 Y125.527 E0.25390
G1 X97.226 Y125.822 E0.01203
G1 X102.621 Y131.217 E0.24074
G1 X102.084 Y131.217 E0.01693
G1 X96.984 Y126.117 E0.22759
G1 X96.919 Y126.196 E0.00325
G1 X96.703 Y126.373 E0.00879
G1 X101.548 Y131.217 E0.21616
G1 X101.011 Y131.217 E0.01693
G1 X96.409 Y126.615 E0.20536
G1 X96.114 Y126.857 E0.01203
G1 X100.474 Y131.217 E0.19457
G1 X99.938 Y131.217 E0.01693
G1 X95.819 Y127.099 E0.18377
G1 X95.687 Y127.207 E0.00538
G1 X95.494 Y127.310 E0.00692
G1 X99.401 Y131.217 E0.17434
G1 X98.864 Y131.217 E0.01693
G1 X95.144 Y127.497 E0.16600
G1 X94.795 Y127.684 E0.01251
G1 X98.328 Y131.217 E0.15765
G1 X97.791 Y131.217 E0.01693
G1 X94.445 Y127.871 E0.14931
G1 X94.283 Y127.957 E0.00579
G1 X94.062 Y128.024 E0.00729
G1 X97.254 Y131.217 E0.14246
G1 X96.718 Y131.217 E0.01693
G1 X93.650 Y128.149 E0.13689
G1 X93.238 Y128.274 E0.01358
G1 X96.181 Y131.217 E0.13131
G1 X95.644 Y131.217 E0.01693
G1 X92.827 Y128.399 E0.12574
G1 X92.351 Y128.460 E0.01514
G1 X95.108 Y131.217 E0.12303
G1 X94.571 Y131.217 E0.01693
G1 X91.862 Y128.508 E0.12088
G1 X91.374 Y128.556 E0.01549
G1 X94.035 Y131.217 E0.11873
G1 X93.498 Y131.217 E0.01693
G1 X90.822 Y128.541 E0.11940
G1 X90.227 Y128.483 E0.01887
G1 X92.961 Y131.217 E0.12202
G1 X92.425 Y131.217 E0.01693
G1 X89.631 Y128.424 E0.12463
G1 X88.874 Y128.203 E0.02491
G1 X91.888 Y131.217 E0.13451
G1 X91.351 Y131.217 E0.01693
G1 X87.709 Y127.575 E0.16253
G1 X86.969 Y127.372 F10800.000
G1 F1200
G1 X90.815 Y131.217 E0.17158
G1 X90.278 Y131.217 E0.01693
G1 X78.044 Y118.983 E0.54592
G1 X78.044 Y119.519 E0.01693
G1 X89.741 Y131.217 E0.52197
G1 X89.205 Y131.217 E0.01693
G1 X78.044 Y120.056 E0.49802
G1 X78.044 Y120.593 E0.01693
G1 X88.668 Y131.217 E0.47408
G1 X88.131 Y131.217 E0.01693
G1 X78.044 Y121.129 E0.45013
G1 X78.044 Y121.666 E0.01693
G1 X87.595 Y131.217 E0.42618
G1 X87.058 Y131.217 E0.01693
G1 X78.044 Y122.203 E0.40224
G1 X78.044 Y122.739 E0.01693
G1 X86.521 Y131.217 E0.37829
G1 X85.985 Y131.217 E0.01693
G1 X78.044 Y123.276 E0.35435
G1 X78.044 Y123.813 E0.01693
G1 X85.448 Y131.217 E0.33040
G1 X84.912 Y131.217 E0.01693
G1 X78.044 Y124.349 E0.30645
G1 X78.044 Y124.886 E0.01693
G1 X84.375 Y131.217 E0.28251
