; generated by PrusaSlicer 2.2.0+win64 on 2020-11-03 at 17:54:52 UTC

; 

; external perimeters extrusion width = 0.60mm
; perimeters extrusion width = 0.43mm
; infill extrusion width = 0.45mm
; solid infill extrusion width = 0.70mm
; top infill extrusion width = 0.43mm
; support material extrusion width = 0.37mm
; first layer extrusion width = 0.42mm

M73 P0 R79
M201 X9000 Y9000 Z500 E10000 ; sets maximum accelerations, mm/sec^2
M203 X500 Y500 Z12 E120 ; sets maximum feedrates, mm/sec
M204 P2000 R1500 T2000 ; sets acceleration (P, T) and retract acceleration (R), mm/sec^2
M205 X10.00 Y10.00 Z0.20 E2.50 ; sets the jerk limits, mm/sec
M205 S0 T0 ; sets the minimum extruding and travel feed rate, mm/sec
M107
M862.3 P "MK2.5SMMU2S" ; printer model check
M862.1 P0.4 ; nozzle diameter check
M115 U3.8.0 ; tell printer latest fw version
G90 ; use absolute coordinates
M83 ; extruder relative mode
M104 S215 ; set extruder temp
M140 S60 ; set bed temp
Tx
M190 S60 ; wait for bed temp
M109 S215 ; wait for extruder temp
G28 W ; home all without mesh bed level
G80 ; mesh bed leveling

G21 ; set units to millimeters

;go outside print area
G1 Y-3.0 F1000.0
G1 Z0.4 F1000.0
; select extruder
Tc
; purge line
G1 X55.0 F2000.0
G1 Z0.3 F1000.0
G92 E0.0
G1 X240.0 E25.0 F2200.0
M73 P0 R79
G1 Y-2.0 F1000.0
G1 X55.0 E25 F1400.0
G1 Z0.20 F1000.0
G1 X5.0 E4.0 F1000.0
G92 E0.0
G21 ; set units to millimeters
G90 ; use absolute coordinates
M83 ; use relative distances for extrusion
M900 K0.06 ; Filament gcode LA 1.5
M900 K30 ; Filament gcode LA 1.0
;BEFORE_LAYER_CHANGE
G92 E0.0
;0.2


G1 E-0.80000 F2100.00000
G1 Z0.600 F10800.000
;AFTER_LAYER_CHANGE
;0.2
G1 X70.001 Y60.094
G1 Z0.200
G1 E0.80000 F2100.00000
M204 S1000
G1 F1200.000
G1 X70.546 Y59.729 E0.02060
G1 X71.168 Y59.527 E0.02048
G1 X146.704 Y46.505 E2.40334
G1 X156.879 Y46.477 E0.31900
G1 X157.374 Y46.530 E0.01562
G1 X157.847 Y46.685 E0.01562
G1 X158.275 Y46.933 E0.01550
G1 X158.644 Y47.267 E0.01562
G1 X203.686 Y98.136 E2.13035
G1 X204.325 Y98.936 E0.03210
G1 X204.853 Y99.927 E0.03521
G1 X205.188 Y101.031 E0.03616
G1 X205.302 Y102.163 E0.03569
G1 X205.302 Y154.293 E1.63451
G1 X205.186 Y155.402 E0.03494
G1 X204.839 Y156.525 E0.03688
G1 X204.290 Y157.536 E0.03605
G1 X203.483 Y158.488 E0.03912
G1 X202.663 Y159.145 E0.03295
G1 X201.650 Y159.680 E0.03593
G1 X200.568 Y160.007 E0.03545
G1 X199.443 Y160.120 E0.03545
G1 X131.554 Y160.120 E2.12860
G1 X92.593 Y159.839 E1.22162
G1 X84.878 Y159.661 E0.24196
G1 X84.280 Y159.532 E0.01917
G1 X48.410 Y146.690 E1.19461
G1 X47.304 Y146.109 E0.03916
G1 X46.330 Y145.287 E0.03996
G1 X45.675 Y144.470 E0.03283
G1 X45.144 Y143.472 E0.03545
G1 X44.815 Y142.390 E0.03545
G1 X44.700 Y141.334 E0.03331
G1 X44.698 Y115.185 E0.81990
G1 X44.852 Y113.875 E0.04134
G1 X50.926 Y95.204 E0.61562
G1 X69.495 Y60.733 E1.22766
G1 X69.963 Y60.141 E0.02367
G1 E-0.80000 F2100.00000
G1 Z0.800 F10800.000
G1 X111.162 Y146.615
G1 Z0.200
G1 E0.80000 F2100.00000
G1 F1200.000
G1 X111.162 Y157.292 E0.33477
G1 X111.916 Y157.292 E0.02365
G1 X111.916 Y146.785 E0.32945
G1 X112.670 Y146.785 E0.02365
G1 X112.670 Y157.292 E0.32945
G1 X113.424 Y157.292 E0.02365
G1 X113.424 Y146.785 E0.32945
G1 X114.178 Y146.785 E0.02365
G1 X114.178 Y157.292 E0.32945
G1 X114.933 Y157.292 E0.02365
G1 X114.933 Y146.785 E0.32945
G1 X115.687 Y146.785 E0.02365
G1 X115.687 Y157.292 E0.32945
G1 X116.441 Y157.292 E0.02365
G1 X116.441 Y146.785 E0.32945
G1 X117.195 Y146.785 E0.02365
G1 X117.195 Y157.292 E0.32945
G1 X117.949 Y157.292 E0.02365
G1 X117.949 Y146.785 E0.32945
G1 X118.703 Y146.785 E0.02365
G1 X118.703 Y157.462 E0.33477
G1 X122.474 Y157.462 F10800.000
G1 F1200.000
G1 X122.474 Y152.810 E0.14587
G1 X122.376 Y152.988 E0.00639
G1 X122.176 Y153.250 E0.01033
G1 X121.949 Y153.457 E0.00963
G1 X121.720 Y153.604 E0.00854
G1 X121.720 Y157.292 E0.11563
G1 X120.966 Y157.292 E0.02365
G1 X120.966 Y153.820 E0.10886
G1 X120.547 Y153.796 E0.01316
G1 X120.212 Y153.701 E0.01092
G1 X120.212 Y157.292 E0.11259
G1 X119.457 Y157.292 E0.02365
G1 X119.457 Y153.138 E0.13024
G1 X119.339 Y152.969 E0.00647
G1 X119.194 Y152.673 E0.01033
G1 X119.106 Y152.356 E0.01033
G1 X119.078 Y152.050 E0.00963
G1 X119.106 Y151.721 E0.01033
G1 X119.194 Y151.404 E0.01033
G1 X119.339 Y151.108 E0.01033
G1 X119.457 Y150.938 E0.00647
G1 X119.457 Y146.785 E0.13024
G1 X120.212 Y146.785 E0.02365
G1 X120.212 Y150.376 E0.11259
G1 X120.547 Y150.281 E0.01092
G1 X120.966 Y150.257 E0.01316
G1 X120.966 Y146.785 E0.10886
G1 X121.720 Y146.785 E0.02365
G1 X121.720 Y150.473 E0.11563
G1 X121.949 Y150.620 E0.00854
G1 X122.176 Y150.827 E0.00963
G1 X122.376 Y151.089 E0.01033
G1 X122.474 Y151.267 E0.00639
G1 X122.474 Y146.785 E0.14055
G1 X123.228 Y146.785 E0.02365
G1 X123.228 Y157.462 E0.33477
G1 E-0.80000 F2100.00000
G1 Z0.800 F10800.000
G1 X121.075 Y152.712
G1 Z0.200
G1 E0.80000 F2100.00000
G1 F1200.000
G1 X120.923 Y152.743 E0.00485
G1 X120.798 Y152.743 E0.00390
G1 X120.548 Y152.672 E0.00816
G1 X120.446 Y152.608 E0.00379
G1 X120.313 Y152.480 E0.00579
G1 X120.228 Y152.348 E0.00493
G1 X120.183 Y152.232 E0.00389
G1 X120.159 Y151.973 E0.00816
G1 X120.230 Y151.723 E0.00816
G1 X120.387 Y151.515 E0.00816
G1 X120.608 Y151.378 E0.00816
G1 X120.724 Y151.345 E0.00378
G1 X120.910 Y151.334 E0.00583
G1 X121.063 Y151.360 E0.00488
G1 X121.179 Y151.405 E0.00390
G1 X121.387 Y151.562 E0.00816
G1 X121.459 Y151.658 E0.00378
G1 X121.537 Y151.829 E0.00589
G1 X121.569 Y151.979 E0.00482
G1 X121.569 Y152.104 E0.00391
G1 X121.497 Y152.354 E0.00816
G1 X121.341 Y152.562 E0.00816
G1 X121.244 Y152.634 E0.00378
G1 X121.129 Y152.687 E0.00397
G1 X121.439 Y152.960 F10800.000
G1 F1200.000
G1 X121.193 Y153.072 E0.00848
G1 X120.962 Y153.120 E0.00739
G1 X120.764 Y153.120 E0.00622
G1 X120.566 Y153.083 E0.00629
G1 X120.379 Y153.011 E0.00629
G1 X120.212 Y152.907 E0.00618
G1 X120.020 Y152.720 E0.00840
G1 X119.890 Y152.521 E0.00747
G1 X119.819 Y152.336 E0.00621
G1 X119.782 Y152.139 E0.00629
G1 X119.782 Y151.938 E0.00629
G1 X119.819 Y151.741 E0.00629
G1 X119.891 Y151.554 E0.00629
G1 X119.997 Y151.384 E0.00629
G1 X120.132 Y151.235 E0.00629
G1 X120.292 Y151.115 E0.00629
G1 X120.471 Y151.025 E0.00629
G1 X120.661 Y150.971 E0.00617
G1 X120.930 Y150.956 E0.00845
G1 X121.163 Y150.994 E0.00742
G1 X121.348 Y151.066 E0.00622
G1 X121.519 Y151.171 E0.00629
G1 X121.667 Y151.306 E0.00629
G1 X121.785 Y151.464 E0.00617
G1 X121.898 Y151.711 E0.00851
G1 X121.946 Y151.940 E0.00736
G1 X121.946 Y152.139 E0.00622
G1 X121.909 Y152.336 E0.00629
G1 X121.836 Y152.523 E0.00629
G1 X121.731 Y152.693 E0.00629
G1 X121.596 Y152.841 E0.00629
G1 X121.487 Y152.924 E0.00429
G1 X121.203 Y152.827 F10800.000
G1 X120.280 Y152.027
G1 F1200.000
G1 X120.644 Y152.391 E0.01733
G1 X120.749 Y152.443 E0.00392
G1 X120.907 Y152.458 E0.00536
G1 X121.086 Y152.396 E0.00637
G1 X121.156 Y152.331 E0.00319
G1 X120.571 Y151.746 E0.02781
G1 X120.643 Y151.681 E0.00327
G1 X120.785 Y151.625 E0.00514
G1 X120.895 Y151.619 E0.00368
G1 X120.975 Y151.632 E0.00273
G1 X121.082 Y151.686 E0.00403
G1 X121.448 Y152.052 E0.01740
G1 E-0.80000 F2100.00000
G1 Z0.800 F10800.000
G1 X110.186 Y157.462
G1 Z0.200
G1 E0.80000 F2100.00000
G1 F1200.000
G1 X110.186 Y146.785 E0.33477
G1 X109.431 Y146.785 E0.02365
G1 X109.431 Y151.267 E0.14055
G1 X109.334 Y151.089 E0.00639
G1 X109.133 Y150.827 E0.01033
G1 X108.906 Y150.620 E0.00963
G1 X108.677 Y150.473 E0.00854
G1 X108.677 Y146.785 E0.11563
G1 X107.923 Y146.785 E0.02365
G1 X107.923 Y150.257 E0.10886
G1 X107.504 Y150.281 E0.01316
G1 X107.169 Y150.376 E0.01092
G1 X107.169 Y146.785 E0.11259
G1 X106.415 Y146.785 E0.02365
G1 X106.415 Y150.938 E0.13024
G1 X106.297 Y151.108 E0.00647
G1 X106.152 Y151.404 E0.01033
G1 X106.068 Y151.699 E0.00963
G1 X106.035 Y152.027 E0.01033
G1 X106.063 Y152.356 E0.01033
G1 X106.152 Y152.673 E0.01033
G1 X106.297 Y152.969 E0.01033
G1 X106.415 Y153.138 E0.00647
G1 X106.415 Y157.292 E0.13024
G1 X107.169 Y157.292 E0.02365
G1 X107.169 Y153.701 E0.11259
G1 X107.504 Y153.796 E0.01092
G1 X107.923 Y153.820 E0.01316
G1 X107.923 Y157.292 E0.10886
G1 X108.677 Y157.292 E0.02365
G1 X108.677 Y153.604 E0.11563
G1 X108.906 Y153.457 E0.00854
G1 X109.133 Y153.250 E0.00963
G1 X109.334 Y152.988 E0.01033
G1 X109.431 Y152.810 E0.00639
G1 X109.431 Y157.462 E0.14587
G1 X105.661 Y157.462 F10800.000
G1 F1200.000
G1 X105.661 Y146.785 E0.33477
G1 X104.906 Y146.785 E0.02365
G1 X104.906 Y157.292 E0.32945
G1 X104.152 Y157.292 E0.02365
G1 X104.152 Y146.785 E0.32945
G1 X103.398 Y146.785 E0.02365
G1 X103.398 Y157.292 E0.32945
G1 X102.644 Y157.292 E0.02365
G1 X102.644 Y146.785 E0.32945
G1 X101.890 Y146.785 E0.02365
G1 X101.890 Y157.292 E0.32945
G1 X101.136 Y157.292 E0.02365
G1 X101.136 Y146.785 E0.32945
G1 X100.381 Y146.785 E0.02365
G1 X100.381 Y157.292 E0.32945
G1 X99.627 Y157.292 E0.02365
G1 X99.627 Y146.785 E0.32945
G1 X98.873 Y146.785 E0.02365
G1 X98.873 Y157.292 E0.32945
G1 X98.119 Y157.292 E0.02365
G1 X98.119 Y146.615 E0.33477
G1 E-0.80000 F2100.00000
G1 Z0.800 F10800.000
G1 X107.187 Y151.723
G1 Z0.200
G1 E0.80000 F2100.00000
G1 F1200.000
G1 X107.344 Y151.515 E0.00816
G1 X107.565 Y151.378 E0.00816
G1 X107.681 Y151.345 E0.00378
G1 X107.867 Y151.334 E0.00583
G1 X108.021 Y151.360 E0.00488
G1 X108.137 Y151.405 E0.00390
G1 X108.344 Y151.562 E0.00816
G1 X108.417 Y151.658 E0.00378
G1 X108.495 Y151.829 E0.00589
G1 X108.526 Y151.979 E0.00482
G1 X108.526 Y152.104 E0.00391
G1 X108.455 Y152.354 E0.00816
G1 X108.298 Y152.562 E0.00816
G1 X108.202 Y152.634 E0.00378
G1 X108.032 Y152.712 E0.00586
G1 X107.880 Y152.743 E0.00485
G1 X107.756 Y152.743 E0.00390
G1 X107.506 Y152.672 E0.00816
G1 X107.403 Y152.608 E0.00379
G1 X107.271 Y152.480 E0.00579
G1 X107.185 Y152.348 E0.00493
G1 X107.140 Y152.232 E0.00389
G1 X107.116 Y151.973 E0.00816
G1 X107.166 Y151.779 E0.00629
G1 X106.814 Y151.643 F10800.000
G1 F1200.000
G1 X106.954 Y151.384 E0.00923
G1 X107.089 Y151.235 E0.00629
G1 X107.249 Y151.115 E0.00629
G1 X107.429 Y151.025 E0.00629
G1 X107.618 Y150.971 E0.00617
G1 X107.887 Y150.956 E0.00845
G1 X108.120 Y150.994 E0.00742
G1 X108.305 Y151.066 E0.00622
G1 X108.476 Y151.171 E0.00629
G1 X108.624 Y151.306 E0.00629
G1 X108.743 Y151.464 E0.00617
G1 X108.855 Y151.711 E0.00851
G1 X108.903 Y151.940 E0.00736
G1 X108.903 Y152.139 E0.00622
G1 X108.866 Y152.336 E0.00629
G1 X108.794 Y152.523 E0.00629
G1 X108.688 Y152.693 E0.00629
G1 X108.553 Y152.841 E0.00629
G1 X108.396 Y152.960 E0.00617
G1 X108.150 Y153.072 E0.00848
G1 X107.919 Y153.120 E0.00739
G1 X107.721 Y153.120 E0.00622
G1 X107.524 Y153.083 E0.00629
G1 X107.337 Y153.011 E0.00629
G1 X107.169 Y152.907 E0.00618
G1 X106.977 Y152.720 E0.00840
G1 X106.848 Y152.521 E0.00747
G1 X106.776 Y152.336 E0.00621
G1 X106.739 Y152.139 E0.00629
G1 X106.739 Y151.938 E0.00629
G1 X106.792 Y151.699 E0.00770
G1 X107.105 Y151.601 F10800.000
G1 X108.405 Y152.052
G1 F1200.000
G1 X108.039 Y151.686 E0.01740
G1 X107.932 Y151.632 E0.00403
G1 X107.852 Y151.619 E0.00273
G1 X107.743 Y151.625 E0.00368
G1 X107.600 Y151.681 E0.00514
G1 X107.528 Y151.746 E0.00327
G1 X108.113 Y152.331 E0.02781
G1 X108.044 Y152.396 E0.00319
G1 X107.864 Y152.458 E0.00637
G1 X107.706 Y152.443 E0.00536
G1 X107.601 Y152.391 E0.00392
G1 X107.237 Y152.027 E0.01733
G1 E-0.80000 F2100.00000
G1 Z0.800 F10800.000
G1 X97.143 Y157.462
G1 Z0.200
G1 E0.80000 F2100.00000
G1 F1200.000
G1 X97.143 Y146.785 E0.33477
G1 X96.389 Y146.785 E0.02365
G1 X96.389 Y151.267 E0.14055
G1 X96.291 Y151.089 E0.00639
G1 X96.091 Y150.827 E0.01033
G1 X95.864 Y150.620 E0.00963
G1 X95.635 Y150.473 E0.00854
G1 X95.635 Y146.785 E0.11563
G1 X94.880 Y146.785 E0.02365
G1 X94.880 Y150.257 E0.10886
G1 X94.461 Y150.281 E0.01316
G1 X94.126 Y150.376 E0.01092
G1 X94.126 Y146.785 E0.11259
M73 P1 R78
G1 X93.372 Y146.785 E0.02365
G1 X93.372 Y150.938 E0.13024
G1 X93.254 Y151.108 E0.00647
G1 X93.109 Y151.404 E0.01033
G1 X93.025 Y151.699 E0.00963
G1 X92.992 Y152.027 E0.01033
G1 X93.021 Y152.356 E0.01033
G1 X93.109 Y152.673 E0.01033
G1 X93.254 Y152.969 E0.01033
G1 X93.372 Y153.138 E0.00647
G1 X93.372 Y157.292 E0.13024
G1 X94.126 Y157.292 E0.02365
G1 X94.126 Y153.701 E0.11259
G1 X94.461 Y153.796 E0.01092
G1 X94.880 Y153.820 E0.01316
G1 X94.880 Y157.292 E0.10886
G1 X95.635 Y157.292 E0.02365
G1 X95.635 Y153.604 E0.11563
G1 X95.864 Y153.457 E0.00854
G1 X96.091 Y153.250 E0.00963
G1 X96.291 Y152.988 E0.01033
G1 X96.389 Y152.810 E0.00639
G1 X96.389 Y157.462 E0.14587
G1 X92.618 Y157.462 F10800.000
G1 F1200.000
G1 X92.618 Y146.785 E0.33477
G1 X91.864 Y146.785 E0.02365
G1 X91.864 Y157.292 E0.32945
G1 X91.110 Y157.292 E0.02365
G1 X91.110 Y146.785 E0.32945
G1 X90.355 Y146.785 E0.02365
G1 X90.355 Y157.292 E0.32945
G1 X89.601 Y157.292 E0.02365
G1 X89.601 Y146.785 E0.32945
G1 X88.847 Y146.785 E0.02365
G1 X88.847 Y157.292 E0.32945
G1 X88.093 Y157.292 E0.02365
G1 X88.093 Y146.785 E0.32945
G1 X87.339 Y146.785 E0.02365
G1 X87.339 Y157.292 E0.32945
G1 X86.585 Y157.292 E0.02365
G1 X86.585 Y146.785 E0.32945
G1 X85.830 Y146.785 E0.02365
G1 X85.830 Y157.292 E0.32945
G1 X85.076 Y157.292 E0.02365
G1 X85.076 Y146.615 E0.33477
G1 E-0.80000 F2100.00000
G1 Z0.800 F10800.000
G1 X94.145 Y151.723
G1 Z0.200
G1 E0.80000 F2100.00000
G1 F1200.000
G1 X94.301 Y151.515 E0.00816
G1 X94.523 Y151.378 E0.00816
G1 X94.639 Y151.345 E0.00378
G1 X94.824 Y151.334 E0.00583
G1 X94.978 Y151.360 E0.00488
G1 X95.094 Y151.405 E0.00390
G1 X95.301 Y151.562 E0.00816
G1 X95.374 Y151.658 E0.00378
G1 X95.452 Y151.829 E0.00589
G1 X95.483 Y151.979 E0.00482
G1 X95.483 Y152.104 E0.00391
G1 X95.412 Y152.354 E0.00816
G1 X95.255 Y152.562 E0.00816
G1 X95.159 Y152.634 E0.00378
G1 X94.989 Y152.712 E0.00586
G1 X94.838 Y152.743 E0.00485
G1 X94.713 Y152.743 E0.00390
G1 X94.463 Y152.672 E0.00816
G1 X94.360 Y152.608 E0.00379
G1 X94.228 Y152.480 E0.00579
G1 X94.142 Y152.348 E0.00493
G1 X94.097 Y152.232 E0.00389
G1 X94.073 Y151.973 E0.00816
G1 X94.123 Y151.779 E0.00629
G1 X93.771 Y151.643 F10800.000
G1 F1200.000
G1 X93.911 Y151.384 E0.00923
G1 X94.046 Y151.235 E0.00629
G1 X94.206 Y151.115 E0.00629
G1 X94.386 Y151.025 E0.00629
G1 X94.575 Y150.971 E0.00617
G1 X94.844 Y150.956 E0.00845
G1 X95.078 Y150.994 E0.00742
G1 X95.263 Y151.066 E0.00622
G1 X95.433 Y151.171 E0.00629
G1 X95.581 Y151.306 E0.00629
G1 X95.700 Y151.464 E0.00617
G1 X95.812 Y151.711 E0.00851
G1 X95.860 Y151.940 E0.00736
G1 X95.860 Y152.139 E0.00622
G1 X95.823 Y152.336 E0.00629
G1 X95.751 Y152.523 E0.00629
G1 X95.645 Y152.693 E0.00629
G1 X95.510 Y152.841 E0.00629
G1 X95.353 Y152.960 E0.00617
G1 X95.107 Y153.072 E0.00848
G1 X94.876 Y153.120 E0.00739
G1 X94.678 Y153.120 E0.00622
G1 X94.481 Y153.083 E0.00629
G1 X94.294 Y153.011 E0.00629
G1 X94.127 Y152.907 E0.00618
G1 X93.935 Y152.720 E0.00840
G1 X93.805 Y152.521 E0.00747
G1 X93.733 Y152.336 E0.00621
G1 X93.696 Y152.139 E0.00629
G1 X93.696 Y151.938 E0.00629
G1 X93.750 Y151.699 E0.00770
G1 X94.063 Y151.601 F10800.000
G1 X95.363 Y152.052
G1 F1200.000
G1 X94.997 Y151.686 E0.01740
G1 X94.889 Y151.632 E0.00403
G1 X94.809 Y151.619 E0.00273
G1 X94.700 Y151.625 E0.00368
G1 X94.558 Y151.681 E0.00514
G1 X94.486 Y151.746 E0.00327
G1 X95.071 Y152.331 E0.02781
G1 X95.001 Y152.396 E0.00319
G1 X94.822 Y152.458 E0.00637
G1 X94.663 Y152.443 E0.00536
G1 X94.559 Y152.391 E0.00392
G1 X94.194 Y152.027 E0.01733
G1 E-0.80000 F2100.00000
G1 Z0.800 F10800.000
G1 X53.375 Y142.010
G1 Z0.200
G1 E0.80000 F2100.00000
G1 F1200.000
G1 X55.327 Y142.010 E0.06123
G1 X55.457 Y140.693 E0.04149
G1 X55.612 Y140.184 E0.01669
G1 X55.862 Y139.714 E0.01669
G1 X56.200 Y139.303 E0.01669
G1 X56.612 Y138.965 E0.01669
G1 X57.081 Y138.714 E0.01669
G1 X57.591 Y138.559 E0.01669
G1 X58.121 Y138.507 E0.01669
G1 X58.650 Y138.559 E0.01669
G1 X59.160 Y138.714 E0.01669
G1 X59.629 Y138.965 E0.01669
G1 X60.041 Y139.303 E0.01669
G1 X60.379 Y139.714 E0.01669
G1 X60.630 Y140.184 E0.01669
G1 X60.784 Y140.693 E0.01669
G1 X60.914 Y142.010 E0.04149
G1 X62.867 Y142.010 E0.06123
G1 X62.996 Y140.693 E0.04149
G1 X63.151 Y140.184 E0.01669
G1 X63.402 Y139.714 E0.01669
G1 X63.739 Y139.303 E0.01669
G1 X64.151 Y138.965 E0.01669
G1 X64.621 Y138.714 E0.01669
G1 X65.130 Y138.559 E0.01669
G1 X65.660 Y138.507 E0.01669
G1 X66.190 Y138.559 E0.01669
G1 X66.699 Y138.714 E0.01669
