; generated by PrusaSlicer 2.2.0+win64 on 2020-11-03 at 17:54:37 UTC

; 

; external perimeters extrusion width = 0.60mm
; perimeters extrusion width = 0.43mm
; infill extrusion width = 0.45mm
; solid infill extrusion width = 0.70mm
; top infill extrusion width = 0.43mm
; support material extrusion width = 0.37mm
; first layer extrusion width = 0.42mm

M73 P0 R41
M201 X9000 Y9000 Z500 E10000 ; sets maximum accelerations, mm/sec^2
M203 X500 Y500 Z12 E120 ; sets maximum feedrates, mm/sec
M204 P2000 R1500 T2000 ; sets acceleration (P, T) and retract acceleration (R), mm/sec^2
M205 X10.00 Y10.00 Z0.20 E2.50 ; sets the jerk limits, mm/sec
M205 S0 T0 ; sets the minimum extruding and travel feed rate, mm/sec
M107
M862.3 P "MK2.5SMMU2S" ; printer model check
M862.1 P0.4 ; nozzle diameter check
M115 U3.8.0 ; tell printer latest fw version
G90 ; use absolute coordinates
M83 ; extruder relative mode
M104 S215 ; set extruder temp
M140 S60 ; set bed temp
Tx
M190 S60 ; wait for bed temp
M109 S215 ; wait for extruder temp
G28 W ; home all without mesh bed level
G80 ; mesh bed leveling

G21 ; set units to millimeters

;go outside print area
G1 Y-3.0 F1000.0
G1 Z0.4 F1000.0
; select extruder
Tc
; purge line
G1 X55.0 F2000.0
G1 Z0.3 F1000.0
G92 E0.0
G1 X240.0 E25.0 F2200.0
M73 P0 R40
G1 Y-2.0 F1000.0
G1 X55.0 E25 F1400.0
G1 Z0.20 F1000.0
G1 X5.0 E4.0 F1000.0
G92 E0.0
G21 ; set units to millimeters
G90 ; use absolute coordinates
M83 ; use relative distances for extrusion
M900 K0.06 ; Filament gcode LA 1.5
M900 K30 ; Filament gcode LA 1.0
;BEFORE_LAYER_CHANGE
G92 E0.0
;0.2


G1 E-0.80000 F2100.00000
G1 Z0.600 F10800.000
;AFTER_LAYER_CHANGE
;0.2
G1 X83.363 Y83.127
G1 Z0.200
G1 E0.80000 F2100.00000
M204 S1000
G1 F1200.000
G1 X83.670 Y82.496 E0.02201
G1 X84.146 Y81.984 E0.02191
G1 X119.780 Y53.501 E1.43033
G1 X120.342 Y53.169 E0.02048
G1 X121.246 Y52.984 E0.02896
G1 X154.095 Y52.984 E1.02994
G1 X154.843 Y53.106 E0.02378
G1 X155.515 Y53.458 E0.02378
G1 X156.042 Y54.003 E0.02378
G1 X156.371 Y54.687 E0.02378
G1 X166.669 Y94.854 E1.30015
G1 X166.794 Y95.852 E0.03151
G1 X162.810 Y147.943 E1.63804
G1 X162.706 Y148.880 E0.02958
G1 X162.436 Y149.805 E0.03021
G1 X161.811 Y151.023 E0.04292
G1 X161.053 Y151.932 E0.03711
G1 X160.009 Y152.739 E0.04137
G1 X159.185 Y153.167 E0.02913
G1 X158.280 Y153.452 E0.02973
G1 X156.986 Y153.613 E0.04090
G1 X89.048 Y153.613 E2.13015
G1 X87.965 Y153.506 E0.03411
G1 X87.039 Y153.241 E0.03020
G1 X85.789 Y152.605 E0.04398
G1 X84.883 Y151.850 E0.03699
G1 X84.075 Y150.807 E0.04137
G1 X83.645 Y149.979 E0.02925
G1 X83.361 Y149.078 E0.02961
G1 X83.200 Y147.803 E0.04030
G1 X83.253 Y83.825 E2.00600
G1 X83.353 Y83.187 E0.02025
G1 E-0.80000 F2100.00000
G1 Z0.800 F10800.000
G1 X159.088 Y95.592
G1 Z0.200
G1 E0.80000 F2100.00000
G1 F1200.000
G1 X159.218 Y95.161 E0.01410
G1 X159.431 Y94.764 E0.01410
G1 X159.716 Y94.417 E0.01410
G1 X160.064 Y94.131 E0.01410
G1 X160.460 Y93.919 E0.01410
G1 X160.888 Y93.790 E0.01401
G1 X161.367 Y93.748 E0.01507
G1 X161.786 Y93.789 E0.01321
G1 X162.216 Y93.919 E0.01410
G1 X162.613 Y94.131 E0.01410
G1 X162.961 Y94.417 E0.01410
G1 X163.246 Y94.764 E0.01410
G1 X163.458 Y95.161 E0.01410
G1 X163.589 Y95.592 E0.01410
G1 X163.633 Y96.039 E0.01410
G1 X163.589 Y96.487 E0.01410
G1 X163.458 Y96.917 E0.01410
G1 X163.246 Y97.314 E0.01410
G1 X162.961 Y97.662 E0.01410
G1 X162.613 Y97.947 E0.01410
G1 X162.216 Y98.159 E0.01410
G1 X161.786 Y98.290 E0.01410
G1 X161.338 Y98.334 E0.01410
G1 X160.891 Y98.290 E0.01410
G1 X160.460 Y98.159 E0.01410
G1 X160.064 Y97.947 E0.01410
G1 X159.716 Y97.662 E0.01410
G1 X159.431 Y97.314 E0.01410
G1 X159.218 Y96.917 E0.01410
G1 X159.088 Y96.487 E0.01410
G1 X159.044 Y96.039 E0.01410
G1 X159.082 Y95.651 E0.01222
G1 X158.716 Y95.518 F10800.000
G1 F1200.000
G1 X158.868 Y95.016 E0.01643
G1 X159.115 Y94.554 E0.01643
G1 X159.448 Y94.149 E0.01643
G1 X159.853 Y93.816 E0.01643
G1 X160.315 Y93.569 E0.01643
G1 X160.816 Y93.418 E0.01640
G1 X161.368 Y93.369 E0.01740
G1 X161.860 Y93.417 E0.01548
G1 X162.361 Y93.569 E0.01643
G1 X162.823 Y93.816 E0.01643
G1 X163.229 Y94.149 E0.01643
G1 X163.561 Y94.554 E0.01643
G1 X163.808 Y95.016 E0.01643
G1 X163.960 Y95.518 E0.01643
G1 X164.012 Y96.039 E0.01643
G1 X163.960 Y96.561 E0.01643
G1 X163.808 Y97.062 E0.01643
G1 X163.561 Y97.524 E0.01643
G1 X163.229 Y97.930 E0.01643
G1 X162.823 Y98.262 E0.01643
G1 X162.361 Y98.509 E0.01643
G1 X161.860 Y98.661 E0.01643
G1 X161.338 Y98.713 E0.01643
G1 X160.817 Y98.661 E0.01643
G1 X160.315 Y98.509 E0.01643
G1 X159.853 Y98.262 E0.01643
G1 X159.448 Y97.930 E0.01643
G1 X159.115 Y97.524 E0.01643
G1 X158.868 Y97.062 E0.01643
G1 X158.716 Y96.561 E0.01643
G1 X158.665 Y96.039 E0.01643
G1 X158.710 Y95.577 E0.01455
G1 X159.095 Y95.389 F10800.000
G1 E-0.80000 F2100.00000
G1 Z0.800 F10800.000
G1 X163.362 Y95.235
G1 Z0.200
G1 E0.80000 F2100.00000
G1 F1200.000
G1 X162.676 Y94.549 E0.03226
G1 X162.455 Y94.368 E0.00952
G1 X162.108 Y94.182 E0.01311
G1 X161.730 Y94.068 E0.01311
G1 X161.618 Y94.056 E0.00376
G1 X163.321 Y95.760 E0.08010
G1 X163.349 Y96.039 E0.00935
G1 X163.320 Y96.325 E0.00954
G1 X161.055 Y94.059 E0.10656
G1 X160.942 Y94.069 E0.00377
G1 X160.602 Y94.172 E0.01180
G1 X163.206 Y96.775 E0.12244
G1 X163.196 Y96.808 E0.00115
G1 X163.014 Y97.149 E0.01284
G1 X160.229 Y94.364 E0.13098
G1 X159.917 Y94.618 E0.01337
G1 X162.760 Y97.461 E0.13371
G1 X162.448 Y97.714 E0.01337
G1 X159.663 Y94.930 E0.13098
G1 X159.471 Y95.303 E0.01397
G1 X162.074 Y97.906 E0.12244
G1 X161.730 Y98.011 E0.01195
G1 X161.624 Y98.021 E0.00357
G1 X159.356 Y95.754 E0.10664
G1 X159.328 Y96.039 E0.00953
G1 X159.356 Y96.319 E0.00935
G1 X161.058 Y98.022 E0.08009
G1 X160.946 Y98.011 E0.00376
G1 X160.569 Y97.896 E0.01311
G1 X160.221 Y97.711 E0.01311
G1 X159.999 Y97.528 E0.00955
G1 X159.314 Y96.843 E0.03222
G1 E-0.80000 F2100.00000
G1 Z0.800 F10800.000
G1 X151.344 Y96.039
G1 Z0.200
G1 E0.80000 F2100.00000
G1 F1200.000
G1 X151.300 Y96.487 E0.01410
G1 X151.169 Y96.917 E0.01410
G1 X150.957 Y97.314 E0.01410
G1 X150.672 Y97.662 E0.01410
G1 X150.324 Y97.947 E0.01410
G1 X149.927 Y98.159 E0.01410
G1 X149.497 Y98.290 E0.01410
G1 X149.049 Y98.334 E0.01410
G1 X148.602 Y98.290 E0.01410
G1 X148.171 Y98.159 E0.01410
G1 X147.774 Y97.947 E0.01410
G1 X147.427 Y97.662 E0.01410
G1 X147.141 Y97.314 E0.01410
G1 X146.929 Y96.917 E0.01410
G1 X146.799 Y96.487 E0.01410
G1 X146.755 Y96.039 E0.01410
G1 X146.799 Y95.592 E0.01410
G1 X146.929 Y95.161 E0.01410
G1 X147.141 Y94.764 E0.01410
G1 X147.427 Y94.417 E0.01410
G1 X147.774 Y94.131 E0.01410
G1 X148.171 Y93.919 E0.01410
G1 X148.599 Y93.790 E0.01401
G1 X149.077 Y93.748 E0.01507
G1 X149.497 Y93.789 E0.01321
G1 X149.927 Y93.919 E0.01410
G1 X150.324 Y94.131 E0.01410
G1 X150.672 Y94.417 E0.01410
G1 X150.957 Y94.764 E0.01410
G1 X151.169 Y95.161 E0.01410
G1 X151.300 Y95.592 E0.01410
G1 X151.338 Y95.979 E0.01222
G1 X151.723 Y96.039 F10800.000
G1 F1200.000
G1 X151.671 Y96.561 E0.01643
G1 X151.519 Y97.062 E0.01643
G1 X151.272 Y97.524 E0.01643
G1 X150.940 Y97.930 E0.01643
G1 X150.534 Y98.262 E0.01643
G1 X150.072 Y98.509 E0.01643
G1 X149.571 Y98.661 E0.01643
G1 X149.049 Y98.713 E0.01643
G1 X148.528 Y98.661 E0.01643
G1 X148.026 Y98.509 E0.01643
G1 X147.564 Y98.262 E0.01643
G1 X147.159 Y97.930 E0.01643
G1 X146.826 Y97.524 E0.01643
G1 X146.579 Y97.062 E0.01643
G1 X146.427 Y96.561 E0.01643
G1 X146.376 Y96.039 E0.01643
G1 X146.427 Y95.518 E0.01643
G1 X146.579 Y95.016 E0.01643
G1 X146.826 Y94.554 E0.01643
G1 X147.159 Y94.149 E0.01643
G1 X147.564 Y93.816 E0.01643
G1 X148.026 Y93.569 E0.01643
G1 X148.527 Y93.418 E0.01640
G1 X149.079 Y93.369 E0.01740
G1 X149.571 Y93.417 E0.01548
G1 X150.072 Y93.569 E0.01643
G1 X150.534 Y93.816 E0.01643
G1 X150.940 Y94.149 E0.01643
G1 X151.272 Y94.554 E0.01643
G1 X151.519 Y95.016 E0.01643
G1 X151.671 Y95.518 E0.01643
G1 X151.717 Y95.979 E0.01455
G1 X151.376 Y96.239 F10800.000
G1 E-0.80000 F2100.00000
G1 Z0.800 F10800.000
G1 X147.025 Y96.843
G1 Z0.200
G1 E0.80000 F2100.00000
G1 F1200.000
G1 X147.710 Y97.528 E0.03222
G1 X147.932 Y97.711 E0.00955
G1 X148.280 Y97.896 E0.01311
G1 X148.657 Y98.011 E0.01311
G1 X148.769 Y98.022 E0.00376
G1 X147.066 Y96.319 E0.08009
G1 X147.039 Y96.039 E0.00935
G1 X147.067 Y95.754 E0.00953
G1 X149.334 Y98.021 E0.10664
G1 X149.441 Y98.011 E0.00357
G1 X149.785 Y97.906 E0.01195
G1 X147.182 Y95.303 E0.12244
G1 X147.374 Y94.930 E0.01397
G1 X150.159 Y97.714 E0.13098
G1 X150.471 Y97.461 E0.01337
G1 X147.628 Y94.618 E0.13371
G1 X147.939 Y94.364 E0.01337
G1 X150.724 Y97.149 E0.13098
G1 X150.906 Y96.808 E0.01284
G1 X150.916 Y96.775 E0.00115
G1 X148.313 Y94.172 E0.12244
G1 X148.653 Y94.069 E0.01180
G1 X148.766 Y94.059 E0.00377
G1 X151.031 Y96.325 E0.10656
G1 X151.059 Y96.039 E0.00954
G1 X151.032 Y95.760 E0.00935
G1 X149.329 Y94.056 E0.08010
G1 X149.441 Y94.068 E0.00376
G1 X149.818 Y94.182 E0.01311
G1 X150.166 Y94.368 E0.01311
G1 X150.387 Y94.549 E0.00952
G1 X151.073 Y95.235 E0.03226
G1 E-0.80000 F2100.00000
G1 Z0.800 F10800.000
G1 X150.320 Y63.743
G1 Z0.200
G1 E0.80000 F2100.00000
G1 F1200.000
G1 X150.320 Y60.950 E0.08756
G1 X151.074 Y60.950 E0.02365
G1 X151.074 Y63.573 E0.08224
G1 X151.828 Y63.573 E0.02365
G1 X151.828 Y55.361 E0.25750
G1 X152.583 Y55.361 E0.02365
G1 X152.583 Y63.573 E0.25750
G1 X153.337 Y63.573 E0.02365
G1 X153.337 Y55.361 E0.25750
G1 X154.091 Y55.361 E0.02365
G1 X154.091 Y63.743 E0.26282
G1 X151.074 Y58.153 F10800.000
G1 F1200.000
G1 X151.074 Y55.361 E0.08756
G1 X150.320 Y55.361 E0.02365
G1 X150.320 Y57.983 E0.08224
G1 X149.566 Y57.983 E0.02365
G1 X149.566 Y55.361 E0.08224
G1 X148.812 Y55.361 E0.02365
G1 X148.812 Y57.983 E0.08224
G1 X148.058 Y57.983 E0.02365
G1 X148.058 Y55.361 E0.08224
G1 X147.304 Y55.361 E0.02365
G1 X147.304 Y57.983 E0.08224
G1 X146.549 Y57.983 E0.02365
G1 X146.549 Y55.361 E0.08224
G1 X145.795 Y55.361 E0.02365
G1 X145.795 Y63.573 E0.25750
G1 X146.549 Y63.573 E0.02365
G1 X146.549 Y60.781 E0.08756
G1 X147.304 Y59.615 F10800.000
G1 F1200.000
G1 X147.304 Y60.018 E0.01263
G1 X148.058 Y60.018 E0.02365
G1 X148.058 Y59.785 E0.00731
G1 X148.812 Y59.785 E0.02365
G1 X148.812 Y60.188 E0.01263
G1 E-0.80000 F2100.00000
G1 Z0.800 F10800.000
G1 X150.861 Y60.747
G1 Z0.200
G1 E0.80000 F2100.00000
G1 F1200.000
G1 X150.861 Y58.319 E0.06602
G1 X150.367 Y58.319 E0.01346
G1 X150.367 Y60.614 E0.06241
G1 X149.872 Y60.614 E0.01346
G1 X149.872 Y58.319 E0.06241
G1 X149.377 Y58.319 E0.01346
G1 X149.377 Y59.449 E0.03072
G1 X148.882 Y59.449 E0.01346
G1 X148.882 Y58.319 E0.03072
G1 X148.387 Y58.319 E0.01346
G1 X148.387 Y59.449 E0.03072
G1 X147.892 Y59.449 E0.01346
G1 X147.892 Y58.319 E0.03072
G1 X147.397 Y58.319 E0.01346
G1 X147.397 Y59.449 E0.03072
G1 X147.032 Y59.449 E0.00994
G1 X146.902 Y59.579 E0.00498
G1 X146.902 Y58.187 E0.03785
G1 X145.041 Y63.743 F10800.000
G1 F1200.000
G1 X145.041 Y55.361 E0.26282
G1 X144.287 Y55.361 E0.02365
G1 X144.287 Y63.743 E0.26282
G1 E-0.80000 F2100.00000
G1 Z0.800 F10800.000
G1 X136.430 Y74.769
G1 Z0.200
G1 E0.80000 F2100.00000
G1 F1200.000
G1 X136.430 Y98.396 E0.74080
G1 X126.569 Y98.396 E0.30918
G1 X126.569 Y90.492 E0.24781
G1 X136.004 Y90.492 E0.29583
G1 X136.004 Y74.344 E0.50634
G1 X148.004 Y74.344 E0.37625
G1 X148.004 Y61.294 E0.40917
G1 X148.430 Y61.294 E0.01334
G1 X148.430 Y74.769 E0.42252
G1 X136.490 Y74.769 E0.37437
G1 X136.807 Y75.147 F10800.000
G1 F1200.000
G1 X136.807 Y98.773 E0.74080
G1 X126.192 Y98.773 E0.33282
G1 X126.192 Y90.115 E0.27146
G1 X135.627 Y90.115 E0.29583
G1 X135.627 Y73.967 E0.50634
G1 X147.627 Y73.967 E0.37625
G1 X147.627 Y60.917 E0.40917
G1 X148.807 Y60.917 E0.03699
G1 X148.807 Y75.147 E0.44616
G1 X136.867 Y75.147 E0.37437
G1 X136.424 Y75.261 F10800.000
G1 E-0.80000 F2100.00000
G1 Z0.800 F10800.000
G1 X126.682 Y97.514
G1 Z0.200
G1 E0.80000 F2100.00000
G1 F1200.000
G1 X127.281 Y98.113 E0.02677
G1 X127.819 Y98.113 E0.01699
G1 X126.852 Y97.147 E0.04320
G1 X126.852 Y96.609 E0.01699
G1 X128.356 Y98.113 E0.06722
G1 X128.894 Y98.113 E0.01699
G1 X126.852 Y96.072 E0.09125
G1 X126.852 Y95.534 E0.01699
G1 X129.431 Y98.113 E0.11527
G1 X129.969 Y98.113 E0.01699
G1 X126.852 Y94.997 E0.13929
G1 X126.852 Y94.459 E0.01699
G1 X130.506 Y98.113 E0.16331
G1 X131.043 Y98.113 E0.01699
G1 X126.852 Y93.922 E0.18733
G1 X126.852 Y93.384 E0.01699
G1 X131.581 Y98.113 E0.21135
G1 X132.118 Y98.113 E0.01699
G1 X126.852 Y92.847 E0.23537
M73 P2 R39
G1 X126.852 Y92.309 E0.01699
G1 X132.656 Y98.113 E0.25940
G1 X133.193 Y98.113 E0.01699
G1 X126.852 Y91.772 E0.28342
G1 X126.852 Y91.234 E0.01699
G1 X133.731 Y98.113 E0.30744
G1 X134.268 Y98.113 E0.01699
G1 X126.930 Y90.775 E0.32795
G1 X127.468 Y90.775 E0.01699
G1 X134.806 Y98.113 E0.32795
G1 X135.343 Y98.113 E0.01699
G1 X128.005 Y90.775 E0.32795
G1 X128.543 Y90.775 E0.01699
G1 X135.881 Y98.113 E0.32795
G1 X136.147 Y98.113 E0.00841
G1 X136.147 Y97.842 E0.00857
G1 X129.080 Y90.775 E0.31583
G1 X129.618 Y90.775 E0.01699
G1 X136.147 Y97.305 E0.29181
G1 X136.147 Y96.767 E0.01699
G1 X130.155 Y90.775 E0.26779
G1 X130.693 Y90.775 E0.01699
G1 X136.147 Y96.230 E0.24376
G1 X136.147 Y95.692 E0.01699
G1 X131.230 Y90.775 E0.21974
G1 X131.768 Y90.775 E0.01699
G1 X136.147 Y95.155 E0.19572
G1 X136.147 Y94.617 E0.01699
G1 X132.305 Y90.775 E0.17170
G1 X132.843 Y90.775 E0.01699
G1 X136.147 Y94.080 E0.14768
G1 X136.147 Y93.542 E0.01699
G1 X133.380 Y90.775 E0.12366
G1 X133.918 Y90.775 E0.01699
G1 X136.147 Y93.005 E0.09964
G1 X136.147 Y92.467 E0.01699
G1 X134.455 Y90.775 E0.07562
G1 X134.993 Y90.775 E0.01699
G1 X136.147 Y91.930 E0.05159
G1 X136.147 Y91.392 E0.01699
G1 X135.530 Y90.775 E0.02757
G1 X136.068 Y90.775 E0.01699
G1 X136.317 Y91.024 E0.01114
G1 E-0.80000 F2100.00000
G1 Z0.800 F10800.000
G1 X131.065 Y63.743
G1 Z0.200
G1 E0.80000 F2100.00000
G1 F1200.000
G1 X131.065 Y55.361 E0.26282
G1 X130.311 Y55.361 E0.02365
G1 X130.311 Y63.573 E0.25750
G1 X129.557 Y63.573 E0.02365
G1 X129.557 Y55.361 E0.25750
G1 X128.803 Y55.361 E0.02365
G1 X128.803 Y63.573 E0.25750
G1 X128.048 Y63.573 E0.02365
G1 X128.048 Y60.950 E0.08224
G1 X127.294 Y60.950 E0.02365
G1 X127.294 Y63.743 E0.08756
G1 E-0.80000 F2100.00000
G1 Z0.800 F10800.000
G1 X122.015 Y63.743
G1 Z0.200
G1 E0.80000 F2100.00000
G1 F1200.000
G1 X122.015 Y55.361 E0.26282
G1 X121.261 Y55.361 E0.02365
G1 X121.261 Y63.743 E0.26282
G1 E-0.80000 F2100.00000
G1 Z0.800 F10800.000
G1 X123.876 Y58.187
G1 Z0.200
G1 E0.80000 F2100.00000
G1 F1200.000
G1 X123.876 Y59.579 E0.03785
G1 X124.006 Y59.449 E0.00498
G1 X124.371 Y59.449 E0.00994
G1 X124.371 Y58.319 E0.03072
G1 X124.866 Y58.319 E0.01346
G1 X124.866 Y59.449 E0.03072
G1 X125.361 Y59.449 E0.01346
G1 X125.361 Y58.319 E0.03072
G1 X125.856 Y58.319 E0.01346
G1 X125.856 Y59.449 E0.03072
G1 X126.351 Y59.449 E0.01346
G1 X126.351 Y58.319 E0.03072
G1 X126.846 Y58.319 E0.01346
G1 X126.846 Y60.614 E0.06241
G1 X127.341 Y60.614 E0.01346
G1 X127.341 Y58.319 E0.06241
G1 X127.835 Y58.319 E0.01346
G1 X127.835 Y60.747 E0.06602
G1 E-0.80000 F2100.00000
G1 Z0.800 F10800.000
G1 X125.786 Y60.188
G1 Z0.200
G1 E0.80000 F2100.00000
G1 F1200.000
G1 X125.786 Y59.785 E0.01263
G1 X125.032 Y59.785 E0.02365
G1 X125.032 Y60.018 E0.00731
G1 X124.278 Y60.018 E0.02365
G1 X124.278 Y59.615 E0.01263
G1 X123.523 Y60.781 F10800.000
G1 F1200.000
G1 X123.523 Y63.573 E0.08756
G1 X122.769 Y63.573 E0.02365
G1 X122.769 Y55.361 E0.25750
G1 X123.523 Y55.361 E0.02365
G1 X123.523 Y57.983 E0.08224
G1 X124.278 Y57.983 E0.02365
G1 X124.278 Y55.361 E0.08224
G1 X125.032 Y55.361 E0.02365
G1 X125.032 Y57.983 E0.08224
G1 X125.786 Y57.983 E0.02365
G1 X125.786 Y55.361 E0.08224
G1 X126.540 Y55.361 E0.02365
G1 X126.540 Y57.983 E0.08224
G1 X127.294 Y57.983 E0.02365
G1 X127.294 Y55.361 E0.08224
G1 X128.048 Y55.361 E0.02365
G1 X128.048 Y58.153 E0.08756
G1 E-0.80000 F2100.00000
G1 Z0.800 F10800.000
G1 X125.404 Y61.294
G1 Z0.200
G1 E0.80000 F2100.00000
G1 F1200.000
G1 X125.404 Y74.769 E0.42252
G1 X113.404 Y74.769 E0.37625
G1 X113.404 Y98.396 E0.74080
G1 X103.543 Y98.396 E0.30918
G1 X103.543 Y90.492 E0.24781
G1 X112.978 Y90.492 E0.29583
G1 X112.978 Y74.344 E0.50634
G1 X124.978 Y74.344 E0.37625
G1 X124.978 Y61.294 E0.40917
G1 X125.344 Y61.294 E0.01146
G1 E-0.80000 F2100.00000
G1 Z0.800 F10800.000
G1 X113.781 Y75.147
G1 Z0.200
