; generated by PrusaSlicer 2.1.1+win64 on 2020-01-06 at 18:56:05 UTC

; 

; external perimeters extrusion width = 0.60mm
; perimeters extrusion width = 0.43mm
; infill extrusion width = 0.45mm
; solid infill extrusion width = 0.70mm
; top infill extrusion width = 0.43mm
; first layer extrusion width = 0.42mm

M73 P0 R83
M201 X9000 Y9000 Z500 E10000 ; sets maximum accelerations, mm/sec^2
M203 X500 Y500 Z12 E120 ; sets maximum feedrates, mm/sec
M204 P2000 R1500 T2000 ; sets acceleration (P, T) and retract acceleration (R), mm/sec^2
M205 X10.00 Y10.00 Z0.20 E2.50 ; sets the jerk limits, mm/sec
M205 S0 T0 ; sets the minimum extruding and travel feed rate, mm/sec
M107
M862.3 P "MK2.5SMMU2S" ; printer model check
M862.1 P0.4 ; nozzle diameter check
M115 U3.8.0 ; tell printer latest fw version
G90 ; use absolute coordinates
M83 ; extruder relative mode
M104 S215 ; set extruder temp
M140 S60 ; set bed temp
Tx
M190 S60 ; wait for bed temp
M109 S215 ; wait for extruder temp
G28 W ; home all without mesh bed level
G80 ; mesh bed leveling

G21 ; set units to millimeters

;go outside print area
G1 Y-3.0 F1000.0
G1 Z0.4 F1000.0
; select extruder
Tc
; purge line
G1 X55.0 F2000.0
G1 Z0.3 F1000.0
G92 E0.0
G1 X240.0 E25.0 F2200.0
M73 P0 R83
G1 Y-2.0 F1000.0
G1 X55.0 E25 F1400.0
G1 Z0.20 F1000.0
G1 X5.0 E4.0 F1000.0
G92 E0.0
G21 ; set units to millimeters
G90 ; use absolute coordinates
M83 ; use relative distances for extrusion
M900 K30 ; Filament gcode
;BEFORE_LAYER_CHANGE
G92 E0.0
;0.2


G1 E-0.80000 F2100.00000
G1 Z0.600 F10800.000
;AFTER_LAYER_CHANGE
;0.2
G1 X16.558 Y62.882
G1 Z0.200
G1 E0.80000 F2100.00000
M204 S1000
G1 F1200
G1 X17.078 Y62.152 E0.02810
G1 X93.497 Y6.001 E2.97332
G1 X94.231 Y5.651 E0.02552
G1 X94.789 Y5.579 E0.01764
G1 X231.440 Y5.579 E4.28460
G1 X232.274 Y5.745 E0.02664
G1 X232.978 Y6.214 E0.02653
G1 X233.454 Y6.918 E0.02664
G1 X233.625 Y7.750 E0.02664
G1 X233.625 Y202.240 E6.09809
G1 X233.440 Y203.114 E0.02799
G1 X232.922 Y203.840 E0.02799
G1 X232.239 Y204.269 E0.02529
G1 X231.443 Y204.421 E0.02541
G1 X18.563 Y204.421 E6.67469
G1 X17.686 Y204.238 E0.02810
G1 X16.956 Y203.718 E0.02810
G1 X16.527 Y203.035 E0.02529
G1 X16.375 Y202.242 E0.02529
G1 X16.375 Y63.756 E4.34214
G1 X16.546 Y62.941 E0.02611
G1 E-0.80000 F2100.00000
G1 Z0.800 F10800.000
G1 X128.587 Y164.579
G1 Z0.200
G1 E0.80000 F2100.00000
G1 F1200
G1 X204.813 Y164.579 E2.39002
G1 X204.813 Y108.587 E1.75560
G1 X230.850 Y108.587 E0.81636
M73 P1 R82
G1 X230.850 Y201.646 E2.91779
G1 X128.587 Y201.646 E3.20637
G1 X128.587 Y164.639 E1.16030
G1 E-0.80000 F2100.00000
G1 Z0.800 F10800.000
G1 X204.436 Y164.202
G1 Z0.200
G1 E0.80000 F2100.00000
G1 F1200
G1 X204.436 Y108.210 E1.75560
G1 X231.227 Y108.210 E0.84000
G1 X231.227 Y202.023 E2.94143
G1 X128.210 Y202.023 E3.23002
G1 X128.210 Y164.202 E1.18583
G1 X204.376 Y164.202 E2.38813
G1 X204.831 Y164.141 F10800.000
G1 E-0.80000 F2100.00000
G1 Z0.800 F10800.000
G1 X230.737 Y109.464
G1 Z0.200
G1 E0.80000 F2100.00000
G1 F1200
G1 X230.143 Y108.870 E0.02637
G1 X229.609 Y108.870 E0.01677
G1 X230.567 Y109.828 E0.04255
G1 X230.567 Y110.362 E0.01677
G1 X229.075 Y108.870 E0.06627
G1 X228.541 Y108.870 E0.01677
G1 X230.567 Y110.896 E0.08999
G1 X230.567 Y111.430 E0.01677
G1 X228.006 Y108.870 E0.11371
G1 X227.472 Y108.870 E0.01677
G1 X230.567 Y111.964 E0.13743
G1 X230.567 Y112.499 E0.01677
G1 X226.938 Y108.870 E0.16115
G1 X226.404 Y108.870 E0.01677
G1 X230.567 Y113.033 E0.18487
G1 X230.567 Y113.567 E0.01677
G1 X225.870 Y108.870 E0.20859
G1 X225.336 Y108.870 E0.01677
G1 X230.567 Y114.101 E0.23231
G1 X230.567 Y114.635 E0.01677
G1 X224.802 Y108.870 E0.25603
G1 X224.268 Y108.870 E0.01677
G1 X230.567 Y115.169 E0.27975
G1 X230.567 Y115.703 E0.01677
G1 X223.734 Y108.870 E0.30347
G1 X223.200 Y108.870 E0.01677
G1 X230.567 Y116.237 E0.32718
G1 X230.567 Y116.771 E0.01677
G1 X222.666 Y108.870 E0.35090
G1 X222.131 Y108.870 E0.01677
G1 X230.567 Y117.305 E0.37462
G1 X230.567 Y117.839 E0.01677
G1 X221.597 Y108.870 E0.39834
G1 X221.063 Y108.870 E0.01677
G1 X230.567 Y118.374 E0.42206
G1 X230.567 Y118.908 E0.01677
G1 X220.529 Y108.870 E0.44578
G1 X219.995 Y108.870 E0.01677
G1 X230.567 Y119.442 E0.46950
G1 X230.567 Y119.976 E0.01677
G1 X219.461 Y108.870 E0.49322
G1 X218.927 Y108.870 E0.01677
G1 X230.567 Y120.510 E0.51694
G1 X230.567 Y121.044 E0.01677
G1 X218.393 Y108.870 E0.54066
G1 X217.859 Y108.870 E0.01677
G1 X230.567 Y121.578 E0.56438
G1 X230.567 Y122.112 E0.01677
G1 X217.325 Y108.870 E0.58809
G1 X216.790 Y108.870 E0.01677
G1 X230.567 Y122.646 E0.61181
G1 X230.567 Y123.180 E0.01677
G1 X216.256 Y108.870 E0.63553
G1 X215.722 Y108.870 E0.01677
G1 X230.567 Y123.715 E0.65925
G1 X230.567 Y124.249 E0.01677
G1 X215.188 Y108.870 E0.68297
G1 X214.654 Y108.870 E0.01677
G1 X230.567 Y124.783 E0.70669
G1 X230.567 Y125.317 E0.01677
G1 X214.120 Y108.870 E0.73041
G1 X213.586 Y108.870 E0.01677
G1 X230.567 Y125.851 E0.75413
G1 X230.567 Y126.385 E0.01677
G1 X213.052 Y108.870 E0.77785
G1 X212.518 Y108.870 E0.01677
G1 X230.567 Y126.919 E0.80157
G1 X230.567 Y127.453 E0.01677
G1 X211.984 Y108.870 E0.82529
G1 X211.450 Y108.870 E0.01677
G1 X230.567 Y127.987 E0.84900
G1 X230.567 Y128.521 E0.01677
G1 X210.915 Y108.870 E0.87272
M73 P2 R81
G1 X210.381 Y108.870 E0.01677
G1 X230.567 Y129.055 E0.89644
G1 X230.567 Y129.590 E0.01677
G1 X209.847 Y108.870 E0.92016
G1 X209.313 Y108.870 E0.01677
G1 X230.567 Y130.124 E0.94388
G1 X230.567 Y130.658 E0.01677
G1 X208.779 Y108.870 E0.96760
G1 X208.245 Y108.870 E0.01677
G1 X230.567 Y131.192 E0.99132
G1 X230.567 Y131.726 E0.01677
G1 X207.711 Y108.870 E1.01504
G1 X207.177 Y108.870 E0.01677
G1 X230.567 Y132.260 E1.03876
G1 X230.567 Y132.794 E0.01677
G1 X206.643 Y108.870 E1.06248
G1 X206.109 Y108.870 E0.01677
G1 X230.567 Y133.328 E1.08620
G1 X230.567 Y133.862 E0.01677
G1 X205.575 Y108.870 E1.10991
G1 X205.096 Y108.870 E0.01503
G1 X205.096 Y108.925 E0.00174
G1 X230.567 Y134.396 E1.13117
G1 X230.567 Y134.930 E0.01677
G1 X205.096 Y109.459 E1.13117
G1 X205.096 Y109.994 E0.01677
G1 X230.567 Y135.465 E1.13117
G1 X230.567 Y135.999 E0.01677
G1 X205.096 Y110.528 E1.13117
G1 X205.096 Y111.062 E0.01677
G1 X230.567 Y136.533 E1.13117
G1 X230.567 Y137.067 E0.01677
G1 X205.096 Y111.596 E1.13117
G1 X205.096 Y112.130 E0.01677
G1 X230.567 Y137.601 E1.13117
G1 X230.567 Y138.135 E0.01677
G1 X205.096 Y112.664 E1.13117
G1 X205.096 Y113.198 E0.01677
G1 X230.567 Y138.669 E1.13117
G1 X230.567 Y139.203 E0.01677
G1 X205.096 Y113.732 E1.13117
G1 X205.096 Y114.266 E0.01677
G1 X230.567 Y139.737 E1.13117
G1 X230.567 Y140.271 E0.01677
G1 X205.096 Y114.800 E1.13117
G1 X205.096 Y115.335 E0.01677
G1 X230.567 Y140.806 E1.13117
G1 X230.567 Y141.340 E0.01677
G1 X205.096 Y115.869 E1.13117
G1 X205.096 Y116.403 E0.01677
G1 X230.567 Y141.874 E1.13117
G1 X230.567 Y142.408 E0.01677
G1 X205.096 Y116.937 E1.13117
G1 X205.096 Y117.471 E0.01677
G1 X230.567 Y142.942 E1.13117
G1 X230.567 Y143.476 E0.01677
G1 X205.096 Y118.005 E1.13117
G1 X205.096 Y118.539 E0.01677
G1 X230.567 Y144.010 E1.13117
G1 X230.567 Y144.544 E0.01677
G1 X205.096 Y119.073 E1.13117
G1 X205.096 Y119.607 E0.01677
G1 X230.567 Y145.078 E1.13117
G1 X230.567 Y145.612 E0.01677
G1 X205.096 Y120.141 E1.13117
G1 X205.096 Y120.675 E0.01677
G1 X230.567 Y146.146 E1.13117
G1 X230.567 Y146.681 E0.01677
G1 X205.096 Y121.210 E1.13117
M73 P3 R80
G1 X205.096 Y121.744 E0.01677
G1 X230.567 Y147.215 E1.13117
G1 X230.567 Y147.749 E0.01677
G1 X205.096 Y122.278 E1.13117
G1 X205.096 Y122.812 E0.01677
G1 X230.567 Y148.283 E1.13117
G1 X230.567 Y148.817 E0.01677
G1 X205.096 Y123.346 E1.13117
G1 X205.096 Y123.880 E0.01677
G1 X230.567 Y149.351 E1.13117
G1 X230.567 Y149.885 E0.01677
G1 X205.096 Y124.414 E1.13117
G1 X205.096 Y124.948 E0.01677
G1 X230.567 Y150.419 E1.13117
G1 X230.567 Y150.953 E0.01677
G1 X205.096 Y125.482 E1.13117
G1 X205.096 Y126.016 E0.01677
G1 X230.567 Y151.487 E1.13117
G1 X230.567 Y152.021 E0.01677
G1 X205.096 Y126.550 E1.13117
G1 X205.096 Y127.085 E0.01677
G1 X230.567 Y152.556 E1.13117
G1 X230.567 Y153.090 E0.01677
G1 X205.096 Y127.619 E1.13117
G1 X205.096 Y128.153 E0.01677
G1 X230.567 Y153.624 E1.13117
G1 X230.567 Y154.158 E0.01677
G1 X205.096 Y128.687 E1.13117
G1 X205.096 Y129.221 E0.01677
G1 X230.567 Y154.692 E1.13117
G1 X230.567 Y155.226 E0.01677
G1 X205.096 Y129.755 E1.13117
G1 X205.096 Y130.289 E0.01677
G1 X230.567 Y155.760 E1.13117
G1 X230.567 Y156.294 E0.01677
G1 X205.096 Y130.823 E1.13117
G1 X205.096 Y131.357 E0.01677
G1 X230.567 Y156.828 E1.13117
G1 X230.567 Y157.362 E0.01677
G1 X205.096 Y131.891 E1.13117
G1 X205.096 Y132.425 E0.01677
G1 X230.567 Y157.896 E1.13117
G1 X230.567 Y158.431 E0.01677
G1 X205.096 Y132.960 E1.13117
G1 X205.096 Y133.494 E0.01677
G1 X230.567 Y158.965 E1.13117
G1 X230.567 Y159.499 E0.01677
G1 X205.096 Y134.028 E1.13117
G1 X205.096 Y134.562 E0.01677
G1 X230.567 Y160.033 E1.13117
G1 X230.567 Y160.567 E0.01677
G1 X205.096 Y135.096 E1.13117
G1 X205.096 Y135.630 E0.01677
G1 X230.567 Y161.101 E1.13117
G1 X230.567 Y161.635 E0.01677
G1 X205.096 Y136.164 E1.13117
G1 X205.096 Y136.698 E0.01677
G1 X230.567 Y162.169 E1.13117
G1 X230.567 Y162.703 E0.01677
G1 X205.096 Y137.232 E1.13117
G1 X205.096 Y137.766 E0.01677
G1 X230.567 Y163.237 E1.13117
G1 X230.567 Y163.772 E0.01677
G1 X205.096 Y138.301 E1.13117
G1 X205.096 Y138.835 E0.01677
G1 X230.567 Y164.306 E1.13117
M73 P4 R79
G1 X230.567 Y164.840 E0.01677
G1 X205.096 Y139.369 E1.13117
G1 X205.096 Y139.903 E0.01677
G1 X230.567 Y165.374 E1.13117
G1 X230.567 Y165.908 E0.01677
G1 X205.096 Y140.437 E1.13117
G1 X205.096 Y140.971 E0.01677
G1 X230.567 Y166.442 E1.13117
G1 X230.567 Y166.976 E0.01677
G1 X205.096 Y141.505 E1.13117
G1 X205.096 Y142.039 E0.01677
G1 X230.567 Y167.510 E1.13117
G1 X230.567 Y168.044 E0.01677
G1 X205.096 Y142.573 E1.13117
G1 X205.096 Y143.107 E0.01677
G1 X230.567 Y168.578 E1.13117
G1 X230.567 Y169.112 E0.01677
G1 X205.096 Y143.641 E1.13117
G1 X205.096 Y144.176 E0.01677
G1 X230.567 Y169.647 E1.13117
G1 X230.567 Y170.181 E0.01677
G1 X205.096 Y144.710 E1.13117
G1 X205.096 Y145.244 E0.01677
G1 X230.567 Y170.715 E1.13117
G1 X230.567 Y171.249 E0.01677
G1 X205.096 Y145.778 E1.13117
G1 X205.096 Y146.312 E0.01677
G1 X230.567 Y171.783 E1.13117
G1 X230.567 Y172.317 E0.01677
G1 X205.096 Y146.846 E1.13117
G1 X205.096 Y147.380 E0.01677
G1 X230.567 Y172.851 E1.13117
G1 X230.567 Y173.385 E0.01677
G1 X205.096 Y147.914 E1.13117
G1 X205.096 Y148.448 E0.01677
G1 X230.567 Y173.919 E1.13117
G1 X230.567 Y174.453 E0.01677
G1 X205.096 Y148.982 E1.13117
G1 X205.096 Y149.516 E0.01677
G1 X230.567 Y174.987 E1.13117
G1 X230.567 Y175.522 E0.01677
G1 X205.096 Y150.051 E1.13117
G1 X205.096 Y150.585 E0.01677
G1 X230.567 Y176.056 E1.13117
G1 X230.567 Y176.590 E0.01677
G1 X205.096 Y151.119 E1.13117
G1 X205.096 Y151.653 E0.01677
G1 X230.567 Y177.124 E1.13117
G1 X230.567 Y177.658 E0.01677
G1 X205.096 Y152.187 E1.13117
G1 X205.096 Y152.721 E0.01677
G1 X230.567 Y178.192 E1.13117
G1 X230.567 Y178.726 E0.01677
G1 X205.096 Y153.255 E1.13117
G1 X205.096 Y153.789 E0.01677
G1 X230.567 Y179.260 E1.13117
G1 X230.567 Y179.794 E0.01677
G1 X205.096 Y154.323 E1.13117
G1 X205.096 Y154.857 E0.01677
G1 X230.567 Y180.328 E1.13117
G1 X230.567 Y180.863 E0.01677
G1 X205.096 Y155.392 E1.13117
G1 X205.096 Y155.926 E0.01677
G1 X230.567 Y181.397 E1.13117
G1 X230.567 Y181.931 E0.01677
G1 X205.096 Y156.460 E1.13117
M73 P6 R78
G1 X205.096 Y156.994 E0.01677
G1 X230.567 Y182.465 E1.13117
G1 X230.567 Y182.999 E0.01677
G1 X205.096 Y157.528 E1.13117
G1 X205.096 Y158.062 E0.01677
G1 X230.567 Y183.533 E1.13117
G1 X230.567 Y184.067 E0.01677
G1 X205.096 Y158.596 E1.13117
G1 X205.096 Y159.130 E0.01677
G1 X230.567 Y184.601 E1.13117
G1 X230.567 Y185.135 E0.01677
G1 X205.096 Y159.664 E1.13117
G1 X205.096 Y160.198 E0.01677
G1 X230.567 Y185.669 E1.13117
G1 X230.567 Y186.203 E0.01677
G1 X205.096 Y160.732 E1.13117
G1 X205.096 Y161.267 E0.01677
G1 X230.567 Y186.738 E1.13117
G1 X230.567 Y187.272 E0.01677
G1 X205.096 Y161.801 E1.13117
G1 X205.096 Y162.335 E0.01677
G1 X230.567 Y187.806 E1.13117
G1 X230.567 Y188.340 E0.01677
G1 X205.096 Y162.869 E1.13117
G1 X205.096 Y163.403 E0.01677
G1 X230.567 Y188.874 E1.13117
G1 X230.567 Y189.408 E0.01677
G1 X205.096 Y163.937 E1.13117
G1 X205.096 Y164.471 E0.01677
G1 X230.567 Y189.942 E1.13117
G1 X230.567 Y190.476 E0.01677
G1 X204.953 Y164.862 E1.13751
G1 X204.419 Y164.862 E0.01677
G1 X230.567 Y191.010 E1.16123
G1 X230.567 Y191.544 E0.01677
G1 X203.885 Y164.862 E1.18495
G1 X203.351 Y164.862 E0.01677
G1 X230.567 Y192.078 E1.20867
G1 X230.567 Y192.613 E0.01677
G1 X202.817 Y164.862 E1.23239
G1 X202.283 Y164.862 E0.01677
G1 X230.567 Y193.147 E1.25611
G1 X230.567 Y193.681 E0.01677
G1 X201.748 Y164.862 E1.27983
G1 X201.214 Y164.862 E0.01677
G1 X230.567 Y194.215 E1.30355
G1 X230.567 Y194.749 E0.01677
G1 X200.680 Y164.862 E1.32727
G1 X200.146 Y164.862 E0.01677
G1 X230.567 Y195.283 E1.35099
G1 X230.567 Y195.817 E0.01677
G1 X199.612 Y164.862 E1.37471
G1 X199.078 Y164.862 E0.01677
G1 X230.567 Y196.351 E1.39842
G1 X230.567 Y196.885 E0.01677
G1 X198.544 Y164.862 E1.42214
G1 X198.010 Y164.862 E0.01677
G1 X230.567 Y197.419 E1.44586
G1 X230.567 Y197.953 E0.01677
G1 X197.476 Y164.862 E1.46958
G1 X196.942 Y164.862 E0.01677
G1 X230.567 Y198.488 E1.49330
M73 P7 R77
G1 X230.567 Y199.022 E0.01677
G1 X196.408 Y164.862 E1.51702
G1 X195.873 Y164.862 E0.01677
G1 X230.567 Y199.556 E1.54074
G1 X230.567 Y200.090 E0.01677
G1 X195.339 Y164.862 E1.56446
G1 X194.805 Y164.862 E0.01677
G1 X230.567 Y200.624 E1.58818
G1 X230.567 Y201.158 E0.01677
G1 X194.271 Y164.862 E1.61190
G1 X193.737 Y164.862 E0.01677
G1 X230.238 Y201.363 E1.62100
G1 X229.704 Y201.363 E0.01677
G1 X193.203 Y164.862 E1.62100
G1 X192.669 Y164.862 E0.01677
G1 X229.170 Y201.363 E1.62100
G1 X228.635 Y201.363 E0.01677
G1 X192.135 Y164.862 E1.62100
G1 X191.601 Y164.862 E0.01677
G1 X228.101 Y201.363 E1.62100
G1 X227.567 Y201.363 E0.01677
G1 X191.067 Y164.862 E1.62100
G1 X190.533 Y164.862 E0.01677
G1 X227.033 Y201.363 E1.62100
G1 X226.499 Y201.363 E0.01677
G1 X189.998 Y164.862 E1.62100
G1 X189.464 Y164.862 E0.01677
G1 X225.965 Y201.363 E1.62100
G1 X225.431 Y201.363 E0.01677
G1 X188.930 Y164.862 E1.62100
G1 X188.396 Y164.862 E0.01677
G1 X224.897 Y201.363 E1.62100
G1 X224.363 Y201.363 E0.01677
G1 X187.862 Y164.862 E1.62100
G1 X187.328 Y164.862 E0.01677
G1 X223.829 Y201.363 E1.62100
G1 X223.295 Y201.363 E0.01677
G1 X186.794 Y164.862 E1.62100
G1 X186.260 Y164.862 E0.01677
G1 X222.760 Y201.363 E1.62100
G1 X222.226 Y201.363 E0.01677
G1 X185.726 Y164.862 E1.62100
G1 X185.192 Y164.862 E0.01677
G1 X221.692 Y201.363 E1.62100
G1 X221.158 Y201.363 E0.01677
G1 X184.657 Y164.862 E1.62100
G1 X184.123 Y164.862 E0.01677
G1 X220.624 Y201.363 E1.62100
M73 P8 R76
G1 X220.090 Y201.363 E0.01677
G1 X183.589 Y164.862 E1.62100
G1 X183.055 Y164.862 E0.01677
G1 X219.556 Y201.363 E1.62100
G1 X219.022 Y201.363 E0.01677
G1 X182.521 Y164.862 E1.62100
G1 X181.987 Y164.862 E0.01677
G1 X218.488 Y201.363 E1.62100
G1 X217.954 Y201.363 E0.01677
G1 X181.453 Y164.862 E1.62100
G1 X180.919 Y164.862 E0.01677
G1 X217.420 Y201.363 E1.62100
G1 X216.885 Y201.363 E0.01677
G1 X180.385 Y164.862 E1.62100
G1 X179.851 Y164.862 E0.01677
G1 X216.351 Y201.363 E1.62100
G1 X215.817 Y201.363 E0.01677
G1 X179.317 Y164.862 E1.62100
G1 X178.782 Y164.862 E0.01677
G1 X215.283 Y201.363 E1.62100
G1 X214.749 Y201.363 E0.01677
G1 X178.248 Y164.862 E1.62100
G1 X177.714 Y164.862 E0.01677
G1 X214.215 Y201.363 E1.62100
G1 X213.681 Y201.363 E0.01677
G1 X177.180 Y164.862 E1.62100
G1 X176.646 Y164.862 E0.01677
G1 X213.147 Y201.363 E1.62100
G1 X212.613 Y201.363 E0.01677
G1 X176.112 Y164.862 E1.62100
G1 X175.578 Y164.862 E0.01677
G1 X212.079 Y201.363 E1.62100
G1 X211.544 Y201.363 E0.01677
G1 X175.044 Y164.862 E1.62100
G1 X174.510 Y164.862 E0.01677
G1 X211.010 Y201.363 E1.62100
G1 X210.476 Y201.363 E0.01677
G1 X173.976 Y164.862 E1.62100
G1 X173.442 Y164.862 E0.01677
G1 X209.942 Y201.363 E1.62100
G1 X209.408 Y201.363 E0.01677
G1 X172.907 Y164.862 E1.62100
G1 X172.373 Y164.862 E0.01677
G1 X208.874 Y201.363 E1.62100
G1 X208.340 Y201.363 E0.01677
G1 X171.839 Y164.862 E1.62100
M73 P9 R75
G1 X171.305 Y164.862 E0.01677
