; generated by PrusaSlicer 2.1.1+win64 on 2020-01-07 at 21:57:29 UTC

; 

; external perimeters extrusion width = 0.45mm
; perimeters extrusion width = 0.45mm
; infill extrusion width = 0.45mm
; solid infill extrusion width = 0.45mm
; top infill extrusion width = 0.40mm
; support material extrusion width = 0.35mm
; first layer extrusion width = 0.42mm

M73 P0 R113
M201 X9000 Y9000 Z500 E10000 ; sets maximum accelerations, mm/sec^2
M203 X500 Y500 Z12 E120 ; sets maximum feedrates, mm/sec
M204 P2000 R1500 T2000 ; sets acceleration (P, T) and retract acceleration (R), mm/sec^2
M205 X10.00 Y10.00 Z0.20 E2.50 ; sets the jerk limits, mm/sec
M205 S0 T0 ; sets the minimum extruding and travel feed rate, mm/sec
M107
M862.3 P "MK2.5SMMU2S" ; printer model check
M862.1 P0.4 ; nozzle diameter check
M115 U3.8.0 ; tell printer latest fw version
G90 ; use absolute coordinates
M83 ; extruder relative mode
M104 S215 ; set extruder temp
M140 S60 ; set bed temp
Tx
M190 S60 ; wait for bed temp
M109 S215 ; wait for extruder temp
G28 W ; home all without mesh bed level
G80 ; mesh bed leveling

G21 ; set units to millimeters

;go outside print area
G1 Y-3.0 F1000.0
G1 Z0.4 F1000.0
; select extruder
Tc
; purge line
G1 X55.0 F2000.0
G1 Z0.3 F1000.0
G92 E0.0
G1 X240.0 E25.0 F2200.0
M73 P0 R113
G1 Y-2.0 F1000.0
G1 X55.0 E25 F1400.0
G1 Z0.20 F1000.0
G1 X5.0 E4.0 F1000.0
G92 E0.0
G21 ; set units to millimeters
G90 ; use absolute coordinates
M83 ; use relative distances for extrusion
M900 K30 ; Filament gcode
;BEFORE_LAYER_CHANGE
G92 E0.0
;0.2


G1 E-0.80000 F2100.00000
G1 Z0.600 F10800.000
;AFTER_LAYER_CHANGE
;0.2
G1 X53.847 Y31.872
G1 Z0.200
G1 E0.80000 F2100.00000
M204 S1000
G1 F1200
G1 X54.653 Y31.714 E0.02574
G1 X195.332 Y31.671 E4.41090
G1 X196.101 Y31.812 E0.02451
G1 X196.771 Y32.214 E0.02451
G1 X197.258 Y32.826 E0.02451
G1 X197.498 Y33.570 E0.02451
G1 X198.000 Y51.764 E0.57069
G1 X197.998 Y170.534 E3.72396
G1 X197.723 Y173.789 E0.10241
G1 X197.579 Y174.290 E0.01635
G1 X197.321 Y174.743 E0.01635
G1 X187.863 Y184.234 E0.42010
G1 X187.176 Y184.677 E0.02563
G1 X186.371 Y184.836 E0.02574
G1 X112.753 Y184.820 E2.30823
G1 X60.396 Y174.908 E1.67077
G1 X59.916 Y174.704 E0.01635
G1 X59.498 Y174.392 E0.01635
G1 X52.487 Y167.382 E0.31087
G1 X52.043 Y166.691 E0.02574
G1 X51.884 Y165.885 E0.02574
G1 X51.884 Y47.239 E3.72009
G1 X52.484 Y33.718 E0.42434
G1 X52.692 Y32.954 E0.02484
G1 X53.157 Y32.316 E0.02473
G1 X53.797 Y31.905 E0.02386
G1 E-0.80000 F2100.00000
G1 Z0.800 F10800.000
G1 X56.496 Y104.138
G1 Z0.200
G1 E0.80000 F2100.00000
G1 F1200
G1 X54.073 Y106.561 E0.10745
G1 X54.606 Y107.095 E0.02365
G1 X56.998 Y104.703 E0.10606
G1 X57.162 Y104.842 E0.00674
G1 X57.526 Y105.241 E0.01695
G1 X55.140 Y107.628 E0.10583
G1 X55.673 Y108.161 E0.02365
G1 X58.173 Y105.661 E0.11086
G1 X58.264 Y105.702 E0.00314
G1 X58.516 Y106.289 E0.02000
G1 X58.557 Y106.344 E0.00216
G1 X56.206 Y108.694 E0.10424
G1 X56.739 Y109.228 E0.02365
G1 X59.119 Y106.848 E0.10552
G1 X59.343 Y107.015 E0.00875
G1 X59.504 Y107.069 E0.00534
G1 X59.965 Y107.068 E0.01446
G1 X57.273 Y109.761 E0.11940
G1 X57.806 Y110.294 E0.02365
G1 X61.033 Y107.068 E0.14308
G1 X62.100 Y107.067 E0.03346
G1 X58.339 Y110.828 E0.16675
G1 X58.872 Y111.361 E0.02365
G1 X63.167 Y107.066 E0.19043
G1 X64.234 Y107.066 E0.03346
G1 X59.406 Y111.894 E0.21411
G1 X59.939 Y112.427 E0.02365
G1 X65.301 Y107.065 E0.23778
G1 X66.369 Y107.064 E0.03346
G1 X60.472 Y112.961 E0.26146
G1 X61.006 Y113.494 E0.02365
G1 X67.436 Y107.064 E0.28513
G1 X68.503 Y107.063 E0.03346
G1 X63.170 Y112.396 E0.23647
G1 X63.703 Y112.929 E0.02365
G1 X69.570 Y107.062 E0.26015
G1 X70.638 Y107.061 E0.03346
G1 X64.117 Y113.582 E0.28915
G1 E-0.80000 F2100.00000
G1 Z0.800 F10800.000
G1 X106.026 Y106.869
G1 Z0.200
G1 E0.80000 F2100.00000
G1 F1200
G1 X104.674 Y108.221 E0.05996
G1 X105.207 Y108.755 E0.02365
G1 X106.923 Y107.038 E0.07610
G1 X107.990 Y107.038 E0.03346
G1 X105.740 Y109.288 E0.09978
G1 X105.937 Y109.485 E0.00874
G1 X104.306 Y111.116 E0.07234
G1 X104.642 Y111.453 E0.01491
G1 X109.058 Y107.037 E0.19579
G1 X110.125 Y107.036 E0.03346
G1 X105.175 Y111.986 E0.21947
G1 X105.709 Y112.519 E0.02365
G1 X111.192 Y107.036 E0.24315
G1 X112.259 Y107.035 E0.03346
G1 X104.610 Y114.684 E0.33916
G1 X105.144 Y115.217 E0.02365
G1 X113.326 Y107.034 E0.36284
G1 X114.394 Y107.034 E0.03346
G1 X105.677 Y115.750 E0.38651
G1 X106.210 Y116.284 E0.02365
G1 X115.461 Y107.033 E0.41019
G1 X116.528 Y107.032 E0.03346
G1 X106.744 Y116.817 E0.43386
G1 X107.277 Y117.350 E0.02365
G1 X117.595 Y107.032 E0.45754
G1 X118.663 Y107.031 E0.03346
G1 X107.810 Y117.883 E0.48122
G1 X108.343 Y118.417 E0.02365
G1 X119.730 Y107.030 E0.50489
G1 X120.797 Y107.029 E0.03346
G1 X108.877 Y118.950 E0.52857
G1 X109.410 Y119.483 E0.02365
G1 X121.760 Y107.133 E0.54761
G1 X122.293 Y107.667 E0.02365
G1 X109.943 Y120.016 E0.54761
G1 X110.476 Y120.550 E0.02365
G1 X121.195 Y109.831 E0.47527
G1 X121.728 Y110.365 E0.02365
G1 X111.010 Y121.083 E0.47527
G1 X111.543 Y121.616 E0.02365
G1 X122.261 Y110.898 E0.47527
M73 P0 R112
G1 X122.480 Y111.116 E0.00969
G1 X120.849 Y112.748 E0.07234
G1 X121.163 Y113.062 E0.01395
G1 X112.076 Y122.150 E0.40294
G1 X112.610 Y122.683 E0.02365
G1 X121.697 Y113.596 E0.40294
G1 X122.230 Y114.129 E0.02365
G1 X113.023 Y123.336 E0.40826
G1 E-0.80000 F2100.00000
G1 Z0.800 F10800.000
G1 X59.117 Y104.867
G1 Z0.200
G1 E0.80000 F2100.00000
G1 F1200
G1 X58.383 Y104.534 E0.02528
G1 X57.935 Y104.038 E0.02096
G1 X57.474 Y103.647 E0.01893
G1 X57.127 Y103.416 E0.01308
G1 X56.563 Y103.079 E0.02061
G1 X55.754 Y102.836 E0.02650
G1 X55.257 Y102.255 E0.02395
G1 X55.252 Y93.801 E0.26507
G1 X121.410 Y93.759 E2.07434
G1 X121.417 Y105.916 E0.38117
G1 X59.784 Y105.955 E1.93248
G1 X59.613 Y105.828 E0.00668
G1 X59.546 Y105.733 E0.00364
G1 X59.458 Y105.661 E0.00359
G1 X59.141 Y104.922 E0.02520
G1 X58.828 Y105.150 F10800.000
G1 F1200
G1 X58.156 Y104.845 E0.02316
G1 X57.672 Y104.309 E0.02263
G1 X57.247 Y103.949 E0.01745
G1 X56.926 Y103.735 E0.01212
G1 X56.410 Y103.426 E0.01886
G1 X55.539 Y103.165 E0.02850
G1 X54.880 Y102.416 E0.03129
G1 X54.874 Y93.424 E0.28192
G1 X121.787 Y93.382 E2.09798
G1 X121.795 Y106.293 E0.40482
G1 X59.659 Y106.332 E1.94824
G1 X59.340 Y106.095 E0.01247
G1 X59.268 Y105.993 E0.00392
G1 X59.147 Y105.894 E0.00489
G1 X58.852 Y105.205 E0.02349
G1 X58.878 Y104.753 F10800.000
G1 X59.226 Y104.833
G1 F1200
G1 X60.234 Y105.842 E0.04489
G1 X59.150 Y104.758 F10800.000
G1 F1200
G1 X55.539 Y101.147 E0.16073
G1 X55.539 Y100.611 E0.01686
G1 X60.600 Y105.672 E0.22526
G1 X61.135 Y105.672 E0.01684
G1 X55.539 Y100.076 E0.24909
G1 X55.538 Y99.540 E0.01686
G1 X61.670 Y105.671 E0.27292
G1 X62.205 Y105.671 E0.01684
G1 X55.538 Y99.004 E0.29674
G1 X55.538 Y98.469 E0.01686
G1 X62.740 Y105.671 E0.32057
G1 X63.275 Y105.670 E0.01684
G1 X55.537 Y97.933 E0.34440
G1 X55.537 Y97.397 E0.01686
G1 X63.809 Y105.670 E0.36823
G1 X64.344 Y105.670 E0.01684
G1 X55.536 Y96.862 E0.39205
G1 X55.536 Y96.326 E0.01686
G1 X64.879 Y105.669 E0.41588
G1 X65.414 Y105.669 E0.01684
G1 X55.536 Y95.790 E0.43971
G1 X55.535 Y95.255 E0.01686
G1 X65.949 Y105.669 E0.46353
G1 X66.484 Y105.668 E0.01684
G1 X55.535 Y94.719 E0.48736
G1 X55.535 Y94.183 E0.01686
G1 X67.019 Y105.668 E0.51119
G1 X67.554 Y105.668 E0.01684
G1 X55.970 Y94.084 E0.51562
G1 X56.505 Y94.083 E0.01684
G1 X68.089 Y105.667 E0.51562
G1 X68.624 Y105.667 E0.01684
G1 X57.040 Y94.083 E0.51562
G1 X57.575 Y94.082 E0.01684
G1 X69.159 Y105.667 E0.51562
G1 X69.694 Y105.666 E0.01684
G1 X58.110 Y94.082 E0.51562
G1 X58.645 Y94.082 E0.01684
G1 X70.229 Y105.666 E0.51562
G1 X70.764 Y105.665 E0.01684
G1 X59.180 Y94.081 E0.51562
G1 X59.715 Y94.081 E0.01684
G1 X71.299 Y105.665 E0.51562
G1 X71.834 Y105.665 E0.01684
G1 X60.250 Y94.081 E0.51562
G1 X60.785 Y94.080 E0.01684
G1 X72.369 Y105.664 E0.51562
G1 X72.904 Y105.664 E0.01684
G1 X61.320 Y94.080 E0.51562
G1 X61.855 Y94.080 E0.01684
G1 X73.439 Y105.664 E0.51562
G1 X73.974 Y105.663 E0.01684
G1 X62.390 Y94.079 E0.51562
G1 X62.925 Y94.079 E0.01684
G1 X74.509 Y105.663 E0.51562
G1 X75.044 Y105.663 E0.01684
G1 X63.460 Y94.079 E0.51562
G1 X63.995 Y94.078 E0.01684
G1 X75.579 Y105.662 E0.51562
G1 X76.114 Y105.662 E0.01684
G1 X64.530 Y94.078 E0.51562
G1 X65.065 Y94.078 E0.01684
G1 X76.649 Y105.662 E0.51562
G1 X77.184 Y105.661 E0.01684
G1 X65.600 Y94.077 E0.51562
G1 X66.135 Y94.077 E0.01684
G1 X77.719 Y105.661 E0.51562
G1 X78.254 Y105.661 E0.01684
G1 X66.670 Y94.077 E0.51562
G1 X67.205 Y94.076 E0.01684
G1 X78.789 Y105.660 E0.51562
G1 X79.324 Y105.660 E0.01684
G1 X67.740 Y94.076 E0.51562
G1 X68.275 Y94.076 E0.01684
G1 X79.859 Y105.660 E0.51562
G1 X80.393 Y105.659 E0.01684
G1 X68.809 Y94.075 E0.51562
G1 X69.344 Y94.075 E0.01684
G1 X80.928 Y105.659 E0.51562
G1 X81.463 Y105.659 E0.01684
G1 X69.879 Y94.075 E0.51562
G1 X70.414 Y94.074 E0.01684
G1 X81.998 Y105.658 E0.51562
G1 X82.533 Y105.658 E0.01684
G1 X70.949 Y94.074 E0.51562
G1 X71.484 Y94.074 E0.01684
G1 X83.068 Y105.658 E0.51562
G1 X83.603 Y105.657 E0.01684
G1 X72.019 Y94.073 E0.51562
G1 X72.554 Y94.073 E0.01684
G1 X84.138 Y105.657 E0.51562
G1 X84.673 Y105.657 E0.01684
G1 X73.089 Y94.073 E0.51562
G1 X73.624 Y94.072 E0.01684
G1 X85.208 Y105.656 E0.51562
G1 X85.743 Y105.656 E0.01684
G1 X74.159 Y94.072 E0.51562
G1 X74.694 Y94.072 E0.01684
G1 X86.278 Y105.656 E0.51562
G1 X86.813 Y105.655 E0.01684
G1 X75.229 Y94.071 E0.51562
G1 X75.764 Y94.071 E0.01684
G1 X87.348 Y105.655 E0.51562
G1 X87.883 Y105.655 E0.01684
G1 X76.299 Y94.071 E0.51562
M73 P1 R111
G1 X76.834 Y94.070 E0.01684
G1 X88.418 Y105.654 E0.51562
G1 X88.953 Y105.654 E0.01684
G1 X77.369 Y94.070 E0.51562
G1 X77.904 Y94.070 E0.01684
G1 X89.488 Y105.654 E0.51562
G1 X90.023 Y105.653 E0.01684
G1 X78.439 Y94.069 E0.51562
G1 X78.974 Y94.069 E0.01684
G1 X90.558 Y105.653 E0.51562
G1 X91.093 Y105.653 E0.01684
G1 X79.509 Y94.069 E0.51562
G1 X80.044 Y94.068 E0.01684
G1 X91.628 Y105.652 E0.51562
G1 X92.163 Y105.652 E0.01684
G1 X80.579 Y94.068 E0.51562
G1 X81.114 Y94.067 E0.01684
G1 X92.698 Y105.652 E0.51562
G1 X93.233 Y105.651 E0.01684
G1 X81.649 Y94.067 E0.51562
G1 X82.184 Y94.067 E0.01684
G1 X93.768 Y105.651 E0.51562
G1 X94.303 Y105.650 E0.01684
G1 X82.719 Y94.066 E0.51562
G1 X83.254 Y94.066 E0.01684
G1 X94.838 Y105.650 E0.51562
G1 X95.373 Y105.650 E0.01684
G1 X83.789 Y94.066 E0.51562
G1 X84.324 Y94.065 E0.01684
G1 X95.908 Y105.649 E0.51562
G1 X96.443 Y105.649 E0.01684
G1 X84.859 Y94.065 E0.51562
G1 X85.394 Y94.065 E0.01684
G1 X96.978 Y105.649 E0.51562
G1 X97.512 Y105.648 E0.01684
G1 X85.928 Y94.064 E0.51562
G1 X86.463 Y94.064 E0.01684
G1 X98.047 Y105.648 E0.51562
G1 X98.582 Y105.648 E0.01684
G1 X86.998 Y94.064 E0.51562
G1 X87.533 Y94.063 E0.01684
G1 X99.117 Y105.647 E0.51562
G1 X99.652 Y105.647 E0.01684
G1 X88.068 Y94.063 E0.51562
G1 X88.603 Y94.063 E0.01684
G1 X100.187 Y105.647 E0.51562
G1 X100.722 Y105.646 E0.01684
G1 X89.138 Y94.062 E0.51562
G1 X89.673 Y94.062 E0.01684
G1 X101.257 Y105.646 E0.51562
G1 X101.792 Y105.646 E0.01684
G1 X90.208 Y94.062 E0.51562
G1 X90.743 Y94.061 E0.01684
G1 X102.327 Y105.645 E0.51562
G1 X102.862 Y105.645 E0.01684
G1 X91.278 Y94.061 E0.51562
G1 X91.813 Y94.061 E0.01684
G1 X103.397 Y105.645 E0.51562
G1 X103.932 Y105.644 E0.01684
G1 X92.348 Y94.060 E0.51562
G1 X92.883 Y94.060 E0.01684
G1 X104.467 Y105.644 E0.51562
G1 X105.002 Y105.644 E0.01684
G1 X93.418 Y94.060 E0.51562
G1 X93.953 Y94.059 E0.01684
G1 X105.537 Y105.643 E0.51562
G1 X106.072 Y105.643 E0.01684
G1 X94.488 Y94.059 E0.51562
G1 X95.023 Y94.059 E0.01684
G1 X106.607 Y105.643 E0.51562
G1 X107.142 Y105.642 E0.01684
G1 X95.558 Y94.058 E0.51562
G1 X96.093 Y94.058 E0.01684
G1 X107.677 Y105.642 E0.51562
G1 X108.212 Y105.642 E0.01684
G1 X96.628 Y94.058 E0.51562
G1 X97.163 Y94.057 E0.01684
G1 X108.747 Y105.641 E0.51562
G1 X109.282 Y105.641 E0.01684
G1 X97.698 Y94.057 E0.51562
G1 X98.233 Y94.057 E0.01684
G1 X109.817 Y105.641 E0.51562
G1 X110.352 Y105.640 E0.01684
G1 X98.768 Y94.056 E0.51562
G1 X99.303 Y94.056 E0.01684
G1 X110.887 Y105.640 E0.51562
G1 X111.422 Y105.640 E0.01684
G1 X99.838 Y94.056 E0.51562
G1 X100.373 Y94.055 E0.01684
G1 X111.957 Y105.639 E0.51562
G1 X112.492 Y105.639 E0.01684
G1 X100.908 Y94.055 E0.51562
G1 X101.443 Y94.055 E0.01684
G1 X113.027 Y105.639 E0.51562
G1 X113.562 Y105.638 E0.01684
G1 X101.978 Y94.054 E0.51562
G1 X102.512 Y94.054 E0.01684
G1 X114.097 Y105.638 E0.51562
G1 X114.631 Y105.638 E0.01684
G1 X103.047 Y94.054 E0.51562
G1 X103.582 Y94.053 E0.01684
G1 X115.166 Y105.637 E0.51562
G1 X115.701 Y105.637 E0.01684
G1 X104.117 Y94.053 E0.51562
G1 X104.652 Y94.052 E0.01684
G1 X116.236 Y105.636 E0.51562
G1 X116.771 Y105.636 E0.01684
G1 X105.187 Y94.052 E0.51562
G1 X105.722 Y94.052 E0.01684
G1 X117.306 Y105.636 E0.51562
G1 X117.841 Y105.635 E0.01684
G1 X106.257 Y94.051 E0.51562
G1 X106.792 Y94.051 E0.01684
G1 X118.376 Y105.635 E0.51562
G1 X118.911 Y105.635 E0.01684
G1 X107.327 Y94.051 E0.51562
G1 X107.862 Y94.050 E0.01684
G1 X119.446 Y105.634 E0.51562
G1 X119.981 Y105.634 E0.01684
G1 X108.397 Y94.050 E0.51562
G1 X108.932 Y94.050 E0.01684
G1 X120.516 Y105.634 E0.51562
G1 X121.051 Y105.633 E0.01684
G1 X109.467 Y94.049 E0.51562
G1 X110.002 Y94.049 E0.01684
G1 X121.134 Y105.181 E0.49551
G1 X121.134 Y104.646 E0.01686
G1 X110.537 Y94.049 E0.47168
G1 X111.072 Y94.048 E0.01684
G1 X121.134 Y104.110 E0.44785
G1 X121.133 Y103.574 E0.01686
G1 X111.607 Y94.048 E0.42402
G1 X112.142 Y94.048 E0.01684
G1 X121.133 Y103.039 E0.40020
G1 X121.133 Y102.503 E0.01686
G1 X112.677 Y94.047 E0.37637
G1 X113.212 Y94.047 E0.01684
G1 X121.132 Y101.967 E0.35254
G1 X121.132 Y101.432 E0.01686
G1 X113.747 Y94.047 E0.32871
G1 X114.282 Y94.046 E0.01684
G1 X121.131 Y100.896 E0.30489
G1 X121.131 Y100.360 E0.01686
G1 X114.817 Y94.046 E0.28106
G1 X115.352 Y94.046 E0.01684
G1 X121.131 Y99.825 E0.25723
G1 X121.130 Y99.289 E0.01686
G1 X115.887 Y94.045 E0.23341
M73 P2 R110
G1 X116.422 Y94.045 E0.01684
G1 X121.130 Y98.753 E0.20958
G1 X121.130 Y98.218 E0.01686
G1 X116.957 Y94.045 E0.18575
G1 X117.492 Y94.044 E0.01684
G1 X121.129 Y97.682 E0.16192
G1 X121.129 Y97.146 E0.01686
G1 X118.027 Y94.044 E0.13810
G1 X118.562 Y94.044 E0.01684
G1 X121.129 Y96.611 E0.11427
G1 X121.128 Y96.075 E0.01686
G1 X119.097 Y94.043 E0.09044
G1 X119.631 Y94.043 E0.01684
G1 X121.128 Y95.540 E0.06661
G1 X121.128 Y95.004 E0.01686
G1 X120.166 Y94.043 E0.04279
G1 X120.701 Y94.042 E0.01684
G1 X121.297 Y94.638 E0.02652
G1 E-0.80000 F2100.00000
G1 Z0.800 F10800.000
G1 X57.163 Y103.306
G1 Z0.200
G1 E0.80000 F2100.00000
G1 F1200
G1 X55.370 Y101.513 E0.07983
G1 E-0.80000 F2100.00000
G1 Z0.800 F10800.000
G1 X56.496 Y133.794
G1 Z0.200
G1 E0.80000 F2100.00000
G1 F1200
G1 X54.073 Y136.217 E0.10745
G1 X54.606 Y136.751 E0.02365
G1 X56.998 Y134.359 E0.10606
G1 X57.162 Y134.497 E0.00674
G1 X57.526 Y134.897 E0.01695
G1 X55.140 Y137.284 E0.10583
G1 X55.673 Y137.817 E0.02365
G1 X58.173 Y135.317 E0.11086
G1 X58.264 Y135.358 E0.00314
G1 X58.516 Y135.944 E0.02000
G1 X58.557 Y135.999 E0.00216
G1 X56.206 Y138.350 E0.10424
G1 X56.739 Y138.884 E0.02365
G1 X59.119 Y136.504 E0.10552
G1 X59.343 Y136.671 E0.00875
G1 X59.504 Y136.725 E0.00534
G1 X59.965 Y136.724 E0.01446
G1 X57.273 Y139.417 E0.11940
G1 X57.806 Y139.950 E0.02365
G1 X61.033 Y136.724 E0.14308
G1 X62.100 Y136.723 E0.03346
G1 X58.339 Y140.483 E0.16675
G1 X58.872 Y141.017 E0.02365
G1 X63.167 Y136.722 E0.19043
G1 X64.234 Y136.721 E0.03346
G1 X59.406 Y141.550 E0.21411
G1 X59.939 Y142.083 E0.02365
G1 X65.301 Y136.721 E0.23778
G1 X66.369 Y136.720 E0.03346
G1 X60.472 Y142.617 E0.26146
G1 X61.006 Y143.150 E0.02365
G1 X67.436 Y136.719 E0.28513
G1 X68.503 Y136.719 E0.03346
G1 X63.170 Y142.052 E0.23647
G1 X63.703 Y142.585 E0.02365
G1 X69.570 Y136.718 E0.26015
G1 X70.638 Y136.717 E0.03346
G1 X64.117 Y143.238 E0.28915
G1 E-0.80000 F2100.00000
G1 Z0.800 F10800.000
G1 X106.026 Y136.525
G1 Z0.200
G1 E0.80000 F2100.00000
G1 F1200
G1 X104.674 Y137.877 E0.05996
G1 X105.207 Y138.411 E0.02365
G1 X106.923 Y136.694 E0.07610
G1 X107.990 Y136.694 E0.03346
G1 X105.740 Y138.944 E0.09978
G1 X105.937 Y139.141 E0.00874
G1 X104.306 Y140.772 E0.07234
G1 X104.642 Y141.108 E0.01491
G1 X109.058 Y136.693 E0.19579
G1 X110.125 Y136.692 E0.03346
