; generated by PrusaSlicer 2.1.1+win64 on 2020-01-07 at 19:22:23 UTC

; 

; external perimeters extrusion width = 0.45mm
; perimeters extrusion width = 0.45mm
; infill extrusion width = 0.45mm
; solid infill extrusion width = 0.45mm
; top infill extrusion width = 0.40mm
; first layer extrusion width = 0.42mm

M73 P0 R101
M201 X9000 Y9000 Z500 E10000 ; sets maximum accelerations, mm/sec^2
M203 X500 Y500 Z12 E120 ; sets maximum feedrates, mm/sec
M204 P2000 R1500 T2000 ; sets acceleration (P, T) and retract acceleration (R), mm/sec^2
M205 X10.00 Y10.00 Z0.20 E2.50 ; sets the jerk limits, mm/sec
M205 S0 T0 ; sets the minimum extruding and travel feed rate, mm/sec
M107
M862.3 P "MK2.5SMMU2S" ; printer model check
M862.1 P0.4 ; nozzle diameter check
M115 U3.8.0 ; tell printer latest fw version
G90 ; use absolute coordinates
M83 ; extruder relative mode
M104 S215 ; set extruder temp
M140 S60 ; set bed temp
Tx
M190 S60 ; wait for bed temp
M109 S215 ; wait for extruder temp
G28 W ; home all without mesh bed level
G80 ; mesh bed leveling

G21 ; set units to millimeters

;go outside print area
G1 Y-3.0 F1000.0
G1 Z0.4 F1000.0
; select extruder
Tc
; purge line
G1 X55.0 F2000.0
G1 Z0.3 F1000.0
G92 E0.0
G1 X240.0 E25.0 F2200.0
M73 P0 R101
G1 Y-2.0 F1000.0
G1 X55.0 E25 F1400.0
G1 Z0.20 F1000.0
G1 X5.0 E4.0 F1000.0
G92 E0.0
G21 ; set units to millimeters
G90 ; use absolute coordinates
M83 ; use relative distances for extrusion
M900 K30 ; Filament gcode
;BEFORE_LAYER_CHANGE
G92 E0.0
;0.2


G1 E-0.80000 F2100.00000
G1 Z0.600 F10800.000
;AFTER_LAYER_CHANGE
;0.2
G1 X80.179 Y75.884
G1 Z0.200
G1 E0.80000 F2100.00000
M204 S1000
G1 F1200
G1 X80.784 Y75.796 E0.01919
G1 X169.210 Y75.796 E2.77252
G1 X170.036 Y75.959 E0.02642
G1 X170.740 Y76.423 E0.02642
G1 X171.216 Y77.118 E0.02642
G1 X171.394 Y77.942 E0.02642
G1 X171.394 Y132.056 E1.69672
G1 X171.319 Y132.587 E0.01680
G1 X171.115 Y133.086 E0.01692
G1 X170.795 Y133.521 E0.01692
G1 X170.379 Y133.864 E0.01692
G1 X169.821 Y134.116 E0.01919
G1 X169.216 Y134.204 E0.01919
G1 X80.779 Y134.204 E2.77286
G1 X80.241 Y134.133 E0.01703
G1 X79.733 Y133.930 E0.01714
G1 X79.294 Y133.610 E0.01703
G1 X78.946 Y133.189 E0.01714
G1 X78.695 Y132.635 E0.01908
G1 X78.605 Y132.029 E0.01919
G1 X78.605 Y77.958 E1.69535
G1 X78.679 Y77.420 E0.01703
G1 X78.883 Y76.917 E0.01703
G1 X79.202 Y76.482 E0.01692
G1 X79.621 Y76.136 E0.01703
G1 X80.124 Y75.909 E0.01731
G1 E-0.80000 F2100.00000
G1 Z0.800 F10800.000
G1 X81.381 Y78.571
G1 Z0.200
G1 E0.80000 F2100.00000
G1 F1200
G1 X168.619 Y78.571 E2.73529
G1 X168.619 Y98.412 E0.62209
G1 X81.381 Y98.412 E2.73529
G1 X81.381 Y78.631 E0.62021
G1 X81.004 Y78.194 F10800.000
G1 F1200
G1 X168.996 Y78.194 E2.75893
G1 X168.996 Y98.789 E0.64573
G1 X81.004 Y98.789 E2.75893
G1 X81.004 Y78.254 E0.64385
G1 X81.403 Y78.225 F10800.000
G1 E-0.80000 F2100.00000
G1 Z0.800 F10800.000
G1 X82.257 Y98.299
G1 Z0.200
G1 E0.80000 F2100.00000
G1 F1200
G1 X81.664 Y97.706 E0.02630
G1 X81.664 Y97.172 E0.01674
G1 X82.620 Y98.129 E0.04244
G1 X83.154 Y98.129 E0.01674
G1 X81.664 Y96.639 E0.06611
G1 X81.664 Y96.105 E0.01674
G1 X83.687 Y98.129 E0.08978
G1 X84.221 Y98.129 E0.01674
G1 X81.664 Y95.572 E0.11344
G1 X81.664 Y95.038 E0.01674
G1 X84.755 Y98.129 E0.13711
G1 X85.288 Y98.129 E0.01674
G1 X81.664 Y94.505 E0.16078
G1 X81.664 Y93.971 E0.01674
G1 X85.822 Y98.129 E0.18444
G1 X86.355 Y98.129 E0.01674
G1 X81.664 Y93.438 E0.20811
G1 X81.664 Y92.904 E0.01674
G1 X86.889 Y98.129 E0.23178
G1 X87.422 Y98.129 E0.01674
G1 X81.664 Y92.371 E0.25545
G1 X81.664 Y91.837 E0.01674
G1 X87.956 Y98.129 E0.27911
G1 X88.489 Y98.129 E0.01674
G1 X81.664 Y91.304 E0.30278
G1 X81.664 Y90.770 E0.01674
G1 X89.023 Y98.129 E0.32645
G1 X89.556 Y98.129 E0.01674
G1 X81.664 Y90.237 E0.35011
G1 X81.664 Y89.703 E0.01674
G1 X90.090 Y98.129 E0.37378
G1 X90.623 Y98.129 E0.01674
G1 X81.664 Y89.170 E0.39745
G1 X81.664 Y88.636 E0.01674
G1 X91.157 Y98.129 E0.42112
G1 X91.690 Y98.129 E0.01674
G1 X81.664 Y88.103 E0.44478
G1 X81.664 Y87.569 E0.01674
G1 X92.224 Y98.129 E0.46845
G1 X92.757 Y98.129 E0.01674
G1 X81.664 Y87.036 E0.49212
G1 X81.664 Y86.502 E0.01674
G1 X93.291 Y98.129 E0.51578
G1 X93.824 Y98.129 E0.01674
G1 X81.664 Y85.969 E0.53945
M73 P1 R100
G1 X81.664 Y85.435 E0.01674
G1 X94.358 Y98.129 E0.56312
G1 X94.891 Y98.129 E0.01674
G1 X81.664 Y84.902 E0.58679
G1 X81.664 Y84.368 E0.01674
G1 X95.425 Y98.129 E0.61045
G1 X95.958 Y98.129 E0.01674
G1 X81.664 Y83.835 E0.63412
G1 X81.664 Y83.301 E0.01674
G1 X96.492 Y98.129 E0.65779
G1 X97.025 Y98.129 E0.01674
G1 X81.664 Y82.768 E0.68145
G1 X81.664 Y82.234 E0.01674
G1 X97.559 Y98.129 E0.70512
G1 X98.092 Y98.129 E0.01674
G1 X81.664 Y81.700 E0.72879
G1 X81.664 Y81.167 E0.01674
G1 X98.626 Y98.129 E0.75246
G1 X99.159 Y98.129 E0.01674
G1 X81.664 Y80.633 E0.77612
G1 X81.664 Y80.100 E0.01674
G1 X99.693 Y98.129 E0.79979
G1 X100.226 Y98.129 E0.01674
G1 X81.664 Y79.566 E0.82346
G1 X81.664 Y79.033 E0.01674
G1 X100.760 Y98.129 E0.84712
G1 X101.293 Y98.129 E0.01674
G1 X82.018 Y78.854 E0.85507
G1 X82.552 Y78.854 E0.01674
G1 X101.827 Y98.129 E0.85507
G1 X102.360 Y98.129 E0.01674
G1 X83.085 Y78.854 E0.85507
G1 X83.619 Y78.854 E0.01674
G1 X102.894 Y98.129 E0.85507
G1 X103.427 Y98.129 E0.01674
G1 X84.152 Y78.854 E0.85507
G1 X84.686 Y78.854 E0.01674
G1 X103.961 Y98.129 E0.85507
G1 X104.494 Y98.129 E0.01674
G1 X85.219 Y78.854 E0.85507
G1 X85.753 Y78.854 E0.01674
G1 X105.028 Y98.129 E0.85507
G1 X105.561 Y98.129 E0.01674
G1 X86.286 Y78.854 E0.85507
G1 X86.820 Y78.854 E0.01674
G1 X106.095 Y98.129 E0.85507
G1 X106.628 Y98.129 E0.01674
G1 X87.353 Y78.854 E0.85507
G1 X87.887 Y78.854 E0.01674
G1 X107.162 Y98.129 E0.85507
G1 X107.695 Y98.129 E0.01674
G1 X88.420 Y78.854 E0.85507
G1 X88.954 Y78.854 E0.01674
G1 X108.229 Y98.129 E0.85507
G1 X108.762 Y98.129 E0.01674
G1 X89.487 Y78.854 E0.85507
G1 X90.021 Y78.854 E0.01674
G1 X109.296 Y98.129 E0.85507
G1 X109.829 Y98.129 E0.01674
G1 X90.554 Y78.854 E0.85507
G1 X91.088 Y78.854 E0.01674
G1 X110.363 Y98.129 E0.85507
G1 X110.896 Y98.129 E0.01674
G1 X91.621 Y78.854 E0.85507
G1 X92.155 Y78.854 E0.01674
G1 X111.430 Y98.129 E0.85507
G1 X111.963 Y98.129 E0.01674
G1 X92.688 Y78.854 E0.85507
G1 X93.222 Y78.854 E0.01674
G1 X112.497 Y98.129 E0.85507
G1 X113.030 Y98.129 E0.01674
G1 X93.755 Y78.854 E0.85507
G1 X94.289 Y78.854 E0.01674
G1 X113.564 Y98.129 E0.85507
G1 X114.097 Y98.129 E0.01674
G1 X94.822 Y78.854 E0.85507
G1 X95.356 Y78.854 E0.01674
G1 X114.631 Y98.129 E0.85507
G1 X115.164 Y98.129 E0.01674
G1 X95.889 Y78.854 E0.85507
G1 X96.423 Y78.854 E0.01674
G1 X115.698 Y98.129 E0.85507
G1 X116.231 Y98.129 E0.01674
G1 X96.956 Y78.854 E0.85507
G1 X97.490 Y78.854 E0.01674
G1 X116.765 Y98.129 E0.85507
G1 X117.298 Y98.129 E0.01674
G1 X98.023 Y78.854 E0.85507
G1 X98.557 Y78.854 E0.01674
G1 X117.832 Y98.129 E0.85507
G1 X118.365 Y98.129 E0.01674
G1 X99.090 Y78.854 E0.85507
M73 P2 R99
G1 X99.624 Y78.854 E0.01674
G1 X118.899 Y98.129 E0.85507
G1 X119.433 Y98.129 E0.01674
G1 X100.158 Y78.854 E0.85507
G1 X100.691 Y78.854 E0.01674
G1 X119.966 Y98.129 E0.85507
G1 X120.500 Y98.129 E0.01674
G1 X101.225 Y78.854 E0.85507
G1 X101.758 Y78.854 E0.01674
G1 X121.033 Y98.129 E0.85507
G1 X121.567 Y98.129 E0.01674
G1 X102.292 Y78.854 E0.85507
G1 X102.825 Y78.854 E0.01674
G1 X122.100 Y98.129 E0.85507
G1 X122.634 Y98.129 E0.01674
G1 X103.359 Y78.854 E0.85507
G1 X103.892 Y78.854 E0.01674
G1 X123.167 Y98.129 E0.85507
G1 X123.701 Y98.129 E0.01674
G1 X104.426 Y78.854 E0.85507
G1 X104.959 Y78.854 E0.01674
G1 X124.234 Y98.129 E0.85507
G1 X124.768 Y98.129 E0.01674
G1 X105.493 Y78.854 E0.85507
G1 X106.026 Y78.854 E0.01674
G1 X125.301 Y98.129 E0.85507
G1 X125.835 Y98.129 E0.01674
G1 X106.560 Y78.854 E0.85507
G1 X107.093 Y78.854 E0.01674
G1 X126.368 Y98.129 E0.85507
G1 X126.902 Y98.129 E0.01674
G1 X107.627 Y78.854 E0.85507
G1 X108.160 Y78.854 E0.01674
G1 X127.435 Y98.129 E0.85507
G1 X127.969 Y98.129 E0.01674
G1 X108.694 Y78.854 E0.85507
G1 X109.227 Y78.854 E0.01674
G1 X128.502 Y98.129 E0.85507
G1 X129.036 Y98.129 E0.01674
G1 X109.761 Y78.854 E0.85507
G1 X110.294 Y78.854 E0.01674
G1 X129.569 Y98.129 E0.85507
G1 X130.103 Y98.129 E0.01674
G1 X110.828 Y78.854 E0.85507
G1 X111.361 Y78.854 E0.01674
G1 X130.636 Y98.129 E0.85507
G1 X131.170 Y98.129 E0.01674
G1 X111.895 Y78.854 E0.85507
G1 X112.428 Y78.854 E0.01674
G1 X131.703 Y98.129 E0.85507
G1 X132.237 Y98.129 E0.01674
G1 X112.962 Y78.854 E0.85507
G1 X113.495 Y78.854 E0.01674
G1 X132.770 Y98.129 E0.85507
G1 X133.304 Y98.129 E0.01674
G1 X114.029 Y78.854 E0.85507
G1 X114.562 Y78.854 E0.01674
G1 X133.837 Y98.129 E0.85507
G1 X134.371 Y98.129 E0.01674
G1 X115.096 Y78.854 E0.85507
G1 X115.629 Y78.854 E0.01674
G1 X134.904 Y98.129 E0.85507
G1 X135.438 Y98.129 E0.01674
G1 X116.163 Y78.854 E0.85507
G1 X116.696 Y78.854 E0.01674
G1 X135.971 Y98.129 E0.85507
G1 X136.505 Y98.129 E0.01674
G1 X117.230 Y78.854 E0.85507
G1 X117.763 Y78.854 E0.01674
G1 X137.038 Y98.129 E0.85507
G1 X137.572 Y98.129 E0.01674
G1 X118.297 Y78.854 E0.85507
G1 X118.830 Y78.854 E0.01674
G1 X138.105 Y98.129 E0.85507
G1 X138.639 Y98.129 E0.01674
G1 X119.364 Y78.854 E0.85507
G1 X119.897 Y78.854 E0.01674
G1 X139.172 Y98.129 E0.85507
G1 X139.706 Y98.129 E0.01674
G1 X120.431 Y78.854 E0.85507
G1 X120.964 Y78.854 E0.01674
G1 X140.239 Y98.129 E0.85507
G1 X140.773 Y98.129 E0.01674
G1 X121.498 Y78.854 E0.85507
G1 X122.031 Y78.854 E0.01674
G1 X141.306 Y98.129 E0.85507
M73 P3 R98
G1 X141.840 Y98.129 E0.01674
G1 X122.565 Y78.854 E0.85507
G1 X123.098 Y78.854 E0.01674
G1 X142.373 Y98.129 E0.85507
G1 X142.907 Y98.129 E0.01674
G1 X123.632 Y78.854 E0.85507
G1 X124.165 Y78.854 E0.01674
G1 X143.440 Y98.129 E0.85507
G1 X143.974 Y98.129 E0.01674
G1 X124.699 Y78.854 E0.85507
G1 X125.232 Y78.854 E0.01674
G1 X144.507 Y98.129 E0.85507
G1 X145.041 Y98.129 E0.01674
G1 X125.766 Y78.854 E0.85507
G1 X126.299 Y78.854 E0.01674
G1 X145.574 Y98.129 E0.85507
G1 X146.108 Y98.129 E0.01674
G1 X126.833 Y78.854 E0.85507
G1 X127.366 Y78.854 E0.01674
G1 X146.641 Y98.129 E0.85507
G1 X147.175 Y98.129 E0.01674
G1 X127.900 Y78.854 E0.85507
G1 X128.433 Y78.854 E0.01674
G1 X147.708 Y98.129 E0.85507
G1 X148.242 Y98.129 E0.01674
G1 X128.967 Y78.854 E0.85507
G1 X129.500 Y78.854 E0.01674
G1 X148.775 Y98.129 E0.85507
G1 X149.309 Y98.129 E0.01674
G1 X130.034 Y78.854 E0.85507
G1 X130.567 Y78.854 E0.01674
G1 X149.842 Y98.129 E0.85507
G1 X150.376 Y98.129 E0.01674
G1 X131.101 Y78.854 E0.85507
G1 X131.634 Y78.854 E0.01674
G1 X150.909 Y98.129 E0.85507
G1 X151.443 Y98.129 E0.01674
G1 X132.168 Y78.854 E0.85507
G1 X132.701 Y78.854 E0.01674
G1 X151.976 Y98.129 E0.85507
G1 X152.510 Y98.129 E0.01674
G1 X133.235 Y78.854 E0.85507
G1 X133.768 Y78.854 E0.01674
G1 X153.044 Y98.129 E0.85507
G1 X153.577 Y98.129 E0.01674
G1 X134.302 Y78.854 E0.85507
G1 X134.836 Y78.854 E0.01674
G1 X154.111 Y98.129 E0.85507
G1 X154.644 Y98.129 E0.01674
G1 X135.369 Y78.854 E0.85507
G1 X135.903 Y78.854 E0.01674
G1 X155.178 Y98.129 E0.85507
G1 X155.711 Y98.129 E0.01674
G1 X136.436 Y78.854 E0.85507
G1 X136.970 Y78.854 E0.01674
G1 X156.245 Y98.129 E0.85507
G1 X156.778 Y98.129 E0.01674
G1 X137.503 Y78.854 E0.85507
G1 X138.037 Y78.854 E0.01674
G1 X157.312 Y98.129 E0.85507
G1 X157.845 Y98.129 E0.01674
G1 X138.570 Y78.854 E0.85507
G1 X139.104 Y78.854 E0.01674
G1 X158.379 Y98.129 E0.85507
G1 X158.912 Y98.129 E0.01674
G1 X139.637 Y78.854 E0.85507
G1 X140.171 Y78.854 E0.01674
G1 X159.446 Y98.129 E0.85507
G1 X159.979 Y98.129 E0.01674
G1 X140.704 Y78.854 E0.85507
G1 X141.238 Y78.854 E0.01674
G1 X160.513 Y98.129 E0.85507
G1 X161.046 Y98.129 E0.01674
G1 X141.771 Y78.854 E0.85507
G1 X142.305 Y78.854 E0.01674
G1 X161.580 Y98.129 E0.85507
G1 X162.113 Y98.129 E0.01674
G1 X142.838 Y78.854 E0.85507
G1 X143.372 Y78.854 E0.01674
G1 X162.647 Y98.129 E0.85507
G1 X163.180 Y98.129 E0.01674
G1 X143.905 Y78.854 E0.85507
G1 X144.439 Y78.854 E0.01674
G1 X163.714 Y98.129 E0.85507
G1 X164.247 Y98.129 E0.01674
G1 X144.972 Y78.854 E0.85507
M73 P4 R97
G1 X145.506 Y78.854 E0.01674
G1 X164.781 Y98.129 E0.85507
G1 X165.314 Y98.129 E0.01674
G1 X146.039 Y78.854 E0.85507
G1 X146.573 Y78.854 E0.01674
G1 X165.848 Y98.129 E0.85507
G1 X166.381 Y98.129 E0.01674
G1 X147.106 Y78.854 E0.85507
G1 X147.640 Y78.854 E0.01674
G1 X166.915 Y98.129 E0.85507
G1 X167.448 Y98.129 E0.01674
G1 X148.173 Y78.854 E0.85507
G1 X148.707 Y78.854 E0.01674
G1 X167.982 Y98.129 E0.85507
G1 X168.336 Y98.129 E0.01112
G1 X168.336 Y97.950 E0.00561
G1 X149.240 Y78.854 E0.84713
G1 X149.774 Y78.854 E0.01674
G1 X168.336 Y97.416 E0.82346
G1 X168.336 Y96.883 E0.01674
G1 X150.307 Y78.854 E0.79979
G1 X150.841 Y78.854 E0.01674
G1 X168.336 Y96.349 E0.77612
G1 X168.336 Y95.816 E0.01674
G1 X151.374 Y78.854 E0.75246
G1 X151.908 Y78.854 E0.01674
G1 X168.336 Y95.282 E0.72879
G1 X168.336 Y94.749 E0.01674
G1 X152.441 Y78.854 E0.70512
G1 X152.975 Y78.854 E0.01674
G1 X168.336 Y94.215 E0.68146
G1 X168.336 Y93.682 E0.01674
G1 X153.508 Y78.854 E0.65779
G1 X154.042 Y78.854 E0.01674
G1 X168.336 Y93.148 E0.63412
G1 X168.336 Y92.615 E0.01674
G1 X154.575 Y78.854 E0.61045
G1 X155.109 Y78.854 E0.01674
G1 X168.336 Y92.081 E0.58679
G1 X168.336 Y91.548 E0.01674
G1 X155.642 Y78.854 E0.56312
G1 X156.176 Y78.854 E0.01674
G1 X168.336 Y91.014 E0.53945
G1 X168.336 Y90.481 E0.01674
G1 X156.709 Y78.854 E0.51579
G1 X157.243 Y78.854 E0.01674
G1 X168.336 Y89.947 E0.49212
G1 X168.336 Y89.414 E0.01674
G1 X157.776 Y78.854 E0.46845
G1 X158.310 Y78.854 E0.01674
G1 X168.336 Y88.880 E0.44478
G1 X168.336 Y88.347 E0.01674
G1 X158.843 Y78.854 E0.42112
G1 X159.377 Y78.854 E0.01674
G1 X168.336 Y87.813 E0.39745
G1 X168.336 Y87.280 E0.01674
G1 X159.910 Y78.854 E0.37378
G1 X160.444 Y78.854 E0.01674
G1 X168.336 Y86.746 E0.35012
G1 X168.336 Y86.213 E0.01674
G1 X160.977 Y78.854 E0.32645
G1 X161.511 Y78.854 E0.01674
G1 X168.336 Y85.679 E0.30278
G1 X168.336 Y85.146 E0.01674
G1 X162.044 Y78.854 E0.27911
G1 X162.578 Y78.854 E0.01674
G1 X168.336 Y84.612 E0.25545
G1 X168.336 Y84.079 E0.01674
G1 X163.111 Y78.854 E0.23178
G1 X163.645 Y78.854 E0.01674
G1 X168.336 Y83.545 E0.20811
G1 X168.336 Y83.012 E0.01674
G1 X164.178 Y78.854 E0.18445
G1 X164.712 Y78.854 E0.01674
G1 X168.336 Y82.478 E0.16078
G1 X168.336 Y81.945 E0.01674
G1 X165.245 Y78.854 E0.13711
G1 X165.779 Y78.854 E0.01674
G1 X168.336 Y81.411 E0.11344
G1 X168.336 Y80.878 E0.01674
G1 X166.312 Y78.854 E0.08978
G1 X166.846 Y78.854 E0.01674
G1 X168.336 Y80.344 E0.06611
G1 X168.336 Y79.811 E0.01674
G1 X167.379 Y78.854 E0.04244
G1 X167.913 Y78.854 E0.01674
G1 X168.506 Y79.447 E0.02630
G1 E-0.80000 F2100.00000
G1 Z0.800 F10800.000
G1 X168.506 Y111.588
G1 Z0.200
G1 E0.80000 F2100.00000
G1 F1200
G1 X168.619 Y111.588 E0.00355
G1 X168.619 Y131.429 E0.62209
G1 X81.381 Y131.429 E2.73529
G1 X81.381 Y111.588 E0.62209
G1 X168.446 Y111.588 E2.72986
G1 X168.996 Y111.211 F10800.000
G1 F1200
G1 X168.996 Y131.806 E0.64573
G1 X81.004 Y131.806 E2.75893
G1 X81.004 Y111.211 E0.64573
G1 X168.936 Y111.211 E2.75705
G1 X168.823 Y111.572 F10800.000
G1 X168.506 Y112.464
G1 F1200
G1 X167.913 Y111.871 E0.02630
G1 X167.379 Y111.871 E0.01674
G1 X168.336 Y112.828 E0.04244
G1 X168.336 Y113.361 E0.01674
G1 X166.846 Y111.871 E0.06611
G1 X166.312 Y111.871 E0.01674
G1 X168.336 Y113.895 E0.08978
G1 X168.336 Y114.428 E0.01674
G1 X165.779 Y111.871 E0.11344
G1 X165.245 Y111.871 E0.01674
G1 X168.336 Y114.962 E0.13711
G1 X168.336 Y115.495 E0.01674
G1 X164.712 Y111.871 E0.16078
G1 X164.178 Y111.871 E0.01674
G1 X168.336 Y116.029 E0.18445
G1 X168.336 Y116.562 E0.01674
G1 X163.645 Y111.871 E0.20811
M73 P5 R96
G1 X163.111 Y111.871 E0.01674
G1 X168.336 Y117.096 E0.23178
G1 X168.336 Y117.629 E0.01674
G1 X162.578 Y111.871 E0.25545
G1 X162.044 Y111.871 E0.01674
G1 X168.336 Y118.163 E0.27911
G1 X168.336 Y118.696 E0.01674
G1 X161.511 Y111.871 E0.30278
G1 X160.977 Y111.871 E0.01674
G1 X168.336 Y119.230 E0.32645
G1 X168.336 Y119.763 E0.01674
G1 X160.444 Y111.871 E0.35012
G1 X159.910 Y111.871 E0.01674
G1 X168.336 Y120.297 E0.37378
G1 X168.336 Y120.830 E0.01674
G1 X159.377 Y111.871 E0.39745
G1 X158.843 Y111.871 E0.01674
G1 X168.336 Y121.364 E0.42112
G1 X168.336 Y121.897 E0.01674
G1 X158.310 Y111.871 E0.44478
G1 X157.776 Y111.871 E0.01674
G1 X168.336 Y122.431 E0.46845
