; generated by PrusaSlicer 2.2.0+win64 on 2020-11-09 at 17:50:45 UTC

; 

; external perimeters extrusion width = 0.60mm
; perimeters extrusion width = 0.43mm
; infill extrusion width = 0.45mm
; solid infill extrusion width = 0.70mm
; top infill extrusion width = 0.43mm
; first layer extrusion width = 0.42mm

M73 P0 R74
M201 X9000 Y9000 Z500 E10000 ; sets maximum accelerations, mm/sec^2
M203 X500 Y500 Z12 E120 ; sets maximum feedrates, mm/sec
M204 P2000 R1500 T2000 ; sets acceleration (P, T) and retract acceleration (R), mm/sec^2
M205 X10.00 Y10.00 Z0.20 E2.50 ; sets the jerk limits, mm/sec
M205 S0 T0 ; sets the minimum extruding and travel feed rate, mm/sec
M107
M862.3 P "MK2.5SMMU2S" ; printer model check
M862.1 P0.4 ; nozzle diameter check
M115 U3.8.0 ; tell printer latest fw version
G90 ; use absolute coordinates
M83 ; extruder relative mode
M104 S215 ; set extruder temp
M140 S60 ; set bed temp
Tx
M190 S60 ; wait for bed temp
M109 S215 ; wait for extruder temp
G28 W ; home all without mesh bed level
G80 ; mesh bed leveling

G21 ; set units to millimeters

;go outside print area
G1 Y-3.0 F1000.0
G1 Z0.4 F1000.0
; select extruder
Tc
; purge line
G1 X55.0 F2000.0
G1 Z0.3 F1000.0
G92 E0.0
G1 X240.0 E25.0 F2200.0
M73 P0 R74
G1 Y-2.0 F1000.0
G1 X55.0 E25 F1400.0
G1 Z0.20 F1000.0
G1 X5.0 E4.0 F1000.0
G92 E0.0
G21 ; set units to millimeters
G90 ; use absolute coordinates
M83 ; use relative distances for extrusion
M900 K0.06 ; Filament gcode LA 1.5
M900 K30 ; Filament gcode LA 1.0
;BEFORE_LAYER_CHANGE
G92 E0.0
;0.2


G1 E-0.80000 F2100.00000
G1 Z0.600 F10800.000
;AFTER_LAYER_CHANGE
;0.2
G1 X76.968 Y57.866
G1 Z0.200
G1 E0.80000 F2100.00000
M204 S1000
G1 F1200.000
G1 X77.753 Y57.299 E0.03036
G1 X78.216 Y57.147 E0.01526
G1 X78.703 Y57.092 E0.01538
G1 X171.103 Y57.092 E2.89712
G1 X172.052 Y57.231 E0.03008
G1 X172.864 Y57.722 E0.02978
G1 X173.421 Y58.496 E0.02989
G1 X173.629 Y59.423 E0.02977
G1 X173.630 Y150.546 E2.85710
G1 X173.466 Y151.398 E0.02720
G1 X173.008 Y152.134 E0.02720
G1 X172.641 Y152.460 E0.01538
G1 X172.212 Y152.705 E0.01550
G1 X171.742 Y152.857 E0.01550
G1 X171.253 Y152.908 E0.01541
G1 X85.781 Y152.846 E2.67990
G1 X84.933 Y152.682 E0.02708
G1 X84.197 Y152.224 E0.02720
G1 X83.722 Y151.622 E0.02402
G1 X83.464 Y150.901 E0.02402
G1 X76.353 Y109.651 E1.31245
G1 X76.346 Y59.443 E1.57424
G1 X76.511 Y58.599 E0.02696
G1 X76.937 Y57.917 E0.02520
G1 E-0.80000 F2100.00000
G1 Z0.800 F10800.000
G1 X86.588 Y116.257
G1 Z0.200
G1 E0.80000 F2100.00000
G1 F1200.000
G1 X108.481 Y116.257 E0.68644
G1 X108.481 Y149.682 E1.04804
G1 X86.588 Y149.682 E0.68644
G1 X86.588 Y116.317 E1.04616
G1 X86.211 Y115.879 F10800.000
G1 F1200.000
G1 X108.858 Y115.879 E0.71009
G1 X108.858 Y150.059 E1.07169
G1 X86.211 Y150.059 E0.71009
G1 X86.211 Y115.939 E1.06981
G1 X86.590 Y116.009 F10800.000
G1 E-0.80000 F2100.00000
G1 Z0.800 F10800.000
G1 X86.701 Y148.807
G1 Z0.200
G1 E0.80000 F2100.00000
G1 F1200.000
G1 X87.294 Y149.400 E0.02629
G1 X87.827 Y149.400 E0.01673
G1 X86.871 Y148.443 E0.04242
G1 X86.871 Y147.910 E0.01673
G1 X88.361 Y149.400 E0.06608
G1 X88.894 Y149.400 E0.01673
G1 X86.871 Y147.376 E0.08974
G1 X86.871 Y146.843 E0.01673
G1 X89.428 Y149.400 E0.11340
G1 X89.961 Y149.400 E0.01673
G1 X86.871 Y146.309 E0.13706
G1 X86.871 Y145.776 E0.01673
G1 X90.495 Y149.400 E0.16072
G1 X91.028 Y149.400 E0.01673
G1 X86.871 Y145.243 E0.18438
G1 X86.871 Y144.709 E0.01673
G1 X91.561 Y149.400 E0.20803
G1 X92.095 Y149.400 E0.01673
G1 X86.871 Y144.176 E0.23169
G1 X86.871 Y143.642 E0.01673
G1 X92.628 Y149.400 E0.25535
G1 X93.162 Y149.400 E0.01673
G1 X86.871 Y143.109 E0.27901
G1 X86.871 Y142.576 E0.01673
G1 X93.695 Y149.400 E0.30267
G1 X94.228 Y149.400 E0.01673
G1 X86.871 Y142.042 E0.32633
G1 X86.871 Y141.509 E0.01673
G1 X94.762 Y149.400 E0.34999
G1 X95.295 Y149.400 E0.01673
G1 X86.871 Y140.975 E0.37365
G1 X86.871 Y140.442 E0.01673
G1 X95.829 Y149.400 E0.39731
G1 X96.362 Y149.400 E0.01673
G1 X86.871 Y139.908 E0.42096
G1 X86.871 Y139.375 E0.01673
G1 X96.896 Y149.400 E0.44462
G1 X97.429 Y149.400 E0.01673
G1 X86.871 Y138.842 E0.46828
G1 X86.871 Y138.308 E0.01673
G1 X97.962 Y149.400 E0.49194
G1 X98.496 Y149.400 E0.01673
G1 X86.871 Y137.775 E0.51560
G1 X86.871 Y137.241 E0.01673
G1 X99.029 Y149.400 E0.53926
G1 X99.563 Y149.400 E0.01673
G1 X86.871 Y136.708 E0.56292
G1 X86.871 Y136.175 E0.01673
G1 X100.096 Y149.400 E0.58658
G1 X100.629 Y149.400 E0.01673
G1 X86.871 Y135.641 E0.61024
G1 X86.871 Y135.108 E0.01673
G1 X101.163 Y149.400 E0.63390
G1 X101.696 Y149.400 E0.01673
G1 X86.871 Y134.574 E0.65755
G1 X86.871 Y134.041 E0.01673
G1 X102.230 Y149.400 E0.68121
M73 P1 R73
G1 X102.763 Y149.400 E0.01673
G1 X86.871 Y133.508 E0.70487
G1 X86.871 Y132.974 E0.01673
G1 X103.297 Y149.400 E0.72853
G1 X103.830 Y149.400 E0.01673
G1 X86.871 Y132.441 E0.75219
G1 X86.871 Y131.907 E0.01673
G1 X104.363 Y149.400 E0.77585
G1 X104.897 Y149.400 E0.01673
G1 X86.871 Y131.374 E0.79951
G1 X86.871 Y130.840 E0.01673
G1 X105.430 Y149.400 E0.82317
G1 X105.964 Y149.400 E0.01673
G1 X86.871 Y130.307 E0.84683
G1 X86.871 Y129.774 E0.01673
G1 X106.497 Y149.400 E0.87049
G1 X107.030 Y149.400 E0.01673
G1 X86.871 Y129.240 E0.89414
G1 X86.871 Y128.707 E0.01673
G1 X107.564 Y149.400 E0.91780
G1 X108.097 Y149.400 E0.01673
G1 X86.871 Y128.173 E0.94146
G1 X86.871 Y127.640 E0.01673
G1 X108.199 Y148.967 E0.94595
G1 X108.199 Y148.434 E0.01673
G1 X86.871 Y127.107 E0.94595
G1 X86.871 Y126.573 E0.01673
G1 X108.199 Y147.901 E0.94595
G1 X108.199 Y147.367 E0.01673
G1 X86.871 Y126.040 E0.94595
G1 X86.871 Y125.506 E0.01673
G1 X108.199 Y146.834 E0.94595
G1 X108.199 Y146.300 E0.01673
G1 X86.871 Y124.973 E0.94595
G1 X86.871 Y124.439 E0.01673
G1 X108.199 Y145.767 E0.94595
G1 X108.199 Y145.234 E0.01673
G1 X86.871 Y123.906 E0.94595
G1 X86.871 Y123.373 E0.01673
G1 X108.199 Y144.700 E0.94595
G1 X108.199 Y144.167 E0.01673
G1 X86.871 Y122.839 E0.94595
G1 X86.871 Y122.306 E0.01673
G1 X108.199 Y143.633 E0.94595
G1 X108.199 Y143.100 E0.01673
G1 X86.871 Y121.772 E0.94595
G1 X86.871 Y121.239 E0.01673
G1 X108.199 Y142.566 E0.94595
G1 X108.199 Y142.033 E0.01673
G1 X86.871 Y120.706 E0.94595
G1 X86.871 Y120.172 E0.01673
G1 X108.199 Y141.500 E0.94595
G1 X108.199 Y140.966 E0.01673
G1 X86.871 Y119.639 E0.94595
G1 X86.871 Y119.105 E0.01673
G1 X108.199 Y140.433 E0.94595
G1 X108.199 Y139.899 E0.01673
G1 X86.871 Y118.572 E0.94595
G1 X86.871 Y118.038 E0.01673
G1 X108.199 Y139.366 E0.94595
G1 X108.199 Y138.833 E0.01673
G1 X86.871 Y117.505 E0.94595
G1 X86.871 Y116.972 E0.01673
G1 X108.199 Y138.299 E0.94595
G1 X108.199 Y137.766 E0.01673
G1 X86.972 Y116.539 E0.94147
G1 X87.506 Y116.539 E0.01673
G1 X108.199 Y137.232 E0.91781
G1 X108.199 Y136.699 E0.01673
G1 X88.039 Y116.539 E0.89415
G1 X88.572 Y116.539 E0.01673
G1 X108.199 Y136.165 E0.87049
G1 X108.199 Y135.632 E0.01673
G1 X89.106 Y116.539 E0.84683
G1 X89.639 Y116.539 E0.01673
G1 X108.199 Y135.099 E0.82317
G1 X108.199 Y134.565 E0.01673
G1 X90.173 Y116.539 E0.79951
G1 X90.706 Y116.539 E0.01673
G1 X108.199 Y134.032 E0.77585
G1 X108.199 Y133.498 E0.01673
G1 X91.239 Y116.539 E0.75220
G1 X91.773 Y116.539 E0.01673
G1 X108.199 Y132.965 E0.72854
M73 P2 R72
G1 X108.199 Y132.432 E0.01673
G1 X92.306 Y116.539 E0.70488
G1 X92.840 Y116.539 E0.01673
G1 X108.199 Y131.898 E0.68122
G1 X108.199 Y131.365 E0.01673
G1 X93.373 Y116.539 E0.65756
G1 X93.907 Y116.539 E0.01673
G1 X108.199 Y130.831 E0.63390
G1 X108.199 Y130.298 E0.01673
G1 X94.440 Y116.539 E0.61024
G1 X94.973 Y116.539 E0.01673
G1 X108.199 Y129.764 E0.58658
G1 X108.199 Y129.231 E0.01673
G1 X95.507 Y116.539 E0.56292
G1 X96.040 Y116.539 E0.01673
G1 X108.199 Y128.698 E0.53926
G1 X108.199 Y128.164 E0.01673
G1 X96.574 Y116.539 E0.51561
G1 X97.107 Y116.539 E0.01673
G1 X108.199 Y127.631 E0.49195
G1 X108.199 Y127.097 E0.01673
G1 X97.640 Y116.539 E0.46829
G1 X98.174 Y116.539 E0.01673
G1 X108.199 Y126.564 E0.44463
G1 X108.199 Y126.031 E0.01673
G1 X98.707 Y116.539 E0.42097
G1 X99.241 Y116.539 E0.01673
G1 X108.199 Y125.497 E0.39731
G1 X108.199 Y124.964 E0.01673
G1 X99.774 Y116.539 E0.37365
G1 X100.308 Y116.539 E0.01673
G1 X108.199 Y124.430 E0.34999
G1 X108.199 Y123.897 E0.01673
G1 X100.841 Y116.539 E0.32633
G1 X101.374 Y116.539 E0.01673
G1 X108.199 Y123.363 E0.30267
G1 X108.199 Y122.830 E0.01673
G1 X101.908 Y116.539 E0.27902
G1 X102.441 Y116.539 E0.01673
G1 X108.199 Y122.297 E0.25536
G1 X108.199 Y121.763 E0.01673
G1 X102.975 Y116.539 E0.23170
G1 X103.508 Y116.539 E0.01673
G1 X108.199 Y121.230 E0.20804
G1 X108.199 Y120.696 E0.01673
G1 X104.041 Y116.539 E0.18438
G1 X104.575 Y116.539 E0.01673
G1 X108.199 Y120.163 E0.16072
G1 X108.199 Y119.630 E0.01673
G1 X105.108 Y116.539 E0.13706
G1 X105.642 Y116.539 E0.01673
G1 X108.199 Y119.096 E0.11340
G1 X108.199 Y118.563 E0.01673
G1 X106.175 Y116.539 E0.08974
G1 X106.709 Y116.539 E0.01673
G1 X108.199 Y118.029 E0.06608
G1 X108.199 Y117.496 E0.01673
G1 X107.242 Y116.539 E0.04243
G1 X107.775 Y116.539 E0.01673
G1 X108.368 Y117.132 E0.02629
G1 E-0.80000 F2100.00000
G1 Z0.800 F10800.000
G1 X109.395 Y108.682
G1 Z0.200
G1 E0.80000 F2100.00000
G1 F1200.000
G1 X109.395 Y91.182 E0.54870
G1 X92.939 Y91.182 E0.51596
G1 X92.936 Y108.682 E0.54870
G1 X79.510 Y108.682 E0.42096
G1 X79.510 Y60.257 E1.51836
G1 X92.936 Y60.257 E0.42096
G1 X92.939 Y77.757 E0.54870
G1 X109.395 Y77.757 E0.51596
G1 X109.395 Y60.257 E0.54870
G1 X122.820 Y60.257 E0.42096
G1 X122.820 Y77.757 E0.54870
G1 X136.634 Y77.757 E0.43313
G1 X136.634 Y91.182 E0.42096
G1 X122.820 Y91.182 E0.43313
G1 X122.820 Y108.682 E0.54870
G1 X109.455 Y108.682 E0.41908
G1 E-0.80000 F2100.00000
G1 Z0.800 F10800.000
G1 X123.197 Y77.379
G1 Z0.200
G1 E0.80000 F2100.00000
G1 F1200.000
G1 X137.012 Y77.379 E0.43313
G1 X137.012 Y91.559 E0.44460
G1 X123.197 Y91.559 E0.43313
G1 X123.197 Y109.059 E0.54870
G1 X109.017 Y109.059 E0.44460
G1 X109.017 Y91.559 E0.54870
G1 X93.316 Y91.559 E0.49231
G1 X93.313 Y109.059 E0.54870
G1 X79.133 Y109.059 E0.44461
G1 X79.133 Y59.879 E1.54200
G1 X93.313 Y59.879 E0.44461
G1 X93.316 Y77.379 E0.54870
G1 X109.017 Y77.379 E0.49231
G1 X109.017 Y59.879 E0.54870
G1 X123.197 Y59.879 E0.44460
G1 X123.197 Y77.319 E0.54682
G1 X123.287 Y77.769 F10800.000
G1 E-0.80000 F2100.00000
G1 Z0.800 F10800.000
G1 X136.521 Y78.687
G1 Z0.200
G1 E0.80000 F2100.00000
G1 F1200.000
G1 X135.873 Y78.039 E0.02879
G1 X135.339 Y78.039 E0.01678
G1 X136.352 Y79.052 E0.04498
G1 X136.352 Y79.586 E0.01678
G1 X134.805 Y78.039 E0.06872
G1 X134.271 Y78.039 E0.01678
G1 X136.352 Y80.120 E0.09245
G1 X136.352 Y80.655 E0.01678
G1 X133.736 Y78.039 E0.11619
G1 X133.202 Y78.039 E0.01678
G1 X136.352 Y81.189 E0.13992
G1 X136.352 Y81.723 E0.01678
G1 X132.668 Y78.039 E0.16365
G1 X132.134 Y78.039 E0.01678
G1 X136.352 Y82.258 E0.18739
G1 X136.352 Y82.792 E0.01678
G1 X131.599 Y78.039 E0.21112
G1 X131.065 Y78.039 E0.01678
G1 X136.352 Y83.326 E0.23486
G1 X136.352 Y83.860 E0.01678
G1 X130.531 Y78.039 E0.25859
G1 X129.996 Y78.039 E0.01678
G1 X136.352 Y84.395 E0.28232
G1 X136.352 Y84.929 E0.01678
G1 X129.462 Y78.039 E0.30606
G1 X128.928 Y78.039 E0.01678
G1 X136.352 Y85.463 E0.32979
G1 X136.352 Y85.997 E0.01678
G1 X128.394 Y78.039 E0.35353
G1 X127.859 Y78.039 E0.01678
G1 X136.352 Y86.532 E0.37726
G1 X136.352 Y87.066 E0.01678
G1 X127.325 Y78.039 E0.40099
G1 X126.791 Y78.039 E0.01678
G1 X136.352 Y87.600 E0.42473
G1 X136.352 Y88.134 E0.01678
G1 X126.257 Y78.039 E0.44846
G1 X125.722 Y78.039 E0.01678
G1 X136.352 Y88.669 E0.47220
G1 X136.352 Y89.203 E0.01678
G1 X125.188 Y78.039 E0.49593
G1 X124.654 Y78.039 E0.01678
G1 X136.352 Y89.737 E0.51966
G1 X136.352 Y90.271 E0.01678
G1 X124.120 Y78.039 E0.54340
G1 X123.585 Y78.039 E0.01678
G1 X136.352 Y90.806 E0.56713
M73 P4 R71
G1 X136.352 Y90.900 E0.00295
G1 X135.911 Y90.900 E0.01383
G1 X123.051 Y78.039 E0.57130
G1 X122.538 Y78.039 E0.01613
G1 X122.538 Y77.526 E0.01613
G1 X109.677 Y64.666 E0.57130
G1 X109.677 Y64.131 E0.01678
G1 X122.538 Y76.992 E0.57130
G1 X122.538 Y76.457 E0.01678
G1 X109.677 Y63.597 E0.57130
G1 X109.677 Y63.063 E0.01678
G1 X122.538 Y75.923 E0.57130
G1 X122.538 Y75.389 E0.01678
G1 X109.677 Y62.529 E0.57130
G1 X109.677 Y61.994 E0.01678
G1 X122.538 Y74.854 E0.57130
G1 X122.538 Y74.320 E0.01678
G1 X109.677 Y61.460 E0.57130
G1 X109.677 Y60.926 E0.01678
G1 X122.538 Y73.786 E0.57130
G1 X122.538 Y73.252 E0.01678
G1 X109.825 Y60.539 E0.56473
G1 X110.359 Y60.539 E0.01678
G1 X122.538 Y72.717 E0.54100
G1 X122.538 Y72.183 E0.01678
G1 X110.894 Y60.539 E0.51726
G1 X111.428 Y60.539 E0.01678
G1 X122.538 Y71.649 E0.49353
G1 X122.538 Y71.115 E0.01678
G1 X111.962 Y60.539 E0.46980
G1 X112.496 Y60.539 E0.01678
G1 X122.538 Y70.580 E0.44606
G1 X122.538 Y70.046 E0.01678
G1 X113.031 Y60.539 E0.42233
G1 X113.565 Y60.539 E0.01678
G1 X122.538 Y69.512 E0.39860
G1 X122.538 Y68.978 E0.01678
G1 X114.099 Y60.539 E0.37486
G1 X114.634 Y60.539 E0.01678
G1 X122.538 Y68.443 E0.35113
G1 X122.538 Y67.909 E0.01678
G1 X115.168 Y60.539 E0.32739
G1 X115.702 Y60.539 E0.01678
G1 X122.538 Y67.375 E0.30366
G1 X122.538 Y66.841 E0.01678
G1 X116.236 Y60.539 E0.27993
G1 X116.771 Y60.539 E0.01678
G1 X122.538 Y66.306 E0.25619
G1 X122.538 Y65.772 E0.01678
G1 X117.305 Y60.539 E0.23246
G1 X117.839 Y60.539 E0.01678
G1 X122.538 Y65.238 E0.20872
G1 X122.538 Y64.704 E0.01678
G1 X118.373 Y60.539 E0.18499
G1 X118.908 Y60.539 E0.01678
G1 X122.538 Y64.169 E0.16126
G1 X122.538 Y63.635 E0.01678
G1 X119.442 Y60.539 E0.13752
G1 X119.976 Y60.539 E0.01678
G1 X122.538 Y63.101 E0.11379
G1 X122.538 Y62.567 E0.01678
G1 X120.510 Y60.539 E0.09005
G1 X121.045 Y60.539 E0.01678
G1 X122.538 Y62.032 E0.06632
G1 X122.538 Y61.498 E0.01678
G1 X121.579 Y60.539 E0.04259
G1 X122.113 Y60.539 E0.01678
G1 X122.707 Y61.133 E0.02639
G1 E-0.80000 F2100.00000
G1 Z0.800 F10800.000
G1 X92.025 Y60.370
G1 Z0.200
G1 E0.80000 F2100.00000
G1 F1200.000
G1 X92.654 Y60.998 E0.02793
G1 X92.654 Y61.533 E0.01678
G1 X91.660 Y60.539 E0.04413
G1 X91.126 Y60.539 E0.01678
G1 X92.654 Y62.067 E0.06787
G1 X92.654 Y62.601 E0.01678
G1 X90.592 Y60.539 E0.09161
G1 X90.058 Y60.539 E0.01678
G1 X92.654 Y63.136 E0.11534
G1 X92.654 Y63.670 E0.01678
G1 X89.523 Y60.539 E0.13908
G1 X88.989 Y60.539 E0.01678
G1 X92.654 Y64.204 E0.16282
G1 X92.654 Y64.739 E0.01678
G1 X88.455 Y60.539 E0.18656
G1 X87.921 Y60.539 E0.01678
G1 X92.654 Y65.273 E0.21029
G1 X92.654 Y65.807 E0.01678
G1 X87.386 Y60.539 E0.23403
G1 X86.852 Y60.539 E0.01678
G1 X92.654 Y66.342 E0.25777
G1 X92.655 Y66.876 E0.01678
G1 X86.318 Y60.539 E0.28151
G1 X85.783 Y60.539 E0.01678
G1 X92.655 Y67.410 E0.30524
G1 X92.655 Y67.945 E0.01678
G1 X85.249 Y60.539 E0.32898
G1 X84.715 Y60.539 E0.01678
G1 X92.655 Y68.479 E0.35272
G1 X92.655 Y69.013 E0.01678
G1 X84.181 Y60.539 E0.37645
G1 X83.646 Y60.539 E0.01678
G1 X92.655 Y69.548 E0.40019
G1 X92.655 Y70.082 E0.01678
G1 X83.112 Y60.539 E0.42393
G1 X82.578 Y60.539 E0.01678
G1 X92.655 Y70.616 E0.44767
G1 X92.655 Y71.151 E0.01678
G1 X82.044 Y60.539 E0.47140
G1 X81.509 Y60.539 E0.01678
G1 X92.655 Y71.685 E0.49514
G1 X92.655 Y72.220 E0.01678
G1 X80.975 Y60.539 E0.51888
G1 X80.441 Y60.539 E0.01678
G1 X92.655 Y72.754 E0.54262
G1 X92.655 Y73.288 E0.01678
G1 X79.907 Y60.539 E0.56635
G1 X79.793 Y60.539 E0.00356
G1 X79.793 Y60.960 E0.01322
G1 X92.656 Y73.823 E0.57139
G1 X92.656 Y74.357 E0.01678
G1 X79.793 Y61.494 E0.57140
G1 X79.793 Y62.029 E0.01678
G1 X92.656 Y74.891 E0.57140
G1 X92.656 Y75.426 E0.01678
G1 X79.793 Y62.563 E0.57140
G1 X79.793 Y63.097 E0.01678
G1 X92.656 Y75.960 E0.57141
G1 X92.656 Y76.494 E0.01678
G1 X79.793 Y63.632 E0.57141
G1 X79.793 Y64.166 E0.01678
G1 X92.656 Y77.029 E0.57141
G1 X92.656 Y77.563 E0.01678
G1 X79.793 Y64.700 E0.57142
G1 X79.793 Y65.234 E0.01678
G1 X105.459 Y90.900 E1.14015
G1 X105.993 Y90.900 E0.01678
G1 X93.133 Y78.039 E0.57130
G1 X93.667 Y78.039 E0.01678
G1 X106.527 Y90.900 E0.57130
G1 X107.061 Y90.900 E0.01678
G1 X94.201 Y78.039 E0.57130
G1 X94.735 Y78.039 E0.01678
G1 X107.596 Y90.900 E0.57130
G1 X108.130 Y90.900 E0.01678
G1 X95.270 Y78.039 E0.57130
G1 X95.804 Y78.039 E0.01678
G1 X108.664 Y90.900 E0.57130
G1 X109.198 Y90.900 E0.01678
G1 X96.338 Y78.039 E0.57130
G1 X96.872 Y78.039 E0.01678
G1 X122.538 Y103.705 E1.14015
G1 X122.538 Y103.170 E0.01678
G1 X97.407 Y78.039 E1.11642
