; generated by PrusaSlicer 2.1.1+win64 on 2020-01-11 at 19:07:56 UTC

; 

; external perimeters extrusion width = 0.45mm
; perimeters extrusion width = 0.45mm
; infill extrusion width = 0.45mm
; solid infill extrusion width = 0.45mm
; top infill extrusion width = 0.40mm
; support material extrusion width = 0.35mm
; first layer extrusion width = 0.42mm

M73 P0 R21
M201 X9000 Y9000 Z500 E10000 ; sets maximum accelerations, mm/sec^2
M203 X500 Y500 Z12 E120 ; sets maximum feedrates, mm/sec
M204 P2000 R1500 T2000 ; sets acceleration (P, T) and retract acceleration (R), mm/sec^2
M205 X10.00 Y10.00 Z0.20 E2.50 ; sets the jerk limits, mm/sec
M205 S0 T0 ; sets the minimum extruding and travel feed rate, mm/sec
M107
M862.3 P "MK2.5SMMU2S" ; printer model check
M862.1 P0.4 ; nozzle diameter check
M115 U3.8.1 ; tell printer latest fw version
G90 ; use absolute coordinates
M83 ; extruder relative mode
M104 S215 ; set extruder temp
M140 S60 ; set bed temp
Tx
M190 S60 ; wait for bed temp
M109 S215 ; wait for extruder temp
G28 W ; home all without mesh bed level
G80 ; mesh bed leveling

;go outside print area
G1 Y-3.0 F1000.0
G1 Z0.4 F1000.0
; select extruder
Tc
; purge line
G1 X55.0 F2000.0
G1 Z0.3 F1000.0
G92 E0.0
G1 X240.0 E25.0 F2200.0
M73 P0 R21
G1 Y-2.0 F1000.0
G1 X55.0 E25 F1400.0
G1 Z0.20 F1000.0
G1 X5.0 E4.0 F1000.0
G92 E0.0
G21 ; set units to millimeters
G90 ; use absolute coordinates
M83 ; use relative distances for extrusion
M900 K30 ; Filament gcode
;BEFORE_LAYER_CHANGE
G92 E0.0
;0.2


G1 E-0.80000 F2100.00000
G1 Z0.600 F10800.000
;AFTER_LAYER_CHANGE
;0.2
G1 X106.592 Y91.176
G1 Z0.200
G1 E0.80000 F2100.00000
M204 S1000
G1 F1200
G1 X106.955 Y90.480 E0.02459
G1 X107.340 Y90.062 E0.01783
G1 X107.812 Y89.738 E0.01795
G1 X108.340 Y89.527 E0.01783
G1 X108.905 Y89.437 E0.01795
G1 X130.026 Y89.434 E0.66221
G1 X130.633 Y89.508 E0.01919
G1 X131.202 Y89.722 E0.01906
G1 X142.224 Y95.757 E0.39399
G1 X142.802 Y96.195 E0.02275
G1 X143.235 Y96.778 E0.02275
G1 X143.458 Y97.343 E0.01906
G1 X143.543 Y97.946 E0.01906
G1 X143.544 Y112.028 E0.44156
G1 X143.412 Y112.813 E0.02496
G1 X143.045 Y113.520 E0.02496
G1 X142.675 Y113.925 E0.01721
G1 X142.226 Y114.242 E0.01721
G1 X131.233 Y120.262 E0.39297
G1 X130.485 Y120.523 E0.02484
G1 X108.970 Y120.565 E0.67459
G1 X108.198 Y120.430 E0.02459
G1 X107.502 Y120.067 E0.02459
G1 X107.071 Y119.667 E0.01845
G1 X106.743 Y119.178 E0.01845
G1 X106.535 Y118.632 E0.01832
G1 X106.457 Y118.049 E0.01845
G1 X106.457 Y91.953 E0.81824
G1 X106.582 Y91.235 E0.02284
G1 X106.949 Y91.299 F10800.000
G1 F1200
G1 X107.266 Y90.694 E0.02141
G1 X107.597 Y90.339 E0.01521
G1 X108.001 Y90.064 E0.01532
G1 X108.456 Y89.886 E0.01532
G1 X108.936 Y89.813 E0.01521
G1 X130.026 Y89.811 E0.66126
G1 X130.543 Y89.874 E0.01635
G1 X131.034 Y90.060 E0.01646
G1 X142.039 Y96.085 E0.39337
G1 X142.535 Y96.461 E0.01953
G1 X142.904 Y96.959 E0.01942
G1 X143.095 Y97.444 E0.01635
G1 X143.166 Y97.961 E0.01635
G1 X143.167 Y112.023 E0.44090
G1 X143.052 Y112.701 E0.02157
G1 X142.734 Y113.307 E0.02146
G1 X142.041 Y113.914 E0.02889
G1 X131.057 Y119.928 E0.39264
G1 X130.418 Y120.152 E0.02123
G1 X108.985 Y120.188 E0.67201
G1 X108.318 Y120.072 E0.02123
G1 X107.716 Y119.756 E0.02134
G1 X107.351 Y119.414 E0.01567
G1 X107.074 Y118.998 E0.01567
G1 X106.899 Y118.530 E0.01567
G1 X106.834 Y118.035 E0.01567
G1 X106.834 Y91.967 E0.81734
G1 X106.939 Y91.358 E0.01939
G1 F8640
G1 X107.266 Y90.694 E-0.17089
G1 X107.597 Y90.339 E-0.11201
G1 X108.001 Y90.064 E-0.11285
G1 X108.456 Y89.886 E-0.11285
G1 X108.936 Y89.813 E-0.11201
G1 X109.539 Y89.813 E-0.13939
G1 E-0.04000 F2100.00000
G1 Z0.800 F10800.000
G1 X109.609 Y92.587
G1 Z0.200
G1 E0.80000 F2100.00000
G1 F1200
G1 X129.435 Y92.587 E0.62163
G1 X129.435 Y98.586 E0.18811
G1 X140.391 Y98.586 E0.34353
G1 X140.391 Y111.414 E0.40219
G1 X129.435 Y111.414 E0.34353
G1 X129.435 Y117.413 E0.18811
G1 X109.609 Y117.413 E0.62163
G1 X109.609 Y92.647 E0.77652
G1 F8640
G1 X112.900 Y92.637 E-0.76000
G1 E-0.04000 F2100.00000
G1 Z0.800 F10800.000
G1 X129.812 Y98.209
G1 Z0.200
G1 E0.80000 F2100.00000
G1 F1200
G1 X140.768 Y98.209 E0.34353
G1 X140.768 Y111.791 E0.42583
G1 X129.812 Y111.791 E0.34353
G1 X129.812 Y117.790 E0.18811
G1 X109.232 Y117.790 E0.64527
G1 X109.232 Y92.210 E0.80204
G1 X129.812 Y92.210 E0.64527
G1 X129.812 Y98.149 E0.18622
G1 X129.978 Y98.573 F10800.000
G1 F8640
G1 X133.103 Y98.167 E-0.76000
G1 E-0.04000 F2100.00000
G1 Z0.800 F10800.000
G1 X129.322 Y93.324
G1 Z0.200
G1 E0.80000 F2100.00000
G1 F1200
G1 X128.867 Y92.870 E0.02023
G1 X128.332 Y92.870 E0.01684
G1 X129.152 Y93.690 E0.03649
G1 X129.152 Y94.225 E0.01684
G1 X127.797 Y92.870 E0.06030
G1 X127.262 Y92.870 E0.01684
G1 X129.152 Y94.760 E0.08411
G1 X129.152 Y95.295 E0.01684
G1 X126.727 Y92.870 E0.10792
G1 X126.191 Y92.870 E0.01684
G1 X129.152 Y95.830 E0.13173
G1 X129.152 Y96.366 E0.01684
G1 X125.656 Y92.870 E0.15554
G1 X125.121 Y92.870 E0.01684
G1 X129.152 Y96.901 E0.17935
G1 X129.152 Y97.436 E0.01684
G1 X124.586 Y92.870 E0.20316
G1 X124.051 Y92.870 E0.01684
G1 X129.152 Y97.971 E0.22698
G1 X129.152 Y98.506 E0.01684
G1 X123.516 Y92.870 E0.25079
G1 X122.981 Y92.870 E0.01684
G1 X140.108 Y109.997 E0.76211
G1 X140.108 Y109.462 E0.01684
G1 X129.515 Y98.869 E0.47135
G1 X130.050 Y98.869 E0.01684
G1 X140.108 Y108.927 E0.44754
G1 X140.108 Y108.392 E0.01684
G1 X130.585 Y98.869 E0.42373
G1 X131.121 Y98.869 E0.01684
G1 X140.108 Y107.857 E0.39992
G1 X140.108 Y107.322 E0.01684
G1 X131.656 Y98.869 E0.37610
G1 X132.191 Y98.869 E0.01684
G1 X140.108 Y106.787 E0.35229
G1 X140.108 Y106.252 E0.01684
G1 X132.726 Y98.869 E0.32848
G1 X133.261 Y98.869 E0.01684
G1 X140.108 Y105.716 E0.30467
G1 X140.108 Y105.181 E0.01684
G1 X133.796 Y98.869 E0.28086
G1 X134.331 Y98.869 E0.01684
G1 X140.108 Y104.646 E0.25705
G1 X140.108 Y104.111 E0.01684
G1 X134.866 Y98.869 E0.23324
G1 X135.402 Y98.869 E0.01684
G1 X140.108 Y103.576 E0.20943
G1 X140.108 Y103.041 E0.01684
G1 X135.937 Y98.869 E0.18562
G1 X136.472 Y98.869 E0.01684
G1 X140.108 Y102.506 E0.16181
G1 X140.108 Y101.971 E0.01684
G1 X137.007 Y98.869 E0.13800
G1 X137.542 Y98.869 E0.01684
G1 X140.108 Y101.435 E0.11418
G1 X140.108 Y100.900 E0.01684
G1 X138.077 Y98.869 E0.09037
G1 X138.612 Y98.869 E0.01684
G1 X140.108 Y100.365 E0.06656
G1 X140.108 Y99.830 E0.01684
G1 X139.147 Y98.869 E0.04275
G1 X139.683 Y98.869 E0.01684
G1 X140.278 Y99.465 E0.02649
G1 F8640
G1 X139.683 Y98.869 E-0.19442
G1 X139.147 Y98.869 E-0.12356
G1 X140.108 Y99.830 E-0.31375
G1 X140.108 Y100.365 E-0.12356
G1 X140.094 Y100.351 E-0.00471
G1 E-0.04000 F2100.00000
G1 Z0.800 F10800.000
G1 X140.278 Y110.702
G1 Z0.200
G1 E0.80000 F2100.00000
G1 F1200
G1 X122.446 Y92.870 E0.79347
G1 X121.910 Y92.870 E0.01684
G1 X140.108 Y111.068 E0.80973
G1 X140.108 Y111.131 E0.00199
G1 X139.636 Y111.131 E0.01485
G1 X121.375 Y92.870 E0.81254
G1 X120.840 Y92.870 E0.01684
G1 X139.101 Y111.131 E0.81254
G1 X138.566 Y111.131 E0.01684
G1 X120.305 Y92.870 E0.81254
G1 X119.770 Y92.870 E0.01684
G1 X138.031 Y111.131 E0.81254
G1 X137.496 Y111.131 E0.01684
G1 X119.235 Y92.870 E0.81254
G1 X118.700 Y92.870 E0.01684
G1 X136.961 Y111.131 E0.81254
M73 P5 R20
G1 X136.425 Y111.131 E0.01684
G1 X118.165 Y92.870 E0.81254
G1 X117.629 Y92.870 E0.01684
G1 X135.890 Y111.131 E0.81254
G1 X135.355 Y111.131 E0.01684
G1 X117.094 Y92.870 E0.81254
G1 X116.559 Y92.870 E0.01684
G1 X134.820 Y111.131 E0.81254
G1 X134.285 Y111.131 E0.01684
G1 X116.024 Y92.870 E0.81254
G1 X115.489 Y92.870 E0.01684
G1 X133.750 Y111.131 E0.81254
G1 X133.215 Y111.131 E0.01684
G1 X114.954 Y92.870 E0.81254
G1 X114.419 Y92.870 E0.01684
G1 X132.680 Y111.131 E0.81254
G1 X132.144 Y111.131 E0.01684
G1 X113.884 Y92.870 E0.81254
G1 X113.348 Y92.870 E0.01684
G1 X131.609 Y111.131 E0.81254
G1 X131.074 Y111.131 E0.01684
G1 X112.813 Y92.870 E0.81254
G1 X112.278 Y92.870 E0.01684
G1 X130.539 Y111.131 E0.81254
G1 X130.004 Y111.131 E0.01684
G1 X111.743 Y92.870 E0.81254
G1 X111.208 Y92.870 E0.01684
G1 X129.469 Y111.131 E0.81254
G1 X129.152 Y111.131 E0.00997
G1 X129.152 Y111.349 E0.00687
G1 X110.673 Y92.870 E0.82225
G1 X110.138 Y92.870 E0.01684
G1 X129.152 Y111.884 E0.84606
G1 X129.152 Y112.419 E0.01684
G1 X109.892 Y93.159 E0.85700
G1 X109.892 Y93.694 E0.01684
G1 X129.152 Y112.954 E0.85700
G1 X129.152 Y113.490 E0.01684
G1 X109.892 Y94.229 E0.85700
G1 X109.892 Y94.764 E0.01684
G1 X129.152 Y114.025 E0.85700
G1 X129.152 Y114.560 E0.01684
G1 X109.892 Y95.300 E0.85700
G1 X109.892 Y95.835 E0.01684
G1 X129.152 Y115.095 E0.85700
G1 X129.152 Y115.630 E0.01684
G1 X109.892 Y96.370 E0.85700
G1 X109.892 Y96.905 E0.01684
G1 X129.152 Y116.165 E0.85700
G1 X129.152 Y116.700 E0.01684
G1 X109.892 Y97.440 E0.85700
G1 X109.892 Y97.975 E0.01684
G1 X129.047 Y117.130 E0.85232
G1 X128.512 Y117.130 E0.01684
G1 X109.892 Y98.510 E0.82851
G1 X109.892 Y99.045 E0.01684
G1 X127.976 Y117.130 E0.80470
G1 X127.441 Y117.130 E0.01684
G1 X109.892 Y99.581 E0.78088
G1 X109.892 Y100.116 E0.01684
G1 X126.906 Y117.130 E0.75707
G1 X126.371 Y117.130 E0.01684
G1 X109.892 Y100.651 E0.73326
G1 X109.892 Y101.186 E0.01684
G1 X125.836 Y117.130 E0.70945
G1 X125.301 Y117.130 E0.01684
G1 X109.892 Y101.721 E0.68564
G1 X109.892 Y102.256 E0.01684
G1 X124.766 Y117.130 E0.66183
G1 X124.231 Y117.130 E0.01684
G1 X109.892 Y102.791 E0.63802
G1 X109.892 Y103.326 E0.01684
G1 X123.695 Y117.130 E0.61421
G1 X123.160 Y117.130 E0.01684
G1 X109.892 Y103.862 E0.59040
G1 X109.892 Y104.397 E0.01684
G1 X122.625 Y117.130 E0.56659
G1 X122.090 Y117.130 E0.01684
G1 X109.892 Y104.932 E0.54278
G1 X109.892 Y105.467 E0.01684
G1 X121.555 Y117.130 E0.51897
G1 X121.020 Y117.130 E0.01684
G1 X109.892 Y106.002 E0.49515
G1 X109.892 Y106.537 E0.01684
G1 X120.485 Y117.130 E0.47134
G1 X119.950 Y117.130 E0.01684
G1 X109.892 Y107.072 E0.44753
G1 X109.892 Y107.607 E0.01684
G1 X119.414 Y117.130 E0.42372
G1 X118.879 Y117.130 E0.01684
G1 X109.892 Y108.143 E0.39991
G1 X109.892 Y108.678 E0.01684
G1 X118.344 Y117.130 E0.37610
G1 X117.809 Y117.130 E0.01684
G1 X109.892 Y109.213 E0.35229
G1 X109.892 Y109.748 E0.01684
G1 X117.274 Y117.130 E0.32848
G1 X116.739 Y117.130 E0.01684
G1 X109.892 Y110.283 E0.30467
G1 X109.892 Y110.818 E0.01684
G1 X116.204 Y117.130 E0.28086
G1 X115.669 Y117.130 E0.01684
G1 X109.892 Y111.353 E0.25705
G1 X109.892 Y111.888 E0.01684
G1 X115.133 Y117.130 E0.23323
G1 X114.598 Y117.130 E0.01684
G1 X109.892 Y112.424 E0.20942
G1 X109.892 Y112.959 E0.01684
G1 X114.063 Y117.130 E0.18561
G1 X113.528 Y117.130 E0.01684
G1 X109.892 Y113.494 E0.16180
G1 X109.892 Y114.029 E0.01684
G1 X112.993 Y117.130 E0.13799
G1 X112.458 Y117.130 E0.01684
G1 X109.892 Y114.564 E0.11418
G1 X109.892 Y115.099 E0.01684
G1 X111.923 Y117.130 E0.09037
G1 X111.388 Y117.130 E0.01684
G1 X109.892 Y115.634 E0.06656
G1 X109.892 Y116.169 E0.01684
G1 X110.852 Y117.130 E0.04275
G1 X110.317 Y117.130 E0.01684
G1 X109.722 Y116.535 E0.02649
M106 S255
;BEFORE_LAYER_CHANGE
G92 E0.0
;0.4


G1 F8640
G1 X110.317 Y117.130 E-0.19438
M73 P10 R19
G1 X110.852 Y117.130 E-0.12356
G1 X109.892 Y116.169 E-0.31371
G1 X109.892 Y115.634 E-0.12356
G1 X109.906 Y115.649 E-0.00478
G1 E-0.04000 F2100.00000
G1 Z0.800 F10800.000
;AFTER_LAYER_CHANGE
;0.4
M104 S210 ; set temperature
G1 X108.198 Y120.430
G1 Z0.400
G1 E0.80000 F2100.00000
G1 F3000
G1 X107.502 Y120.067 E0.02459
G1 X107.071 Y119.667 E0.01845
G1 X106.743 Y119.178 E0.01845
G1 X106.535 Y118.632 E0.01832
G1 X106.457 Y118.049 E0.01845
G1 X106.457 Y91.953 E0.81824
G1 X106.592 Y91.176 E0.02472
G1 X106.955 Y90.480 E0.02459
G1 X107.340 Y90.062 E0.01783
G1 X107.812 Y89.738 E0.01795
G1 X108.340 Y89.527 E0.01783
G1 X108.905 Y89.437 E0.01795
G1 X130.026 Y89.434 E0.66221
G1 X130.633 Y89.508 E0.01919
G1 X131.202 Y89.722 E0.01906
G1 X142.224 Y95.757 E0.39399
G1 X142.802 Y96.195 E0.02275
G1 X143.235 Y96.778 E0.02275
G1 X143.458 Y97.343 E0.01906
G1 X143.543 Y97.946 E0.01906
G1 X143.544 Y112.028 E0.44156
G1 X143.412 Y112.813 E0.02496
G1 X143.045 Y113.520 E0.02496
G1 X142.675 Y113.925 E0.01721
G1 X142.226 Y114.242 E0.01721
G1 X131.233 Y120.262 E0.39297
G1 X130.485 Y120.523 E0.02484
G1 X108.970 Y120.565 E0.67459
G1 X108.257 Y120.440 E0.02271
G1 F8640
G1 X107.502 Y120.067 E-0.19437
G1 X107.071 Y119.667 E-0.13585
G1 X106.743 Y119.178 E-0.13585
G1 X106.535 Y118.632 E-0.13494
G1 X106.457 Y118.049 E-0.13585
G1 X106.457 Y117.949 E-0.02316
G1 E-0.04000 F2100.00000
G1 Z1.000 F10800.000
G1 X109.654 Y117.368
G1 Z0.400
G1 E0.80000 F2100.00000
M204 S800
G1 F3000
G1 X109.654 Y92.632 E0.83728
G1 X129.390 Y92.632 E0.66803
G1 X129.390 Y98.631 E0.20307
G1 X140.346 Y98.631 E0.37086
G1 X140.346 Y111.369 E0.43114
G1 X129.390 Y111.369 E0.37086
G1 X129.390 Y117.368 E0.20307
G1 X109.714 Y117.368 E0.66600
M204 S1000
G1 F8640
G1 X109.706 Y114.077 E-0.76000
G1 E-0.04000 F2100.00000
G1 Z1.000 F10800.000
G1 X129.797 Y98.224
G1 Z0.400
G1 E0.80000 F2100.00000
M204 S800
G1 F2400
G1 X140.753 Y98.224 E0.37086
G1 X140.753 Y111.776 E0.45869
G1 X129.797 Y111.776 E0.37086
G1 X129.797 Y117.775 E0.20307
G1 X109.247 Y117.775 E0.69559
G1 X109.247 Y92.225 E0.86484
G1 X129.797 Y92.225 E0.69559
G1 X129.797 Y98.164 E0.20104
M204 S1000
G1 X129.963 Y98.588 F10800.000
G1 F8640
G1 X133.088 Y98.182 E-0.76000
G1 E-0.04000 F2100.00000
G1 Z1.000 F10800.000
G1 X129.595 Y111.246
G1 Z0.400
G1 E0.80000 F2100.00000
M204 S2000
G1 F3000
G1 X140.041 Y100.801 E0.50091
G1 X140.041 Y101.378 E0.01956
G1 X130.355 Y111.063 E0.46447
G1 X130.932 Y111.063 E0.01956
G1 X140.041 Y101.954 E0.43682
G1 X140.041 Y102.531 E0.01956
G1 X131.509 Y111.063 E0.40916
G1 X132.085 Y111.063 E0.01956
G1 X140.041 Y103.108 E0.38150
G1 X140.041 Y103.685 E0.01956
G1 X132.662 Y111.063 E0.35385
G1 X133.239 Y111.063 E0.01956
G1 X140.041 Y104.261 E0.32619
G1 X140.041 Y104.838 E0.01956
G1 X133.815 Y111.063 E0.29853
G1 X134.392 Y111.063 E0.01956
G1 X140.041 Y105.415 E0.27088
G1 X140.041 Y105.991 E0.01956
G1 X134.969 Y111.063 E0.24322
G1 X135.546 Y111.063 E0.01956
G1 X140.041 Y106.568 E0.21556
G1 X140.041 Y107.145 E0.01956
G1 X136.122 Y111.063 E0.18791
G1 X136.699 Y111.063 E0.01956
G1 X140.041 Y107.722 E0.16025
G1 X140.041 Y108.298 E0.01956
G1 X137.276 Y111.063 E0.13259
G1 X137.853 Y111.063 E0.01956
G1 X140.041 Y108.875 E0.10494
G1 X140.041 Y109.452 E0.01956
G1 X138.429 Y111.063 E0.07728
G1 X139.006 Y111.063 E0.01956
G1 X140.041 Y110.028 E0.04962
G1 X140.041 Y110.605 E0.01956
G1 X139.399 Y111.246 E0.03075
M204 S1000
G1 F8640
G1 X140.041 Y110.605 E-0.20940
G1 X140.041 Y110.028 E-0.13317
G1 X139.006 Y111.063 E-0.33791
G1 X138.662 Y111.063 E-0.07952
G1 E-0.04000 F2100.00000
G1 Z1.000 F10800.000
G1 X128.786 Y117.246
G1 Z0.400
G1 E0.80000 F2100.00000
M204 S2000
G1 F3000
G1 X129.084 Y116.948 E0.01430
G1 X129.084 Y116.371 E0.01956
G1 X128.393 Y117.063 E0.03317
G1 X127.816 Y117.063 E0.01956
G1 X129.084 Y115.794 E0.06083
G1 X129.084 Y115.217 E0.01956
G1 X127.239 Y117.063 E0.08848
G1 X126.663 Y117.063 E0.01956
G1 X129.084 Y114.641 E0.11614
G1 X129.084 Y114.064 E0.01956
G1 X126.086 Y117.063 E0.14380
G1 X125.509 Y117.063 E0.01956
G1 X129.084 Y113.487 E0.17145
G1 X129.084 Y112.911 E0.01956
G1 X124.932 Y117.063 E0.19911
G1 X124.356 Y117.063 E0.01956
G1 X129.084 Y112.334 E0.22677
G1 X129.084 Y111.757 E0.01956
G1 X123.779 Y117.063 E0.25442
G1 X123.202 Y117.063 E0.01956
G1 X140.041 Y100.224 E0.80748
G1 X140.041 Y99.647 E0.01956
G1 X122.626 Y117.063 E0.83514
G1 X122.049 Y117.063 E0.01956
G1 X140.041 Y99.071 E0.86280
G1 X140.041 Y98.937 E0.00454
G1 X139.598 Y98.937 E0.01501
G1 X121.472 Y117.063 E0.86922
G1 X120.895 Y117.063 E0.01956
G1 X139.021 Y98.937 E0.86922
G1 X138.445 Y98.937 E0.01956
G1 X120.319 Y117.063 E0.86922
G1 X119.742 Y117.063 E0.01956
G1 X137.868 Y98.937 E0.86922
G1 X137.291 Y98.937 E0.01956
G1 X119.165 Y117.063 E0.86922
G1 X118.589 Y117.063 E0.01956
G1 X136.714 Y98.937 E0.86922
G1 X136.138 Y98.937 E0.01956
G1 X118.012 Y117.063 E0.86922
G1 X117.435 Y117.063 E0.01956
G1 X135.561 Y98.937 E0.86922
G1 X134.984 Y98.937 E0.01956
G1 X116.858 Y117.063 E0.86922
G1 X116.282 Y117.063 E0.01956
G1 X134.408 Y98.937 E0.86922
G1 X133.831 Y98.937 E0.01956
G1 X115.705 Y117.063 E0.86922
G1 X115.128 Y117.063 E0.01956
G1 X133.254 Y98.937 E0.86922
G1 X132.677 Y98.937 E0.01956
G1 X114.551 Y117.063 E0.86922
