; generated by PrusaSlicer 2.1.1+win64 on 2020-05-01 at 20:10:17 UTC

; 

; external perimeters extrusion width = 0.45mm
; perimeters extrusion width = 0.45mm
; infill extrusion width = 0.45mm
; solid infill extrusion width = 0.45mm
; top infill extrusion width = 0.40mm
; support material extrusion width = 0.35mm
; first layer extrusion width = 0.42mm

M73 P0 R101
M201 X9000 Y9000 Z500 E10000 ; sets maximum accelerations, mm/sec^2
M203 X500 Y500 Z12 E120 ; sets maximum feedrates, mm/sec
M204 P2000 R1500 T2000 ; sets acceleration (P, T) and retract acceleration (R), mm/sec^2
M205 X10.00 Y10.00 Z0.20 E4.50 ; sets the jerk limits, mm/sec
M205 S0 T0 ; sets the minimum extruding and travel feed rate, mm/sec
M107
M862.3 P "MK2.5SMMU2S" ; printer model check
M862.1 P0.4 ; nozzle diameter check
M115 U3.8.1 ; tell printer latest fw version
G90 ; use absolute coordinates
M83 ; extruder relative mode
M104 S215 ; set extruder temp
M140 S60 ; set bed temp
Tx
M190 S60 ; wait for bed temp
M109 S215 ; wait for extruder temp
G28 W ; home all without mesh bed level
G80 ; mesh bed leveling

;go outside print area
G1 Y-3.0 F1000.0
G1 Z0.4 F1000.0
; select extruder
Tc
; purge line
G1 X55.0 F2000.0
G1 Z0.3 F1000.0
G92 E0.0
G1 X240.0 E25.0 F2200.0
M73 P0 R100
G1 Y-2.0 F1000.0
G1 X55.0 E25 F1400.0
G1 Z0.20 F1000.0
G1 X5.0 E4.0 F1000.0
G92 E0.0
G21 ; set units to millimeters
G90 ; use absolute coordinates
M83 ; use relative distances for extrusion
M900 K30 ; Filament gcode
;BEFORE_LAYER_CHANGE
G92 E0.0
;0.2


G1 E-0.80000 F2100.00000
G1 Z0.600 F10800.000
;AFTER_LAYER_CHANGE
;0.2
G1 X75.721 Y69.167
G1 Z0.200
G1 E0.80000 F2100.00000
M204 S1000
G1 F1200
G1 X84.593 Y55.813 E0.50269
G1 X85.185 Y55.218 E0.02631
G1 X98.540 Y46.341 E0.50282
G1 X114.703 Y43.125 E0.51669
G1 X130.833 Y46.333 E0.51568
G1 X144.197 Y55.209 E0.50303
G1 X144.793 Y55.801 E0.02631
G1 X153.476 Y68.796 E0.49006
G1 X153.694 Y69.218 E0.01487
G1 X176.242 Y133.935 E2.14879
G1 X176.757 Y135.669 E0.05671
G1 X177.169 Y137.569 E0.06096
G1 X177.494 Y140.278 E0.08555
G1 X177.539 Y142.681 E0.07537
G1 X177.409 Y144.579 E0.05964
G1 X177.148 Y146.397 E0.05761
G1 X176.859 Y147.765 E0.04382
G1 X176.203 Y150.025 E0.07380
G1 X175.611 Y151.585 E0.05231
G1 X174.845 Y153.244 E0.05730
G1 X174.020 Y154.740 E0.05355
G1 X172.985 Y156.337 E0.05970
G1 X171.886 Y157.782 E0.05691
G1 X170.688 Y159.142 E0.05684
G1 X169.274 Y160.519 E0.06186
G1 X167.467 Y161.999 E0.07324
G1 X165.257 Y163.471 E0.08325
G1 X163.450 Y164.442 E0.06434
G1 X161.762 Y165.185 E0.05781
G1 X160.082 Y165.785 E0.05593
G1 X158.320 Y166.273 E0.05733
G1 X155.606 Y166.760 E0.08647
G1 X153.156 Y166.945 E0.07702
G1 X151.176 Y166.918 E0.06211
G1 X149.365 Y166.754 E0.05700
G1 X147.583 Y166.462 E0.05661
G1 X145.842 Y166.046 E0.05612
G1 X143.228 Y165.162 E0.08654
G1 X140.996 Y164.141 E0.07697
G1 X139.241 Y163.141 E0.06331
G1 X137.725 Y162.113 E0.05745
G1 X136.280 Y160.969 E0.05776
G1 X84.882 Y115.162 E2.15870
G1 X75.922 Y101.837 E0.50346
G1 X75.701 Y101.409 E0.01510
G1 X72.547 Y85.722 E0.50169
G1 X72.549 Y84.894 E0.02597
G1 X75.709 Y69.226 E0.50116
G1 F8640
G1 X77.527 Y66.482 E-0.76000
G1 E-0.04000 F2100.00000
G1 Z0.800 F10800.000
G1 X114.697 Y121.348
G1 Z0.200
G1 E0.80000 F2100.00000
G1 F1200
G1 X112.744 Y121.348 E0.06126
G1 X108.859 Y120.926 E0.12252
G1 X105.043 Y120.086 E0.12252
G1 X101.340 Y118.838 E0.12252
G1 X97.793 Y117.198 E0.12252
G1 X94.445 Y115.183 E0.12252
G1 X91.334 Y112.818 E0.12252
G1 X88.498 Y110.131 E0.12252
G1 X85.968 Y107.153 E0.12252
G1 X83.775 Y103.919 E0.12252
G1 X81.945 Y100.466 E0.12252
G1 X80.498 Y96.836 E0.12252
G1 X79.453 Y93.071 E0.12252
G1 X78.821 Y89.215 E0.12252
G1 X78.609 Y85.313 E0.12252
G1 X78.821 Y81.412 E0.12252
G1 X79.453 Y77.556 E0.12252
G1 X80.498 Y73.791 E0.12252
G1 X81.945 Y70.161 E0.12252
G1 X83.775 Y66.708 E0.12252
G1 X85.968 Y63.474 E0.12252
G1 X88.498 Y60.496 E0.12252
G1 X91.334 Y57.809 E0.12252
G1 X94.445 Y55.444 E0.12252
G1 X97.793 Y53.429 E0.12252
G1 X101.340 Y51.789 E0.12252
G1 X105.043 Y50.541 E0.12252
G1 X108.859 Y49.701 E0.12252
G1 X112.744 Y49.278 E0.12252
G1 X116.651 Y49.278 E0.12252
G1 X120.536 Y49.701 E0.12252
G1 X124.352 Y50.541 E0.12252
G1 X128.055 Y51.789 E0.12252
G1 X131.601 Y53.429 E0.12252
G1 X134.949 Y55.444 E0.12252
G1 X138.060 Y57.809 E0.12252
G1 X140.897 Y60.496 E0.12252
G1 X143.427 Y63.474 E0.12252
G1 X145.620 Y66.708 E0.12252
G1 X147.450 Y70.161 E0.12252
G1 X148.896 Y73.791 E0.12252
G1 X149.942 Y77.556 E0.12252
G1 X150.574 Y81.412 E0.12252
G1 X150.785 Y85.313 E0.12252
G1 X150.574 Y89.215 E0.12252
G1 X149.942 Y93.071 E0.12252
G1 X148.896 Y96.836 E0.12252
G1 X147.450 Y100.466 E0.12252
G1 X145.620 Y103.919 E0.12252
G1 X143.427 Y107.153 E0.12252
G1 X140.897 Y110.131 E0.12252
G1 X138.060 Y112.818 E0.12252
G1 X134.949 Y115.183 E0.12252
G1 X131.601 Y117.198 E0.12252
G1 X128.055 Y118.838 E0.12252
G1 X124.352 Y120.086 E0.12252
G1 X120.536 Y120.926 E0.12252
G1 X116.651 Y121.348 E0.12252
G1 X114.757 Y121.348 E0.05938
G1 X114.697 Y120.971 F10800.000
G1 F1200
G1 X112.764 Y120.971 E0.06062
G1 X108.920 Y120.553 E0.12124
G1 X105.144 Y119.722 E0.12124
G1 X101.480 Y118.487 E0.12124
G1 X97.970 Y116.864 E0.12124
G1 X94.657 Y114.870 E0.12124
G1 X91.579 Y112.530 E0.12124
G1 X88.772 Y109.871 E0.12124
G1 X86.269 Y106.924 E0.12124
G1 X84.099 Y103.724 E0.12124
G1 X82.288 Y100.308 E0.12124
G1 X80.856 Y96.716 E0.12124
G1 X79.822 Y92.990 E0.12124
G1 X79.196 Y89.174 E0.12124
G1 X78.987 Y85.313 E0.12124
G1 X79.196 Y81.452 E0.12124
G1 X79.822 Y77.637 E0.12124
G1 X80.856 Y73.911 E0.12124
G1 X82.288 Y70.319 E0.12124
G1 X84.099 Y66.903 E0.12124
G1 X86.269 Y63.702 E0.12124
G1 X88.772 Y60.755 E0.12124
G1 X91.579 Y58.096 E0.12124
G1 X94.657 Y55.756 E0.12124
G1 X97.970 Y53.763 E0.12124
G1 X101.480 Y52.139 E0.12124
G1 X105.144 Y50.905 E0.12124
G1 X108.920 Y50.074 E0.12124
G1 X112.764 Y49.656 E0.12124
G1 X116.631 Y49.656 E0.12124
G1 X120.475 Y50.074 E0.12124
G1 X124.251 Y50.905 E0.12124
G1 X127.915 Y52.139 E0.12124
G1 X131.424 Y53.763 E0.12124
G1 X134.737 Y55.756 E0.12124
G1 X137.816 Y58.096 E0.12124
G1 X140.623 Y60.755 E0.12124
G1 X143.126 Y63.702 E0.12124
G1 X145.296 Y66.903 E0.12124
G1 X147.107 Y70.319 E0.12124
G1 X148.538 Y73.911 E0.12124
G1 X149.573 Y77.637 E0.12124
G1 X150.198 Y81.452 E0.12124
G1 X150.408 Y85.313 E0.12124
G1 X150.198 Y89.174 E0.12124
G1 X149.573 Y92.990 E0.12124
G1 X148.538 Y96.716 E0.12124
G1 X147.107 Y100.308 E0.12124
G1 X145.296 Y103.724 E0.12124
G1 X143.126 Y106.924 E0.12124
G1 X140.623 Y109.871 E0.12124
G1 X137.816 Y112.530 E0.12124
G1 X134.737 Y114.870 E0.12124
G1 X131.424 Y116.864 E0.12124
G1 X127.915 Y118.487 E0.12124
G1 X124.251 Y119.722 E0.12124
G1 X120.475 Y120.553 E0.12124
G1 X116.631 Y120.971 E0.12124
G1 X114.757 Y120.971 E0.05874
G1 X114.506 Y121.323 F10800.000
G1 F8640
G1 X112.764 Y120.971 E-0.46026
G1 X111.473 Y120.831 E-0.29974
G1 E-0.04000 F2100.00000
G1 Z0.800 F10800.000
G1 X114.697 Y124.715
G1 Z0.200
G1 E0.80000 F2100.00000
G1 F1200
G1 X99.619 Y121.716 E0.48203
G1 X86.836 Y113.174 E0.48203
G1 X78.295 Y100.392 E0.48203
G1 X75.296 Y85.313 E0.48203
G1 X78.295 Y70.235 E0.48203
G1 X86.836 Y57.452 E0.48203
G1 X99.619 Y48.911 E0.48203
G1 X114.697 Y45.912 E0.48203
G1 X129.776 Y48.911 E0.48203
M73 P1 R99
G1 X142.558 Y57.452 E0.48203
G1 X151.099 Y70.235 E0.48203
G1 X154.099 Y85.313 E0.48203
G1 X151.099 Y100.392 E0.48203
G1 X142.558 Y113.174 E0.48203
G1 X129.776 Y121.716 E0.48203
G1 X114.756 Y124.703 E0.48015
G1 X114.697 Y125.099 F10800.000
G1 F1200
G1 X99.472 Y122.071 E0.48673
G1 X86.564 Y113.446 E0.48673
G1 X77.940 Y100.539 E0.48673
G1 X74.911 Y85.313 E0.48673
G1 X77.940 Y70.088 E0.48673
G1 X86.564 Y57.181 E0.48673
G1 X99.472 Y48.556 E0.48673
G1 X114.697 Y45.528 E0.48673
G1 X129.923 Y48.556 E0.48673
G1 X142.830 Y57.181 E0.48673
G1 X151.455 Y70.088 E0.48673
G1 X154.483 Y85.313 E0.48673
G1 X151.455 Y100.539 E0.48673
G1 X142.830 Y113.446 E0.48673
G1 X129.923 Y122.071 E0.48673
G1 X114.756 Y125.088 E0.48485
G1 X114.497 Y124.753 F10800.000
G1 F8640
G1 X111.527 Y124.450 E-0.76000
G1 E-0.04000 F2100.00000
G1 Z0.800 F10800.000
G1 X114.697 Y107.423
G1 Z0.200
G1 E0.80000 F2100.00000
G1 F1200
G1 X114.295 Y107.388 E0.01267
G1 X113.905 Y107.283 E0.01267
G1 X113.539 Y107.112 E0.01267
G1 X113.208 Y106.881 E0.01267
G1 X112.922 Y106.595 E0.01267
G1 X112.690 Y106.264 E0.01267
G1 X112.520 Y105.898 E0.01267
G1 X112.415 Y105.508 E0.01267
G1 X112.380 Y105.105 E0.01267
G1 X112.415 Y104.703 E0.01267
G1 X112.520 Y104.313 E0.01267
G1 X112.690 Y103.947 E0.01267
G1 X112.922 Y103.616 E0.01267
G1 X113.208 Y103.330 E0.01267
G1 X113.539 Y103.098 E0.01267
G1 X113.905 Y102.928 E0.01267
G1 X114.295 Y102.823 E0.01267
G1 X114.686 Y102.789 E0.01230
G1 X115.098 Y102.823 E0.01298
G1 X115.490 Y102.928 E0.01272
G1 X115.856 Y103.098 E0.01267
G1 X116.187 Y103.330 E0.01267
G1 X116.473 Y103.616 E0.01267
G1 X116.698 Y103.937 E0.01230
G1 X116.875 Y104.311 E0.01298
G1 X116.980 Y104.703 E0.01272
G1 X117.015 Y105.105 E0.01267
G1 X116.980 Y105.508 E0.01267
G1 X116.875 Y105.898 E0.01267
G1 X116.704 Y106.264 E0.01267
G1 X116.473 Y106.595 E0.01267
G1 X116.187 Y106.881 E0.01267
G1 X115.856 Y107.112 E0.01267
G1 X115.490 Y107.283 E0.01267
G1 X115.100 Y107.388 E0.01267
G1 X114.757 Y107.418 E0.01078
G1 X114.697 Y107.044 F10800.000
G1 F1200
G1 X114.361 Y107.015 E0.01060
G1 X114.034 Y106.927 E0.01060
G1 X113.728 Y106.785 E0.01060
G1 X113.451 Y106.591 E0.01060
G1 X113.212 Y106.352 E0.01060
G1 X113.018 Y106.075 E0.01060
G1 X112.875 Y105.769 E0.01060
G1 X112.788 Y105.442 E0.01060
G1 X112.758 Y105.105 E0.01060
G1 X112.788 Y104.769 E0.01060
G1 X112.875 Y104.442 E0.01060
G1 X113.018 Y104.136 E0.01060
G1 X113.212 Y103.859 E0.01060
G1 X113.451 Y103.620 E0.01060
G1 X113.728 Y103.426 E0.01060
G1 X114.034 Y103.283 E0.01060
G1 X114.361 Y103.196 E0.01060
G1 X114.687 Y103.167 E0.01026
G1 X115.033 Y103.196 E0.01091
G1 X115.360 Y103.283 E0.01062
G1 X115.667 Y103.426 E0.01060
G1 X115.944 Y103.620 E0.01060
G1 X116.183 Y103.859 E0.01060
G1 X116.370 Y104.127 E0.01026
G1 X116.519 Y104.442 E0.01091
G1 X116.607 Y104.769 E0.01062
G1 X116.636 Y105.105 E0.01060
G1 X116.607 Y105.442 E0.01060
G1 X116.519 Y105.769 E0.01060
G1 X116.376 Y106.075 E0.01060
G1 X116.183 Y106.352 E0.01060
G1 X115.944 Y106.591 E0.01060
G1 X115.667 Y106.785 E0.01060
G1 X115.360 Y106.927 E0.01060
G1 X115.034 Y107.015 E0.01060
G1 X114.757 Y107.039 E0.00872
G1 X114.528 Y107.337 F10800.000
G1 F8640
G1 X114.361 Y107.015 E-0.09172
G1 X114.034 Y106.927 E-0.07804
G1 X113.728 Y106.785 E-0.07804
G1 X113.451 Y106.591 E-0.07804
G1 X113.212 Y106.352 E-0.07804
G1 X113.018 Y106.075 E-0.07804
G1 X112.875 Y105.769 E-0.07804
G1 X112.788 Y105.442 E-0.07804
G1 X112.758 Y105.105 E-0.07804
G1 X112.775 Y104.916 E-0.04395
G1 E-0.04000 F2100.00000
G1 Z0.800 F10800.000
G1 X114.697 Y96.403
G1 Z0.200
G1 E0.80000 F2100.00000
G1 F1200
G1 X112.772 Y96.234 E0.06061
G1 X110.905 Y95.734 E0.06061
G1 X109.153 Y94.917 E0.06061
G1 X107.569 Y93.808 E0.06061
G1 X106.202 Y92.442 E0.06061
G1 X105.094 Y90.858 E0.06061
G1 X104.277 Y89.106 E0.06061
G1 X103.776 Y87.239 E0.06061
G1 X103.608 Y85.313 E0.06061
G1 X103.776 Y83.388 E0.06061
G1 X104.277 Y81.521 E0.06061
G1 X105.094 Y79.769 E0.06061
G1 X106.202 Y78.185 E0.06061
G1 X107.569 Y76.819 E0.06061
G1 X109.153 Y75.710 E0.06061
G1 X110.905 Y74.893 E0.06061
G1 X112.772 Y74.393 E0.06061
G1 X114.697 Y74.224 E0.06061
G1 X116.623 Y74.393 E0.06061
G1 X118.490 Y74.893 E0.06061
G1 X120.242 Y75.710 E0.06061
G1 X121.825 Y76.819 E0.06061
G1 X123.192 Y78.185 E0.06061
G1 X124.301 Y79.769 E0.06061
G1 X125.045 Y81.364 E0.05517
G1 X125.118 Y81.521 E0.00544
G1 X125.618 Y83.388 E0.06061
G1 X125.787 Y85.313 E0.06061
G1 X125.618 Y87.239 E0.06061
G1 X125.118 Y89.106 E0.06061
G1 X124.301 Y90.858 E0.06061
G1 X123.192 Y92.442 E0.06061
G1 X121.825 Y93.808 E0.06061
G1 X120.242 Y94.917 E0.06061
G1 X118.490 Y95.734 E0.06061
G1 X116.623 Y96.234 E0.06061
G1 X114.757 Y96.398 E0.05873
G1 X114.697 Y96.024 F10800.000
G1 F1200
G1 X112.837 Y95.862 E0.05854
G1 X111.034 Y95.378 E0.05854
G1 X109.342 Y94.589 E0.05854
G1 X107.813 Y93.518 E0.05854
G1 X106.492 Y92.198 E0.05854
G1 X105.421 Y90.669 E0.05854
G1 X104.632 Y88.977 E0.05854
G1 X104.149 Y87.173 E0.05854
G1 X103.987 Y85.313 E0.05854
G1 X104.149 Y83.454 E0.05854
G1 X104.632 Y81.650 E0.05854
G1 X105.421 Y79.958 E0.05854
G1 X106.492 Y78.429 E0.05854
G1 X107.813 Y77.108 E0.05854
G1 X109.342 Y76.038 E0.05854
G1 X111.034 Y75.249 E0.05854
G1 X112.837 Y74.765 E0.05854
G1 X114.697 Y74.603 E0.05854
G1 X116.557 Y74.765 E0.05854
G1 X118.361 Y75.249 E0.05854
G1 X120.053 Y76.038 E0.05854
G1 X121.582 Y77.108 E0.05854
G1 X122.902 Y78.429 E0.05854
G1 X123.973 Y79.958 E0.05854
G1 X124.703 Y81.523 E0.05414
G1 X124.762 Y81.650 E0.00440
G1 X125.245 Y83.454 E0.05854
G1 X125.408 Y85.313 E0.05854
G1 X125.245 Y87.173 E0.05854
G1 X124.762 Y88.977 E0.05854
G1 X123.973 Y90.669 E0.05854
G1 X122.902 Y92.198 E0.05854
G1 X121.582 Y93.518 E0.05854
G1 X120.053 Y94.589 E0.05854
G1 X118.361 Y95.378 E0.05854
G1 X116.557 Y95.862 E0.05854
G1 X114.757 Y96.019 E0.05666
G1 X114.497 Y96.371 F10800.000
G1 F8640
G1 X112.837 Y95.862 E-0.44475
G1 X111.519 Y95.508 E-0.31525
G1 E-0.04000 F2100.00000
G1 Z0.800 F10800.000
G1 X113.841 Y114.213
G1 Z0.200
G1 E0.80000 F2100.00000
G1 F1200
G1 X110.429 Y113.908 E0.10740
G1 X107.076 Y113.203 E0.10740
G1 X103.831 Y112.106 E0.10740
G1 X100.739 Y110.633 E0.10740
G1 X97.842 Y108.804 E0.10740
G1 X95.182 Y106.646 E0.10740
G1 X92.796 Y104.188 E0.10740
G1 X90.718 Y101.465 E0.10740
G1 X88.976 Y98.515 E0.10740
G1 X87.595 Y95.381 E0.10740
G1 X86.594 Y92.104 E0.10740
G1 X85.988 Y88.733 E0.10740
G1 X85.785 Y85.313 E0.10740
G1 X85.988 Y81.894 E0.10740
G1 X86.594 Y78.522 E0.10740
G1 X87.595 Y75.246 E0.10740
G1 X88.976 Y72.111 E0.10740
G1 X90.718 Y69.162 E0.10740
G1 X92.796 Y66.439 E0.10740
G1 X95.182 Y63.981 E0.10740
G1 X97.842 Y61.823 E0.10740
G1 X100.739 Y59.994 E0.10740
G1 X103.831 Y58.521 E0.10740
G1 X107.076 Y57.424 E0.10740
G1 X110.429 Y56.718 E0.10740
G1 X113.841 Y56.414 E0.10740
G1 X117.265 Y56.516 E0.10740
G1 X120.653 Y57.022 E0.10740
G1 X123.957 Y57.924 E0.10740
G1 X127.131 Y59.212 E0.10740
G1 X130.131 Y60.866 E0.10740
G1 X132.914 Y62.863 E0.10740
G1 X135.442 Y65.175 E0.10740
G1 X137.678 Y67.770 E0.10740
G1 X139.592 Y70.611 E0.10740
G1 X141.156 Y73.658 E0.10740
G1 X142.349 Y76.870 E0.10740
G1 X143.153 Y80.199 E0.10740
G1 X143.558 Y83.601 E0.10740
G1 X143.558 Y87.026 E0.10740
G1 X143.153 Y90.428 E0.10740
G1 X142.349 Y93.757 E0.10740
G1 X141.156 Y96.969 E0.10740
G1 X139.592 Y100.016 E0.10740
G1 X137.678 Y102.857 E0.10740
G1 X135.442 Y105.452 E0.10740
G1 X132.914 Y107.764 E0.10740
G1 X130.131 Y109.761 E0.10740
G1 X127.131 Y111.415 E0.10740
G1 X123.957 Y112.702 E0.10740
G1 X120.653 Y113.605 E0.10740
G1 X117.265 Y114.111 E0.10740
G1 X113.901 Y114.211 E0.10552
G1 X113.829 Y114.590 F10800.000
G1 F1200
G1 X110.373 Y114.282 E0.10881
G1 X106.977 Y113.567 E0.10881
G1 X103.689 Y112.456 E0.10881
G1 X100.556 Y110.963 E0.10881
G1 X97.622 Y109.111 E0.10881
G1 X94.927 Y106.924 E0.10881
G1 X92.745 Y104.676 E0.09824
G1 X92.510 Y104.434 E0.01057
G1 X90.404 Y101.676 E0.10881
G1 X88.640 Y98.688 E0.10881
G1 X87.241 Y95.512 E0.10881
G1 X86.227 Y92.193 E0.10881
G1 X85.613 Y88.778 E0.10881
G1 X85.408 Y85.313 E0.10881
G1 X85.613 Y81.849 E0.10881
G1 X86.227 Y78.434 E0.10881
G1 X87.241 Y75.115 E0.10881
G1 X88.640 Y71.939 E0.10881
G1 X90.404 Y68.951 E0.10881
G1 X92.510 Y66.193 E0.10881
G1 X94.927 Y63.703 E0.10881
G1 X97.622 Y61.516 E0.10881
G1 X100.556 Y59.663 E0.10881
G1 X103.689 Y58.171 E0.10881
G1 X106.977 Y57.060 E0.10881
G1 X110.373 Y56.345 E0.10881
G1 X113.829 Y56.037 E0.10881
G1 X117.298 Y56.140 E0.10881
G1 X120.730 Y56.652 E0.10881
G1 X124.078 Y57.567 E0.10881
G1 X127.294 Y58.871 E0.10881
G1 X130.333 Y60.546 E0.10881
G1 X133.152 Y62.569 E0.10881
G1 X135.713 Y64.912 E0.10881
G1 X137.978 Y67.540 E0.10881
G1 X139.917 Y70.419 E0.10881
G1 X141.502 Y73.506 E0.10881
G1 X142.710 Y76.759 E0.10881
G1 X143.525 Y80.132 E0.10881
G1 X143.935 Y83.578 E0.10881
G1 X143.935 Y87.049 E0.10881
G1 X143.525 Y90.494 E0.10881
G1 X142.710 Y93.868 E0.10881
G1 X141.502 Y97.121 E0.10881
G1 X139.917 Y100.208 E0.10881
