; generated by PrusaSlicer 2.1.1+win64 on 2020-04-13 at 19:58:08 UTC

; 

; external perimeters extrusion width = 0.45mm
; perimeters extrusion width = 0.45mm
; infill extrusion width = 0.45mm
; solid infill extrusion width = 0.45mm
; top infill extrusion width = 0.40mm
; first layer extrusion width = 0.42mm

M73 P0 R146
M201 X9000 Y9000 Z500 E10000 ; sets maximum accelerations, mm/sec^2
M203 X500 Y500 Z12 E120 ; sets maximum feedrates, mm/sec
M204 P2000 R1500 T2000 ; sets acceleration (P, T) and retract acceleration (R), mm/sec^2
M205 X10.00 Y10.00 Z0.20 E2.50 ; sets the jerk limits, mm/sec
M205 S0 T0 ; sets the minimum extruding and travel feed rate, mm/sec
M107
M862.3 P "MK2.5SMMU2S" ; printer model check
M862.1 P0.4 ; nozzle diameter check
M115 U3.8.0 ; tell printer latest fw version
G90 ; use absolute coordinates
M83 ; extruder relative mode
M104 S215 ; set extruder temp
M140 S60 ; set bed temp
Tx
M190 S60 ; wait for bed temp
M109 S215 ; wait for extruder temp
G28 W ; home all without mesh bed level
G80 ; mesh bed leveling

G21 ; set units to millimeters

;go outside print area
G1 Y-3.0 F1000.0
G1 Z0.4 F1000.0
; select extruder
Tc
; purge line
G1 X55.0 F2000.0
G1 Z0.3 F1000.0
G92 E0.0
G1 X240.0 E25.0 F2200.0
M73 P0 R146
G1 Y-2.0 F1000.0
G1 X55.0 E25 F1400.0
G1 Z0.20 F1000.0
G1 X5.0 E4.0 F1000.0
G92 E0.0
G21 ; set units to millimeters
G90 ; use absolute coordinates
M83 ; use relative distances for extrusion
M900 K30 ; Filament gcode
;BEFORE_LAYER_CHANGE
G92 E0.0
;0.2


G1 E-0.80000 F2100.00000
G1 Z0.600 F10800.000
;AFTER_LAYER_CHANGE
;0.2
G1 X68.310 Y90.489
G1 Z0.200
G1 E0.80000 F2100.00000
M204 S1000
G1 F1200
G1 X68.807 Y89.799 E0.02664
G1 X100.850 Y67.372 E1.22634
G1 X113.744 Y62.007 E0.43787
G1 X114.293 Y61.873 E0.01771
G1 X115.081 Y61.860 E0.02473
G1 X128.555 Y61.906 E0.42245
G1 X141.540 Y67.243 E0.44021
G1 X180.809 Y89.521 E1.41559
G1 X181.429 Y90.065 E0.02586
G1 X181.805 Y90.799 E0.02586
G1 X181.892 Y91.397 E0.01896
G1 X181.888 Y105.043 E0.42785
G1 X181.773 Y105.696 E0.02078
G1 X181.471 Y106.281 E0.02066
G1 X141.131 Y147.491 E1.80814
G1 X140.695 Y147.833 E0.01737
G1 X140.187 Y148.053 E0.01737
G1 X139.581 Y148.140 E0.01919
G1 X110.410 Y148.140 E0.91463
G1 X109.843 Y148.062 E0.01794
G1 X109.313 Y147.837 E0.01805
G1 X108.861 Y147.483 E0.01800
G1 X68.728 Y106.511 E1.79827
G1 X68.406 Y106.087 E0.01669
G1 X68.196 Y105.598 E0.01669
G1 X68.108 Y104.996 E0.01908
G1 X68.113 Y91.315 E0.42896
G1 X68.296 Y90.547 E0.02476
G1 E-0.80000 F2100.00000
G1 Z0.800 F10800.000
G1 X125.023 Y131.048
G1 Z0.200
G1 E0.80000 F2100.00000
G1 F1200
G1 X114.782 Y131.047 E0.32112
G1 X102.709 Y126.044 E0.40976
G1 X93.469 Y116.802 E0.40976
G1 X88.470 Y104.727 E0.40976
G1 X88.471 Y91.658 E0.40976
G1 X93.474 Y79.585 E0.40976
G1 X102.717 Y70.345 E0.40976
G1 X114.791 Y65.346 E0.40973
G1 X127.860 Y65.348 E0.40979
G1 X139.934 Y70.351 E0.40976
G1 X149.173 Y79.593 E0.40976
G1 X154.173 Y91.668 E0.40976
G1 X154.171 Y104.737 E0.40976
G1 X149.168 Y116.810 E0.40976
G1 X139.925 Y126.049 E0.40976
G1 X127.851 Y131.049 E0.40976
G1 X125.083 Y131.049 E0.08676
G1 X125.024 Y130.671 F10800.000
G1 F1200
G1 X114.857 Y130.670 E0.31876
G1 X102.922 Y125.724 E0.40506
G1 X93.789 Y116.588 E0.40506
G1 X88.847 Y104.652 E0.40506
G1 X88.849 Y91.733 E0.40506
G1 X93.794 Y79.799 E0.40506
G1 X102.930 Y70.665 E0.40506
G1 X114.866 Y65.723 E0.40505
G1 X127.785 Y65.725 E0.40507
G1 X139.720 Y70.670 E0.40506
G1 X148.853 Y79.807 E0.40506
G1 X153.796 Y91.743 E0.40506
G1 X153.794 Y104.662 E0.40506
G1 X148.848 Y116.596 E0.40506
G1 X139.712 Y125.730 E0.40506
G1 X127.776 Y130.672 E0.40506
G1 X125.084 Y130.671 E0.08441
G1 X124.862 Y131.037 F10800.000
G1 E-0.80000 F2100.00000
G1 Z0.800 F10800.000
G1 X172.917 Y100.743
G1 Z0.200
G1 E0.80000 F2100.00000
G1 F1200
G1 X172.431 Y100.595 E0.01592
G1 X171.983 Y100.356 E0.01592
G1 X171.591 Y100.034 E0.01592
G1 X171.269 Y99.641 E0.01592
G1 X171.030 Y99.194 E0.01592
G1 X170.882 Y98.708 E0.01592
G1 X170.832 Y98.202 E0.01592
G1 X170.882 Y97.697 E0.01592
G1 X171.030 Y97.211 E0.01592
G1 X171.269 Y96.764 E0.01592
G1 X171.591 Y96.371 E0.01592
G1 X171.983 Y96.049 E0.01592
G1 X172.435 Y95.808 E0.01604
G1 X172.948 Y95.659 E0.01675
G1 X173.422 Y95.612 E0.01496
G1 X173.928 Y95.662 E0.01592
G1 X174.413 Y95.810 E0.01592
G1 X174.861 Y96.049 E0.01592
G1 X175.254 Y96.371 E0.01592
G1 X175.576 Y96.764 E0.01592
G1 X175.815 Y97.211 E0.01592
G1 X175.962 Y97.697 E0.01592
G1 X176.012 Y98.202 E0.01592
G1 X175.962 Y98.708 E0.01592
G1 X175.815 Y99.194 E0.01592
G1 X175.576 Y99.641 E0.01592
G1 X175.254 Y100.034 E0.01592
G1 X174.861 Y100.356 E0.01592
G1 X174.413 Y100.595 E0.01592
G1 X173.928 Y100.743 E0.01592
G1 X173.422 Y100.792 E0.01592
G1 X172.977 Y100.748 E0.01404
G1 X172.991 Y100.371 F10800.000
G1 F1200
G1 X172.576 Y100.245 E0.01359
G1 X172.194 Y100.041 E0.01359
G1 X171.859 Y99.766 E0.01359
G1 X171.584 Y99.431 E0.01359
G1 X171.380 Y99.049 E0.01359
G1 X171.254 Y98.634 E0.01359
G1 X171.211 Y98.202 E0.01359
G1 X171.254 Y97.771 E0.01359
G1 X171.380 Y97.356 E0.01359
G1 X171.584 Y96.974 E0.01359
G1 X171.859 Y96.639 E0.01359
G1 X172.194 Y96.364 E0.01359
G1 X172.577 Y96.159 E0.01363
G1 X173.019 Y96.031 E0.01442
G1 X173.422 Y95.991 E0.01270
G1 X173.854 Y96.034 E0.01359
G1 X174.268 Y96.160 E0.01359
G1 X174.651 Y96.364 E0.01359
G1 X174.986 Y96.639 E0.01359
G1 X175.261 Y96.974 E0.01359
G1 X175.465 Y97.356 E0.01359
G1 X175.591 Y97.771 E0.01359
G1 X175.633 Y98.202 E0.01359
G1 X175.591 Y98.634 E0.01359
G1 X175.465 Y99.049 E0.01359
G1 X175.261 Y99.431 E0.01359
G1 X174.986 Y99.766 E0.01359
G1 X174.651 Y100.041 E0.01359
G1 X174.268 Y100.245 E0.01359
G1 X173.854 Y100.371 E0.01359
G1 X173.422 Y100.413 E0.01359
G1 X173.051 Y100.377 E0.01171
G1 X172.727 Y100.672 F10800.000
G1 E-0.80000 F2100.00000
G1 Z0.800 F10800.000
G1 X125.023 Y131.759
G1 Z0.200
G1 E0.80000 F2100.00000
G1 F1200
G1 X114.640 Y131.758 E0.32555
G1 X102.306 Y126.646 E0.41863
G1 X92.867 Y117.204 E0.41863
G1 X87.759 Y104.868 E0.41863
G1 X87.759 Y104.344 E0.01645
G1 X86.390 Y104.344 E0.04294
G1 X86.374 Y104.398 E0.00177
G1 X70.884 Y104.398 E0.48567
G1 X70.887 Y91.987 E0.38913
G1 X87.566 Y91.987 E0.52297
G1 X92.872 Y79.182 E0.43458
G1 X102.314 Y69.743 E0.41863
G1 X114.650 Y64.635 E0.41862
G1 X128.002 Y64.637 E0.41863
G1 X140.336 Y69.748 E0.41863
M73 P0 R145
G1 X149.776 Y79.191 E0.41863
G1 X154.883 Y91.527 E0.41863
G1 X154.883 Y92.051 E0.01645
G1 X156.215 Y92.051 E0.04176
G1 X156.228 Y91.997 E0.00175
G1 X179.116 Y91.997 E0.71763
G1 X179.113 Y104.408 E0.38913
G1 X155.076 Y104.408 E0.75367
G1 X149.770 Y117.212 E0.43458
G1 X140.328 Y126.652 E0.41863
G1 X127.992 Y131.759 E0.41863
G1 X125.083 Y131.759 E0.09119
G1 X125.023 Y132.136 F10800.000
G1 F1200
G1 X114.565 Y132.135 E0.32790
G1 X102.092 Y126.966 E0.42333
G1 X92.547 Y117.418 E0.42333
G1 X87.382 Y104.943 E0.42333
G1 X87.382 Y104.721 E0.00698
G1 X86.672 Y104.721 E0.02226
G1 X86.656 Y104.775 E0.00177
G1 X70.507 Y104.775 E0.50635
G1 X70.510 Y91.610 E0.41278
G1 X87.314 Y91.610 E0.52689
G1 X92.552 Y78.969 E0.42904
G1 X102.101 Y69.423 E0.42333
G1 X114.575 Y64.258 E0.42333
G1 X128.077 Y64.260 E0.42333
G1 X140.550 Y69.429 E0.42333
G1 X150.095 Y78.977 E0.42333
G1 X155.260 Y91.452 E0.42333
G1 X155.260 Y91.674 E0.00698
G1 X155.918 Y91.674 E0.02063
G1 X155.931 Y91.620 E0.00175
G1 X179.493 Y91.620 E0.73877
G1 X179.490 Y104.785 E0.41278
G1 X155.328 Y104.785 E0.75759
G1 X150.090 Y117.426 E0.42904
G1 X140.541 Y126.972 E0.42333
G1 X128.067 Y132.137 E0.42333
G1 X125.083 Y132.136 E0.09354
G1 X124.788 Y131.813 F10800.000
G1 E-0.80000 F2100.00000
G1 Z0.800 F10800.000
G1 X154.496 Y104.880
G1 Z0.200
G1 E0.80000 F2100.00000
G1 F1200
G1 X149.468 Y117.010 E0.36412
G1 X140.126 Y126.349 E0.36628
G1 X127.921 Y131.403 E0.36629
G1 X114.744 Y131.402 E0.36537
G1 X114.681 Y131.390 E0.00180
G1 X102.508 Y126.344 E0.36537
G1 X93.191 Y117.026 E0.36537
G1 X93.155 Y116.972 E0.00180
G1 X88.127 Y104.828 E0.36446
G1 X88.114 Y104.155 E0.01867
G1 E-0.80000 F2100.00000
G1 Z0.800 F10800.000
G1 X88.358 Y92.497
G1 Z0.200
G1 E0.80000 F2100.00000
G1 F1200
G1 X87.865 Y92.004 E0.02196
G1 X87.755 Y92.270 E0.00905
G1 X87.595 Y92.270 E0.00503
G1 X88.189 Y92.863 E0.02642
G1 X88.188 Y93.399 E0.01686
G1 X87.060 Y92.270 E0.05026
G1 X86.524 Y92.270 E0.01686
G1 X88.188 Y93.934 E0.07411
G1 X88.188 Y94.469 E0.01686
G1 X85.989 Y92.270 E0.09795
G1 X85.453 Y92.270 E0.01686
G1 X88.188 Y95.005 E0.12179
G1 X88.188 Y95.540 E0.01686
G1 X84.918 Y92.270 E0.14564
G1 X84.382 Y92.270 E0.01686
G1 X88.188 Y96.076 E0.16948
G1 X88.188 Y96.611 E0.01686
G1 X83.846 Y92.270 E0.19332
G1 X83.311 Y92.270 E0.01686
G1 X88.188 Y97.147 E0.21717
G1 X88.188 Y97.682 E0.01686
G1 X82.775 Y92.270 E0.24101
G1 X82.240 Y92.270 E0.01686
G1 X88.188 Y98.218 E0.26485
G1 X88.188 Y98.753 E0.01686
G1 X81.704 Y92.270 E0.28870
G1 X81.169 Y92.270 E0.01686
G1 X88.188 Y99.288 E0.31254
G1 X88.187 Y99.824 E0.01686
G1 X80.633 Y92.270 E0.33638
G1 X80.098 Y92.270 E0.01686
G1 X88.187 Y100.359 E0.36023
G1 X88.187 Y100.895 E0.01686
G1 X79.562 Y92.270 E0.38407
G1 X79.027 Y92.270 E0.01686
G1 X88.187 Y101.430 E0.40791
G1 X88.187 Y101.966 E0.01686
G1 X78.491 Y92.270 E0.43176
G1 X77.956 Y92.270 E0.01686
G1 X88.187 Y102.501 E0.45560
G1 X88.187 Y103.037 E0.01686
G1 X77.420 Y92.270 E0.47944
G1 X76.885 Y92.270 E0.01686
G1 X88.187 Y103.572 E0.50329
G1 X88.187 Y103.872 E0.00945
G1 X87.952 Y103.872 E0.00741
G1 X76.349 Y92.270 E0.51665
G1 X75.814 Y92.270 E0.01686
G1 X87.605 Y104.061 E0.52505
G1 X87.069 Y104.061 E0.01686
G1 X75.278 Y92.270 E0.52505
G1 X74.742 Y92.270 E0.01686
G1 X86.534 Y104.061 E0.52505
G1 X86.178 Y104.061 E0.01121
G1 X86.162 Y104.115 E0.00178
G1 X86.052 Y104.115 E0.00345
G1 X74.207 Y92.270 E0.52746
G1 X73.671 Y92.270 E0.01686
G1 X85.517 Y104.115 E0.52746
G1 X84.981 Y104.115 E0.01686
G1 X73.136 Y92.270 E0.52746
G1 X72.600 Y92.270 E0.01686
G1 X84.446 Y104.115 E0.52746
G1 X83.910 Y104.115 E0.01686
G1 X72.065 Y92.270 E0.52746
G1 X71.529 Y92.270 E0.01686
G1 X83.375 Y104.115 E0.52746
G1 X82.839 Y104.115 E0.01686
G1 X71.169 Y92.445 E0.51964
G1 X71.169 Y92.981 E0.01686
G1 X82.304 Y104.115 E0.49580
G1 X81.768 Y104.115 E0.01686
G1 X71.169 Y93.516 E0.47196
G1 X71.169 Y94.052 E0.01686
G1 X81.232 Y104.115 E0.44812
G1 X80.697 Y104.115 E0.01686
G1 X71.169 Y94.587 E0.42427
G1 X71.169 Y95.122 E0.01686
G1 X80.161 Y104.115 E0.40043
G1 X79.626 Y104.115 E0.01686
G1 X71.169 Y95.658 E0.37659
G1 X71.169 Y96.193 E0.01686
G1 X79.090 Y104.115 E0.35275
G1 X78.555 Y104.115 E0.01686
G1 X71.169 Y96.729 E0.32891
G1 X71.168 Y97.264 E0.01686
G1 X78.019 Y104.115 E0.30507
G1 X77.484 Y104.115 E0.01686
G1 X71.168 Y97.799 E0.28123
G1 X71.168 Y98.335 E0.01686
G1 X76.948 Y104.115 E0.25739
G1 X76.413 Y104.115 E0.01686
G1 X71.168 Y98.870 E0.23354
G1 X71.168 Y99.406 E0.01686
G1 X75.877 Y104.115 E0.20970
G1 X75.342 Y104.115 E0.01686
G1 X71.168 Y99.941 E0.18586
G1 X71.168 Y100.477 E0.01686
G1 X74.806 Y104.115 E0.16202
G1 X74.271 Y104.115 E0.01686
G1 X71.168 Y101.012 E0.13818
G1 X71.167 Y101.547 E0.01686
G1 X73.735 Y104.115 E0.11434
G1 X73.200 Y104.115 E0.01686
G1 X71.167 Y102.083 E0.09050
G1 X71.167 Y102.618 E0.01686
G1 X72.664 Y104.115 E0.06665
G1 X72.128 Y104.115 E0.01686
G1 X71.167 Y103.154 E0.04281
G1 X71.167 Y103.689 E0.01686
G1 X71.763 Y104.285 E0.02653
G1 E-0.80000 F2100.00000
G1 Z0.800 F10800.000
G1 X88.146 Y91.515
G1 Z0.200
G1 E0.80000 F2100.00000
G1 F1200
G1 X93.175 Y79.385 E0.36411
G1 X102.517 Y70.045 E0.36627
G1 X114.721 Y64.992 E0.36627
G1 X127.898 Y64.993 E0.36536
G1 X127.962 Y65.005 E0.00180
G1 X140.134 Y70.051 E0.36536
G1 X149.451 Y79.368 E0.36536
M73 P1 R144
G1 X149.487 Y79.423 E0.00180
G1 X154.515 Y91.567 E0.36445
G1 X154.528 Y92.240 E0.01867
G1 E-0.80000 F2100.00000
G1 Z0.800 F10800.000
G1 X154.284 Y103.901
G1 Z0.200
G1 E0.80000 F2100.00000
G1 F1200
G1 X154.776 Y104.393 E0.02184
G1 X154.887 Y104.125 E0.00909
G1 X155.042 Y104.125 E0.00486
G1 X154.454 Y103.537 E0.02610
G1 X154.454 Y103.003 E0.01673
G1 X155.575 Y104.125 E0.04977
G1 X156.109 Y104.125 E0.01674
G1 X154.454 Y102.470 E0.07343
G1 X154.454 Y101.936 E0.01673
G1 X156.643 Y104.125 E0.09710
G1 X157.176 Y104.125 E0.01674
G1 X154.454 Y101.403 E0.12076
G1 X154.454 Y100.869 E0.01673
G1 X157.710 Y104.125 E0.14443
G1 X158.243 Y104.125 E0.01674
G1 X154.454 Y100.336 E0.16809
G1 X154.454 Y99.803 E0.01673
G1 X158.777 Y104.125 E0.19176
G1 X159.310 Y104.125 E0.01674
G1 X154.454 Y99.269 E0.21543
G1 X154.454 Y98.736 E0.01673
G1 X159.844 Y104.125 E0.23909
G1 X160.377 Y104.125 E0.01674
G1 X154.454 Y98.202 E0.26276
G1 X154.455 Y97.669 E0.01673
G1 X160.911 Y104.125 E0.28642
G1 X161.444 Y104.125 E0.01674
G1 X154.455 Y97.135 E0.31009
G1 X154.455 Y96.602 E0.01673
G1 X161.978 Y104.125 E0.33376
G1 X162.511 Y104.125 E0.01674
G1 X154.455 Y96.068 E0.35742
G1 X154.455 Y95.535 E0.01673
G1 X163.045 Y104.125 E0.38109
G1 X163.578 Y104.125 E0.01674
G1 X154.455 Y95.001 E0.40475
G1 X154.455 Y94.468 E0.01673
G1 X164.112 Y104.125 E0.42842
G1 X164.646 Y104.125 E0.01674
G1 X154.455 Y93.935 E0.45209
G1 X154.455 Y93.401 E0.01673
G1 X165.179 Y104.125 E0.47575
G1 X165.713 Y104.125 E0.01674
G1 X154.455 Y92.868 E0.49942
G1 X154.455 Y92.522 E0.01083
G1 X154.644 Y92.523 E0.00591
G1 X166.246 Y104.125 E0.51473
G1 X166.780 Y104.125 E0.01674
G1 X154.999 Y92.344 E0.52264
G1 X155.522 Y92.334 E0.01642
G1 X167.313 Y104.125 E0.52309
G1 X167.847 Y104.125 E0.01674
G1 X156.056 Y92.334 E0.52309
G1 X156.438 Y92.334 E0.01198
G1 X156.451 Y92.280 E0.00175
G1 X156.535 Y92.280 E0.00264
G1 X168.380 Y104.125 E0.52550
G1 X168.914 Y104.125 E0.01674
G1 X157.069 Y92.280 E0.52550
G1 X157.602 Y92.280 E0.01674
G1 X169.447 Y104.125 E0.52550
G1 X169.981 Y104.125 E0.01674
G1 X158.136 Y92.280 E0.52550
G1 X158.669 Y92.280 E0.01674
G1 X170.514 Y104.125 E0.52550
G1 X171.048 Y104.125 E0.01674
G1 X159.203 Y92.280 E0.52550
G1 X159.736 Y92.280 E0.01674
G1 X171.581 Y104.125 E0.52550
G1 X172.115 Y104.125 E0.01674
G1 X160.270 Y92.280 E0.52550
G1 X160.803 Y92.280 E0.01674
G1 X172.649 Y104.125 E0.52550
G1 X173.182 Y104.125 E0.01674
G1 X161.337 Y92.280 E0.52550
G1 X161.870 Y92.280 E0.01674
G1 X173.716 Y104.125 E0.52550
G1 X174.249 Y104.125 E0.01674
G1 X162.404 Y92.280 E0.52550
G1 X162.937 Y92.280 E0.01674
G1 X174.952 Y104.295 E0.53303
G1 E-0.80000 F2100.00000
G1 Z0.800 F10800.000
G1 X179.003 Y92.873
G1 Z0.200
G1 E0.80000 F2100.00000
G1 F1200
G1 X178.410 Y92.280 E0.02630
G1 X177.876 Y92.280 E0.01674
G1 X178.833 Y93.236 E0.04244
G1 X178.833 Y93.770 E0.01673
G1 X177.343 Y92.280 E0.06610
G1 X176.809 Y92.280 E0.01674
G1 X178.833 Y94.303 E0.08976
G1 X178.833 Y94.837 E0.01673
G1 X176.276 Y92.280 E0.11343
G1 X175.742 Y92.280 E0.01674
G1 X178.832 Y95.370 E0.13709
G1 X178.832 Y95.903 E0.01673
G1 X175.209 Y92.280 E0.16076
G1 X174.675 Y92.280 E0.01674
G1 X178.832 Y96.437 E0.18442
G1 X178.832 Y96.970 E0.01673
G1 X174.142 Y92.280 E0.20808
G1 X173.608 Y92.280 E0.01674
G1 X178.832 Y97.504 E0.23175
G1 X178.832 Y98.037 E0.01673
G1 X173.075 Y92.280 E0.25541
G1 X172.541 Y92.280 E0.01674
G1 X178.832 Y98.570 E0.27908
G1 X178.832 Y99.104 E0.01673
G1 X172.007 Y92.280 E0.30274
G1 X171.474 Y92.280 E0.01674
G1 X178.831 Y99.637 E0.32640
G1 X178.831 Y100.171 E0.01673
G1 X176.215 Y97.554 E0.11609
G1 X176.241 Y97.642 E0.00288
G1 X176.293 Y98.166 E0.01652
G1 X178.831 Y100.704 E0.11261
G1 X178.831 Y101.237 E0.01673
G1 X176.252 Y98.658 E0.11444
G1 X176.241 Y98.763 E0.00331
G1 X176.144 Y99.084 E0.01051
G1 X178.831 Y101.771 E0.11921
G1 X178.831 Y102.304 E0.01673
G1 X175.991 Y99.464 E0.12599
G1 X175.803 Y99.810 E0.01234
G1 X178.831 Y102.838 E0.13432
G1 X178.831 Y103.371 E0.01673
G1 X175.563 Y100.103 E0.14498
G1 X175.455 Y100.235 E0.00534
G1 X175.293 Y100.367 E0.00655
G1 X178.830 Y103.905 E0.15693
G1 X178.830 Y104.125 E0.00692
G1 X178.517 Y104.125 E0.00982
G1 X174.997 Y100.604 E0.15620
G1 X174.649 Y100.790 E0.01237
G1 X177.984 Y104.125 E0.14795
G1 X177.450 Y104.125 E0.01674
G1 X174.262 Y100.937 E0.14145
G1 X173.983 Y101.021 E0.00914
G1 X173.828 Y101.036 E0.00488
G1 X176.917 Y104.125 E0.13702
G1 X176.383 Y104.125 E0.01674
G1 X173.325 Y101.067 E0.13567
G1 X172.862 Y101.021 E0.01461
G1 X172.696 Y100.971 E0.00544
G1 X175.850 Y104.125 E0.13993
G1 X175.316 Y104.125 E0.01674
