; generated by PrusaSlicer 2.1.1+win64 on 2020-05-01 at 20:11:31 UTC

; 

; external perimeters extrusion width = 0.45mm
; perimeters extrusion width = 0.45mm
; infill extrusion width = 0.45mm
; solid infill extrusion width = 0.45mm
; top infill extrusion width = 0.40mm
; first layer extrusion width = 0.42mm

M73 P0 R37
M201 X9000 Y9000 Z500 E10000 ; sets maximum accelerations, mm/sec^2
M203 X500 Y500 Z12 E120 ; sets maximum feedrates, mm/sec
M204 P2000 R1500 T2000 ; sets acceleration (P, T) and retract acceleration (R), mm/sec^2
M205 X10.00 Y10.00 Z0.20 E4.50 ; sets the jerk limits, mm/sec
M205 S0 T0 ; sets the minimum extruding and travel feed rate, mm/sec
M107
M862.3 P "MK2.5SMMU2S" ; printer model check
M862.1 P0.4 ; nozzle diameter check
M115 U3.8.1 ; tell printer latest fw version
G90 ; use absolute coordinates
M83 ; extruder relative mode
M104 S215 ; set extruder temp
M140 S60 ; set bed temp
Tx
M190 S60 ; wait for bed temp
M109 S215 ; wait for extruder temp
G28 W ; home all without mesh bed level
G80 ; mesh bed leveling

;go outside print area
G1 Y-3.0 F1000.0
G1 Z0.4 F1000.0
; select extruder
Tc
; purge line
G1 X55.0 F2000.0
G1 Z0.3 F1000.0
G92 E0.0
G1 X240.0 E25.0 F2200.0
M73 P0 R37
G1 Y-2.0 F1000.0
G1 X55.0 E25 F1400.0
G1 Z0.20 F1000.0
G1 X5.0 E4.0 F1000.0
G92 E0.0
G21 ; set units to millimeters
G90 ; use absolute coordinates
M83 ; use relative distances for extrusion
M900 K30 ; Filament gcode
;BEFORE_LAYER_CHANGE
G92 E0.0
;0.2


G1 E-0.80000 F2100.00000
G1 Z0.600 F10800.000
;AFTER_LAYER_CHANGE
;0.2
G1 X102.125 Y70.789
G1 Z0.200
G1 E0.80000 F2100.00000
M204 S1000
G1 F1200
G1 X102.576 Y70.543 E0.01612
G1 X116.961 Y64.639 E0.48756
G1 X117.462 Y64.584 E0.01580
G1 X132.535 Y64.584 E0.47259
G1 X133.492 Y64.772 E0.03059
G1 X147.850 Y70.772 E0.48789
G1 X148.253 Y71.096 E0.01623
G1 X159.211 Y82.125 E0.48745
G1 X159.457 Y82.576 E0.01612
G1 X165.224 Y96.498 E0.47250
G1 X165.364 Y96.972 E0.01549
G1 X165.416 Y97.469 E0.01566
G1 X165.366 Y113.015 E0.48745
G1 X165.221 Y113.509 E0.01612
G1 X159.455 Y127.431 E0.47250
G1 X159.218 Y127.865 E0.01549
G1 X158.908 Y128.248 E0.01545
G1 X148.253 Y138.904 E0.47248
G1 X147.863 Y139.219 E0.01572
G1 X147.431 Y139.455 E0.01545
G1 X133.509 Y145.221 E0.47248
G1 X133.030 Y145.363 E0.01567
G1 X132.531 Y145.416 E0.01571
G1 X116.985 Y145.366 E0.48745
G1 X116.491 Y145.221 E0.01612
G1 X102.569 Y139.455 E0.47250
G1 X102.138 Y139.220 E0.01538
G1 X101.747 Y138.904 E0.01578
G1 X91.091 Y128.248 E0.47250
G1 X90.783 Y127.866 E0.01538
G1 X90.543 Y127.424 E0.01577
G1 X84.776 Y113.502 E0.47250
G1 X84.636 Y113.028 E0.01549
G1 X84.584 Y112.531 E0.01566
G1 X84.634 Y96.985 E0.48745
G1 X84.779 Y96.491 E0.01612
G1 X90.545 Y82.569 E0.47250
G1 X90.782 Y82.135 E0.01549
G1 X91.096 Y81.747 E0.01566
G1 X102.082 Y70.831 E0.48557
G1 F8640
G1 X102.576 Y70.543 E-0.13206
G1 X105.092 Y69.510 E-0.62794
G1 E-0.04000 F2100.00000
G1 Z0.800 F10800.000
G1 X125.000 Y125.437
G1 Z0.200
G1 E0.80000 F2100.00000
G1 F1200
G1 X122.201 Y125.241 E0.08797
G1 X119.367 Y124.646 E0.09079
G1 X116.688 Y123.670 E0.08942
G1 X114.170 Y122.332 E0.08940
G1 X111.863 Y120.656 E0.08940
G1 X109.812 Y118.675 E0.08940
G1 X108.057 Y116.428 E0.08940
G1 X106.631 Y113.959 E0.08940
G1 X105.563 Y111.315 E0.08940
G1 X104.885 Y108.593 E0.08797
G1 X104.575 Y105.714 E0.09079
G1 X104.675 Y102.864 E0.08942
G1 X105.170 Y100.056 E0.08940
G1 X106.037 Y97.388 E0.08797
G1 X107.301 Y94.782 E0.09079
G1 X108.895 Y92.418 E0.08942
G1 X110.803 Y90.299 E0.08940
G1 X112.953 Y88.495 E0.08797
G1 X115.405 Y86.955 E0.09079
G1 X118.010 Y85.796 E0.08942
G1 X120.707 Y85.022 E0.08797
G1 X123.574 Y84.613 E0.09079
G1 X126.426 Y84.613 E0.08942
G1 X129.249 Y85.010 E0.08940
G1 X131.990 Y85.796 E0.08940
G1 X134.595 Y86.955 E0.08940
G1 X137.013 Y88.466 E0.08940
G1 X139.197 Y90.299 E0.08940
G1 X141.105 Y92.418 E0.08940
G1 X142.699 Y94.781 E0.08940
G1 X143.929 Y97.303 E0.08797
G1 X144.830 Y100.055 E0.09079
G1 X145.325 Y102.864 E0.08942
G1 X145.425 Y105.713 E0.08940
G1 X145.127 Y108.549 E0.08940
G1 X144.437 Y111.315 E0.08940
G1 X143.369 Y113.959 E0.08940
G1 X141.943 Y116.428 E0.08940
G1 X140.188 Y118.675 E0.08940
G1 X138.169 Y120.624 E0.08797
G1 X135.831 Y122.331 E0.09079
G1 X133.312 Y123.670 E0.08942
G1 X130.676 Y124.630 E0.08797
G1 X127.845 Y125.238 E0.09079
G1 X125.060 Y125.433 E0.08754
G1 X125.000 Y125.059 F10800.000
G1 F1200
G1 X122.253 Y124.867 E0.08633
G1 X119.471 Y124.282 E0.08914
G1 X116.841 Y123.325 E0.08775
G1 X114.370 Y122.011 E0.08774
G1 X112.106 Y120.366 E0.08774
G1 X110.093 Y118.422 E0.08774
G1 X108.370 Y116.217 E0.08774
G1 X106.971 Y113.793 E0.08774
G1 X105.923 Y111.199 E0.08774
G1 X105.257 Y108.527 E0.08633
G1 X104.953 Y105.700 E0.08914
G1 X105.051 Y102.903 E0.08775
G1 X105.537 Y100.147 E0.08774
G1 X106.388 Y97.529 E0.08633
G1 X107.628 Y94.971 E0.08914
G1 X109.193 Y92.650 E0.08775
G1 X111.066 Y90.571 E0.08774
G1 X113.175 Y88.801 E0.08633
G1 X115.583 Y87.289 E0.08914
G1 X118.139 Y86.151 E0.08775
G1 X120.786 Y85.392 E0.08633
G1 X123.601 Y84.990 E0.08914
G1 X126.399 Y84.990 E0.08775
G1 X129.171 Y85.379 E0.08774
G1 X131.861 Y86.151 E0.08774
G1 X134.417 Y87.289 E0.08774
G1 X136.790 Y88.772 E0.08774
G1 X138.934 Y90.571 E0.08774
G1 X140.807 Y92.650 E0.08774
G1 X142.372 Y94.970 E0.08774
G1 X143.579 Y97.445 E0.08633
G1 X144.463 Y100.147 E0.08914
G1 X144.949 Y102.903 E0.08775
G1 X145.047 Y105.700 E0.08774
G1 X144.754 Y108.483 E0.08774
G1 X144.077 Y111.199 E0.08774
G1 X143.029 Y113.793 E0.08774
G1 X141.630 Y116.217 E0.08774
G1 X139.907 Y118.422 E0.08774
G1 X137.926 Y120.335 E0.08633
G1 X135.630 Y122.011 E0.08914
G1 X133.159 Y123.325 E0.08775
G1 X130.571 Y124.267 E0.08633
G1 X127.792 Y124.864 E0.08914
G1 X125.060 Y125.055 E0.08587
G1 X124.800 Y125.406 F10800.000
G1 F8640
G1 X122.253 Y124.867 E-0.64947
G1 X121.785 Y124.768 E-0.11053
G1 E-0.04000 F2100.00000
G1 Z0.800 F10800.000
G1 X132.207 Y141.230
G1 Z0.200
G1 E0.80000 F2100.00000
G1 F1200
G1 X125.000 Y126.514 E0.51377
G1 X117.793 Y141.230 E0.51377
G1 X116.767 Y124.876 E0.51377
G1 X104.478 Y135.714 E0.51377
G1 X109.788 Y120.212 E0.51377
G1 X94.286 Y125.522 E0.51377
G1 X105.124 Y113.233 E0.51377
G1 X88.770 Y112.207 E0.51377
G1 X103.486 Y105.000 E0.51377
G1 X88.770 Y97.793 E0.51377
G1 X105.124 Y96.767 E0.51377
G1 X94.286 Y84.478 E0.51377
G1 X109.788 Y89.788 E0.51377
G1 X104.478 Y74.286 E0.51377
G1 X116.767 Y85.124 E0.51377
G1 X117.793 Y68.770 E0.51377
G1 X125.000 Y83.486 E0.51377
G1 X132.207 Y68.770 E0.51377
G1 X133.233 Y85.124 E0.51377
G1 X145.522 Y74.286 E0.51377
G1 X140.212 Y89.788 E0.51377
G1 X155.714 Y84.478 E0.51377
G1 X144.876 Y96.767 E0.51377
G1 X161.230 Y97.793 E0.51377
G1 X146.514 Y105.000 E0.51377
G1 X161.230 Y112.207 E0.51377
M73 P3 R36
G1 X144.876 Y113.233 E0.51377
G1 X155.714 Y125.522 E0.51377
G1 X140.212 Y120.212 E0.51377
G1 X145.522 Y135.714 E0.51377
G1 X133.233 Y124.876 E0.51377
G1 X132.210 Y141.170 E0.51188
G1 F8640
G1 X130.757 Y138.216 E-0.76000
G1 E-0.04000 F2100.00000
G1 Z0.800 F10800.000
G1 X132.494 Y142.673
G1 Z0.200
G1 E0.80000 F2100.00000
G1 F1200
G1 X125.000 Y127.371 E0.53424
G1 X117.506 Y142.673 E0.53424
G1 X116.439 Y125.668 E0.53424
G1 X103.660 Y136.938 E0.53424
G1 X109.181 Y120.819 E0.53424
G1 X93.062 Y126.340 E0.53424
G1 X104.332 Y113.561 E0.53424
G1 X87.327 Y112.494 E0.53424
G1 X102.629 Y105.000 E0.53424
G1 X87.327 Y97.506 E0.53424
G1 X104.332 Y96.439 E0.53424
G1 X93.062 Y83.660 E0.53424
G1 X109.181 Y89.181 E0.53424
G1 X103.660 Y73.062 E0.53424
G1 X116.439 Y84.332 E0.53424
G1 X117.506 Y67.327 E0.53424
G1 X125.000 Y82.629 E0.53424
G1 X132.494 Y67.327 E0.53424
G1 X133.561 Y84.332 E0.53424
G1 X146.340 Y73.062 E0.53424
G1 X140.819 Y89.181 E0.53424
G1 X156.938 Y83.660 E0.53424
G1 X145.668 Y96.439 E0.53424
G1 X162.673 Y97.506 E0.53424
G1 X147.371 Y105.000 E0.53424
G1 X162.673 Y112.494 E0.53424
G1 X145.668 Y113.561 E0.53424
G1 X156.938 Y126.340 E0.53424
G1 X140.819 Y120.819 E0.53424
G1 X146.340 Y136.938 E0.53424
G1 X133.561 Y125.668 E0.53424
G1 X132.497 Y142.614 E0.53236
G1 X132.529 Y142.275 F10800.000
G1 F8640
G1 X131.045 Y139.660 E-0.76000
G1 E-0.04000 F2100.00000
G1 Z0.800 F10800.000
G1 X132.155 Y140.245
G1 Z0.200
G1 E0.80000 F2100.00000
G1 F1200
G1 X131.558 Y139.648 E0.02657
G1 X132.187 Y139.741 F10800.000
G1 F1200
G1 X131.044 Y138.599 E0.05082
G1 F8640
G1 X132.187 Y139.741 E-0.37304
G1 E-0.42696 F2100.00000
G1 Z0.800 F10800.000
G1 X130.531 Y137.551
G1 Z0.200
G1 E0.80000 F2100.00000
G1 F1200
G1 X132.218 Y139.238 E0.07507
G1 X132.250 Y138.734 F10800.000
G1 F1200
G1 X130.017 Y136.502 E0.09932
G1 F8640
G1 X132.250 Y138.734 E-0.72901
G1 E-0.07099 F2100.00000
G1 Z0.800 F10800.000
G1 X129.504 Y135.453
G1 Z0.200
G1 E0.80000 F2100.00000
G1 F1200
G1 X132.281 Y138.231 E0.12357
G1 X132.313 Y137.728 F10800.000
G1 F1200
G1 X128.990 Y134.405 E0.14782
G1 F8640
G1 X131.318 Y136.732 E-0.76000
G1 E-0.04000 F2100.00000
G1 Z0.800 F10800.000
G1 X128.477 Y133.356
G1 Z0.200
G1 E0.80000 F2100.00000
G1 F1200
G1 X132.345 Y137.224 E0.17207
G1 X132.376 Y136.721 F10800.000
G1 F1200
G1 X127.963 Y132.308 E0.19632
G1 F8640
G1 X130.291 Y134.635 E-0.76000
G1 E-0.04000 F2100.00000
G1 Z0.800 F10800.000
G1 X127.450 Y131.259
G1 Z0.200
G1 E0.80000 F2100.00000
G1 F1200
G1 X132.408 Y136.217 E0.22057
G1 X132.439 Y135.714 F10800.000
G1 F1200
G1 X126.937 Y130.211 E0.24482
G1 F8640
G1 X129.264 Y132.538 E-0.76000
G1 E-0.04000 F2100.00000
G1 Z0.800 F10800.000
G1 X126.423 Y129.162
G1 Z0.200
G1 E0.80000 F2100.00000
G1 F1200
G1 X132.471 Y135.210 E0.26907
G1 X132.503 Y134.707 F10800.000
G1 F1200
G1 X125.910 Y128.114 E0.29331
G1 F8640
G1 X128.237 Y130.441 E-0.76000
G1 E-0.04000 F2100.00000
G1 Z0.800 F10800.000
G1 X125.396 Y127.065
G1 Z0.200
G1 E0.80000 F2100.00000
G1 F1200
G1 X132.534 Y134.203 E0.31756
G1 F8640
G1 X130.207 Y131.876 E-0.76000
G1 E-0.04000 F2100.00000
G1 Z0.800 F10800.000
G1 X137.669 Y128.637
G1 Z0.200
G1 E0.80000 F2100.00000
G1 F1200
G1 X133.085 Y124.054 E0.20391
G1 X133.472 Y123.906 E0.01303
G1 X142.199 Y132.632 E0.38823
G1 F8640
G1 X139.871 Y130.305 E-0.76000
G1 E-0.04000 F2100.00000
G1 Z0.800 F10800.000
G1 X145.182 Y135.081
G1 Z0.200
G1 E0.80000 F2100.00000
G1 F1200
G1 X133.821 Y123.720 E0.50544
G1 X134.171 Y123.534 E0.01245
G1 X144.636 Y133.999 E0.46560
G1 X144.357 Y133.186 E0.02706
G1 X134.520 Y123.348 E0.43766
G1 X134.869 Y123.163 E0.01245
G1 X144.079 Y132.372 E0.40971
G1 X143.800 Y131.558 E0.02706
G1 X135.219 Y122.977 E0.38177
G1 X135.568 Y122.791 E0.01245
G1 X143.521 Y130.744 E0.35383
G1 X143.242 Y129.930 E0.02706
G1 X135.917 Y122.605 E0.32588
G1 X136.234 Y122.387 E0.01210
G1 X142.964 Y129.117 E0.29940
G1 X142.685 Y128.303 E0.02706
G1 X136.543 Y122.161 E0.27324
G1 X136.853 Y121.935 E0.01205
G1 X142.406 Y127.489 E0.24707
G1 X142.127 Y126.675 E0.02706
G1 X137.162 Y121.710 E0.22091
G1 X137.471 Y121.484 E0.01205
G1 X141.849 Y125.861 E0.19475
G1 X141.570 Y125.048 E0.02706
G1 X137.780 Y121.258 E0.16859
G1 X138.090 Y121.032 E0.01205
G1 X141.291 Y124.234 E0.14243
G1 X141.012 Y123.420 E0.02706
G1 X138.393 Y120.801 E0.11651
G1 X138.665 Y120.538 E0.01190
G1 X140.733 Y122.606 E0.09200
G1 X140.455 Y121.792 E0.02706
G1 X138.938 Y120.275 E0.06749
G1 X139.210 Y120.012 E0.01190
G1 X140.176 Y120.978 E0.04298
G1 X139.897 Y120.165 E0.02706
G1 X139.482 Y119.750 E0.01847
G1 X139.754 Y119.487 E0.01190
G1 X140.165 Y119.897 E0.01826
G1 X140.979 Y120.176 E0.02706
G1 X140.026 Y119.224 E0.04236
G1 X140.299 Y118.961 E0.01190
G1 X141.792 Y120.455 E0.06645
G1 X142.606 Y120.733 E0.02706
G1 X140.547 Y118.674 E0.09161
G1 X140.782 Y118.374 E0.01199
G1 X143.420 Y121.012 E0.11737
G1 X144.234 Y121.291 E0.02706
G1 X141.016 Y118.074 E0.14314
G1 X141.251 Y117.773 E0.01199
G1 X145.048 Y121.570 E0.16891
G1 X145.861 Y121.849 E0.02706
G1 X141.486 Y117.473 E0.19467
G1 X141.720 Y117.172 E0.01199
G1 X146.675 Y122.127 E0.22044
G1 X147.489 Y122.406 E0.02706
G1 X141.955 Y116.872 E0.24620
G1 X142.188 Y116.570 E0.01200
G1 X148.303 Y122.685 E0.27205
G1 X149.117 Y122.964 E0.02706
G1 X142.384 Y116.231 E0.29955
G1 X142.580 Y115.891 E0.01232
G1 X149.931 Y123.242 E0.32704
G1 X150.744 Y123.521 E0.02706
G1 X142.775 Y115.552 E0.35453
G1 X142.971 Y115.213 E0.01232
G1 X151.558 Y123.800 E0.38203
G1 X152.372 Y124.079 E0.02706
G1 X143.167 Y114.874 E0.40952
G1 X143.363 Y114.535 E0.01232
G1 X153.186 Y124.357 E0.43701
G1 X154.000 Y124.636 E0.02706
G1 X143.559 Y114.195 E0.46451
G1 X143.727 Y113.828 E0.01270
G1 X155.081 Y125.182 E0.50514
G1 F8640
G1 X152.753 Y122.855 E-0.76000
G1 E-0.04000 F2100.00000
G1 Z0.800 F10800.000
G1 X152.631 Y122.198
G1 Z0.200
G1 E0.80000 F2100.00000
G1 F1200
G1 X143.880 Y113.447 E0.38932
G1 X144.034 Y113.066 E0.01293
G1 X148.636 Y117.668 E0.20474
G1 F8640
G1 X146.309 Y115.341 E-0.76000
G1 E-0.04000 F2100.00000
G1 Z0.800 F10800.000
G1 X144.641 Y113.138
G1 Z0.200
G1 E0.80000 F2100.00000
G1 F1200
G1 X144.188 Y112.685 E0.02015
G1 X144.342 Y112.304 E0.01293
G1 X144.981 Y112.943 E0.02843
G1 X145.485 Y112.911 E0.01587
G1 X144.496 Y111.923 E0.04398
G1 X144.650 Y111.542 E0.01293
G1 X145.988 Y112.880 E0.05953
G1 X146.492 Y112.848 E0.01587
G1 X144.774 Y111.131 E0.07641
M73 P5 R35
G1 X144.881 Y110.702 E0.01389
G1 X146.995 Y112.817 E0.09406
G1 X147.499 Y112.785 E0.01587
G1 X144.988 Y110.274 E0.11171
G1 X145.095 Y109.846 E0.01389
G1 X148.002 Y112.753 E0.12936
G1 X148.506 Y112.722 E0.01587
G1 X145.201 Y109.418 E0.14700
G1 X145.308 Y108.989 E0.01389
G1 X149.009 Y112.690 E0.16465
G1 X149.513 Y112.659 E0.01587
G1 X145.410 Y108.556 E0.18251
G1 X145.461 Y108.072 E0.01531
G1 X150.016 Y112.627 E0.20265
G1 X150.519 Y112.595 E0.01587
G1 X145.512 Y107.588 E0.22278
G1 X145.563 Y107.104 E0.01531
G1 X151.023 Y112.564 E0.24292
G1 X151.526 Y112.532 E0.01587
G1 X145.614 Y106.620 E0.26305
G1 X145.665 Y106.135 E0.01531
G1 X152.030 Y112.501 E0.28318
G1 X152.533 Y112.469 E0.01587
G1 X145.705 Y105.641 E0.30378
G1 X145.686 Y105.086 E0.01745
G1 X153.037 Y112.437 E0.32704
G1 X153.540 Y112.406 E0.01587
G1 X145.666 Y104.532 E0.35030
G1 X145.647 Y103.978 E0.01745
G1 X146.407 Y104.737 E0.03381
G1 X146.766 Y104.562 E0.01258
G1 X145.628 Y103.423 E0.05065
G1 X145.608 Y102.869 E0.01745
G1 X147.125 Y104.386 E0.06749
G1 X147.484 Y104.210 E0.01258
G1 X145.500 Y102.225 E0.08830
G1 X145.385 Y101.576 E0.02075
G1 X147.843 Y104.034 E0.10937
G1 X148.203 Y103.858 E0.01258
G1 X145.271 Y100.926 E0.13045
G1 X145.156 Y100.276 E0.02075
G1 X148.562 Y103.682 E0.15152
G1 X148.921 Y103.506 E0.01258
G1 X144.961 Y99.546 E0.17619
G1 X144.700 Y98.751 E0.02633
G1 X149.280 Y103.330 E0.20375
G1 X149.639 Y103.154 E0.01258
G1 X144.440 Y97.955 E0.23132
G1 X144.168 Y97.148 E0.02679
G1 X150.125 Y103.105 E0.26504
G1 X150.484 Y102.930 F10800.000
G1 F1200
G1 X143.290 Y95.735 E0.32008
G1 F8640
G1 X145.617 Y98.062 E-0.76000
G1 E-0.04000 F2100.00000
G1 Z0.800 F10800.000
G1 X142.761 Y94.671
G1 Z0.200
G1 E0.80000 F2100.00000
G1 F1200
G1 X144.787 Y96.697 E0.09014
G1 X144.977 Y96.887 F10800.000
G1 F1200
G1 X150.717 Y102.627 E0.25537
G1 X151.076 Y102.451 E0.01258
G1 X145.729 Y97.104 E0.23788
G1 X146.300 Y97.140 E0.01799
G1 X151.435 Y102.275 E0.22846
G1 X151.794 Y102.099 E0.01258
G1 X146.871 Y97.176 E0.21905
G1 X147.442 Y97.211 E0.01799
G1 X152.153 Y101.923 E0.20963
G1 X152.513 Y101.747 E0.01258
G1 X148.012 Y97.247 E0.20021
G1 X148.583 Y97.283 E0.01799
G1 X152.872 Y101.572 E0.19079
G1 X153.231 Y101.396 E0.01258
G1 X149.154 Y97.319 E0.18137
G1 X149.725 Y97.355 E0.01799
G1 X153.590 Y101.220 E0.17195
G1 X153.949 Y101.044 E0.01258
G1 X150.296 Y97.391 E0.16253
G1 X150.867 Y97.426 E0.01799
G1 X154.308 Y100.868 E0.15311
G1 X154.668 Y100.692 E0.01258
G1 X151.438 Y97.462 E0.14369
G1 X152.009 Y97.498 E0.01799
G1 X155.027 Y100.516 E0.13427
G1 X155.386 Y100.340 E0.01258
G1 X152.579 Y97.534 E0.12486
G1 X153.150 Y97.570 E0.01799
G1 X155.745 Y100.164 E0.11544
G1 X156.104 Y99.989 E0.01258
G1 X153.721 Y97.606 E0.10602
G1 X154.292 Y97.641 E0.01799
G1 X156.463 Y99.813 E0.09660
G1 X156.822 Y99.637 E0.01258
G1 X154.863 Y97.677 E0.08718
G1 X155.434 Y97.713 E0.01799
G1 X157.182 Y99.461 E0.07776
G1 X157.541 Y99.285 E0.01258
G1 X156.005 Y97.749 E0.06834
G1 X156.576 Y97.785 E0.01799
G1 X157.900 Y99.109 E0.05892
G1 X158.259 Y98.933 E0.01258
G1 X157.146 Y97.821 E0.04950
