; generated by PrusaSlicer 2.1.1+win64 on 2020-01-29 at 19:14:16 UTC

; 

; external perimeters extrusion width = 0.45mm
; perimeters extrusion width = 0.45mm
; infill extrusion width = 0.45mm
; solid infill extrusion width = 0.45mm
; top infill extrusion width = 0.40mm
; support material extrusion width = 0.35mm
; first layer extrusion width = 0.42mm

M73 P0 R83
M201 X9000 Y9000 Z500 E10000 ; sets maximum accelerations, mm/sec^2
M203 X500 Y500 Z12 E120 ; sets maximum feedrates, mm/sec
M204 P2000 R1500 T2000 ; sets acceleration (P, T) and retract acceleration (R), mm/sec^2
M205 X10.00 Y10.00 Z0.20 E2.50 ; sets the jerk limits, mm/sec
M205 S0 T0 ; sets the minimum extruding and travel feed rate, mm/sec
M107
M862.3 P "MK2.5SMMU2S" ; printer model check
M862.1 P0.4 ; nozzle diameter check
M115 U3.8.0 ; tell printer latest fw version
G90 ; use absolute coordinates
M83 ; extruder relative mode
M104 S235 ; set extruder temp
M140 S60 ; set bed temp
Tx
M190 S60 ; wait for bed temp
M109 S235 ; wait for extruder temp
G28 W ; home all without mesh bed level
G80 ; mesh bed leveling

G21 ; set units to millimeters

;go outside print area
G1 Y-3.0 F1000.0
G1 Z0.4 F1000.0
; select extruder
Tc
; purge line
G1 X55.0 F2000.0
G1 Z0.3 F1000.0
G92 E0.0
G1 X240.0 E25.0 F2200.0
M73 P0 R83
G1 Y-2.0 F1000.0
G1 X55.0 E25 F1400.0
G1 Z0.20 F1000.0
G1 X5.0 E4.0 F1000.0
G92 E0.0
G21 ; set units to millimeters
G90 ; use absolute coordinates
M83 ; use relative distances for extrusion
M900 K30 ; Filament gcode
;BEFORE_LAYER_CHANGE
G92 E0.0
;0.2


G1 E-0.80000 F2100.00000
G1 Z0.600 F10800.000
;AFTER_LAYER_CHANGE
;0.2
G1 X95.169 Y75.167
G1 Z0.200
G1 E0.80000 F2100.00000
M204 S1000
G1 F1200
G1 X108.857 Y66.022 E0.51613
G1 X125.005 Y62.811 E0.51624
G1 X141.146 Y66.023 E0.51602
G1 X154.833 Y75.169 E0.51613
G1 X163.978 Y88.857 E0.51613
G1 X167.189 Y105.002 E0.51613
G1 X163.977 Y121.146 E0.51613
G1 X154.831 Y134.833 E0.51613
G1 X141.143 Y143.978 E0.51613
G1 X124.998 Y147.189 E0.51613
G1 X108.854 Y143.977 E0.51613
G1 X95.167 Y134.831 E0.51613
G1 X86.022 Y121.143 E0.51613
G1 X82.811 Y104.998 E0.51613
G1 X86.023 Y88.854 E0.51613
G1 X95.136 Y75.217 E0.51425
G1 E-0.80000 F2100.00000
G1 Z0.800 F10800.000
G1 X118.462 Y93.397
G1 Z0.200
G1 E0.80000 F2100.00000
G1 F1200
G1 X113.811 Y98.049 E0.20625
G1 X112.797 Y99.945 E0.06743
G1 X112.717 Y100.209 E0.00864
G1 X120.209 Y92.717 E0.33221
G1 X121.740 Y92.253 E0.05016
G1 X112.253 Y101.740 E0.42069
G1 X112.045 Y102.423 E0.02239
G1 X111.981 Y103.078 E0.02064
G1 X123.078 Y91.981 E0.49208
G1 X124.261 Y91.864 E0.03727
G1 X111.864 Y104.261 E0.54971
G1 X111.792 Y105.000 E0.02327
G1 X111.827 Y105.365 E0.01149
G1 X125.365 Y91.827 E0.60026
G1 X126.336 Y91.923 E0.03059
G1 X111.923 Y106.336 E0.63908
G1 X112.019 Y107.307 E0.03059
G1 X127.307 Y92.019 E0.67789
G1 X127.577 Y92.045 E0.00852
G1 X128.167 Y92.224 E0.01935
G1 X112.224 Y108.167 E0.70693
G1 X112.473 Y108.986 E0.02681
G1 X128.986 Y92.473 E0.73221
G1 X129.804 Y92.721 E0.02681
G1 X112.585 Y109.940 E0.76352
G1 X119.326 Y117.064 F10800.000
G1 F1200
G1 X125.397 Y110.992 E0.26923
G1 X124.864 Y110.459 E0.02365
G1 X118.756 Y116.567 E0.27085
G1 X118.061 Y116.196 E0.02471
G1 X124.331 Y109.926 E0.27802
G1 X123.798 Y109.393 E0.02365
G1 X117.412 Y115.778 E0.28313
G1 X116.827 Y115.297 E0.02376
G1 X123.264 Y108.859 E0.28546
G1 X122.731 Y108.326 E0.02365
G1 X116.241 Y114.816 E0.28779
G1 X115.656 Y114.335 E0.02376
G1 X120.566 Y109.424 E0.21774
G1 X120.189 Y109.046 E0.01675
G1 X121.820 Y107.415 E0.07234
G1 X121.665 Y107.260 E0.00690
G1 X115.175 Y113.749 E0.28775
G1 X114.694 Y113.163 E0.02376
G1 X121.131 Y106.726 E0.28542
G1 X120.598 Y106.193 E0.02365
G1 X114.214 Y112.577 E0.28309
G1 X114.018 Y112.338 E0.00970
G1 X113.798 Y111.927 E0.01463
G1 X120.065 Y105.660 E0.27789
G1 X119.531 Y105.126 E0.02365
G1 X113.426 Y111.232 E0.27072
G1 X113.055 Y110.537 E0.02471
G1 X118.998 Y104.593 E0.26355
G1 X118.557 Y104.152 E0.01955
G1 X124.152 Y98.557 E0.24809
G1 X124.593 Y98.998 E0.01955
G1 X130.537 Y93.055 E0.26355
G1 X131.232 Y93.426 E0.02471
G1 X125.127 Y99.531 E0.27072
G1 X125.660 Y100.065 E0.02365
G1 X131.927 Y93.798 E0.27789
G1 X132.338 Y94.018 E0.01463
G1 X132.577 Y94.214 E0.00970
G1 X126.193 Y100.598 E0.28309
G1 X126.726 Y101.131 E0.02365
G1 X133.163 Y94.694 E0.28542
G1 X133.749 Y95.175 E0.02376
G1 X127.260 Y101.665 E0.28775
G1 X127.415 Y101.820 E0.00690
G1 X129.046 Y100.189 E0.07234
G1 X129.424 Y100.566 E0.01675
G1 X134.335 Y95.656 E0.21774
G1 X134.816 Y96.241 E0.02376
G1 X128.326 Y102.731 E0.28779
G1 X128.859 Y103.264 E0.02365
G1 X135.297 Y96.827 E0.28546
G1 X135.778 Y97.412 E0.02376
G1 X129.393 Y103.798 E0.28313
G1 X129.926 Y104.331 E0.02365
G1 X136.196 Y98.061 E0.27802
G1 X136.567 Y98.756 E0.02471
G1 X130.459 Y104.864 E0.27084
G1 X130.992 Y105.397 E0.02365
G1 X136.939 Y99.451 E0.26367
G1 X137.203 Y99.945 E0.01757
G1 X137.275 Y100.182 E0.00774
G1 X120.182 Y117.275 E0.75793
G1 X121.000 Y117.523 E0.02681
G1 X137.523 Y101.000 E0.73266
G1 X137.771 Y101.818 E0.02681
G1 X121.818 Y117.771 E0.70738
G1 X122.423 Y117.955 E0.01982
G1 X122.676 Y117.980 E0.00798
G1 X137.980 Y102.676 E0.67857
G1 X138.075 Y103.647 E0.03059
G1 X123.647 Y118.075 E0.63976
G1 X124.618 Y118.171 E0.03059
G1 X138.171 Y104.618 E0.60095
G1 X138.208 Y105.000 E0.01203
G1 X138.138 Y105.718 E0.02262
G1 X125.718 Y118.138 E0.55072
G1 X126.901 Y118.021 E0.03727
G1 X138.021 Y106.901 E0.49309
G1 X137.955 Y107.577 E0.02129
G1 X137.756 Y108.233 E0.02150
G1 X128.233 Y117.756 E0.42224
G1 X129.764 Y117.291 E0.05016
G1 X137.291 Y109.764 E0.33376
G1 X137.203 Y110.055 E0.00952
G1 X136.211 Y111.911 E0.06600
G1 X131.498 Y116.624 E0.20898
G1 E-0.80000 F2100.00000
G1 Z0.800 F10800.000
G1 X126.288 Y122.865
G1 Z0.200
G1 E0.80000 F2100.00000
M73 P1 R82
G1 F1200
G1 X126.639 Y123.153 E0.01425
G1 X126.927 Y123.504 E0.01425
G1 X127.142 Y123.905 E0.01425
G1 X127.274 Y124.340 E0.01425
G1 X127.318 Y124.792 E0.01425
G1 X127.274 Y125.244 E0.01425
G1 X127.142 Y125.679 E0.01425
G1 X126.927 Y126.080 E0.01425
G1 X126.639 Y126.431 E0.01425
G1 X126.288 Y126.719 E0.01425
G1 X125.887 Y126.934 E0.01425
G1 X125.452 Y127.065 E0.01425
G1 X125.000 Y127.110 E0.01425
G1 X124.548 Y127.065 E0.01425
G1 X124.113 Y126.934 E0.01425
G1 X123.712 Y126.719 E0.01425
G1 X123.361 Y126.431 E0.01425
G1 X123.073 Y126.080 E0.01425
G1 X122.858 Y125.679 E0.01425
G1 X122.726 Y125.244 E0.01425
G1 X122.682 Y124.792 E0.01425
G1 X122.726 Y124.340 E0.01425
G1 X122.858 Y123.905 E0.01425
G1 X123.073 Y123.504 E0.01425
G1 X123.361 Y123.153 E0.01425
G1 X123.712 Y122.865 E0.01425
G1 X124.114 Y122.650 E0.01429
G1 X124.558 Y122.517 E0.01451
G1 X125.000 Y122.474 E0.01393
G1 X125.452 Y122.518 E0.01425
G1 X125.887 Y122.650 E0.01425
G1 X126.235 Y122.836 E0.01237
G1 X126.057 Y123.169 F10800.000
G1 F1200
G1 X126.371 Y123.421 E0.01262
G1 X126.612 Y123.715 E0.01192
G1 X126.792 Y124.050 E0.01192
G1 X126.902 Y124.414 E0.01192
G1 X126.939 Y124.792 E0.01192
G1 X126.902 Y125.170 E0.01192
G1 X126.792 Y125.534 E0.01192
G1 X126.612 Y125.869 E0.01192
G1 X126.371 Y126.163 E0.01192
G1 X126.077 Y126.404 E0.01192
G1 X125.742 Y126.584 E0.01192
G1 X125.378 Y126.694 E0.01192
G1 X125.000 Y126.731 E0.01192
G1 X124.622 Y126.694 E0.01192
G1 X124.258 Y126.584 E0.01192
G1 X123.923 Y126.404 E0.01192
G1 X123.629 Y126.163 E0.01192
G1 X123.388 Y125.869 E0.01192
G1 X123.208 Y125.534 E0.01192
G1 X123.098 Y125.170 E0.01192
G1 X123.061 Y124.792 E0.01192
G1 X123.098 Y124.414 E0.01192
G1 X123.208 Y124.050 E0.01192
G1 X123.388 Y123.715 E0.01192
G1 X123.629 Y123.421 E0.01192
G1 X123.923 Y123.180 E0.01192
G1 X124.258 Y123.000 E0.01194
G1 X124.631 Y122.889 E0.01219
G1 X125.000 Y122.853 E0.01163
G1 X125.378 Y122.890 E0.01192
G1 X125.742 Y123.000 E0.01192
G1 X126.004 Y123.141 E0.00932
G1 X126.414 Y122.989 F10800.000
G1 E-0.80000 F2100.00000
G1 Z0.800 F10800.000
G1 X125.000 Y119.327
G1 Z0.200
G1 E0.80000 F2100.00000
G1 F1200
G1 X122.205 Y119.052 E0.08806
G1 X119.517 Y118.236 E0.08806
G1 X117.040 Y116.912 E0.08806
G1 X114.869 Y115.131 E0.08806
G1 X113.088 Y112.960 E0.08806
G1 X111.764 Y110.483 E0.08806
G1 X110.948 Y107.795 E0.08806
G1 X110.673 Y105.000 E0.08806
G1 X110.948 Y102.205 E0.08806
G1 X111.764 Y99.517 E0.08806
G1 X113.088 Y97.040 E0.08806
G1 X114.869 Y94.869 E0.08806
G1 X117.040 Y93.088 E0.08806
G1 X119.517 Y91.764 E0.08806
G1 X122.205 Y90.948 E0.08806
G1 X124.976 Y90.675 E0.08731
G1 X127.795 Y90.948 E0.08878
G1 X130.483 Y91.764 E0.08808
G1 X132.960 Y93.088 E0.08806
G1 X135.131 Y94.869 E0.08806
G1 X136.912 Y97.040 E0.08806
G1 X138.236 Y99.517 E0.08806
G1 X139.052 Y102.205 E0.08806
G1 X139.327 Y105.000 E0.08806
G1 X139.052 Y107.795 E0.08806
G1 X138.236 Y110.483 E0.08806
G1 X136.912 Y112.960 E0.08806
G1 X135.131 Y115.131 E0.08806
G1 X132.960 Y116.912 E0.08806
G1 X130.483 Y118.236 E0.08806
G1 X127.795 Y119.052 E0.08806
G1 X125.060 Y119.321 E0.08618
G1 X125.023 Y118.946 F10800.000
G1 F1200
G1 X122.279 Y118.680 E0.08643
G1 X119.662 Y117.886 E0.08573
G1 X117.251 Y116.597 E0.08573
G1 X115.137 Y114.863 E0.08573
G1 X113.403 Y112.749 E0.08573
G1 X112.114 Y110.338 E0.08573
G1 X111.320 Y107.721 E0.08573
G1 X111.052 Y105.000 E0.08573
G1 X111.320 Y102.279 E0.08573
G1 X112.114 Y99.662 E0.08573
G1 X113.403 Y97.251 E0.08573
G1 X115.137 Y95.137 E0.08573
G1 X117.251 Y93.403 E0.08573
G1 X119.662 Y92.114 E0.08573
G1 X122.279 Y91.320 E0.08573
G1 X124.976 Y91.054 E0.08499
G1 X127.721 Y91.320 E0.08646
G1 X130.338 Y92.114 E0.08574
G1 X132.749 Y93.403 E0.08573
G1 X134.863 Y95.137 E0.08573
G1 X136.597 Y97.251 E0.08573
G1 X137.886 Y99.662 E0.08573
G1 X138.680 Y102.279 E0.08573
G1 X138.948 Y105.000 E0.08573
G1 X138.680 Y107.721 E0.08573
G1 X137.886 Y110.338 E0.08573
G1 X136.597 Y112.749 E0.08573
G1 X134.863 Y114.863 E0.08573
G1 X132.749 Y116.597 E0.08573
G1 X130.338 Y117.886 E0.08573
G1 X127.721 Y118.680 E0.08573
G1 X125.082 Y118.940 E0.08313
G1 X124.823 Y119.292 F10800.000
G1 E-0.80000 F2100.00000
G1 Z0.800 F10800.000
G1 X125.000 Y144.401
G1 Z0.200
G1 E0.80000 F2100.00000
G1 F1200
G1 X109.922 Y141.402 E0.48203
G1 X97.139 Y132.861 E0.48203
G1 X88.598 Y120.078 E0.48203
G1 X85.599 Y105.000 E0.48203
G1 X88.598 Y89.922 E0.48203
G1 X97.139 Y77.139 E0.48203
G1 X109.922 Y68.598 E0.48203
G1 X125.000 Y65.599 E0.48203
G1 X140.078 Y68.598 E0.48203
G1 X152.861 Y77.139 E0.48203
G1 X161.402 Y89.922 E0.48203
G1 X164.401 Y105.000 E0.48203
G1 X161.402 Y120.078 E0.48203
G1 X152.861 Y132.861 E0.48203
G1 X140.078 Y141.402 E0.48203
G1 X125.059 Y144.390 E0.48015
G1 X125.132 Y144.760 F10800.000
G1 F1200
G1 X125.000 Y144.786 E0.00423
G1 X109.775 Y141.757 E0.48673
G1 X96.867 Y133.133 E0.48673
G1 X88.243 Y120.225 E0.48673
G1 X85.214 Y105.000 E0.48673
G1 X88.243 Y89.775 E0.48673
G1 X96.867 Y76.867 E0.48673
G1 X109.775 Y68.243 E0.48673
G1 X125.000 Y65.214 E0.48673
G1 X140.225 Y68.243 E0.48673
G1 X153.133 Y76.867 E0.48673
G1 X161.757 Y89.775 E0.48673
G1 X164.786 Y105.000 E0.48673
G1 X161.757 Y120.225 E0.48673
G1 X153.133 Y133.133 E0.48673
G1 X140.225 Y141.757 E0.48673
G1 X125.191 Y144.748 E0.48062
G1 X125.037 Y144.664 F10800.000
G1 E-0.80000 F2100.00000
G1 Z0.800 F10800.000
G1 X137.930 Y141.714
G1 Z0.200
G1 E0.80000 F2100.00000
G1 F1200
G1 X88.430 Y92.214 E2.19988
G1 X88.341 Y92.660 E0.01428
G1 X137.340 Y141.659 E2.17760
G1 X136.894 Y141.747 E0.01428
G1 X88.253 Y93.106 E2.16172
G1 X88.164 Y93.552 E0.01428
G1 X136.448 Y141.836 E2.14585
G1 X136.002 Y141.925 E0.01428
G1 X88.075 Y93.998 E2.12998
G1 X87.987 Y94.443 E0.01428
G1 X135.557 Y142.013 E2.11411
G1 X135.111 Y142.102 E0.01428
G1 X87.898 Y94.889 E2.09824
M73 P2 R81
G1 X87.809 Y95.335 E0.01428
G1 X134.665 Y142.191 E2.08237
G1 X134.219 Y142.279 E0.01428
G1 X87.721 Y95.781 E2.06649
G1 X87.632 Y96.227 E0.01428
G1 X133.773 Y142.368 E2.05062
G1 X133.327 Y142.457 E0.01428
G1 X87.543 Y96.673 E2.03475
G1 X87.455 Y97.118 E0.01428
G1 X132.882 Y142.545 E2.01888
G1 X132.436 Y142.634 E0.01428
G1 X87.366 Y97.564 E2.00301
G1 X87.277 Y98.010 E0.01428
G1 X131.990 Y142.723 E1.98714
G1 X131.544 Y142.811 E0.01428
G1 X87.189 Y98.456 E1.97126
G1 X87.100 Y98.902 E0.01428
G1 X131.098 Y142.900 E1.95539
G1 X130.653 Y142.989 E0.01428
G1 X87.011 Y99.347 E1.93952
G1 X86.923 Y99.793 E0.01428
G1 X130.207 Y143.077 E1.92365
G1 X129.761 Y143.166 E0.01428
G1 X86.834 Y100.239 E1.90778
G1 X86.745 Y100.685 E0.01428
G1 X129.315 Y143.255 E1.89191
G1 X128.869 Y143.343 E0.01428
G1 X86.657 Y101.131 E1.87603
G1 X86.568 Y101.576 E0.01428
G1 X128.424 Y143.432 E1.86016
G1 X127.978 Y143.521 E0.01428
G1 X86.479 Y102.022 E1.84429
G1 X86.391 Y102.468 E0.01428
G1 X127.532 Y143.609 E1.82842
G1 X127.086 Y143.698 E0.01428
G1 X86.302 Y102.914 E1.81255
G1 X86.213 Y103.360 E0.01428
G1 X126.640 Y143.787 E1.79668
G1 X126.195 Y143.875 E0.01428
G1 X86.125 Y103.805 E1.78081
M73 P3 R80
G1 X86.036 Y104.251 E0.01428
G1 X125.749 Y143.964 E1.76493
G1 X125.303 Y144.053 E0.01428
G1 X85.947 Y104.697 E1.74906
G1 X85.887 Y105.000 E0.00971
G1 X85.929 Y105.214 E0.00685
G1 X124.786 Y144.071 E1.72689
G1 X124.119 Y143.938 E0.02138
G1 X86.062 Y105.881 E1.69134
G1 X86.195 Y106.548 E0.02138
G1 X123.452 Y143.805 E1.65579
G1 X122.785 Y143.672 E0.02138
G1 X86.328 Y107.215 E1.62024
G1 X86.460 Y107.882 E0.02138
G1 X122.118 Y143.540 E1.58469
G1 X121.450 Y143.407 E0.02138
G1 X86.593 Y108.550 E1.54914
G1 X86.726 Y109.217 E0.02138
G1 X120.783 Y143.274 E1.51359
G1 X120.116 Y143.142 E0.02138
G1 X86.858 Y109.884 E1.47804
G1 X86.991 Y110.551 E0.02138
G1 X119.449 Y143.009 E1.44249
G1 X118.782 Y142.876 E0.02138
G1 X87.124 Y111.218 E1.40694
G1 X87.257 Y111.886 E0.02138
G1 X118.114 Y142.743 E1.37139
G1 X117.447 Y142.611 E0.02138
G1 X87.389 Y112.553 E1.33584
G1 X87.522 Y113.220 E0.02138
G1 X116.780 Y142.478 E1.30029
G1 X116.113 Y142.345 E0.02138
G1 X87.655 Y113.887 E1.26474
G1 X87.787 Y114.554 E0.02138
G1 X115.446 Y142.213 E1.22919
G1 X114.778 Y142.080 E0.02138
G1 X87.920 Y115.222 E1.19364
G1 X88.053 Y115.889 E0.02138
G1 X114.111 Y141.947 E1.15809
G1 X113.444 Y141.814 E0.02138
G1 X88.186 Y116.556 E1.12254
G1 X88.318 Y117.223 E0.02138
G1 X112.777 Y141.682 E1.08699
G1 X112.110 Y141.549 E0.02138
G1 X88.451 Y117.890 E1.05144
G1 X88.584 Y118.558 E0.02138
G1 X111.442 Y141.416 E1.01589
G1 X110.775 Y141.284 E0.02138
G1 X88.716 Y119.225 E0.98034
G1 X88.849 Y119.892 E0.02138
G1 X110.324 Y141.367 E0.95439
G1 X109.220 Y140.797 F10800.000
G1 F1200
G1 X89.203 Y120.780 E0.88959
G1 X90.279 Y122.391 F10800.000
G1 F1200
G1 X107.609 Y139.721 E0.77017
G1 X105.998 Y138.645 F10800.000
G1 F1200
G1 X91.355 Y124.002 E0.65076
G1 X92.432 Y125.613 F10800.000
G1 F1200
G1 X104.387 Y137.568 E0.53134
M73 P5 R79
G1 X102.777 Y136.492 F10800.000
G1 F1200
G1 X93.508 Y127.223 E0.41192
G1 X94.584 Y128.834 F10800.000
G1 F1200
G1 X101.166 Y135.416 E0.29251
G1 X99.555 Y134.339 F10800.000
G1 F1200
G1 X95.661 Y130.445 E0.17309
G1 E-0.80000 F2100.00000
G1 Z0.800 F10800.000
G1 X113.054 Y113.097
G1 Z0.200
G1 E0.80000 F2100.00000
G1 F1200
G1 X89.315 Y89.358 E1.05501
G1 X89.529 Y89.037 E0.01211
G1 X112.395 Y111.903 E1.01620
G1 X111.781 Y110.755 F10800.000
G1 F1200
G1 X89.743 Y88.717 E0.97941
G1 X89.957 Y88.397 E0.01211
G1 X111.218 Y109.657 E0.94487
G1 X110.985 Y108.890 E0.02519
G1 X90.171 Y88.076 E0.92501
G1 X90.385 Y87.756 E0.01211
G1 X110.752 Y108.123 E0.90516
G1 X110.670 Y107.851 E0.00894
G1 X110.632 Y107.468 E0.01208
G1 X90.599 Y87.435 E0.89030
G1 X90.813 Y87.115 E0.01211
G1 X110.574 Y106.875 E0.87819
G1 X110.515 Y106.282 E0.01872
G1 X91.027 Y86.795 E0.86608
G1 X91.242 Y86.474 E0.01211
G1 X110.457 Y105.689 E0.85397
G1 X110.398 Y105.097 E0.01872
G1 X91.456 Y86.154 E0.84186
G1 X91.670 Y85.833 E0.01211
G1 X110.429 Y104.593 E0.83371
G1 X110.477 Y104.106 E0.01536
G1 X91.884 Y85.513 E0.82632
G1 X92.098 Y85.193 E0.01211
G1 X110.525 Y103.620 E0.81894
G1 X110.573 Y103.133 E0.01536
G1 X92.312 Y84.872 E0.81155
G1 X92.526 Y84.552 E0.01211
G1 X110.621 Y102.646 E0.80417
G1 X110.669 Y102.160 E0.01536
G1 X92.740 Y84.231 E0.79678
G1 X92.954 Y83.911 E0.01211
G1 X110.791 Y101.748 E0.79272
G1 X110.916 Y101.338 E0.01347
G1 X93.168 Y83.591 E0.78874
G1 X93.382 Y83.270 E0.01211
G1 X111.040 Y100.928 E0.78475
G1 X111.165 Y100.518 E0.01347
G1 X93.596 Y82.950 E0.78077
G1 X93.811 Y82.629 E0.01211
