; generated by PrusaSlicer 2.1.1+win64 on 2020-04-10 at 22:26:06 UTC

; 

; external perimeters extrusion width = 0.45mm
; perimeters extrusion width = 0.45mm
; infill extrusion width = 0.45mm
; solid infill extrusion width = 0.45mm
; top infill extrusion width = 0.40mm
; support material extrusion width = 0.35mm
; first layer extrusion width = 0.42mm

M73 P0 R157
M201 X9000 Y9000 Z500 E10000 ; sets maximum accelerations, mm/sec^2
M203 X500 Y500 Z12 E120 ; sets maximum feedrates, mm/sec
M204 P2000 R1500 T2000 ; sets acceleration (P, T) and retract acceleration (R), mm/sec^2
M205 X10.00 Y10.00 Z0.20 E2.50 ; sets the jerk limits, mm/sec
M205 S0 T0 ; sets the minimum extruding and travel feed rate, mm/sec
M107
M862.3 P "MK2.5SMMU2S" ; printer model check
M862.1 P0.4 ; nozzle diameter check
M115 U3.8.0 ; tell printer latest fw version
G90 ; use absolute coordinates
M83 ; extruder relative mode
M104 S215 ; set extruder temp
M140 S60 ; set bed temp
Tx
M190 S60 ; wait for bed temp
M109 S215 ; wait for extruder temp
G28 W ; home all without mesh bed level
G80 ; mesh bed leveling

G21 ; set units to millimeters

;go outside print area
G1 Y-3.0 F1000.0
G1 Z0.4 F1000.0
; select extruder
Tc
; purge line
G1 X55.0 F2000.0
G1 Z0.3 F1000.0
G92 E0.0
G1 X240.0 E25.0 F2200.0
M73 P0 R157
G1 Y-2.0 F1000.0
G1 X55.0 E25 F1400.0
G1 Z0.20 F1000.0
G1 X5.0 E4.0 F1000.0
G92 E0.0
G21 ; set units to millimeters
G90 ; use absolute coordinates
M83 ; use relative distances for extrusion
M900 K30 ; Filament gcode
;BEFORE_LAYER_CHANGE
G92 E0.0
;0.2


G1 E-0.80000 F2100.00000
G1 Z0.600 F10800.000
;AFTER_LAYER_CHANGE
;0.2
G1 X76.996 Y45.356
G1 Z0.200
G1 E0.80000 F2100.00000
M204 S1000
G1 F1200
G1 X77.517 Y45.214 E0.01692
G1 X88.732 Y43.607 E0.35525
G1 X91.927 Y43.215 E0.10090
G1 X177.698 Y43.452 E2.68933
G1 X178.372 Y43.573 E0.02146
G1 X178.975 Y43.897 E0.02146
G1 X179.449 Y44.391 E0.02146
G1 X179.746 Y45.003 E0.02134
G1 X179.841 Y45.637 E0.02010
G1 X179.841 Y110.640 E2.03814
G1 X179.701 Y111.409 E0.02451
G1 X179.417 Y111.935 E0.01873
G1 X140.226 Y165.099 E2.07089
G1 X132.438 Y172.910 E0.34586
G1 X132.031 Y173.219 E0.01601
G1 X131.560 Y173.425 E0.01612
G1 X130.919 Y173.521 E0.02032
G1 X127.613 Y173.423 E0.10370
G1 X123.688 Y172.901 E0.12415
G1 X122.984 Y172.656 E0.02338
G1 X122.508 Y172.300 E0.01862
G1 X113.819 Y163.604 E0.38545
G1 X70.576 Y104.144 E2.30523
G1 X70.255 Y103.499 E0.02259
G1 X70.159 Y102.865 E0.02010
G1 X70.159 Y52.860 E1.56788
G1 X70.289 Y52.118 E0.02360
G1 X70.499 Y51.689 E0.01498
G1 X70.794 Y51.318 E0.01487
G1 X76.311 Y45.802 E0.24460
G1 X76.945 Y45.389 E0.02375
G1 E-0.80000 F2100.00000
G1 Z0.800 F10800.000
G1 X158.239 Y110.053
G1 Z0.200
G1 E0.80000 F2100.00000
G1 F1200
G1 X158.239 Y87.553 E0.70547
G1 X124.930 Y87.553 E1.04439
G1 X124.930 Y68.727 E0.59027
G1 X158.239 Y68.727 E1.04439
G1 X158.239 Y46.227 E0.70547
G1 X177.065 Y46.227 E0.59027
G1 X177.065 Y110.053 E2.00121
G1 X158.299 Y110.053 E0.58839
G1 X157.862 Y110.430 F10800.000
G1 F1200
G1 X157.862 Y87.930 E0.70547
G1 X124.553 Y87.930 E1.04439
G1 X124.553 Y68.350 E0.61392
G1 X157.862 Y68.350 E1.04439
G1 X157.862 Y45.850 E0.70547
G1 X177.442 Y45.850 E0.61392
G1 X177.442 Y110.430 E2.02486
G1 X157.922 Y110.430 E0.61204
G1 X157.901 Y110.032 F10800.000
G1 X158.352 Y109.286
G1 F1200
G1 X158.837 Y109.770 E0.02157
G1 X159.372 Y109.770 E0.01683
G1 X158.522 Y108.920 E0.03782
G1 X158.522 Y108.385 E0.01683
G1 X159.907 Y109.770 E0.06162
G1 X160.442 Y109.770 E0.01683
G1 X158.522 Y107.850 E0.08541
G1 X158.522 Y107.315 E0.01683
G1 X160.977 Y109.770 E0.10921
G1 X161.512 Y109.770 E0.01683
G1 X158.522 Y106.780 E0.13301
G1 X158.522 Y106.245 E0.01683
G1 X162.047 Y109.770 E0.15680
G1 X162.582 Y109.770 E0.01683
G1 X158.522 Y105.710 E0.18060
G1 X158.522 Y105.175 E0.01683
G1 X163.117 Y109.770 E0.20440
G1 X163.652 Y109.770 E0.01683
G1 X158.522 Y104.640 E0.22819
G1 X158.522 Y104.106 E0.01683
G1 X164.187 Y109.770 E0.25199
G1 X164.722 Y109.770 E0.01683
G1 X158.522 Y103.571 E0.27579
G1 X158.522 Y103.036 E0.01683
G1 X165.257 Y109.770 E0.29958
M73 P0 R156
G1 X165.792 Y109.770 E0.01683
G1 X158.522 Y102.501 E0.32338
G1 X158.522 Y101.966 E0.01683
G1 X166.327 Y109.770 E0.34718
G1 X166.862 Y109.770 E0.01683
G1 X158.522 Y101.431 E0.37097
G1 X158.522 Y100.896 E0.01683
G1 X167.397 Y109.770 E0.39477
G1 X167.932 Y109.770 E0.01683
G1 X158.522 Y100.361 E0.41857
G1 X158.522 Y99.826 E0.01683
G1 X168.467 Y109.770 E0.44236
G1 X169.002 Y109.770 E0.01683
G1 X158.522 Y99.291 E0.46616
G1 X158.522 Y98.756 E0.01683
G1 X169.537 Y109.770 E0.48996
G1 X170.072 Y109.770 E0.01683
G1 X158.522 Y98.221 E0.51375
G1 X158.522 Y97.686 E0.01683
G1 X170.607 Y109.770 E0.53755
G1 X171.142 Y109.770 E0.01683
G1 X158.522 Y97.151 E0.56135
G1 X158.522 Y96.616 E0.01683
G1 X171.677 Y109.770 E0.58514
G1 X172.211 Y109.770 E0.01683
G1 X158.522 Y96.081 E0.60894
G1 X158.522 Y95.546 E0.01683
G1 X172.746 Y109.770 E0.63274
G1 X173.281 Y109.770 E0.01683
G1 X158.522 Y95.011 E0.65653
G1 X158.522 Y94.476 E0.01683
G1 X173.816 Y109.770 E0.68033
G1 X174.351 Y109.770 E0.01683
G1 X158.522 Y93.941 E0.70413
G1 X158.522 Y93.406 E0.01683
G1 X174.886 Y109.770 E0.72792
G1 X175.421 Y109.770 E0.01683
G1 X158.522 Y92.871 E0.75172
G1 X158.522 Y92.336 E0.01683
G1 X175.956 Y109.770 E0.77552
G1 X176.491 Y109.770 E0.01683
G1 X158.522 Y91.801 E0.79931
G1 X158.522 Y91.266 E0.01683
G1 X176.782 Y109.527 E0.81226
G1 X176.782 Y108.992 E0.01683
G1 X158.522 Y90.731 E0.81226
G1 X158.522 Y90.196 E0.01683
G1 X176.782 Y108.457 E0.81226
G1 X176.782 Y107.922 E0.01683
G1 X158.522 Y89.661 E0.81226
G1 X158.522 Y89.126 E0.01683
G1 X176.782 Y107.387 E0.81226
G1 X176.782 Y106.852 E0.01683
G1 X158.522 Y88.592 E0.81226
G1 X158.522 Y88.057 E0.01683
G1 X176.952 Y106.487 E0.81981
G1 E-0.80000 F2100.00000
G1 Z0.800 F10800.000
G1 X125.808 Y87.440
G1 Z0.200
G1 E0.80000 F2100.00000
G1 F1200
G1 X125.213 Y86.845 E0.02647
G1 X125.213 Y86.310 E0.01683
G1 X126.173 Y87.270 E0.04272
G1 X126.708 Y87.270 E0.01683
G1 X125.213 Y85.775 E0.06651
G1 X125.213 Y85.240 E0.01683
G1 X127.243 Y87.270 E0.09031
G1 X127.778 Y87.270 E0.01683
G1 X125.213 Y84.705 E0.11411
G1 X125.213 Y84.170 E0.01683
G1 X128.313 Y87.270 E0.13790
G1 X128.848 Y87.270 E0.01683
G1 X125.213 Y83.635 E0.16170
G1 X125.213 Y83.100 E0.01683
G1 X129.383 Y87.270 E0.18550
G1 X129.918 Y87.270 E0.01683
G1 X125.213 Y82.565 E0.20929
G1 X125.213 Y82.030 E0.01683
G1 X130.453 Y87.270 E0.23309
G1 X130.988 Y87.270 E0.01683
G1 X125.213 Y81.495 E0.25689
G1 X125.213 Y80.960 E0.01683
G1 X131.523 Y87.270 E0.28068
G1 X132.058 Y87.270 E0.01683
G1 X125.213 Y80.426 E0.30448
G1 X125.213 Y79.891 E0.01683
G1 X132.593 Y87.270 E0.32828
G1 X133.128 Y87.270 E0.01683
G1 X125.213 Y79.356 E0.35207
G1 X125.213 Y78.821 E0.01683
G1 X133.662 Y87.270 E0.37587
G1 X134.197 Y87.270 E0.01683
G1 X125.213 Y78.286 E0.39967
G1 X125.213 Y77.751 E0.01683
G1 X134.732 Y87.270 E0.42346
G1 X135.267 Y87.270 E0.01683
G1 X125.213 Y77.216 E0.44726
G1 X125.213 Y76.681 E0.01683
G1 X135.802 Y87.270 E0.47106
G1 X136.337 Y87.270 E0.01683
G1 X125.213 Y76.146 E0.49485
G1 X125.213 Y75.611 E0.01683
G1 X136.872 Y87.270 E0.51865
G1 X137.407 Y87.270 E0.01683
G1 X125.213 Y75.076 E0.54245
G1 X125.213 Y74.541 E0.01683
G1 X137.942 Y87.270 E0.56624
G1 X138.477 Y87.270 E0.01683
G1 X125.213 Y74.006 E0.59004
G1 X125.213 Y73.471 E0.01683
G1 X139.012 Y87.270 E0.61384
G1 X139.547 Y87.270 E0.01683
G1 X125.213 Y72.936 E0.63763
G1 X125.213 Y72.401 E0.01683
G1 X140.082 Y87.270 E0.66143
G1 X140.617 Y87.270 E0.01683
G1 X125.213 Y71.866 E0.68523
G1 X125.213 Y71.331 E0.01683
G1 X141.152 Y87.270 E0.70902
G1 X141.687 Y87.270 E0.01683
G1 X125.213 Y70.796 E0.73282
G1 X125.213 Y70.261 E0.01683
G1 X142.222 Y87.270 E0.75662
G1 X142.757 Y87.270 E0.01683
G1 X125.213 Y69.726 E0.78041
G1 X125.213 Y69.191 E0.01683
G1 X143.292 Y87.270 E0.80421
G1 X143.827 Y87.270 E0.01683
G1 X125.567 Y69.010 E0.81226
G1 X126.102 Y69.010 E0.01683
G1 X144.362 Y87.270 E0.81226
G1 X144.897 Y87.270 E0.01683
G1 X126.637 Y69.010 E0.81226
G1 X127.171 Y69.010 E0.01683
G1 X145.432 Y87.270 E0.81226
G1 X145.967 Y87.270 E0.01683
G1 X127.706 Y69.010 E0.81226
G1 X128.241 Y69.010 E0.01683
G1 X146.502 Y87.270 E0.81226
M73 P1 R155
G1 X147.037 Y87.270 E0.01683
G1 X128.776 Y69.010 E0.81226
G1 X129.311 Y69.010 E0.01683
G1 X147.572 Y87.270 E0.81226
G1 X148.107 Y87.270 E0.01683
G1 X129.846 Y69.010 E0.81226
G1 X130.381 Y69.010 E0.01683
G1 X148.642 Y87.270 E0.81226
G1 X149.177 Y87.270 E0.01683
G1 X130.916 Y69.010 E0.81226
G1 X131.451 Y69.010 E0.01683
G1 X149.711 Y87.270 E0.81226
G1 X150.246 Y87.270 E0.01683
G1 X131.986 Y69.010 E0.81226
G1 X132.521 Y69.010 E0.01683
G1 X150.781 Y87.270 E0.81226
G1 X151.316 Y87.270 E0.01683
G1 X133.056 Y69.010 E0.81226
G1 X133.591 Y69.010 E0.01683
G1 X151.851 Y87.270 E0.81226
G1 X152.386 Y87.270 E0.01683
G1 X134.126 Y69.010 E0.81226
G1 X134.661 Y69.010 E0.01683
G1 X152.921 Y87.270 E0.81226
G1 X153.456 Y87.270 E0.01683
G1 X135.196 Y69.010 E0.81226
G1 X135.731 Y69.010 E0.01683
G1 X153.991 Y87.270 E0.81226
G1 X154.526 Y87.270 E0.01683
G1 X136.266 Y69.010 E0.81226
G1 X136.801 Y69.010 E0.01683
G1 X155.061 Y87.270 E0.81226
G1 X155.596 Y87.270 E0.01683
G1 X137.336 Y69.010 E0.81226
G1 X137.871 Y69.010 E0.01683
G1 X156.131 Y87.270 E0.81226
G1 X156.666 Y87.270 E0.01683
G1 X138.406 Y69.010 E0.81226
G1 X138.941 Y69.010 E0.01683
G1 X157.201 Y87.270 E0.81226
G1 X157.736 Y87.270 E0.01683
G1 X139.476 Y69.010 E0.81226
G1 X140.011 Y69.010 E0.01683
G1 X176.782 Y105.782 E1.63570
G1 X176.782 Y105.247 E0.01683
G1 X140.546 Y69.010 E1.61190
G1 X141.081 Y69.010 E0.01683
G1 X176.782 Y104.712 E1.58811
G1 X176.782 Y104.177 E0.01683
G1 X141.616 Y69.010 E1.56431
G1 X142.151 Y69.010 E0.01683
G1 X176.782 Y103.642 E1.54051
G1 X176.782 Y103.107 E0.01683
G1 X142.685 Y69.010 E1.51672
G1 X143.220 Y69.010 E0.01683
G1 X176.782 Y102.572 E1.49292
G1 X176.782 Y102.037 E0.01683
G1 X143.755 Y69.010 E1.46912
G1 X144.290 Y69.010 E0.01683
G1 X176.782 Y101.502 E1.44533
G1 X176.782 Y100.967 E0.01683
G1 X144.825 Y69.010 E1.42153
G1 X145.360 Y69.010 E0.01683
G1 X176.782 Y100.432 E1.39773
G1 X176.782 Y99.897 E0.01683
G1 X145.895 Y69.010 E1.37394
G1 X146.430 Y69.010 E0.01683
G1 X176.782 Y99.362 E1.35014
G1 X176.782 Y98.827 E0.01683
G1 X146.965 Y69.010 E1.32634
M73 P2 R154
G1 X147.500 Y69.010 E0.01683
G1 X176.782 Y98.292 E1.30255
G1 X176.782 Y97.757 E0.01683
G1 X148.035 Y69.010 E1.27875
G1 X148.570 Y69.010 E0.01683
G1 X176.782 Y97.222 E1.25495
G1 X176.782 Y96.687 E0.01683
G1 X149.105 Y69.010 E1.23116
G1 X149.640 Y69.010 E0.01683
G1 X176.782 Y96.152 E1.20736
G1 X176.782 Y95.618 E0.01683
G1 X150.175 Y69.010 E1.18356
G1 X150.710 Y69.010 E0.01683
G1 X176.782 Y95.083 E1.15977
G1 X176.782 Y94.548 E0.01683
G1 X151.245 Y69.010 E1.13597
G1 X151.780 Y69.010 E0.01683
G1 X176.782 Y94.013 E1.11217
G1 X176.782 Y93.478 E0.01683
G1 X152.315 Y69.010 E1.08838
G1 X152.850 Y69.010 E0.01683
G1 X176.782 Y92.943 E1.06458
G1 X176.782 Y92.408 E0.01683
G1 X153.385 Y69.010 E1.04078
G1 X153.920 Y69.010 E0.01683
G1 X176.782 Y91.873 E1.01699
G1 X176.782 Y91.338 E0.01683
G1 X154.455 Y69.010 E0.99319
G1 X154.990 Y69.010 E0.01683
G1 X176.782 Y90.803 E0.96939
G1 X176.782 Y90.268 E0.01683
G1 X155.525 Y69.010 E0.94560
G1 X156.060 Y69.010 E0.01683
G1 X176.782 Y89.733 E0.92180
G1 X176.782 Y89.198 E0.01683
G1 X156.595 Y69.010 E0.89800
G1 X157.130 Y69.010 E0.01683
G1 X176.782 Y88.663 E0.87421
G1 X176.782 Y88.128 E0.01683
G1 X157.665 Y69.010 E0.85041
G1 X158.199 Y69.010 E0.01683
G1 X176.782 Y87.593 E0.82661
G1 X176.782 Y87.058 E0.01683
G1 X158.522 Y68.798 E0.81226
G1 X158.522 Y68.263 E0.01683
G1 X176.782 Y86.523 E0.81226
G1 X176.782 Y85.988 E0.01683
G1 X158.522 Y67.728 E0.81226
G1 X158.522 Y67.193 E0.01683
G1 X176.782 Y85.453 E0.81226
G1 X176.782 Y84.918 E0.01683
G1 X158.522 Y66.658 E0.81226
G1 X158.522 Y66.123 E0.01683
G1 X176.782 Y84.383 E0.81226
G1 X176.782 Y83.848 E0.01683
G1 X158.522 Y65.588 E0.81226
G1 X158.522 Y65.053 E0.01683
G1 X176.782 Y83.313 E0.81226
G1 X176.782 Y82.778 E0.01683
G1 X158.522 Y64.518 E0.81226
G1 X158.522 Y63.983 E0.01683
G1 X176.782 Y82.243 E0.81226
G1 X176.782 Y81.708 E0.01683
G1 X158.522 Y63.448 E0.81226
G1 X158.522 Y62.913 E0.01683
G1 X176.782 Y81.173 E0.81226
G1 X176.782 Y80.638 E0.01683
G1 X158.522 Y62.378 E0.81226
G1 X158.522 Y61.843 E0.01683
G1 X176.782 Y80.103 E0.81226
G1 X176.782 Y79.569 E0.01683
G1 X158.522 Y61.308 E0.81226
G1 X158.522 Y60.773 E0.01683
G1 X176.782 Y79.034 E0.81226
G1 X176.782 Y78.499 E0.01683
G1 X158.522 Y60.238 E0.81226
G1 X158.522 Y59.703 E0.01683
G1 X176.782 Y77.964 E0.81226
M73 P2 R153
G1 X176.782 Y77.429 E0.01683
G1 X158.522 Y59.168 E0.81226
G1 X158.522 Y58.633 E0.01683
G1 X176.782 Y76.894 E0.81226
G1 X176.782 Y76.359 E0.01683
G1 X158.522 Y58.098 E0.81226
G1 X158.522 Y57.563 E0.01683
G1 X176.782 Y75.824 E0.81226
G1 X176.782 Y75.289 E0.01683
G1 X158.522 Y57.029 E0.81226
G1 X158.522 Y56.494 E0.01683
G1 X176.782 Y74.754 E0.81226
G1 X176.782 Y74.219 E0.01683
G1 X158.522 Y55.959 E0.81226
G1 X158.522 Y55.424 E0.01683
G1 X176.782 Y73.684 E0.81226
G1 X176.782 Y73.149 E0.01683
G1 X158.522 Y54.889 E0.81226
G1 X158.522 Y54.354 E0.01683
G1 X176.782 Y72.614 E0.81226
G1 X176.782 Y72.079 E0.01683
G1 X158.522 Y53.819 E0.81226
G1 X158.522 Y53.284 E0.01683
G1 X176.782 Y71.544 E0.81226
G1 X176.782 Y71.009 E0.01683
G1 X158.522 Y52.749 E0.81226
G1 X158.522 Y52.214 E0.01683
G1 X176.782 Y70.474 E0.81226
G1 X176.782 Y69.939 E0.01683
G1 X158.522 Y51.679 E0.81226
G1 X158.522 Y51.144 E0.01683
G1 X176.782 Y69.404 E0.81226
G1 X176.782 Y68.869 E0.01683
G1 X158.522 Y50.609 E0.81226
G1 X158.522 Y50.074 E0.01683
G1 X176.782 Y68.334 E0.81226
G1 X176.782 Y67.799 E0.01683
G1 X158.522 Y49.539 E0.81226
G1 X158.522 Y49.004 E0.01683
G1 X176.782 Y67.264 E0.81226
G1 X176.782 Y66.729 E0.01683
G1 X158.522 Y48.469 E0.81226
G1 X158.522 Y47.934 E0.01683
G1 X176.782 Y66.194 E0.81226
G1 X176.782 Y65.659 E0.01683
G1 X158.522 Y47.399 E0.81226
G1 X158.522 Y46.864 E0.01683
G1 X176.782 Y65.124 E0.81226
G1 X176.782 Y64.589 E0.01683
G1 X158.703 Y46.510 E0.80421
G1 X159.238 Y46.510 E0.01683
G1 X176.782 Y64.055 E0.78042
G1 X176.782 Y63.520 E0.01683
G1 X159.773 Y46.510 E0.75662
G1 X160.308 Y46.510 E0.01683
G1 X176.782 Y62.985 E0.73282
G1 X176.782 Y62.450 E0.01683
G1 X160.843 Y46.510 E0.70903
G1 X161.378 Y46.510 E0.01683
G1 X176.782 Y61.915 E0.68523
G1 X176.782 Y61.380 E0.01683
G1 X161.913 Y46.510 E0.66143
G1 X162.448 Y46.510 E0.01683
G1 X176.782 Y60.845 E0.63764
G1 X176.782 Y60.310 E0.01683
G1 X162.983 Y46.510 E0.61384
G1 X163.518 Y46.510 E0.01683
G1 X176.782 Y59.775 E0.59004
G1 X176.782 Y59.240 E0.01683
G1 X164.053 Y46.510 E0.56625
G1 X164.588 Y46.510 E0.01683
G1 X176.782 Y58.705 E0.54245
G1 X176.782 Y58.170 E0.01683
G1 X165.123 Y46.510 E0.51865
G1 X165.658 Y46.510 E0.01683
G1 X176.782 Y57.635 E0.49486
G1 X176.782 Y57.100 E0.01683
G1 X166.193 Y46.510 E0.47106
G1 X166.728 Y46.510 E0.01683
G1 X176.782 Y56.565 E0.44726
G1 X176.782 Y56.030 E0.01683
G1 X167.262 Y46.510 E0.42347
G1 X167.797 Y46.510 E0.01683
G1 X176.782 Y55.495 E0.39967
G1 X176.782 Y54.960 E0.01683
G1 X168.332 Y46.510 E0.37587
G1 X168.867 Y46.510 E0.01683
G1 X176.782 Y54.425 E0.35208
G1 X176.782 Y53.890 E0.01683
G1 X169.402 Y46.510 E0.32828
G1 X169.937 Y46.510 E0.01683
G1 X176.782 Y53.355 E0.30448
G1 X176.782 Y52.820 E0.01683
G1 X170.472 Y46.510 E0.28069
G1 X171.007 Y46.510 E0.01683
G1 X176.782 Y52.285 E0.25689
G1 X176.782 Y51.750 E0.01683
G1 X171.542 Y46.510 E0.23309
G1 X172.077 Y46.510 E0.01683
G1 X176.782 Y51.215 E0.20930
G1 X176.782 Y50.680 E0.01683
G1 X172.612 Y46.510 E0.18550
G1 X173.147 Y46.510 E0.01683
G1 X176.782 Y50.145 E0.16170
G1 X176.782 Y49.610 E0.01683
G1 X173.682 Y46.510 E0.13791
G1 X174.217 Y46.510 E0.01683
G1 X176.782 Y49.075 E0.11411
G1 X176.782 Y48.541 E0.01683
G1 X174.752 Y46.510 E0.09031
G1 X175.287 Y46.510 E0.01683
G1 X176.782 Y48.006 E0.06652
G1 X176.782 Y47.471 E0.01683
G1 X175.822 Y46.510 E0.04272
G1 X176.357 Y46.510 E0.01683
G1 X176.952 Y47.105 E0.02647
G1 E-0.80000 F2100.00000
G1 Z0.800 F10800.000
G1 X77.827 Y47.380
G1 Z0.200
G1 E0.80000 F2100.00000
G1 F1200
G1 X72.874 Y52.334 E0.21963
G1 X73.940 Y52.334 E0.03344
G1 X78.240 Y48.034 E0.19067
