; generated by PrusaSlicer 2.1.1+win64 on 2020-01-03 at 21:25:04 UTC

; 

; external perimeters extrusion width = 0.45mm
; perimeters extrusion width = 0.45mm
; infill extrusion width = 0.45mm
; solid infill extrusion width = 0.45mm
; top infill extrusion width = 0.40mm
; first layer extrusion width = 0.42mm

M73 P0 R127
M201 X9000 Y9000 Z500 E10000 ; sets maximum accelerations, mm/sec^2
M203 X500 Y500 Z12 E120 ; sets maximum feedrates, mm/sec
M204 P2000 R1500 T2000 ; sets acceleration (P, T) and retract acceleration (R), mm/sec^2
M205 X10.00 Y10.00 Z0.20 E2.50 ; sets the jerk limits, mm/sec
M205 S0 T0 ; sets the minimum extruding and travel feed rate, mm/sec
M107
M862.3 P "MK2.5SMMU2S" ; printer model check
M862.1 P0.4 ; nozzle diameter check
M115 U3.8.0 ; tell printer latest fw version
G90 ; use absolute coordinates
M83 ; extruder relative mode
M104 S215 ; set extruder temp
M140 S60 ; set bed temp
Tx
M190 S60 ; wait for bed temp
M109 S215 ; wait for extruder temp
G28 W ; home all without mesh bed level
G80 ; mesh bed leveling

G21 ; set units to millimeters

;go outside print area
G1 Y-3.0 F1000.0
G1 Z0.4 F1000.0
; select extruder
Tc
; purge line
G1 X55.0 F2000.0
G1 Z0.3 F1000.0
G92 E0.0
G1 X240.0 E25.0 F2200.0
M73 P0 R127
G1 Y-2.0 F1000.0
G1 X55.0 E25 F1400.0
G1 Z0.20 F1000.0
G1 X5.0 E4.0 F1000.0
G92 E0.0
G21 ; set units to millimeters
G90 ; use absolute coordinates
M83 ; use relative distances for extrusion
M900 K30 ; Filament gcode
;BEFORE_LAYER_CHANGE
G92 E0.0
;0.2


G1 E-0.80000 F2100.00000
G1 Z0.600 F10800.000
;AFTER_LAYER_CHANGE
;0.2
G1 X78.997 Y58.459
G1 Z0.200
G1 E0.80000 F2100.00000
M204 S1000
G1 F1200
G1 X79.528 Y57.796 E0.02664
G1 X80.182 Y57.416 E0.02372
G1 X80.927 Y57.281 E0.02372
G1 X173.420 Y57.281 E2.90007
G1 X174.264 Y57.431 E0.02689
G1 X174.986 Y57.893 E0.02687
G1 X175.475 Y58.597 E0.02687
G1 X175.656 Y59.434 E0.02687
G1 X175.657 Y150.549 E2.85683
G1 X175.602 Y151.016 E0.01475
G1 X175.449 Y151.461 E0.01475
G1 X175.204 Y151.863 E0.01475
G1 X174.879 Y152.203 E0.01475
G1 X174.229 Y152.583 E0.02360
G1 X173.489 Y152.719 E0.02360
G1 X117.249 Y152.704 E1.76335
G1 X75.896 Y141.062 E1.34700
G1 X75.313 Y140.795 E0.02010
G1 X74.833 Y140.370 E0.02010
G1 X74.460 Y139.733 E0.02315
G1 X74.320 Y139.004 E0.02326
G1 X74.323 Y115.369 E0.74106
G1 X78.759 Y59.271 E1.76440
G1 X78.980 Y58.517 E0.02465
G1 E-0.80000 F2100.00000
G1 Z0.800 F10800.000
G1 X77.095 Y116.081
G1 Z0.200
G1 E0.80000 F2100.00000
G1 F1200
G1 X110.921 Y116.081 E1.06059
G1 X110.921 Y138.374 E0.69898
G1 X77.095 Y138.374 E1.06059
G1 X77.095 Y116.141 E0.69710
G1 X76.718 Y115.703 F10800.000
G1 F1200
G1 X111.298 Y115.703 E1.08423
G1 X111.298 Y138.751 E0.72263
G1 X76.718 Y138.751 E1.08423
G1 X76.718 Y115.763 E0.72075
G1 X77.110 Y115.781 F10800.000
G1 E-0.80000 F2100.00000
G1 Z0.800 F10800.000
G1 X77.974 Y138.261
G1 Z0.200
G1 E0.80000 F2100.00000
G1 F1200
G1 X77.378 Y137.664 E0.02659
G1 X77.378 Y137.128 E0.01689
G1 X78.341 Y138.091 E0.04291
G1 X78.877 Y138.091 E0.01689
G1 X77.378 Y136.592 E0.06680
G1 X77.378 Y136.056 E0.01689
G1 X79.413 Y138.091 E0.09068
G1 X79.949 Y138.091 E0.01689
G1 X77.378 Y135.520 E0.11457
G1 X77.378 Y134.984 E0.01689
G1 X80.484 Y138.091 E0.13846
G1 X81.020 Y138.091 E0.01689
G1 X77.378 Y134.448 E0.16235
G1 X77.378 Y133.912 E0.01689
G1 X81.556 Y138.091 E0.18623
G1 X82.092 Y138.091 E0.01689
G1 X77.378 Y133.376 E0.21012
G1 X77.378 Y132.840 E0.01689
G1 X82.628 Y138.091 E0.23401
G1 X83.164 Y138.091 E0.01689
G1 X77.378 Y132.304 E0.25789
G1 X77.378 Y131.768 E0.01689
G1 X83.700 Y138.091 E0.28178
G1 X84.236 Y138.091 E0.01689
G1 X77.378 Y131.232 E0.30567
G1 X77.378 Y130.696 E0.01689
G1 X84.772 Y138.091 E0.32955
G1 X85.308 Y138.091 E0.01689
G1 X77.378 Y130.160 E0.35344
G1 X77.378 Y129.624 E0.01689
G1 X85.844 Y138.091 E0.37733
G1 X86.380 Y138.091 E0.01689
G1 X77.378 Y129.088 E0.40121
G1 X77.378 Y128.552 E0.01689
G1 X86.916 Y138.091 E0.42510
G1 X87.452 Y138.091 E0.01689
G1 X77.378 Y128.016 E0.44899
G1 X77.378 Y127.480 E0.01689
G1 X87.988 Y138.091 E0.47288
G1 X88.524 Y138.091 E0.01689
G1 X77.378 Y126.944 E0.49676
G1 X77.378 Y126.408 E0.01689
G1 X89.060 Y138.091 E0.52065
G1 X89.596 Y138.091 E0.01689
G1 X77.378 Y125.872 E0.54454
G1 X77.378 Y125.336 E0.01689
G1 X90.132 Y138.091 E0.56842
G1 X90.668 Y138.091 E0.01689
G1 X77.378 Y124.800 E0.59231
G1 X77.378 Y124.264 E0.01689
G1 X91.204 Y138.091 E0.61620
G1 X91.740 Y138.091 E0.01689
G1 X77.378 Y123.729 E0.64008
G1 X77.378 Y123.193 E0.01689
G1 X92.276 Y138.091 E0.66397
G1 X92.812 Y138.091 E0.01689
G1 X77.378 Y122.657 E0.68786
M73 P0 R126
G1 X77.378 Y122.121 E0.01689
G1 X93.348 Y138.091 E0.71174
G1 X93.884 Y138.091 E0.01689
G1 X77.378 Y121.585 E0.73563
G1 X77.378 Y121.049 E0.01689
G1 X94.420 Y138.091 E0.75952
G1 X94.956 Y138.091 E0.01689
G1 X77.378 Y120.513 E0.78341
G1 X77.378 Y119.977 E0.01689
G1 X95.492 Y138.091 E0.80729
G1 X96.028 Y138.091 E0.01689
G1 X77.378 Y119.441 E0.83118
G1 X77.378 Y118.905 E0.01689
G1 X96.564 Y138.091 E0.85507
G1 X97.100 Y138.091 E0.01689
G1 X77.378 Y118.369 E0.87895
G1 X77.378 Y117.833 E0.01689
G1 X97.636 Y138.091 E0.90284
G1 X98.172 Y138.091 E0.01689
G1 X77.378 Y117.297 E0.92673
G1 X77.378 Y116.761 E0.01689
G1 X98.708 Y138.091 E0.95061
G1 X99.244 Y138.091 E0.01689
G1 X77.516 Y116.363 E0.96833
G1 X78.052 Y116.363 E0.01689
G1 X99.780 Y138.091 E0.96833
G1 X100.316 Y138.091 E0.01689
G1 X78.588 Y116.363 E0.96833
G1 X79.124 Y116.363 E0.01689
G1 X100.852 Y138.091 E0.96833
G1 X101.388 Y138.091 E0.01689
G1 X79.660 Y116.363 E0.96833
G1 X80.196 Y116.363 E0.01689
G1 X101.924 Y138.091 E0.96833
G1 X102.460 Y138.091 E0.01689
G1 X80.732 Y116.363 E0.96833
G1 X81.268 Y116.363 E0.01689
G1 X102.996 Y138.091 E0.96833
G1 X103.532 Y138.091 E0.01689
G1 X81.804 Y116.363 E0.96833
G1 X82.340 Y116.363 E0.01689
G1 X104.068 Y138.091 E0.96833
G1 X104.604 Y138.091 E0.01689
G1 X82.876 Y116.363 E0.96833
G1 X83.412 Y116.363 E0.01689
G1 X105.140 Y138.091 E0.96833
G1 X105.676 Y138.091 E0.01689
G1 X83.948 Y116.363 E0.96833
G1 X84.484 Y116.363 E0.01689
G1 X106.212 Y138.091 E0.96833
G1 X106.748 Y138.091 E0.01689
G1 X85.020 Y116.363 E0.96833
G1 X85.556 Y116.363 E0.01689
G1 X107.283 Y138.091 E0.96833
G1 X107.819 Y138.091 E0.01689
G1 X86.092 Y116.363 E0.96833
G1 X86.628 Y116.363 E0.01689
G1 X108.355 Y138.091 E0.96833
G1 X108.891 Y138.091 E0.01689
G1 X87.164 Y116.363 E0.96833
G1 X87.700 Y116.363 E0.01689
G1 X109.427 Y138.091 E0.96833
G1 X109.963 Y138.091 E0.01689
G1 X88.236 Y116.363 E0.96833
G1 X88.772 Y116.363 E0.01689
G1 X110.499 Y138.091 E0.96833
G1 X110.638 Y138.091 E0.00437
G1 X110.638 Y137.694 E0.01252
G1 X89.308 Y116.363 E0.95062
G1 X89.844 Y116.363 E0.01689
G1 X110.638 Y137.158 E0.92673
G1 X110.638 Y136.622 E0.01689
G1 X90.380 Y116.363 E0.90285
G1 X90.916 Y116.363 E0.01689
G1 X110.638 Y136.086 E0.87896
G1 X110.638 Y135.550 E0.01689
G1 X91.452 Y116.363 E0.85507
G1 X91.988 Y116.363 E0.01689
G1 X110.638 Y135.014 E0.83119
G1 X110.638 Y134.478 E0.01689
G1 X92.524 Y116.363 E0.80730
G1 X93.060 Y116.363 E0.01689
G1 X110.638 Y133.942 E0.78341
M73 P1 R125
G1 X110.638 Y133.406 E0.01689
G1 X93.596 Y116.363 E0.75952
G1 X94.132 Y116.363 E0.01689
G1 X110.638 Y132.870 E0.73564
G1 X110.638 Y132.334 E0.01689
G1 X94.668 Y116.363 E0.71175
G1 X95.204 Y116.363 E0.01689
G1 X110.638 Y131.798 E0.68786
G1 X110.638 Y131.262 E0.01689
G1 X95.740 Y116.363 E0.66398
G1 X96.276 Y116.363 E0.01689
G1 X110.638 Y130.726 E0.64009
G1 X110.638 Y130.190 E0.01689
G1 X96.812 Y116.363 E0.61620
G1 X97.348 Y116.363 E0.01689
G1 X110.638 Y129.654 E0.59232
G1 X110.638 Y129.118 E0.01689
G1 X97.884 Y116.363 E0.56843
G1 X98.419 Y116.363 E0.01689
G1 X110.638 Y128.582 E0.54454
G1 X110.638 Y128.046 E0.01689
G1 X98.955 Y116.363 E0.52065
G1 X99.491 Y116.363 E0.01689
G1 X110.638 Y127.510 E0.49677
G1 X110.638 Y126.974 E0.01689
G1 X100.027 Y116.363 E0.47288
G1 X100.563 Y116.363 E0.01689
G1 X110.638 Y126.438 E0.44899
G1 X110.638 Y125.902 E0.01689
G1 X101.099 Y116.363 E0.42511
G1 X101.635 Y116.363 E0.01689
G1 X110.638 Y125.366 E0.40122
G1 X110.638 Y124.830 E0.01689
G1 X102.171 Y116.363 E0.37733
G1 X102.707 Y116.363 E0.01689
G1 X110.638 Y124.294 E0.35345
G1 X110.638 Y123.758 E0.01689
G1 X103.243 Y116.363 E0.32956
G1 X103.779 Y116.363 E0.01689
G1 X110.638 Y123.222 E0.30567
G1 X110.638 Y122.686 E0.01689
G1 X104.315 Y116.363 E0.28179
G1 X104.851 Y116.363 E0.01689
G1 X110.638 Y122.150 E0.25790
G1 X110.638 Y121.614 E0.01689
G1 X105.387 Y116.363 E0.23401
G1 X105.923 Y116.363 E0.01689
G1 X110.638 Y121.078 E0.21012
G1 X110.638 Y120.542 E0.01689
G1 X106.459 Y116.363 E0.18624
G1 X106.995 Y116.363 E0.01689
G1 X110.638 Y120.006 E0.16235
G1 X110.638 Y119.470 E0.01689
G1 X107.531 Y116.363 E0.13846
G1 X108.067 Y116.363 E0.01689
G1 X110.638 Y118.934 E0.11458
G1 X110.638 Y118.398 E0.01689
G1 X108.603 Y116.363 E0.09069
G1 X109.139 Y116.363 E0.01689
G1 X110.638 Y117.862 E0.06680
G1 X110.638 Y117.326 E0.01689
G1 X109.675 Y116.363 E0.04292
G1 X110.211 Y116.363 E0.01689
G1 X110.808 Y116.960 E0.02659
G1 E-0.80000 F2100.00000
G1 Z0.800 F10800.000
G1 X120.140 Y142.122
G1 Z0.200
G1 E0.80000 F2100.00000
G1 F1200
G1 X120.720 Y141.947 E0.01899
G1 X121.296 Y141.890 E0.01814
G1 X121.923 Y141.946 E0.01975
G1 X122.505 Y142.122 E0.01908
G1 X123.040 Y142.408 E0.01899
G1 X123.508 Y142.792 E0.01899
G1 X123.892 Y143.260 E0.01899
G1 X124.178 Y143.795 E0.01899
G1 X124.353 Y144.374 E0.01899
G1 X124.413 Y144.977 E0.01899
G1 X124.353 Y145.580 E0.01899
G1 X124.178 Y146.160 E0.01899
G1 X123.892 Y146.694 E0.01899
G1 X123.508 Y147.162 E0.01899
G1 X123.040 Y147.546 E0.01899
G1 X122.505 Y147.832 E0.01899
G1 X121.926 Y148.008 E0.01899
G1 X121.323 Y148.067 E0.01899
G1 X120.720 Y148.008 E0.01899
G1 X120.140 Y147.832 E0.01899
G1 X119.606 Y147.546 E0.01899
G1 X119.138 Y147.162 E0.01899
G1 X118.754 Y146.694 E0.01899
G1 X118.468 Y146.160 E0.01899
G1 X118.292 Y145.580 E0.01899
G1 X118.233 Y144.977 E0.01899
G1 X118.292 Y144.374 E0.01899
G1 X118.468 Y143.795 E0.01899
G1 X118.754 Y143.260 E0.01899
G1 X119.138 Y142.792 E0.01899
G1 X119.606 Y142.408 E0.01899
G1 X120.088 Y142.151 E0.01711
G1 X120.265 Y142.483 F10800.000
G1 F1200
G1 X120.794 Y142.318 E0.01737
G1 X121.298 Y142.269 E0.01586
G1 X121.851 Y142.318 E0.01742
G1 X122.360 Y142.472 E0.01669
G1 X122.829 Y142.723 E0.01666
G1 X123.240 Y143.060 E0.01666
G1 X123.577 Y143.471 E0.01666
G1 X123.828 Y143.940 E0.01666
G1 X123.982 Y144.448 E0.01666
G1 X124.034 Y144.977 E0.01666
G1 X123.982 Y145.506 E0.01666
G1 X123.828 Y146.015 E0.01666
G1 X123.577 Y146.483 E0.01666
G1 X123.240 Y146.894 E0.01666
G1 X122.829 Y147.231 E0.01666
G1 X122.360 Y147.482 E0.01666
G1 X121.852 Y147.636 E0.01666
G1 X121.323 Y147.688 E0.01666
G1 X120.794 Y147.636 E0.01666
G1 X120.285 Y147.482 E0.01666
G1 X119.817 Y147.231 E0.01666
G1 X119.406 Y146.894 E0.01666
G1 X119.069 Y146.483 E0.01666
G1 X118.818 Y146.015 E0.01666
G1 X118.664 Y145.506 E0.01666
G1 X118.612 Y144.977 E0.01666
G1 X118.664 Y144.448 E0.01666
G1 X118.818 Y143.940 E0.01666
G1 X119.069 Y143.471 E0.01666
G1 X119.406 Y143.060 E0.01666
G1 X119.817 Y142.723 E0.01666
G1 X120.212 Y142.512 E0.01407
G1 X120.315 Y142.086 F10800.000
G1 E-0.80000 F2100.00000
G1 Z0.800 F10800.000
G1 X166.964 Y141.057
G1 Z0.200
G1 E0.80000 F2100.00000
G1 F1200
G1 X166.964 Y130.836 E0.32046
G1 X158.300 Y112.757 E0.62861
G1 X161.154 Y112.757 E0.08951
G1 X161.154 Y96.182 E0.51967
G1 X158.300 Y96.182 E0.08951
G1 X166.964 Y78.103 E0.62861
G1 X166.964 Y60.057 E0.56583
G1 X172.881 Y60.057 E0.18552
G1 X172.881 Y149.943 E2.81834
G1 X118.095 Y149.943 E1.71778
G1 X118.095 Y141.056 E0.27865
G1 X166.904 Y141.057 E1.53038
G1 X166.587 Y140.679 F10800.000
G1 F1200
G1 X166.587 Y130.922 E0.30595
G1 X157.701 Y112.379 E0.64470
G1 X160.777 Y112.379 E0.09646
G1 X160.777 Y96.559 E0.49603
G1 X157.701 Y96.559 E0.09646
G1 X166.587 Y78.017 E0.64470
G1 X166.587 Y59.679 E0.57497
G1 X173.258 Y59.679 E0.20917
G1 X173.258 Y150.321 E2.84199
G1 X117.718 Y150.321 E1.74143
G1 X117.718 Y140.679 E0.30229
G1 X166.527 Y140.679 E1.53038
G1 X166.986 Y140.653 F10800.000
G1 E-0.80000 F2100.00000
G1 Z0.800 F10800.000
G1 X172.768 Y136.288
G1 Z0.200
G1 E0.80000 F2100.00000
G1 F1200
G1 X167.243 Y130.763 E0.24553
G1 X167.247 Y131.302 E0.01693
G1 X172.598 Y136.653 E0.23780
G1 X172.598 Y137.187 E0.01679
G1 X167.247 Y131.836 E0.23780
G1 X167.247 Y132.370 E0.01679
G1 X172.598 Y137.722 E0.23780
G1 X172.598 Y138.256 E0.01679
G1 X167.247 Y132.905 E0.23780
G1 X167.247 Y133.439 E0.01679
G1 X172.598 Y138.791 E0.23780
G1 X172.598 Y139.325 E0.01679
G1 X167.247 Y133.974 E0.23780
G1 X167.247 Y134.508 E0.01679
G1 X172.598 Y139.859 E0.23780
G1 X172.598 Y140.394 E0.01679
G1 X167.247 Y135.043 E0.23780
G1 X167.247 Y135.577 E0.01679
G1 X172.598 Y140.928 E0.23780
G1 X172.598 Y141.463 E0.01679
G1 X167.247 Y136.111 E0.23780
G1 X167.247 Y136.646 E0.01679
G1 X172.598 Y141.997 E0.23780
G1 X172.598 Y142.532 E0.01679
G1 X167.247 Y137.180 E0.23780
G1 X167.247 Y137.715 E0.01679
G1 X172.598 Y143.066 E0.23780
M73 P2 R124
G1 X172.598 Y143.600 E0.01679
G1 X167.247 Y138.249 E0.23780
G1 X167.247 Y138.784 E0.01679
G1 X172.598 Y144.135 E0.23780
G1 X172.598 Y144.669 E0.01679
G1 X167.247 Y139.318 E0.23780
G1 X167.247 Y139.852 E0.01679
G1 X172.598 Y145.204 E0.23780
G1 X172.598 Y145.738 E0.01679
G1 X167.247 Y140.387 E0.23780
G1 X167.247 Y140.921 E0.01679
G1 X172.598 Y146.273 E0.23780
G1 X172.598 Y146.807 E0.01679
G1 X167.131 Y141.339 E0.24297
G1 X166.596 Y141.339 E0.01679
G1 X172.598 Y147.341 E0.26672
G1 X172.598 Y147.876 E0.01679
G1 X166.062 Y141.339 E0.29047
G1 X165.527 Y141.339 E0.01679
G1 X172.598 Y148.410 E0.31422
G1 X172.598 Y148.945 E0.01679
G1 X164.993 Y141.339 E0.33797
G1 X164.458 Y141.339 E0.01679
G1 X172.598 Y149.479 E0.36172
G1 X172.598 Y149.661 E0.00571
G1 X172.245 Y149.661 E0.01109
G1 X163.924 Y141.339 E0.36979
G1 X163.390 Y141.339 E0.01679
G1 X171.711 Y149.661 E0.36979
G1 X171.177 Y149.661 E0.01679
G1 X162.855 Y141.339 E0.36979
G1 X162.321 Y141.339 E0.01679
G1 X170.642 Y149.661 E0.36979
G1 X170.108 Y149.661 E0.01679
G1 X161.786 Y141.339 E0.36979
G1 X161.252 Y141.339 E0.01679
G1 X169.573 Y149.661 E0.36979
G1 X169.039 Y149.661 E0.01679
G1 X160.717 Y141.339 E0.36979
G1 X160.183 Y141.339 E0.01679
G1 X168.504 Y149.661 E0.36979
G1 X167.970 Y149.661 E0.01679
G1 X159.649 Y141.339 E0.36979
G1 X159.114 Y141.339 E0.01679
G1 X167.436 Y149.661 E0.36979
G1 X166.901 Y149.661 E0.01679
G1 X158.580 Y141.339 E0.36979
G1 X158.045 Y141.339 E0.01679
G1 X166.367 Y149.661 E0.36979
G1 X165.832 Y149.661 E0.01679
G1 X157.511 Y141.339 E0.36979
G1 X156.976 Y141.339 E0.01679
G1 X165.298 Y149.661 E0.36979
G1 X164.763 Y149.661 E0.01679
G1 X156.442 Y141.339 E0.36979
G1 X155.908 Y141.339 E0.01679
G1 X164.229 Y149.661 E0.36979
G1 X163.695 Y149.661 E0.01679
G1 X155.373 Y141.339 E0.36979
G1 X154.839 Y141.339 E0.01679
G1 X163.160 Y149.661 E0.36979
G1 X162.626 Y149.661 E0.01679
G1 X154.304 Y141.339 E0.36979
G1 X153.770 Y141.339 E0.01679
G1 X162.091 Y149.661 E0.36979
G1 X161.557 Y149.661 E0.01679
G1 X153.235 Y141.339 E0.36979
G1 X152.701 Y141.339 E0.01679
G1 X161.022 Y149.661 E0.36979
G1 X160.488 Y149.661 E0.01679
G1 X152.167 Y141.339 E0.36979
G1 X151.632 Y141.339 E0.01679
G1 X159.954 Y149.661 E0.36979
G1 X159.419 Y149.661 E0.01679
G1 X151.098 Y141.339 E0.36979
G1 X150.563 Y141.339 E0.01679
G1 X158.885 Y149.661 E0.36979
G1 X158.350 Y149.661 E0.01679
G1 X150.029 Y141.339 E0.36979
G1 X149.494 Y141.339 E0.01679
G1 X157.816 Y149.661 E0.36979
G1 X157.281 Y149.661 E0.01679
G1 X148.960 Y141.339 E0.36979
G1 X148.426 Y141.339 E0.01679
G1 X156.747 Y149.661 E0.36979
G1 X156.213 Y149.661 E0.01679
G1 X147.891 Y141.339 E0.36979
G1 X147.357 Y141.339 E0.01679
G1 X155.678 Y149.661 E0.36979
G1 X155.144 Y149.661 E0.01679
G1 X146.822 Y141.339 E0.36979
G1 X146.288 Y141.339 E0.01679
G1 X154.609 Y149.661 E0.36979
G1 X154.075 Y149.661 E0.01679
G1 X145.753 Y141.339 E0.36979
G1 X145.219 Y141.339 E0.01679
G1 X153.540 Y149.661 E0.36979
G1 X153.006 Y149.661 E0.01679
G1 X144.685 Y141.339 E0.36979
G1 X144.150 Y141.339 E0.01679
G1 X152.472 Y149.661 E0.36979
G1 X151.937 Y149.661 E0.01679
G1 X143.616 Y141.339 E0.36979
G1 X143.081 Y141.339 E0.01679
G1 X151.403 Y149.661 E0.36979
G1 X150.868 Y149.661 E0.01679
