; generated by PrusaSlicer 2.1.0+win64 on 2019-11-22 at 17:08:44 UTC

; 

; external perimeters extrusion width = 0.60mm
; perimeters extrusion width = 0.43mm
; infill extrusion width = 0.45mm
; solid infill extrusion width = 0.70mm
; top infill extrusion width = 0.43mm
; first layer extrusion width = 0.42mm

M73 P0 R10
M201 X9000 Y9000 Z500 E10000 ; sets maximum accelerations, mm/sec^2
M203 X500 Y500 Z12 E120 ; sets maximum feedrates, mm/sec
M204 P2000 R1500 T2000 ; sets acceleration (P, T) and retract acceleration (R), mm/sec^2
M205 X10.00 Y10.00 Z0.20 E2.50 ; sets the jerk limits, mm/sec
M205 S0 T0 ; sets the minimum extruding and travel feed rate, mm/sec
M107
M862.3 P "MK2.5SMMU2S" ; printer model check
M862.1 P0.4 ; nozzle diameter check
M115 U3.8.0 ; tell printer latest fw version
G90 ; use absolute coordinates
M83 ; extruder relative mode
M104 S215 ; set extruder temp
M140 S60 ; set bed temp
Tx
M190 S60 ; wait for bed temp
M109 S215 ; wait for extruder temp
G28 W ; home all without mesh bed level
G80 ; mesh bed leveling

G21 ; set units to millimeters

;go outside print area
G1 Y-3.0 F1000.0
G1 Z0.4 F1000.0
; select extruder
Tc
; purge line
G1 X55.0 F2000.0
G1 Z0.3 F1000.0
G92 E0.0
G1 X240.0 E25.0 F2200.0
M73 P1 R10
G1 Y-2.0 F1000.0
G1 X55.0 E25 F1400.0
G1 Z0.20 F1000.0
G1 X5.0 E4.0 F1000.0
G92 E0.0
G21 ; set units to millimeters
G90 ; use absolute coordinates
M83 ; use relative distances for extrusion
M900 K30 ; Filament gcode
;BEFORE_LAYER_CHANGE
G92 E0.0
;0.2


G1 E-0.80000 F2100.00000
G1 Z0.600 F10800.000
;AFTER_LAYER_CHANGE
;0.2
G1 X106.787 Y86.775
G1 Z0.200
G1 E0.80000 F2100.00000
M204 S1000
G1 F1200
G1 X108.385 Y85.475 E0.06458
G1 X109.481 Y84.847 E0.03959
G1 X110.646 Y84.360 E0.03961
G1 X112.621 Y83.889 E0.06365
G1 X113.976 Y83.797 E0.04259
G1 X136.018 Y83.797 E0.69112
G1 X137.932 Y83.980 E0.06027
G1 X139.298 Y84.340 E0.04430
G1 X141.053 Y85.131 E0.06034
G1 X142.270 Y85.944 E0.04590
G1 X143.676 Y87.269 E0.06057
G1 X144.803 Y88.833 E0.06045
G1 X145.450 Y90.142 E0.04579
G1 X145.997 Y91.949 E0.05920
G1 X146.203 Y93.969 E0.06365
G1 X146.183 Y116.650 E0.71114
G1 X146.008 Y118.000 E0.04270
G1 X145.663 Y119.287 E0.04179
G1 X145.152 Y120.522 E0.04190
G1 X144.475 Y121.691 E0.04236
G1 X143.678 Y122.728 E0.04099
G1 X142.785 Y123.627 E0.03973
G1 X141.111 Y124.837 E0.06479
G1 X139.225 Y125.683 E0.06479
G1 X137.997 Y126.008 E0.03984
G1 X136.705 Y126.180 E0.04087
G1 X113.332 Y126.182 E0.73283
G1 X112.000 Y126.008 E0.04213
G1 X110.709 Y125.662 E0.04190
G1 X109.478 Y125.152 E0.04179
G1 X108.309 Y124.475 E0.04236
G1 X107.272 Y123.678 E0.04099
G1 X106.373 Y122.785 E0.03973
G1 X105.163 Y121.111 E0.06479
G1 X104.317 Y119.225 E0.06479
G1 X103.992 Y117.997 E0.03984
G1 X103.820 Y116.705 E0.04087
G1 X103.818 Y93.332 E0.73283
G1 X103.992 Y92.000 E0.04213
G1 X104.338 Y90.709 E0.04190
G1 X104.848 Y89.478 E0.04179
G1 X105.525 Y88.309 E0.04235
G1 X106.749 Y86.821 E0.06040
G1 E-0.80000 F2100.00000
G1 Z0.800 F10800.000
G1 X132.495 Y93.286
G1 Z0.200
G1 E0.80000 F2100.00000
G1 F1200
G1 X132.613 Y92.847 E0.01425
G1 X132.703 Y92.604 E0.00812
G1 X132.900 Y92.205 E0.01396
G1 X133.036 Y91.985 E0.00812
G1 X133.311 Y91.627 E0.01413
G1 X133.484 Y91.442 E0.00796
G1 X133.819 Y91.149 E0.01394
G1 X134.029 Y90.997 E0.00812
G1 X134.419 Y90.772 E0.01413
G1 X134.650 Y90.667 E0.00796
G1 X135.077 Y90.523 E0.01411
G1 X135.315 Y90.467 E0.00766
G1 X135.556 Y90.427 E0.00766
G1 X135.999 Y90.398 E0.01394
G1 X136.258 Y90.406 E0.00812
G1 X136.705 Y90.465 E0.01413
G1 X136.952 Y90.523 E0.00796
G1 X137.388 Y90.670 E0.01441
G1 X137.795 Y90.871 E0.01425
G1 X138.015 Y91.007 E0.00812
G1 X138.369 Y91.278 E0.01396
G1 X138.551 Y91.448 E0.00782
G1 X138.718 Y91.627 E0.00768
G1 X138.998 Y91.992 E0.01441
G1 X139.228 Y92.390 E0.01441
G1 X139.329 Y92.613 E0.00766
G1 X139.415 Y92.841 E0.00766
G1 X139.534 Y93.285 E0.01441
G1 X139.593 Y93.736 E0.01425
G1 X139.602 Y93.995 E0.00812
G1 X139.573 Y94.444 E0.01413
G1 X139.533 Y94.685 E0.00766
G1 X139.477 Y94.923 E0.00766
G1 X139.333 Y95.350 E0.01411
G1 X139.228 Y95.581 E0.00796
G1 X138.998 Y95.979 E0.01441
G1 X138.722 Y96.340 E0.01425
G1 X138.545 Y96.529 E0.00812
G1 X138.210 Y96.822 E0.01396
G1 X138.000 Y96.974 E0.00812
G1 X137.610 Y97.199 E0.01413
G1 X137.379 Y97.304 E0.00796
G1 X136.952 Y97.448 E0.01411
G1 X136.714 Y97.504 E0.00766
G1 X136.473 Y97.544 E0.00766
G1 X136.015 Y97.574 E0.01441
G1 X135.556 Y97.544 E0.01441
G1 X135.305 Y97.502 E0.00796
G1 X134.876 Y97.387 E0.01394
G1 X134.633 Y97.297 E0.00812
G1 X134.234 Y97.100 E0.01396
G1 X134.014 Y96.964 E0.00812
G1 X133.660 Y96.693 E0.01396
G1 X133.478 Y96.522 E0.00782
G1 X133.311 Y96.344 E0.00768
G1 X133.037 Y95.987 E0.01411
G1 X132.903 Y95.771 E0.00796
G1 X132.699 Y95.359 E0.01441
G1 X132.553 Y94.929 E0.01425
G1 X132.496 Y94.686 E0.00782
G1 X132.456 Y94.444 E0.00768
G1 X132.427 Y93.995 E0.01411
G1 X132.435 Y93.741 E0.00796
G1 X132.487 Y93.345 E0.01253
G1 X132.861 Y93.394 F10800.000
G1 F1200
G1 X132.972 Y92.962 E0.01400
G1 X133.050 Y92.754 E0.00696
G1 X133.230 Y92.388 E0.01280
G1 X133.347 Y92.199 E0.00696
G1 X133.599 Y91.871 E0.01296
G1 X133.747 Y91.713 E0.00680
G1 X134.054 Y91.444 E0.01279
G1 X134.234 Y91.314 E0.00696
G1 X134.592 Y91.108 E0.01296
G1 X134.789 Y91.018 E0.00680
G1 X135.180 Y90.886 E0.01295
G1 X135.388 Y90.837 E0.00669
G1 X135.599 Y90.802 E0.00669
G1 X136.006 Y90.775 E0.01279
G1 X136.228 Y90.782 E0.00696
G1 X136.637 Y90.836 E0.01296
G1 X136.849 Y90.886 E0.00680
G1 X137.243 Y91.019 E0.01306
G1 X137.612 Y91.201 E0.01290
G1 X137.801 Y91.318 E0.00696
G1 X138.125 Y91.566 E0.01280
G1 X138.284 Y91.715 E0.00685
G1 X138.430 Y91.871 E0.00670
G1 X138.684 Y92.202 E0.01306
G1 X138.892 Y92.563 E0.01306
G1 X138.980 Y92.757 E0.00669
G1 X139.055 Y92.957 E0.00669
G1 X139.163 Y93.359 E0.01306
G1 X139.217 Y93.767 E0.01290
G1 X139.225 Y93.989 E0.00696
G1 X139.198 Y94.401 E0.01296
G1 X139.163 Y94.612 E0.00669
G1 X139.114 Y94.820 E0.00669
G1 X138.982 Y95.211 E0.01295
G1 X138.892 Y95.408 E0.00680
G1 X138.684 Y95.769 E0.01306
G1 X138.434 Y96.096 E0.01290
G1 X138.282 Y96.258 E0.00696
G1 X137.975 Y96.527 E0.01280
G1 X137.795 Y96.657 E0.00696
G1 X137.437 Y96.863 E0.01296
G1 X137.240 Y96.953 E0.00680
G1 X136.849 Y97.085 E0.01295
G1 X136.641 Y97.134 E0.00669
G1 X136.430 Y97.169 E0.00669
G1 X136.015 Y97.196 E0.01306
G1 X135.599 Y97.169 E0.01306
G1 X135.385 Y97.133 E0.00680
G1 X134.991 Y97.028 E0.01279
G1 X134.783 Y96.950 E0.00696
G1 X134.417 Y96.770 E0.01280
G1 X134.228 Y96.653 E0.00696
G1 X133.904 Y96.405 E0.01280
G1 X133.745 Y96.255 E0.00685
G1 X133.599 Y96.100 E0.00670
G1 X133.347 Y95.772 E0.01295
G1 X133.233 Y95.588 E0.00680
G1 X133.048 Y95.214 E0.01306
G1 X132.916 Y94.825 E0.01290
G1 X132.866 Y94.612 E0.00685
G1 X132.831 Y94.401 E0.00670
G1 X132.804 Y93.989 E0.01295
G1 X132.811 Y93.772 E0.00680
G1 X132.853 Y93.454 E0.01007
G1 X132.561 Y93.130 F10800.000
G1 E-0.80000 F2100.00000
G1 Z0.800 F10800.000
G1 X128.706 Y92.769
G1 Z0.200
G1 E0.80000 F2100.00000
G1 F1200
G1 X128.854 Y92.067 E0.02250
G1 X128.995 Y91.603 E0.01521
G1 X129.166 Y91.149 E0.01521
G1 X129.366 Y90.707 E0.01521
G1 X129.595 Y90.279 E0.01521
G1 X129.851 Y89.867 E0.01521
G1 X130.134 Y89.473 E0.01521
G1 X130.441 Y89.098 E0.01521
G1 X130.764 Y88.753 E0.01481
G1 X131.127 Y88.412 E0.01562
G1 X131.502 Y88.105 E0.01519
G1 X131.896 Y87.822 E0.01521
G1 X132.308 Y87.566 E0.01521
G1 X132.736 Y87.337 E0.01521
G1 X133.178 Y87.137 E0.01521
G1 X133.632 Y86.966 E0.01521
G1 X134.096 Y86.825 E0.01521
G1 X134.568 Y86.715 E0.01521
G1 X135.047 Y86.636 E0.01521
G1 X135.530 Y86.589 E0.01521
G1 X136.015 Y86.573 E0.01521
G1 X136.487 Y86.588 E0.01481
G1 X136.983 Y86.636 E0.01562
G1 X137.461 Y86.715 E0.01519
G1 X137.933 Y86.825 E0.01521
G1 X138.397 Y86.966 E0.01521
G1 X138.851 Y87.137 E0.01521
G1 X139.293 Y87.337 E0.01521
G1 X139.721 Y87.566 E0.01521
G1 X140.133 Y87.822 E0.01521
G1 X140.527 Y88.105 E0.01521
G1 X140.902 Y88.412 E0.01521
G1 X141.247 Y88.735 E0.01481
G1 X141.588 Y89.098 E0.01562
G1 X141.895 Y89.473 E0.01519
G1 X142.178 Y89.867 E0.01521
G1 X142.434 Y90.279 E0.01521
G1 X142.663 Y90.707 E0.01521
G1 X142.858 Y91.137 E0.01481
G1 X143.034 Y91.603 E0.01562
G1 X143.175 Y92.067 E0.01519
G1 X143.285 Y92.539 E0.01521
G1 X143.364 Y93.018 E0.01521
G1 X143.411 Y93.501 E0.01521
G1 X143.427 Y93.985 E0.01521
G1 X143.411 Y94.470 E0.01521
G1 X143.364 Y94.953 E0.01521
G1 X143.285 Y95.432 E0.01521
G1 X143.175 Y95.904 E0.01521
G1 X143.034 Y96.368 E0.01521
G1 X142.863 Y96.822 E0.01521
G1 X142.663 Y97.264 E0.01521
G1 X142.434 Y97.692 E0.01521
G1 X142.178 Y98.104 E0.01521
G1 X141.895 Y98.498 E0.01521
G1 X141.588 Y98.873 E0.01521
G1 X141.265 Y99.218 E0.01481
G1 X140.902 Y99.559 E0.01562
G1 X140.527 Y99.866 E0.01519
G1 X140.133 Y100.149 E0.01521
G1 X139.721 Y100.405 E0.01521
G1 X139.293 Y100.634 E0.01521
G1 X138.863 Y100.829 E0.01481
G1 X138.397 Y101.005 E0.01562
G1 X137.933 Y101.146 E0.01519
G1 X137.461 Y101.256 E0.01521
G1 X136.982 Y101.335 E0.01521
G1 X136.499 Y101.382 E0.01521
G1 X136.027 Y101.398 E0.01481
G1 X135.529 Y101.382 E0.01562
G1 X135.047 Y101.335 E0.01519
G1 X134.581 Y101.258 E0.01481
G1 X134.096 Y101.145 E0.01562
G1 X133.632 Y101.005 E0.01519
G1 X133.178 Y100.834 E0.01521
G1 X132.736 Y100.634 E0.01521
G1 X132.308 Y100.405 E0.01521
G1 X131.896 Y100.149 E0.01521
G1 X131.502 Y99.866 E0.01521
G1 X131.127 Y99.559 E0.01521
G1 X130.782 Y99.236 E0.01481
G1 X130.441 Y98.873 E0.01562
G1 X130.134 Y98.498 E0.01519
G1 X129.851 Y98.104 E0.01521
G1 X129.595 Y97.692 E0.01521
G1 X129.366 Y97.264 E0.01521
G1 X129.171 Y96.834 E0.01481
G1 X128.995 Y96.368 E0.01562
G1 X128.854 Y95.904 E0.01519
G1 X128.744 Y95.432 E0.01521
G1 X128.665 Y94.953 E0.01521
G1 X128.618 Y94.470 E0.01521
G1 X128.602 Y93.998 E0.01481
G1 X128.618 Y93.500 E0.01562
G1 X128.697 Y92.828 E0.02121
G1 X128.325 Y92.767 F10800.000
G1 F1200
G1 X128.490 Y91.969 E0.02554
G1 X128.638 Y91.482 E0.01598
G1 X128.818 Y91.004 E0.01598
G1 X129.028 Y90.540 E0.01598
G1 X129.268 Y90.091 E0.01598
G1 X129.537 Y89.658 E0.01598
G1 X129.834 Y89.243 E0.01598
G1 X130.158 Y88.849 E0.01598
G1 X130.497 Y88.487 E0.01558
G1 X130.878 Y88.129 E0.01639
G1 X131.272 Y87.805 E0.01598
G1 X131.687 Y87.508 E0.01598
G1 X132.120 Y87.239 E0.01598
G1 X132.569 Y86.999 E0.01598
G1 X133.033 Y86.789 E0.01598
G1 X133.511 Y86.609 E0.01598
G1 X133.998 Y86.461 E0.01598
G1 X134.495 Y86.345 E0.01598
G1 X134.998 Y86.262 E0.01598
G1 X135.505 Y86.212 E0.01598
G1 X136.015 Y86.196 E0.01598
G1 X136.511 Y86.212 E0.01558
G1 X137.031 Y86.262 E0.01639
G1 X137.534 Y86.345 E0.01598
G1 X138.031 Y86.461 E0.01598
G1 X138.518 Y86.609 E0.01598
G1 X138.996 Y86.789 E0.01598
G1 X139.460 Y86.999 E0.01598
G1 X139.909 Y87.239 E0.01598
G1 X140.342 Y87.508 E0.01598
G1 X140.757 Y87.805 E0.01598
G1 X141.151 Y88.129 E0.01598
G1 X141.513 Y88.468 E0.01558
G1 X141.871 Y88.849 E0.01639
G1 X142.195 Y89.243 E0.01598
G1 X142.492 Y89.658 E0.01598
G1 X142.761 Y90.091 E0.01598
G1 X143.001 Y90.540 E0.01598
G1 X143.206 Y90.993 E0.01558
G1 X143.391 Y91.482 E0.01639
G1 X143.539 Y91.969 E0.01598
G1 X143.655 Y92.466 E0.01598
G1 X143.738 Y92.969 E0.01598
G1 X143.788 Y93.476 E0.01598
G1 X143.804 Y93.985 E0.01598
G1 X143.788 Y94.495 E0.01598
G1 X143.738 Y95.002 E0.01598
G1 X143.655 Y95.505 E0.01598
G1 X143.539 Y96.002 E0.01598
G1 X143.391 Y96.489 E0.01598
G1 X143.211 Y96.967 E0.01598
G1 X143.001 Y97.431 E0.01598
G1 X142.761 Y97.880 E0.01598
G1 X142.492 Y98.313 E0.01598
G1 X142.195 Y98.728 E0.01598
G1 X141.871 Y99.122 E0.01598
G1 X141.532 Y99.484 E0.01558
G1 X141.151 Y99.842 E0.01639
G1 X140.757 Y100.166 E0.01598
G1 X140.342 Y100.463 E0.01598
G1 X139.909 Y100.732 E0.01598
G1 X139.460 Y100.972 E0.01598
G1 X139.007 Y101.177 E0.01558
G1 X138.518 Y101.362 E0.01639
G1 X138.031 Y101.510 E0.01598
G1 X137.534 Y101.626 E0.01598
G1 X137.031 Y101.709 E0.01598
G1 X136.524 Y101.759 E0.01598
G1 X136.027 Y101.775 E0.01558
G1 X135.505 Y101.759 E0.01639
G1 X134.998 Y101.709 E0.01598
G1 X134.508 Y101.628 E0.01558
G1 X133.998 Y101.510 E0.01639
G1 X133.511 Y101.362 E0.01598
G1 X133.033 Y101.182 E0.01598
G1 X132.569 Y100.972 E0.01598
G1 X132.120 Y100.732 E0.01598
G1 X131.687 Y100.463 E0.01598
G1 X131.272 Y100.166 E0.01598
G1 X130.878 Y99.842 E0.01598
G1 X130.516 Y99.503 E0.01558
G1 X130.158 Y99.122 E0.01639
G1 X129.834 Y98.728 E0.01598
G1 X129.537 Y98.313 E0.01598
G1 X129.268 Y97.880 E0.01598
G1 X129.028 Y97.431 E0.01598
G1 X128.823 Y96.978 E0.01558
G1 X128.638 Y96.489 E0.01639
G1 X128.490 Y96.002 E0.01598
G1 X128.374 Y95.505 E0.01598
G1 X128.291 Y95.002 E0.01598
G1 X128.241 Y94.495 E0.01598
G1 X128.225 Y93.998 E0.01558
G1 X128.241 Y93.476 E0.01639
G1 X128.315 Y92.826 E0.02050
G1 X128.699 Y92.626 F10800.000
G1 E-0.80000 F2100.00000
G1 Z0.800 F10800.000
G1 X129.269 Y96.772
G1 Z0.200
G1 E0.80000 F2100.00000
G1 F1200
G1 X132.890 Y100.393 E0.16399
G1 X133.286 Y100.572 E0.01393
G1 X133.803 Y100.761 E0.01761
G1 X129.239 Y96.197 E0.20669
G1 X129.128 Y95.831 E0.01227
G1 X129.040 Y95.453 E0.01241
G1 X134.546 Y100.959 E0.24936
G1 X135.196 Y101.065 E0.02111
G1 X128.935 Y94.804 E0.28359
G1 X128.892 Y94.217 E0.01885
G1 X135.783 Y101.107 E0.31207
G1 X136.325 Y101.105 E0.01737
G1 X128.895 Y93.675 E0.33651
G1 X128.935 Y93.169 E0.01624
G1 X136.985 Y101.220 E0.36460
G1 E-0.80000 F2100.00000
G1 Z0.800 F10800.000
G1 X132.086 Y100.133
G1 Z0.200
G1 E0.80000 F2100.00000
G1 F1200
G1 X129.867 Y97.914 E0.10051
G1 E-0.80000 F2100.00000
G1 Z0.800 F10800.000
G1 X134.136 Y86.932
G1 Z0.200
G1 E0.80000 F2100.00000
G1 F1200
G1 X137.724 Y90.521 E0.16253
G1 X137.496 Y90.408 E0.00816
G1 X136.872 Y90.213 E0.02093
G1 X133.853 Y87.195 E0.13673
G1 X133.451 Y87.337 E0.01367
G1 X136.237 Y90.122 E0.12617
G1 X135.994 Y90.115 E0.00776
G1 X135.704 Y90.134 E0.00934
G1 X133.067 Y87.498 E0.11940
G1 X132.701 Y87.677 E0.01304
G1 X135.229 Y90.204 E0.11447
G1 X135.003 Y90.249 E0.00736
G1 X134.798 Y90.318 E0.00693
G1 X132.352 Y87.872 E0.11080
G1 X132.018 Y88.083 E0.01264
G1 X134.404 Y90.468 E0.10805
G1 X134.050 Y90.659 E0.01288
G1 X131.701 Y88.310 E0.10638
G1 X131.400 Y88.554 E0.01240
G1 X133.718 Y90.872 E0.10499
G1 X133.422 Y91.120 E0.01238
G1 X131.114 Y88.813 E0.10452
G1 X130.841 Y89.085 E0.01233
G1 X133.146 Y91.389 E0.10438
G1 X132.904 Y91.692 E0.01241
G1 X130.583 Y89.371 E0.10513
G1 X130.339 Y89.672 E0.01240
G1 X132.684 Y92.017 E0.10620
G1 X132.500 Y92.377 E0.01297
G1 X130.112 Y89.989 E0.10816
G1 X129.901 Y90.323 E0.01264
G1 X132.342 Y92.764 E0.11056
G1 X132.227 Y93.194 E0.01425
G1 X129.706 Y90.672 E0.11420
G1 X129.527 Y91.038 E0.01304
G1 X132.159 Y93.671 E0.11923
G1 X132.144 Y94.000 E0.01055
G1 X132.158 Y94.214 E0.00687
G1 X129.366 Y91.422 E0.12646
G1 X129.224 Y91.824 E0.01367
G1 X132.249 Y94.850 E0.13702
G1 X132.279 Y95.002 E0.00497
G1 X132.438 Y95.467 E0.01573
G1 X132.550 Y95.696 E0.00816
G1 X129.103 Y92.248 E0.15615
G1 X129.005 Y92.695 E0.01466
G1 X137.305 Y100.995 E0.37589
G1 X137.752 Y100.897 E0.01466
G1 X134.304 Y97.450 E0.15614
G1 X134.521 Y97.557 E0.00773
G1 X134.789 Y97.657 E0.00918
G1 X135.154 Y97.755 E0.01208
G1 X138.176 Y100.776 E0.13686
G1 X138.578 Y100.634 E0.01367
G1 X135.786 Y97.842 E0.12644
G1 X136.015 Y97.857 E0.00733
G1 X136.325 Y97.837 E0.00998
G1 X138.962 Y100.473 E0.11941
G1 X139.328 Y100.294 E0.01304
G1 X136.800 Y97.767 E0.11447
G1 X137.026 Y97.722 E0.00736
G1 X137.231 Y97.653 E0.00693
G1 X139.677 Y100.099 E0.11081
G1 X140.011 Y99.888 E0.01264
G1 X137.625 Y97.503 E0.10805
G1 X137.979 Y97.312 E0.01288
G1 X140.328 Y99.661 E0.10638
G1 X140.629 Y99.417 E0.01240
G1 X138.311 Y97.099 E0.10499
G1 X138.607 Y96.851 E0.01238
G1 X140.915 Y99.158 E0.10452
G1 X141.188 Y98.886 E0.01233
G1 X138.883 Y96.581 E0.10439
G1 X139.125 Y96.279 E0.01241
G1 X141.446 Y98.600 E0.10513
G1 X141.690 Y98.299 E0.01240
G1 X139.341 Y95.950 E0.10638
G1 X139.532 Y95.596 E0.01288
G1 X141.917 Y97.982 E0.10805
G1 X142.128 Y97.648 E0.01264
G1 X139.682 Y95.202 E0.11080
G1 X139.751 Y94.997 E0.00693
G1 X139.796 Y94.771 E0.00736
G1 X142.323 Y97.299 E0.11447
G1 X142.502 Y96.933 E0.01304
G1 X139.866 Y94.296 E0.11941
G1 X139.885 Y93.999 E0.00954
G1 X139.877 Y93.763 E0.00756
G1 X142.663 Y96.549 E0.12619
G1 X142.805 Y96.147 E0.01367
G1 X139.784 Y93.125 E0.13686
