; generated by PrusaSlicer 2.2.0+win64 on 2020-08-17 at 16:25:10 UTC

; 

; external perimeters extrusion width = 0.45mm
; perimeters extrusion width = 0.45mm
; infill extrusion width = 0.45mm
; solid infill extrusion width = 0.45mm
; top infill extrusion width = 0.40mm
; support material extrusion width = 0.35mm
; first layer extrusion width = 0.42mm

; external perimeters extrusion width = 0.45mm
; perimeters extrusion width = 0.45mm
; infill extrusion width = 0.45mm
; solid infill extrusion width = 0.45mm
; top infill extrusion width = 0.40mm
; support material extrusion width = 0.35mm
; first layer extrusion width = 0.42mm

M73 P0 R156
M201 X9000 Y9000 Z500 E10000 ; sets maximum accelerations, mm/sec^2
M203 X500 Y500 Z12 E120 ; sets maximum feedrates, mm/sec
M204 P2000 R1500 T2000 ; sets acceleration (P, T) and retract acceleration (R), mm/sec^2
M205 X10.00 Y10.00 Z0.20 E4.50 ; sets the jerk limits, mm/sec
M205 S0 T0 ; sets the minimum extruding and travel feed rate, mm/sec
M107
M862.3 P "MK2.5SMMU2S" ; printer model check
M862.1 P0.4 ; nozzle diameter check
M115 U3.9.0 ; tell printer latest fw version
G90 ; use absolute coordinates
M83 ; extruder relative mode
M104 S215 ; set extruder temp
M140 S60 ; set bed temp
Tx
M190 S60 ; wait for bed temp
M109 S215 ; wait for extruder temp
G28 W ; home all without mesh bed level
G80 ; mesh bed leveling

;go outside print area
G1 Y-3.0 F1000.0
G1 Z0.4 F1000.0
; select extruder
Tc
; purge line
G1 X55.0 F2000.0
G1 Z0.3 F1000.0
G92 E0.0
G1 X240.0 E25.0 F2200.0
M73 P0 R156
G1 Y-2.0 F1000.0
G1 X55.0 E25 F1400.0
G1 Z0.20 F1000.0
G1 X5.0 E4.0 F1000.0
G92 E0.0
G21 ; set units to millimeters
G90 ; use absolute coordinates
M83 ; use relative distances for extrusion
M900 K0.06 ; Filament gcode LA 1.5
M900 K30 ; Filament gcode LA 1.0
;BEFORE_LAYER_CHANGE
G92 E0.0
;0.2


G1 E-0.80000 F2100.00000
G1 Z0.600 F10800.000
;AFTER_LAYER_CHANGE
;0.2
G1 X97.645 Y74.667
G1 Z0.200
G1 E0.80000 F2100.00000
M204 S1000
G1 F1200.000
G1 X98.013 Y74.247 E0.01752
G1 X98.466 Y73.925 E0.01740
G1 X99.013 Y73.709 E0.01846
G1 X99.594 Y73.634 E0.01835
G1 X153.151 Y73.634 E1.67927
G1 X153.951 Y73.772 E0.02543
G1 X154.657 Y74.171 E0.02543
G1 X155.188 Y74.785 E0.02543
G1 X155.481 Y75.541 E0.02543
G1 X155.524 Y85.365 E0.30802
G1 X150.921 Y110.415 E0.79860
G1 X150.638 Y111.062 E0.02213
G1 X143.779 Y121.760 E0.39845
G1 X139.126 Y127.484 E0.23128
G1 X138.453 Y128.031 E0.02720
G1 X135.720 Y128.916 E0.09007
G1 X135.074 Y129.010 E0.02048
G1 X127.001 Y128.097 E0.25472
G1 X126.511 Y127.933 E0.01621
G1 X116.467 Y123.212 E0.34797
G1 X115.994 Y122.849 E0.01870
G1 X102.134 Y108.989 E0.61458
G1 X97.864 Y104.492 E0.19445
G1 X97.520 Y104.014 E0.01846
G1 X97.264 Y103.283 E0.02426
G1 X95.798 Y94.133 E0.29057
G1 X97.250 Y75.700 E0.57975
G1 X97.386 Y75.162 E0.01740
G1 X97.618 Y74.720 E0.01563
G1 F8640.000
G1 X98.013 Y74.247 E-0.14250
G1 X98.466 Y73.925 E-0.12812
G1 X99.013 Y73.709 E-0.13597
G1 X99.594 Y73.634 E-0.13510
G1 X100.539 Y73.634 E-0.21831
G1 E-0.04000 F2100.00000
G1 Z0.800 F10800.000
G1 X153.567 Y71.112
G1 Z0.200
G1 E0.80000 F2100.00000
G1 F1200.000
G1 X154.579 Y71.300 E0.03226
G1 X155.579 Y71.723 E0.03406
G1 X156.724 Y72.647 E0.04613
G1 X157.523 Y73.749 E0.04265
G1 X157.994 Y75.147 E0.04627
G1 X158.051 Y85.661 E0.32966
G1 X157.840 Y86.731 E0.03420
G1 X157.242 Y87.914 E0.04156
G1 X156.312 Y88.903 E0.04256
G1 X155.909 Y89.193 E0.01556
G1 X155.766 Y90.815 E0.05105
G1 X155.061 Y95.437 E0.14660
G1 X154.649 Y96.411 E0.03316
G1 X154.086 Y97.195 E0.03029
G1 X153.529 Y97.655 E0.02265
G1 X153.529 Y110.201 E0.39336
G1 X153.410 Y111.014 E0.02577
G1 X152.714 Y112.491 E0.05120
G1 X151.637 Y113.604 E0.04857
G1 X150.332 Y114.295 E0.04630
G1 X149.252 Y114.520 E0.03458
G1 X149.227 Y114.959 E0.01378
G1 X148.641 Y116.693 E0.05738
G1 X148.176 Y117.332 E0.02480
G1 X147.443 Y118.071 E0.03263
G1 X146.740 Y118.529 E0.02631
G1 X146.741 Y120.920 E0.07496
G1 X146.158 Y122.739 E0.05991
G1 X145.637 Y123.444 E0.02749
G1 X144.947 Y124.116 E0.03019
G1 X144.117 Y124.650 E0.03093
G1 X142.973 Y125.033 E0.03783
G1 X142.212 Y125.071 E0.02391
G1 X142.189 Y126.653 E0.04961
G1 X141.796 Y127.974 E0.04319
G1 X141.278 Y128.810 E0.03085
G1 X140.582 Y129.534 E0.03147
G1 X139.897 Y130.051 E0.02692
G1 X138.360 Y130.606 E0.05124
G1 X137.223 Y130.653 E0.03569
G1 X136.582 Y130.974 E0.02248
G1 X135.763 Y131.179 E0.02646
G1 X134.854 Y131.254 E0.02860
G1 X133.676 Y131.102 E0.03726
G1 X132.885 Y130.810 E0.02642
G1 X132.638 Y130.657 E0.00914
G1 X132.382 Y130.677 E0.00805
G1 X130.964 Y130.677 E0.04446
G1 X130.359 Y130.652 E0.01898
G1 X130.118 Y130.678 E0.00758
G1 X127.144 Y130.676 E0.09326
G1 X126.330 Y130.561 E0.02576
G1 X124.861 Y129.921 E0.05026
G1 X123.655 Y128.833 E0.05092
G1 X122.835 Y127.313 E0.05416
G1 X122.634 Y126.319 E0.03180
G1 X122.082 Y126.059 F10800.000
G1 F1200.000
G1 X118.032 Y126.051 E0.12698
G1 X117.222 Y126.066 E0.02541
G1 X115.216 Y125.441 E0.06588
G1 X114.557 Y124.958 E0.02564
G1 X113.760 Y124.149 E0.03561
G1 X113.229 Y123.202 E0.03402
G1 X112.463 Y122.769 E0.02758
G1 X111.564 Y121.872 E0.03981
G1 X111.036 Y121.030 E0.03117
G1 X110.902 Y120.973 E0.00456
G1 X110.090 Y120.472 E0.02991
G1 X109.130 Y119.514 E0.04255
G1 X108.592 Y118.539 E0.03491
G1 X107.977 Y118.182 E0.02230
G1 X107.099 Y117.329 E0.03837
G1 X106.529 Y116.449 E0.03288
G1 X106.241 Y116.339 E0.00967
G1 X105.618 Y115.963 E0.02280
G1 X104.716 Y115.155 E0.03799
G1 X103.996 Y113.920 E0.04480
G1 X103.846 Y113.842 E0.00529
G1 X103.091 Y113.260 E0.02989
G1 X102.353 Y112.436 E0.03469
G1 X102.049 Y111.869 E0.02018
G1 X101.331 Y111.566 E0.02443
G1 X100.649 Y111.068 E0.02646
G1 X100.039 Y110.464 E0.02693
G1 X99.259 Y109.149 E0.04796
G1 X98.973 Y108.124 E0.03334
G1 X98.952 Y107.588 E0.01684
G1 X97.971 Y107.396 E0.03133
G1 X96.669 Y106.737 E0.04577
G1 X95.817 Y105.940 E0.03658
G1 X95.349 Y105.338 E0.02389
G1 X94.714 Y103.486 E0.06138
G1 X94.705 Y97.385 E0.19129
G1 X94.087 Y96.499 E0.03390
G1 X93.679 Y95.366 E0.03775
G1 X93.576 Y94.043 E0.04158
G1 X93.727 Y93.057 E0.03128
G1 X94.098 Y92.124 E0.03148
G1 X94.716 Y91.286 E0.03265
G1 X94.753 Y75.216 E0.50389
G1 X94.913 Y74.540 E0.02177
G1 X95.411 Y73.428 E0.03821
G1 X95.934 Y72.749 E0.02685
G1 X96.769 Y71.991 E0.03537
G1 X97.682 Y71.485 E0.03274
G1 X98.639 Y71.183 E0.03147
G1 X100.647 Y71.110 E0.06299
G1 X153.567 Y71.112 E1.65928
G1 F8640.000
G1 X150.276 Y71.112 E-0.76000
G1 E-0.04000 F2100.00000
G1 Z0.800 F10800.000
G1 X153.550 Y97.152
G1 Z0.200
G1 E0.80000 F2100.00000
G1 F1200.000
G1 X153.795 Y96.954 E0.00987
G1 X154.331 Y96.208 E0.02881
G1 X154.692 Y95.356 E0.02899
G1 X155.392 Y90.764 E0.14566
G1 X155.549 Y88.984 E0.05600
G1 X156.052 Y88.629 E0.01933
G1 X156.918 Y87.719 E0.03938
G1 X157.492 Y86.585 E0.03985
G1 X157.674 Y85.645 E0.03003
G1 X157.627 Y75.239 E0.32627
G1 X157.175 Y73.896 E0.04442
G1 X156.467 Y72.924 E0.03770
G1 X155.406 Y72.059 E0.04291
G1 X154.488 Y71.667 E0.03131
G1 X153.549 Y71.489 E0.02996
G1 X126.569 Y71.486 E0.84595
G1 X126.406 Y71.503 E0.00514
G1 X126.265 Y71.488 E0.00445
G1 X100.649 Y71.488 E0.80314
G1 X98.728 Y71.550 E0.06029
G1 X97.814 Y71.839 E0.03003
G1 X96.972 Y72.309 E0.03023
G1 X96.201 Y73.016 E0.03280
G1 X95.724 Y73.639 E0.02460
G1 X95.265 Y74.676 E0.03556
G1 X95.125 Y75.280 E0.01944
G1 X95.093 Y91.413 E0.50585
G1 X94.438 Y92.289 E0.03429
G1 X94.097 Y93.137 E0.02866
G1 X93.952 Y94.079 E0.02991
G1 X94.043 Y95.262 E0.03719
G1 X94.433 Y96.346 E0.03613
G1 X95.082 Y97.265 E0.03526
G1 X95.091 Y103.455 E0.19408
G1 X95.667 Y105.132 E0.05562
G1 X96.087 Y105.677 E0.02157
G1 X96.864 Y106.413 E0.03356
G1 X98.116 Y107.047 E0.04402
G1 X98.962 Y107.205 E0.02697
G1 X99.321 Y107.212 E0.01126
G1 X99.343 Y108.047 E0.02618
G1 X99.615 Y109.023 E0.03179
G1 X100.322 Y110.214 E0.04340
G1 X100.883 Y110.772 E0.02484
G1 X101.534 Y111.248 E0.02528
G1 X102.319 Y111.572 E0.02663
G1 X102.651 Y112.202 E0.02232
G1 X103.360 Y112.996 E0.03337
G1 X104.058 Y113.529 E0.02755
G1 X104.264 Y113.630 E0.00720
G1 X104.991 Y114.895 E0.04574
G1 X105.829 Y115.650 E0.03536
G1 X106.419 Y116.006 E0.02162
G1 X106.778 Y116.138 E0.01197
G1 X107.378 Y117.074 E0.03488
G1 X108.221 Y117.895 E0.03690
G1 X108.872 Y118.263 E0.02345
G1 X109.416 Y119.266 E0.03577
G1 X110.340 Y120.189 E0.04095
G1 X111.082 Y120.641 E0.02721
G1 X111.289 Y120.722 E0.00700
G1 X111.846 Y121.621 E0.03315
G1 X112.711 Y122.482 E0.03827
G1 X113.506 Y122.925 E0.02855
G1 X114.047 Y123.903 E0.03503
G1 X114.814 Y124.682 E0.03429
G1 X115.413 Y125.118 E0.02322
G1 X117.245 Y125.689 E0.06017
G1 X118.029 Y125.674 E0.02459
G1 X121.276 Y125.681 E0.10181
G1 X122.167 Y125.683 F10800.000
G1 F1200.000
G1 X122.984 Y125.684 E0.02563
G1 X122.990 Y126.069 E0.01208
G1 X123.055 Y126.516 F10800.000
G1 F1200.000
G1 X123.181 Y127.162 E0.02062
G1 X123.934 Y128.577 E0.05028
G1 X125.042 Y129.589 E0.04703
G1 X126.410 Y130.191 E0.04688
G1 X127.158 Y130.298 E0.02369
G1 X130.108 Y130.300 E0.09249
G1 X130.346 Y130.274 E0.00750
G1 X130.968 Y130.300 E0.01952
G1 X132.373 Y130.300 E0.04407
G1 X132.736 Y130.270 E0.01140
G1 X133.037 Y130.464 E0.01125
G1 X133.786 Y130.741 E0.02504
G1 X134.844 Y130.876 E0.03344
G1 X135.687 Y130.810 E0.02652
G1 X136.469 Y130.614 E0.02527
G1 X137.126 Y130.278 E0.02314
G1 X138.263 Y130.241 E0.03565
G1 X139.694 Y129.732 E0.04764
G1 X140.321 Y129.261 E0.02459
G1 X140.991 Y128.564 E0.03033
G1 X141.461 Y127.799 E0.02815
G1 X141.820 Y126.573 E0.04003
G1 X141.837 Y124.706 E0.05854
G1 X142.882 Y124.666 E0.03278
G1 X143.935 Y124.319 E0.03478
G1 X144.698 Y123.832 E0.02836
G1 X145.362 Y123.185 E0.02908
G1 X145.836 Y122.541 E0.02508
G1 X146.364 Y120.891 E0.05432
G1 X146.363 Y118.323 E0.08052
G1 X147.190 Y117.790 E0.03085
G1 X147.898 Y117.077 E0.03150
G1 X148.319 Y116.496 E0.02250
G1 X148.860 Y114.868 E0.05377
G1 X148.883 Y114.148 E0.02259
G1 X148.893 Y114.133 F10800.000
G1 F1200.000
G1 X149.308 Y114.123 E0.01305
G1 X150.182 Y113.948 E0.02794
G1 X151.389 Y113.318 E0.04268
G1 X152.388 Y112.300 E0.04472
G1 X153.041 Y110.930 E0.04758
G1 X153.151 Y110.187 E0.02357
G1 X153.151 Y99.321 E0.34069
G1 X152.774 Y99.286 F10800.000
G1 F1200.000
G1 X152.774 Y97.291 E0.06258
G1 X153.204 Y96.950 E0.01717
G1 X153.674 Y96.475 F10800.000
G1 F1200.000
G1 X154.012 Y96.005 E0.01815
G1 X154.335 Y95.233 E0.02625
G1 X155.018 Y90.713 E0.14332
G1 X155.189 Y88.775 E0.06101
G1 X155.795 Y88.353 E0.02315
G1 X156.594 Y87.523 E0.03615
G1 X157.143 Y86.438 E0.03811
G1 X157.297 Y85.628 E0.02586
G1 X157.260 Y75.330 E0.32289
G1 X156.827 Y74.044 E0.04255
G1 X156.209 Y73.200 E0.03280
G1 X155.231 Y72.395 E0.03972
G1 X154.396 Y72.033 E0.02855
G1 X153.531 Y71.867 E0.02762
G1 X126.580 Y71.863 E0.84502
G1 X126.405 Y71.883 E0.00553
G1 X126.253 Y71.865 E0.00481
G1 X100.657 Y71.865 E0.80252
G1 X98.814 Y71.918 E0.05781
G1 X97.981 Y72.178 E0.02738
G1 X97.176 Y72.627 E0.02889
G1 X96.470 Y73.281 E0.03018
G1 X96.038 Y73.848 E0.02235
G1 X95.618 Y74.809 E0.03290
G1 X95.497 Y75.342 E0.01712
G1 X95.470 Y91.540 E0.50789
G1 X94.778 Y92.453 E0.03591
G1 X94.455 Y93.256 E0.02714
G1 X94.328 Y94.114 E0.02718
G1 X94.406 Y95.159 E0.03286
G1 X94.779 Y96.196 E0.03455
G1 X95.283 Y96.915 E0.02753
G1 X95.459 Y97.086 E0.00770
G1 X95.468 Y103.423 E0.19869
G1 X95.985 Y104.927 E0.04987
G1 X96.359 Y105.416 E0.01930
G1 X97.060 Y106.090 E0.03048
G1 X98.261 Y106.698 E0.04222
G1 X99.010 Y106.830 E0.02383
G1 X99.693 Y106.835 E0.02143
G1 X99.713 Y107.969 E0.03558
G1 X99.972 Y108.898 E0.03023
G1 X100.604 Y109.963 E0.03884
G1 X101.139 Y110.495 E0.02363
G1 X101.737 Y110.929 E0.02317
G1 X102.591 Y111.275 E0.02891
G1 X102.948 Y111.969 E0.02449
G1 X103.629 Y112.730 E0.03201
G1 X104.267 Y113.215 E0.02514
G1 X104.532 Y113.337 E0.00912
G1 X105.267 Y114.637 E0.04683
G1 X106.040 Y115.337 E0.03269
G1 X106.597 Y115.673 E0.02040
G1 X107.083 Y115.845 E0.01619
G1 X107.171 Y116.064 E0.00740
G1 X107.656 Y116.819 E0.02813
G1 X108.466 Y117.606 E0.03541
G1 X109.153 Y117.987 E0.02464
G1 X109.703 Y119.020 E0.03668
G1 X110.590 Y119.906 E0.03931
G1 X111.259 Y120.307 E0.02445
G1 X111.599 Y120.433 E0.01137
G1 X111.675 Y120.634 E0.00676
G1 X112.128 Y121.369 E0.02708
G1 X112.957 Y122.196 E0.03670
G1 X113.785 Y122.647 E0.02954
G1 X114.334 Y123.657 E0.03608
G1 X115.072 Y124.406 E0.03293
G1 X115.609 Y124.794 E0.02078
G1 X117.268 Y125.311 E0.05450
G1 X120.470 Y125.302 E0.10039
G1 X121.361 Y125.304 F10800.000
G1 F1200.000
G1 X123.361 Y125.308 E0.06272
G1 X123.365 Y126.142 E0.02615
G1 X123.388 Y126.256 E0.00366
G1 X123.478 Y126.715 F10800.000
G1 F1200.000
G1 X123.546 Y127.062 E0.01108
G1 X124.214 Y128.323 E0.04474
G1 X125.224 Y129.258 E0.04316
G1 X126.491 Y129.822 E0.04348
G1 X127.172 Y129.921 E0.02158
G1 X130.097 Y129.923 E0.09170
G1 X130.332 Y129.896 E0.00741
G1 X130.972 Y129.923 E0.02009
G1 X132.360 Y129.923 E0.04352
G1 X132.597 Y129.896 E0.00748
G1 X132.863 Y129.900 E0.00836
G1 X133.190 Y130.119 E0.01234
G1 X133.896 Y130.380 E0.02361
G1 X134.833 Y130.499 E0.02961
G1 X135.641 Y130.435 E0.02540
G1 X136.354 Y130.254 E0.02306
G1 X137.030 Y129.903 E0.02388
G1 X138.167 Y129.875 E0.03568
G1 X139.492 Y129.412 E0.04401
G1 X140.060 Y128.989 E0.02221
G1 X140.705 Y128.318 E0.02917
G1 X141.126 Y127.624 E0.02543
G1 X141.442 Y126.546 E0.03525
G1 X141.449 Y124.925 E0.05082
G1 X141.937 Y124.325 F10800.000
G1 F1200.000
G1 X142.792 Y124.299 E0.02684
G1 X143.755 Y123.987 E0.03172
G1 X144.449 Y123.548 E0.02576
G1 X145.087 Y122.926 E0.02794
G1 X145.514 Y122.343 E0.02264
G1 X145.987 Y120.862 E0.04877
G1 X145.986 Y118.666 E0.06883
G1 F8640.000
G1 X145.987 Y120.862 E-0.50691
G1 X145.653 Y121.906 E-0.25309
G1 E-0.04000 F2100.00000
G1 Z0.800 F10800.000
G1 X146.583 Y117.735
G1 Z0.200
G1 E0.80000 F2100.00000
G1 F1200.000
G1 X146.938 Y117.510 E0.01318
G1 X147.620 Y116.822 E0.03035
G1 X147.995 Y116.300 E0.02018
G1 X148.493 Y114.757 E0.05083
G1 X148.505 Y114.039 F10800.000
G1 F1200.000
G1 X148.510 Y113.759 E0.00876
G1 X148.686 Y113.757 E0.00551
G1 X149.138 Y113.751 F10800.000
G1 F1200.000
G1 X149.253 Y113.750 E0.00360
G1 X150.082 Y113.583 E0.02652
G1 X151.143 Y113.031 E0.03750
G1 X152.063 Y112.107 E0.04089
G1 X152.673 Y110.845 E0.04394
G1 X152.774 Y110.172 E0.02133
G1 X152.774 Y101.373 E0.27589
G1 X152.397 Y101.339 F10800.000
G1 F1200.000
G1 X152.397 Y97.105 E0.13273
G1 X153.216 Y96.468 E0.03253
G1 X153.318 Y96.327 E0.00546
G1 F8640.000
G1 X153.216 Y96.468 E-0.04022
G1 X152.397 Y97.105 E-0.23955
G1 X152.397 Y99.185 E-0.48023
G1 E-0.04000 F2100.00000
G1 Z0.800 F10800.000
G1 X153.881 Y95.353
G1 Z0.200
G1 E0.80000 F2100.00000
G1 F1200.000
G1 X153.966 Y95.152 E0.00683
G1 X154.191 Y93.662 E0.04727
G1 F8640.000
G1 X153.966 Y95.152 E-0.34808
G1 X153.881 Y95.353 E-0.05029
G1 E-0.40163 F2100.00000
G1 Z0.800 F10800.000
G1 X155.171 Y88.329
G1 Z0.200
G1 E0.80000 F2100.00000
G1 F1200.000
G1 X155.539 Y88.076 E0.01399
G1 X156.271 Y87.326 E0.03286
G1 X156.794 Y86.293 E0.03632
G1 X156.920 Y85.612 E0.02170
G1 X156.893 Y75.422 E0.31952
G1 X156.479 Y74.193 E0.04066
G1 X155.950 Y73.475 E0.02795
G1 X155.055 Y72.729 E0.03654
G1 X154.302 Y72.399 E0.02577
G1 X153.512 Y72.244 E0.02524
G1 X126.593 Y72.240 E0.84404
G1 X126.404 Y72.264 E0.00596
G1 X126.239 Y72.242 E0.00520
G1 X100.664 Y72.242 E0.80190
M73 P0 R155
G1 X98.899 Y72.286 E0.05535
G1 X98.147 Y72.517 E0.02468
G1 X97.381 Y72.945 E0.02752
G1 X96.740 Y73.544 E0.02752
G1 X96.354 Y74.057 E0.02011
G1 X95.971 Y74.941 E0.03022
G1 X95.870 Y75.403 E0.01481
G1 X95.847 Y91.108 E0.49242
G1 X95.798 Y91.732 F10800.000
G1 F1200.000
G1 X95.117 Y92.620 E0.03509
G1 X94.825 Y93.335 E0.02420
G1 X94.704 Y94.147 E0.02576
G1 X94.780 Y95.102 E0.03003
G1 X95.124 Y96.041 E0.03136
G1 X95.578 Y96.678 E0.02453
G1 X95.836 Y96.920 E0.01108
G1 X95.845 Y103.391 E0.20291
G1 X96.303 Y104.723 E0.04416
G1 X96.633 Y105.157 E0.01709
G1 X97.259 Y105.768 E0.02742
G1 X98.355 Y106.332 E0.03866
G1 X99.059 Y106.456 E0.02240
G1 X99.470 Y106.456 E0.01288
G1 X99.990 Y106.457 F10800.000
G1 F1200.000
G1 X100.064 Y106.457 E0.00231
G1 X100.065 Y106.536 E0.00247
G1 X100.075 Y107.094 F10800.000
G1 F1200.000
G1 X100.090 Y107.938 E0.02646
G1 X100.327 Y108.771 E0.02717
G1 X100.888 Y109.713 E0.03438
G1 X101.373 Y110.198 E0.02150
G1 X101.939 Y110.609 E0.02193
