; generated by PrusaSlicer 2.2.0+win64 on 2020-08-17 at 16:25:23 UTC

; 

; external perimeters extrusion width = 0.45mm
; perimeters extrusion width = 0.45mm
; infill extrusion width = 0.45mm
; solid infill extrusion width = 0.45mm
; top infill extrusion width = 0.40mm
; support material extrusion width = 0.35mm
; first layer extrusion width = 0.42mm

; external perimeters extrusion width = 0.45mm
; perimeters extrusion width = 0.45mm
; infill extrusion width = 0.45mm
; solid infill extrusion width = 0.45mm
; top infill extrusion width = 0.40mm
; support material extrusion width = 0.35mm
; first layer extrusion width = 0.42mm

M73 P0 R12
M201 X9000 Y9000 Z500 E10000 ; sets maximum accelerations, mm/sec^2
M203 X500 Y500 Z12 E120 ; sets maximum feedrates, mm/sec
M204 P2000 R1500 T2000 ; sets acceleration (P, T) and retract acceleration (R), mm/sec^2
M205 X10.00 Y10.00 Z0.20 E4.50 ; sets the jerk limits, mm/sec
M205 S0 T0 ; sets the minimum extruding and travel feed rate, mm/sec
M107
M862.3 P "MK2.5SMMU2S" ; printer model check
M862.1 P0.4 ; nozzle diameter check
M115 U3.9.0 ; tell printer latest fw version
G90 ; use absolute coordinates
M83 ; extruder relative mode
M104 S215 ; set extruder temp
M140 S60 ; set bed temp
Tx
M190 S60 ; wait for bed temp
M109 S215 ; wait for extruder temp
G28 W ; home all without mesh bed level
G80 ; mesh bed leveling

;go outside print area
G1 Y-3.0 F1000.0
G1 Z0.4 F1000.0
; select extruder
Tc
; purge line
G1 X55.0 F2000.0
G1 Z0.3 F1000.0
G92 E0.0
G1 X240.0 E25.0 F2200.0
M73 P0 R12
G1 Y-2.0 F1000.0
G1 X55.0 E25 F1400.0
G1 Z0.20 F1000.0
G1 X5.0 E4.0 F1000.0
G92 E0.0
G21 ; set units to millimeters
G90 ; use absolute coordinates
M83 ; use relative distances for extrusion
M900 K0.06 ; Filament gcode LA 1.5
M900 K30 ; Filament gcode LA 1.0
;BEFORE_LAYER_CHANGE
G92 E0.0
;0.2


G1 E-0.80000 F2100.00000
G1 Z0.600 F10800.000
;AFTER_LAYER_CHANGE
;0.2
G1 X116.495 Y102.274
G1 Z0.200
G1 E0.80000 F2100.00000
M204 S1000
G1 F1200.000
G1 X117.215 Y101.506 E0.03301
G1 X123.395 Y97.040 E0.23907
G1 X124.110 Y96.726 E0.02447
G1 X124.880 Y96.599 E0.02447
G1 X134.807 Y96.596 E0.31126
G1 X135.381 Y96.649 E0.01807
G1 X135.935 Y96.807 E0.01807
G1 X136.451 Y97.063 E0.01807
G1 X136.912 Y97.409 E0.01807
G1 X137.301 Y97.834 E0.01807
G1 X137.606 Y98.323 E0.01807
G1 X137.816 Y98.860 E0.01807
G1 X137.924 Y99.426 E0.01807
G1 X137.919 Y110.786 E0.35618
G1 X137.758 Y111.487 E0.02257
G1 X137.442 Y112.134 E0.02257
G1 X136.986 Y112.690 E0.02257
G1 X136.414 Y113.128 E0.02257
G1 X135.683 Y113.447 E0.02502
G1 X134.891 Y113.571 E0.02515
G1 X124.972 Y113.572 E0.31098
G1 X124.169 Y113.459 E0.02542
G1 X123.184 Y112.990 E0.03423
G1 X117.220 Y108.498 E0.23410
G1 X116.780 Y108.093 E0.01875
G1 X116.422 Y107.609 E0.01889
G1 X116.146 Y107.015 E0.02052
G1 X116.000 Y106.377 E0.02052
G1 X115.977 Y103.956 E0.07592
G1 X116.115 Y103.078 E0.02787
G1 X116.469 Y102.328 E0.02599
G1 X116.839 Y102.438 F10800.000
G1 F1200.000
G1 X117.456 Y101.796 E0.02790
G1 X123.631 Y97.339 E0.23878
G1 X124.249 Y97.079 E0.02103
G1 X124.912 Y96.975 E0.02103
G1 X134.807 Y96.973 E0.31026
G1 X135.809 Y97.162 E0.03195
G1 X136.670 Y97.699 E0.03183
G1 X137.278 Y98.511 E0.03183
G1 X137.551 Y99.489 E0.03183
G1 X137.547 Y110.724 E0.35224
G1 X137.404 Y111.358 E0.02039
G1 X137.117 Y111.942 E0.02039
G1 X136.700 Y112.441 E0.02039
G1 X136.179 Y112.830 E0.02039
G1 X135.545 Y113.095 E0.02154
G1 X134.869 Y113.195 E0.02141
G1 X124.978 Y113.195 E0.31012
G1 X124.258 Y113.093 E0.02282
G1 X123.394 Y112.677 E0.03006
G1 X117.444 Y108.194 E0.23358
G1 X117.039 Y107.818 E0.01733
G1 X116.720 Y107.372 E0.01720
G1 X116.489 Y106.852 E0.01784
G1 X116.369 Y106.292 E0.01796
G1 X116.355 Y103.934 E0.07393
G1 X116.489 Y103.149 E0.02498
G1 X116.813 Y102.492 E0.02297
G1 X117.178 Y102.612 F10800.000
G1 F1200.000
G1 X117.689 Y102.093 E0.02284
G1 X123.856 Y97.646 E0.23839
G1 X124.381 Y97.433 E0.01775
G1 X124.937 Y97.351 E0.01763
G1 X134.807 Y97.350 E0.30947
G1 X135.674 Y97.514 E0.02767
G1 X136.424 Y97.985 E0.02778
G1 X136.948 Y98.695 E0.02767
G1 X137.177 Y99.548 E0.02767
G1 X137.174 Y110.666 E0.34860
G1 X137.050 Y111.230 E0.01811
G1 X136.793 Y111.747 E0.01811
G1 X136.420 Y112.188 E0.01811
G1 X135.954 Y112.523 E0.01799
G1 X135.422 Y112.737 E0.01799
G1 X134.850 Y112.818 E0.01811
G1 X124.984 Y112.818 E0.30934
G1 X124.352 Y112.727 E0.02000
G1 X123.609 Y112.367 E0.02590
G1 X117.668 Y107.891 E0.23322
G1 X117.308 Y107.552 E0.01550
G1 X117.026 Y107.147 E0.01550
G1 X116.835 Y106.695 E0.01538
G1 X116.741 Y106.214 E0.01538
G1 X116.732 Y103.920 E0.07193
G1 X116.858 Y103.233 E0.02190
G1 X117.150 Y102.665 E0.02001
G1 F8640.000
G1 X117.689 Y102.093 E-0.18148
G1 X119.721 Y100.627 E-0.57852
G1 E-0.04000 F2100.00000
G1 Z0.800 F10800.000
G1 X119.950 Y99.297
G1 Z0.200
G1 E0.80000 F2100.00000
G1 F1200.000
G1 X118.468 Y99.304 E0.04646
G1 X117.186 Y99.660 E0.04172
G1 X116.215 Y100.247 E0.03559
G1 X115.355 Y101.108 E0.03814
G1 X114.697 Y102.252 E0.04139
G1 X114.394 Y103.490 E0.03996
G1 X114.394 Y106.524 E0.09512
G1 X114.769 Y107.919 E0.04530
G1 X115.290 Y108.806 E0.03227
G1 X116.412 Y109.902 E0.04918
G1 X117.276 Y110.378 E0.03092
G1 X118.197 Y110.654 E0.03016
G1 X119.803 Y110.680 E0.05037
G1 X120.136 Y110.930 F10800.000
G1 F1200.000
G1 X120.151 Y111.293 E0.01141
G1 X120.542 Y112.514 E0.04019
G1 X121.122 Y113.404 E0.03330
G1 X121.948 Y114.218 E0.03638
G1 X123.324 Y114.949 E0.04885
G1 X124.206 Y115.136 E0.02827
G1 X125.148 Y115.146 E0.02954
G1 X125.410 Y115.174 E0.00826
G1 X134.400 Y115.174 E0.28186
G1 X134.659 Y115.146 E0.00818
G1 X135.693 Y115.129 E0.03243
G1 X136.909 Y114.783 E0.03964
G1 X137.865 Y114.210 E0.03496
G1 X138.790 Y113.280 E0.04111
G1 X139.407 Y112.188 E0.03934
G1 X139.709 Y110.951 E0.03993
G1 X139.709 Y99.327 E0.36447
G1 X139.317 Y97.761 E0.05061
G1 X138.524 Y96.503 E0.04663
G1 X137.534 Y95.632 E0.04133
G1 X136.368 Y95.060 E0.04072
G1 X135.246 Y94.829 E0.03594
G1 X130.695 Y94.825 E0.14269
G1 X130.531 Y94.838 E0.00515
G1 X124.532 Y94.825 E0.18811
G1 X122.809 Y95.320 E0.05621
G1 X121.898 Y95.924 E0.03427
G1 X121.070 Y96.773 E0.03719
G1 X120.507 Y97.730 E0.03482
G1 X120.155 Y98.892 E0.03808
G1 X120.139 Y99.160 E0.00841
G1 X120.560 Y98.856 F10800.000
G1 F1200.000
G1 X120.861 Y97.861 E0.03259
G1 X121.381 Y96.986 E0.03195
G1 X122.152 Y96.203 E0.03443
G1 X122.992 Y95.651 E0.03151
G1 X124.558 Y95.202 E0.05108
G1 X135.227 Y95.206 E0.33452
G1 X136.226 Y95.410 E0.03197
G1 X137.305 Y95.932 E0.03758
G1 X138.254 Y96.767 E0.03964
G1 X138.981 Y97.935 E0.04312
G1 X139.332 Y99.349 E0.04570
G1 X139.332 Y110.927 E0.36302
G1 X139.048 Y112.071 E0.03694
G1 X138.476 Y113.070 E0.03611
G1 X137.616 Y113.926 E0.03804
G1 X136.782 Y114.428 E0.03051
G1 X135.615 Y114.759 E0.03804
G1 X134.637 Y114.769 E0.03067
G1 X134.389 Y114.797 E0.00782
G1 X125.421 Y114.797 E0.28118
G1 X125.170 Y114.769 E0.00791
G1 X124.266 Y114.763 E0.02837
G1 X123.429 Y114.586 E0.02680
G1 X122.151 Y113.900 E0.04549
G1 X121.425 Y113.180 E0.03205
G1 X120.893 Y112.374 E0.03028
G1 X120.525 Y111.223 E0.03789
G1 F8640.000
G1 X120.893 Y112.374 E-0.27906
G1 X121.425 Y113.180 E-0.22301
G1 X122.151 Y113.900 E-0.23603
G1 X122.235 Y113.944 E-0.02190
G1 E-0.04000 F2100.00000
G1 Z0.800 F10800.000
G1 X119.292 Y110.294
G1 Z0.200
G1 E0.80000 F2100.00000
G1 F1200.000
G1 X118.231 Y110.277 E0.03328
G1 X117.405 Y110.024 E0.02708
G1 X116.656 Y109.613 E0.02679
G1 X115.600 Y108.591 E0.04607
G1 X115.125 Y107.794 E0.02909
G1 X114.772 Y106.498 E0.04212
G1 X114.772 Y103.513 E0.09359
G1 X115.056 Y102.369 E0.03698
G1 X115.639 Y101.357 E0.03662
G1 X116.465 Y100.531 E0.03662
G1 X117.358 Y99.996 E0.03263
G1 X118.495 Y99.681 E0.03702
G1 X119.425 Y99.676 E0.02914
G1 X118.899 Y100.056 F10800.000
G1 F1200.000
G1 X118.522 Y100.057 E0.01183
G1 X117.528 Y100.334 E0.03236
G1 X116.714 Y100.815 E0.02963
G1 X115.923 Y101.606 E0.03509
G1 X115.415 Y102.487 E0.03189
G1 X115.149 Y103.537 E0.03397
G1 X115.149 Y106.472 E0.09202
G1 X115.481 Y107.667 E0.03890
G1 X115.909 Y108.374 E0.02591
G1 X116.898 Y109.323 E0.04298
G1 X117.537 Y109.670 E0.02278
G1 X118.265 Y109.901 E0.02395
G1 X118.781 Y109.909 E0.01617
G1 F8640.000
G1 X118.265 Y109.901 E-0.11907
G1 X117.537 Y109.670 E-0.17641
G1 X116.898 Y109.323 E-0.16776
G1 X115.971 Y108.433 E-0.29676
G1 E-0.04000 F2100.00000
G1 Z0.800 F10800.000
G1 X120.701 Y109.940
G1 Z0.200
G1 E0.80000 F2100.00000
G1 F1200.000
G1 X120.869 Y109.942 E0.00528
G1 X120.871 Y110.068 E0.00394
G1 F8640.000
G1 X120.869 Y109.942 E-0.02901
G1 X120.701 Y109.940 E-0.03889
G1 E-0.73210 F2100.00000
G1 Z0.800 F10800.000
G1 X121.046 Y111.616
G1 Z0.200
G1 E0.80000 F2100.00000
G1 F1200.000
G1 X121.244 Y112.233 E0.02032
G1 X121.728 Y112.954 E0.02724
G1 X122.356 Y113.582 E0.02783
G1 X123.535 Y114.222 E0.04208
G1 X124.324 Y114.390 E0.02531
G1 X125.193 Y114.392 E0.02723
G1 X125.432 Y114.419 E0.00757
G1 X134.378 Y114.419 E0.28047
G1 X134.615 Y114.392 E0.00748
G1 X135.537 Y114.390 E0.02893
G1 X136.655 Y114.072 E0.03641
G1 X137.366 Y113.643 E0.02604
G1 X138.192 Y112.821 E0.03654
G1 X138.689 Y111.953 E0.03136
G1 X138.955 Y110.903 E0.03394
G1 X138.955 Y99.372 E0.36157
G1 X138.644 Y98.107 E0.04085
G1 X137.982 Y97.030 E0.03963
G1 X137.115 Y96.259 E0.03637
G1 X136.125 Y95.774 E0.03455
G1 X135.207 Y95.583 E0.02941
G1 X130.712 Y95.579 E0.14094
G1 X130.564 Y95.593 E0.00464
G1 X124.583 Y95.579 E0.18753
G1 X123.173 Y95.982 E0.04597
G1 X122.405 Y96.483 E0.02877
G1 X121.692 Y97.200 E0.03169
G1 X121.215 Y97.993 E0.02903
G1 X121.064 Y98.492 E0.01634
G1 F8640.000
G1 X121.215 Y97.993 E-0.12031
G1 X121.692 Y97.200 E-0.21376
G1 X122.405 Y96.483 E-0.23340
G1 X123.103 Y96.028 E-0.19253
G1 E-0.04000 F2100.00000
G1 Z0.800 F10800.000
G1 X120.874 Y100.028
G1 Z0.200
G1 E0.80000 F2100.00000
G1 F1200.000
G1 X120.874 Y100.047 E0.00059
G1 X120.848 Y100.047 E0.00082
G1 X121.256 Y99.753 F10800.000
G1 F1200.000
G1 X121.249 Y100.422 E0.02099
G1 X120.322 Y100.426 E0.02907
G1 F8640.000
G1 X121.249 Y100.422 E-0.21409
G1 X121.256 Y99.753 E-0.15454
G1 E-0.43137 F2100.00000
G1 Z0.800 F10800.000
G1 X118.266 Y100.513
G1 Z0.200
G1 E0.80000 F2100.00000
G1 F1200.000
G1 X117.696 Y100.672 E0.01856
G1 X116.963 Y101.099 E0.02659
G1 X116.207 Y101.855 E0.03353
G1 X115.773 Y102.607 E0.02722
G1 X115.526 Y103.562 E0.03093
G1 X115.526 Y106.445 E0.09041
G1 X115.836 Y107.538 E0.03561
G1 X116.217 Y108.154 E0.02272
G1 X117.139 Y109.032 E0.03993
G1 X117.670 Y109.317 E0.01891
G1 X118.246 Y109.506 E0.01900
G1 F8640.000
G1 X117.670 Y109.317 E-0.13991
G1 X117.139 Y109.032 E-0.13923
G1 X116.217 Y108.154 E-0.29403
G1 X115.836 Y107.538 E-0.16729
G1 X115.813 Y107.456 E-0.01954
G1 E-0.04000 F2100.00000
G1 Z0.800 F10800.000
G1 X120.189 Y109.554
G1 Z0.200
G1 E0.80000 F2100.00000
G1 F1200.000
G1 X121.245 Y109.571 E0.03311
G1 X121.251 Y110.354 E0.02454
G1 F8640.000
G1 X121.245 Y109.571 E-0.18074
G1 X120.189 Y109.554 E-0.24380
G1 E-0.37546 F2100.00000
G1 Z0.800 F10800.000
G1 X121.559 Y112.002
G1 Z0.200
G1 E0.80000 F2100.00000
G1 F1200.000
G1 X121.573 Y112.047 E0.00149
G1 X122.008 Y112.701 E0.02462
G1 X122.602 Y113.295 E0.02635
G1 X123.687 Y113.876 E0.03860
G1 X124.379 Y114.017 E0.02213
G1 X125.215 Y114.014 E0.02621
G1 X125.444 Y114.042 E0.00724
G1 X134.366 Y114.042 E0.27972
G1 X134.593 Y114.015 E0.00718
G1 X135.461 Y114.019 E0.02720
G1 X136.526 Y113.716 E0.03472
G1 X137.148 Y113.334 E0.02291
G1 X137.907 Y112.573 E0.03370
G1 X138.330 Y111.833 E0.02671
G1 X138.578 Y110.879 E0.03091
G1 X138.578 Y99.394 E0.36010
G1 X138.307 Y98.277 E0.03605
G1 X137.708 Y97.291 E0.03615
G1 X136.924 Y96.585 E0.03310
G1 X136.023 Y96.138 E0.03152
G1 X135.186 Y95.960 E0.02681
G1 X124.609 Y95.956 E0.33166
G1 X123.354 Y96.314 E0.04091
G1 X122.657 Y96.764 E0.02599
G1 X121.976 Y97.449 E0.03030
G1 X121.577 Y98.121 E0.02451
G1 F8640.000
G1 X121.976 Y97.449 E-0.18051
G1 X122.657 Y96.764 E-0.22311
G1 X123.354 Y96.314 E-0.19140
G1 X124.041 Y96.118 E-0.16497
G1 E-0.04000 F2100.00000
G1 Z0.800 F10800.000
G1 X122.509 Y97.448
G1 Z0.200
G1 E0.80000 F2100.00000
G1 F1200.000
G1 X122.911 Y97.043 E0.01788
G1 X123.487 Y96.668 E0.02155
G1 X124.635 Y96.334 E0.03751
G1 X130.602 Y96.347 E0.18707
G1 X130.731 Y96.334 E0.00407
G1 X135.166 Y96.338 E0.13904
G1 X135.919 Y96.501 E0.02417
G1 X136.730 Y96.909 E0.02847
G1 X137.433 Y97.550 E0.02982
G1 X137.968 Y98.445 E0.03269
G1 X138.201 Y99.416 E0.03131
G1 X138.201 Y110.854 E0.35863
G1 X137.973 Y111.712 E0.02785
G1 X137.621 Y112.325 E0.02216
G1 X136.928 Y113.027 E0.03092
G1 X136.531 Y113.276 E0.01470
G1 X136.497 Y113.298 F10800.000
G1 F1200.000
G1 X136.396 Y113.361 E0.00374
G1 X136.270 Y113.397 E0.00412
G1 F8640.000
G1 X136.396 Y113.361 E-0.03033
G1 X136.497 Y113.298 E-0.02754
G1 E-0.74213 F2100.00000
G1 Z0.800 F10800.000
G1 X123.905 Y113.542
G1 Z0.200
G1 E0.80000 F2100.00000
G1 F1200.000
G1 X123.837 Y113.529 E0.00218
G1 X123.453 Y113.327 E0.01359
G1 X123.003 Y113.089 F10800.000
G1 F1200.000
G1 X122.848 Y113.008 E0.00547
G1 X122.707 Y112.867 E0.00626
G1 F8640.000
G1 X122.848 Y113.008 E-0.04613
G1 X123.003 Y113.089 E-0.04030
G1 E-0.71356 F2100.00000
G1 Z0.800 F10800.000
G1 X121.630 Y110.639
G1 Z0.200
G1 E0.80000 F2100.00000
G1 F1200.000
G1 X121.620 Y109.198 E0.04519
G1 X119.684 Y109.173 E0.06070
G1 F8640.000
G1 X121.620 Y109.198 E-0.44700
G1 X121.629 Y110.554 E-0.31300
G1 E-0.04000 F2100.00000
G1 Z0.800 F10800.000
G1 X119.795 Y100.806
G1 Z0.200
G1 E0.80000 F2100.00000
G1 F1200.000
G1 X121.622 Y100.798 E0.05728
G1 X121.635 Y99.479 E0.04134
G1 X122.015 Y99.205 F10800.000
G1 F1200.000
G1 X121.995 Y101.173 E0.06170
G1 X119.269 Y101.185 E0.08548
G1 F8640.000
G1 X121.995 Y101.173 E-0.62951
G1 X122.001 Y100.608 E-0.13049
G1 E-0.04000 F2100.00000
G1 Z0.800 F10800.000
G1 X119.184 Y108.797
G1 Z0.200
G1 E0.80000 F2100.00000
G1 F1200.000
G1 X121.994 Y108.824 E0.08813
G1 X122.009 Y110.925 E0.06587
G1 X122.499 Y111.294 F10800.000
G1 F1200.000
G1 X122.386 Y110.940 E0.01166
G1 X122.369 Y108.449 E0.07810
G1 X118.688 Y108.423 E0.11541
G1 F8640.000
G1 X121.979 Y108.446 E-0.76000
G1 E-0.04000 F2100.00000
G1 Z0.800 F10800.000
G1 X118.743 Y101.565
G1 Z0.200
G1 E0.80000 F2100.00000
G1 F1200.000
G1 X122.369 Y101.548 E0.11369
G1 X122.392 Y99.233 E0.07259
G1 X122.514 Y98.846 E0.01274
G1 X123.224 Y98.333 F10800.000
G1 F1200.000
G1 X123.118 Y98.440 E0.00473
G1 X122.931 Y98.773 E0.01194
G1 X122.769 Y99.267 E0.01633
G1 X122.742 Y101.925 E0.08334
G1 X118.722 Y101.934 E0.12606
G1 X118.215 Y102.090 E0.01663
G1 X117.959 Y102.236 E0.00923
G1 X117.344 Y102.851 E0.02726
G1 X117.199 Y103.105 E0.00919
G1 X117.034 Y103.668 E0.01838
G1 X117.034 Y106.330 E0.08349
G1 X117.244 Y106.987 E0.02163
G1 X117.427 Y107.251 E0.01006
G1 X117.959 Y107.763 E0.02316
G1 X118.212 Y107.908 E0.00912
G1 X118.659 Y108.055 E0.01476
G1 X122.743 Y108.073 E0.12805
G1 X122.763 Y110.906 E0.08881
G1 X122.912 Y111.352 E0.01475
G1 X123.131 Y111.691 E0.01266
G1 X123.454 Y112.014 E0.01430
G1 X123.705 Y112.203 F10800.000
G1 F1200.000
G1 X123.807 Y112.253 E0.00355
G1 X124.273 Y112.479 F10800.000
G1 F1200.000
G1 X124.527 Y112.516 E0.00804
G1 X125.316 Y112.505 E0.02473
G1 X125.501 Y112.534 E0.00589
G1 X126.779 Y112.534 E0.04007
G1 X126.888 Y112.518 E0.00346
G1 X126.998 Y112.534 E0.00346
G1 X128.287 Y112.534 E0.04044
G1 X128.397 Y112.518 E0.00346
G1 X128.506 Y112.534 E0.00346
G1 X129.796 Y112.534 E0.04044
G1 X129.905 Y112.518 E0.00346
G1 X130.014 Y112.534 E0.00346
G1 X131.304 Y112.534 E0.04044
G1 X131.413 Y112.518 E0.00346
G1 X131.523 Y112.534 E0.00346
G1 X132.812 Y112.534 E0.04044
G1 X132.922 Y112.518 E0.00346
G1 X133.031 Y112.534 E0.00346
G1 X134.309 Y112.534 E0.04007
G1 X134.495 Y112.505 E0.00589
G1 X135.311 Y112.516 E0.02560
G1 X135.896 Y112.332 E0.01924
G1 F8640.000
G1 X135.311 Y112.516 E-0.14165
G1 X134.495 Y112.505 E-0.18855
G1 X134.309 Y112.534 E-0.04338
G1 X133.031 Y112.534 E-0.29511
G1 X132.922 Y112.518 E-0.02549
G1 X132.812 Y112.534 E-0.02549
G1 X132.638 Y112.534 E-0.04033
G1 E-0.04000 F2100.00000
G1 Z0.800 F10800.000
G1 X123.117 Y107.697
G1 Z0.200
G1 E0.80000 F2100.00000
G1 F1200.000
G1 X118.748 Y107.687 E0.13699
G1 X118.350 Y107.556 E0.01315
G1 X118.172 Y107.451 E0.00649
G1 X117.705 Y106.996 E0.02045
G1 X117.572 Y106.799 E0.00744
