; generated by PrusaSlicer 2.2.0+win64 on 2020-08-17 at 16:25:35 UTC

; 

; external perimeters extrusion width = 0.45mm
; perimeters extrusion width = 0.45mm
; infill extrusion width = 0.45mm
; solid infill extrusion width = 0.45mm
; top infill extrusion width = 0.40mm
; support material extrusion width = 0.35mm
; first layer extrusion width = 0.42mm

; external perimeters extrusion width = 0.45mm
; perimeters extrusion width = 0.45mm
; infill extrusion width = 0.45mm
; solid infill extrusion width = 0.45mm
; top infill extrusion width = 0.40mm
; support material extrusion width = 0.35mm
; first layer extrusion width = 0.42mm

M73 P0 R20
M201 X9000 Y9000 Z500 E10000 ; sets maximum accelerations, mm/sec^2
M203 X500 Y500 Z12 E120 ; sets maximum feedrates, mm/sec
M204 P2000 R1500 T2000 ; sets acceleration (P, T) and retract acceleration (R), mm/sec^2
M205 X10.00 Y10.00 Z0.20 E4.50 ; sets the jerk limits, mm/sec
M205 S0 T0 ; sets the minimum extruding and travel feed rate, mm/sec
M107
M862.3 P "MK2.5SMMU2S" ; printer model check
M862.1 P0.4 ; nozzle diameter check
M115 U3.9.0 ; tell printer latest fw version
G90 ; use absolute coordinates
M83 ; extruder relative mode
M104 S215 ; set extruder temp
M140 S60 ; set bed temp
Tx
M190 S60 ; wait for bed temp
M109 S215 ; wait for extruder temp
G28 W ; home all without mesh bed level
G80 ; mesh bed leveling

;go outside print area
G1 Y-3.0 F1000.0
G1 Z0.4 F1000.0
; select extruder
Tc
; purge line
G1 X55.0 F2000.0
G1 Z0.3 F1000.0
G92 E0.0
G1 X240.0 E25.0 F2200.0
M73 P0 R20
G1 Y-2.0 F1000.0
G1 X55.0 E25 F1400.0
G1 Z0.20 F1000.0
G1 X5.0 E4.0 F1000.0
G92 E0.0
G21 ; set units to millimeters
G90 ; use absolute coordinates
M83 ; use relative distances for extrusion
M900 K0.06 ; Filament gcode LA 1.5
M900 K30 ; Filament gcode LA 1.0
;BEFORE_LAYER_CHANGE
G92 E0.0
;0.2


G1 E-0.80000 F2100.00000
G1 Z0.600 F10800.000
;AFTER_LAYER_CHANGE
;0.2
G1 X109.481 Y90.569
G1 Z0.200
G1 E0.80000 F2100.00000
M204 S1000
G1 F1200.000
G1 X110.940 Y89.104 E0.06482
G1 X112.831 Y87.573 E0.07630
G1 X114.572 Y86.447 E0.06501
G1 X116.619 Y85.416 E0.07185
G1 X118.553 Y84.677 E0.06494
G1 X120.664 Y84.112 E0.06852
G1 X122.819 Y83.771 E0.06840
G1 X125.005 Y83.656 E0.06864
G1 X127.183 Y83.771 E0.06840
G1 X129.342 Y84.113 E0.06852
G1 X131.453 Y84.679 E0.06852
G1 X133.486 Y85.459 E0.06828
G1 X135.436 Y86.452 E0.06864
G1 X137.266 Y87.640 E0.06840
G1 X138.965 Y89.015 E0.06852
G1 X140.429 Y90.474 E0.06482
G1 X141.960 Y92.365 E0.07630
G1 X143.086 Y94.106 E0.06501
G1 X144.117 Y96.149 E0.07173
G1 X144.857 Y98.087 E0.06505
G1 X145.422 Y100.198 E0.06852
G1 X145.763 Y102.352 E0.06840
G1 X145.877 Y104.535 E0.06852
G1 X145.763 Y106.717 E0.06852
G1 X145.421 Y108.875 E0.06852
G1 X144.855 Y110.986 E0.06852
G1 X144.075 Y113.019 E0.06828
G1 X143.081 Y114.970 E0.06864
G1 X141.894 Y116.800 E0.06840
G1 X140.519 Y118.498 E0.06852
G1 X139.060 Y119.963 E0.06482
G1 X137.169 Y121.494 E0.07630
G1 X135.428 Y122.620 E0.06501
G1 X133.385 Y123.650 E0.07173
G1 X131.447 Y124.390 E0.06506
G1 X129.336 Y124.955 E0.06852
G1 X127.181 Y125.296 E0.06840
G1 X124.999 Y125.411 E0.06852
G1 X122.819 Y125.296 E0.06844
G1 X120.658 Y124.954 E0.06859
G1 X118.547 Y124.388 E0.06852
G1 X116.514 Y123.608 E0.06828
G1 X114.564 Y122.615 E0.06864
G1 X112.734 Y121.427 E0.06840
G1 X111.035 Y120.052 E0.06852
G1 X109.571 Y118.593 E0.06482
G1 X108.040 Y116.702 E0.07630
G1 X106.914 Y114.961 E0.06501
G1 X105.883 Y112.918 E0.07173
G1 X105.143 Y110.980 E0.06506
G1 X104.578 Y108.869 E0.06852
G1 X104.237 Y106.714 E0.06840
G1 X104.123 Y104.532 E0.06852
G1 X104.237 Y102.350 E0.06852
G1 X104.579 Y100.192 E0.06852
G1 X105.145 Y98.081 E0.06852
G1 X105.925 Y96.048 E0.06828
G1 X106.919 Y94.097 E0.06864
G1 X108.106 Y92.267 E0.06840
G1 X109.443 Y90.615 E0.06664
G1 F8640.000
G1 X110.940 Y89.104 E-0.49111
G1 X111.845 Y88.372 E-0.26889
G1 E-0.04000 F2100.00000
G1 Z0.800 F10800.000
G1 X107.784 Y88.974
G1 Z0.200
G1 E0.80000 F2100.00000
G1 F1200.000
G1 X109.364 Y87.376 E0.07046
G1 X111.259 Y85.824 E0.07682
G1 X113.292 Y84.489 E0.07626
G1 X115.452 Y83.378 E0.07616
G1 X117.712 Y82.494 E0.07607
G1 X120.310 Y81.799 E0.08433
G1 X122.714 Y81.433 E0.07626
G1 X125.141 Y81.321 E0.07617
G1 X127.545 Y81.460 E0.07549
G1 X129.901 Y81.843 E0.07484
G1 X132.206 Y82.467 E0.07487
G1 X134.453 Y83.332 E0.07549
G1 X136.580 Y84.415 E0.07486
G1 X138.602 Y85.723 E0.07549
G1 X140.463 Y87.220 E0.07488
G1 X142.173 Y88.915 E0.07549
G1 X143.711 Y90.794 E0.07615
G1 X145.046 Y92.827 E0.07626
G1 X146.263 Y95.219 E0.08413
G1 X147.120 Y97.495 E0.07626
G1 X147.735 Y99.846 E0.07618
G1 X148.100 Y102.248 E0.07618
G1 X148.213 Y104.674 E0.07614
G1 X148.076 Y107.057 E0.07487
G1 X147.694 Y109.415 E0.07488
G1 X147.067 Y111.739 E0.07548
G1 X146.210 Y113.967 E0.07484
G1 X145.119 Y116.112 E0.07547
G1 X143.823 Y118.118 E0.07487
G1 X142.316 Y119.994 E0.07546
G1 X140.635 Y121.692 E0.07492
G1 X138.550 Y123.382 E0.08414
G1 X136.484 Y124.707 E0.07695
G1 X134.312 Y125.797 E0.07620
G1 X132.038 Y126.654 E0.07618
G1 X129.688 Y127.268 E0.07618
G1 X127.287 Y127.634 E0.07615
G1 X124.873 Y127.746 E0.07577
G1 X122.490 Y127.611 E0.07484
G1 X120.121 Y127.228 E0.07524
G1 X117.816 Y126.607 E0.07485
G1 X115.568 Y125.744 E0.07548
G1 X113.422 Y124.653 E0.07548
G1 X111.417 Y123.358 E0.07487
G1 X109.540 Y121.850 E0.07547
G1 X107.843 Y120.170 E0.07486
G1 X106.304 Y118.292 E0.07615
G1 X104.968 Y116.263 E0.07618
G1 X103.852 Y114.104 E0.07618
G1 X102.966 Y111.839 E0.07626
G1 X102.270 Y109.246 E0.08419
G1 X101.900 Y106.820 E0.07695
G1 X101.787 Y104.393 E0.07616
G1 X101.924 Y102.009 E0.07487
G1 X102.310 Y99.634 E0.07546
G1 X102.933 Y97.329 E0.07485
G1 X103.790 Y95.100 E0.07487
G1 X104.881 Y92.955 E0.07547
G1 X106.176 Y90.950 E0.07485
G1 X107.742 Y89.017 E0.07798
G1 X108.009 Y89.281 F10800.000
G1 F1200.000
G1 X109.625 Y87.649 E0.07203
G1 X111.490 Y86.122 E0.07558
G1 X113.491 Y84.810 E0.07502
G1 X115.616 Y83.718 E0.07492
G1 X117.839 Y82.849 E0.07483
G1 X120.377 Y82.170 E0.08237
G1 X122.742 Y81.809 E0.07501
G1 X125.129 Y81.698 E0.07493
G1 X127.494 Y81.834 E0.07427
G1 X129.812 Y82.210 E0.07362
G1 X132.098 Y82.828 E0.07426
G1 X134.308 Y83.680 E0.07426
G1 X136.400 Y84.747 E0.07364
G1 X138.389 Y86.034 E0.07427
G1 X140.219 Y87.507 E0.07366
G1 X141.900 Y89.175 E0.07426
G1 X143.413 Y91.025 E0.07492
G1 X144.725 Y93.026 E0.07501
G1 X145.914 Y95.362 E0.08219
G1 X146.758 Y97.600 E0.07501
G1 X147.364 Y99.912 E0.07495
G1 X147.724 Y102.275 E0.07495
G1 X147.836 Y104.662 E0.07490
G1 X147.700 Y107.026 E0.07425
G1 X147.324 Y109.345 E0.07365
G1 X146.705 Y111.631 E0.07426
G1 X145.862 Y113.822 E0.07362
G1 X144.788 Y115.932 E0.07425
G1 X143.512 Y117.905 E0.07365
G1 X142.028 Y119.750 E0.07424
G1 X140.374 Y121.419 E0.07368
G1 X138.337 Y123.070 E0.08220
G1 X136.306 Y124.374 E0.07569
G1 X134.170 Y125.448 E0.07496
G1 X131.933 Y126.292 E0.07495
G1 X129.621 Y126.897 E0.07495
G1 X127.259 Y127.258 E0.07492
G1 X124.884 Y127.369 E0.07454
G1 X122.521 Y127.235 E0.07422
G1 X120.191 Y126.858 E0.07402
G1 X117.923 Y126.246 E0.07363
G1 X115.713 Y125.396 E0.07426
G1 X113.602 Y124.322 E0.07426
G1 X111.630 Y123.046 E0.07364
G1 X109.784 Y121.562 E0.07424
G1 X108.116 Y119.909 E0.07364
G1 X106.602 Y118.061 E0.07492
G1 X105.288 Y116.064 E0.07495
G1 X104.191 Y113.940 E0.07495
G1 X103.321 Y111.712 E0.07501
G1 X102.641 Y109.178 E0.08224
G1 X102.276 Y106.792 E0.07569
G1 X102.164 Y104.405 E0.07493
G1 X102.298 Y102.060 E0.07365
G1 X102.676 Y99.723 E0.07424
G1 X103.288 Y97.455 E0.07363
G1 X104.138 Y95.245 E0.07426
G1 X105.212 Y93.135 E0.07424
G1 X106.488 Y91.163 E0.07364
G1 X107.967 Y89.324 E0.07399
G1 X108.247 Y89.576 F10800.000
G1 F1200.000
G1 X109.886 Y87.921 E0.07303
G1 X111.721 Y86.420 E0.07434
G1 X113.689 Y85.131 E0.07377
G1 X115.780 Y84.058 E0.07368
G1 X117.966 Y83.204 E0.07360
G1 X120.444 Y82.541 E0.08042
G1 X122.770 Y82.185 E0.07376
G1 X125.118 Y82.075 E0.07370
G1 X127.443 Y82.208 E0.07304
G1 X129.723 Y82.577 E0.07240
G1 X131.971 Y83.184 E0.07303
G1 X134.145 Y84.021 E0.07303
G1 X136.220 Y85.078 E0.07302
G1 X138.175 Y86.345 E0.07305
G1 X139.974 Y87.795 E0.07244
G1 X141.628 Y89.436 E0.07304
G1 X143.114 Y91.256 E0.07368
G1 X144.404 Y93.224 E0.07376
G1 X145.564 Y95.505 E0.08025
G1 X146.396 Y97.705 E0.07376
G1 X146.993 Y99.979 E0.07371
G1 X147.348 Y102.303 E0.07371
G1 X147.459 Y104.650 E0.07367
G1 X147.326 Y106.975 E0.07303
G1 X146.957 Y109.256 E0.07243
G1 X146.350 Y111.505 E0.07303
G1 X145.521 Y113.660 E0.07240
G1 X144.466 Y115.736 E0.07302
G1 X143.201 Y117.692 E0.07304
G1 X141.740 Y119.506 E0.07301
G1 X140.114 Y121.147 E0.07245
G1 X138.125 Y122.759 E0.08027
G1 X136.128 Y124.042 E0.07444
G1 X134.027 Y125.099 E0.07372
G1 X131.828 Y125.929 E0.07371
G1 X129.554 Y126.526 E0.07371
G1 X127.231 Y126.881 E0.07368
G1 X124.896 Y126.992 E0.07331
G1 X122.571 Y126.861 E0.07300
G1 X120.279 Y126.491 E0.07280
G1 X118.049 Y125.890 E0.07241
G1 X115.875 Y125.055 E0.07304
G1 X113.798 Y124.000 E0.07304
G1 X111.858 Y122.746 E0.07242
G1 X110.043 Y121.287 E0.07302
G1 X108.388 Y119.648 E0.07302
G1 X106.900 Y117.830 E0.07368
G1 X105.609 Y115.865 E0.07371
G1 X104.531 Y113.776 E0.07371
G1 X103.676 Y111.584 E0.07376
G1 X103.012 Y109.111 E0.08030
G1 X102.652 Y106.764 E0.07444
G1 X102.541 Y104.416 E0.07370
G1 X102.672 Y102.110 E0.07242
G1 X103.043 Y99.811 E0.07302
G1 X103.644 Y97.581 E0.07241
G1 X104.479 Y95.407 E0.07303
G1 X105.534 Y93.331 E0.07302
G1 X106.788 Y91.391 E0.07241
G1 X108.209 Y89.623 E0.07114
G1 X108.503 Y89.859 F10800.000
G1 F1200.000
G1 X110.146 Y88.194 E0.07336
G1 X111.952 Y86.719 E0.07310
G1 X113.887 Y85.452 E0.07252
G1 X115.943 Y84.398 E0.07244
G1 X118.094 Y83.559 E0.07237
G1 X120.512 Y82.912 E0.07848
G1 X122.798 Y82.562 E0.07251
G1 X125.106 Y82.452 E0.07247
G1 X127.393 Y82.581 E0.07181
G1 X129.653 Y82.947 E0.07178
G1 X131.864 Y83.545 E0.07180
G1 X134.001 Y84.369 E0.07181
G1 X136.024 Y85.400 E0.07120
G1 X137.947 Y86.645 E0.07182
G1 X139.730 Y88.082 E0.07182
G1 X141.355 Y89.696 E0.07181
G1 X142.816 Y91.487 E0.07245
G1 X144.083 Y93.422 E0.07251
G1 X145.215 Y95.648 E0.07832
G1 X146.034 Y97.811 E0.07251
G1 X146.621 Y100.046 E0.07247
G1 X146.972 Y102.331 E0.07247
G1 X147.082 Y104.639 E0.07244
G1 X146.952 Y106.925 E0.07180
G1 X146.586 Y109.186 E0.07182
G1 X145.988 Y111.397 E0.07181
G1 X145.173 Y113.515 E0.07118
G1 X144.134 Y115.556 E0.07180
G1 X142.890 Y117.479 E0.07181
G1 X141.453 Y119.262 E0.07179
G1 X139.853 Y120.874 E0.07122
G1 X137.912 Y122.447 E0.07834
G1 X135.949 Y123.710 E0.07318
G1 X133.884 Y124.749 E0.07248
G1 X131.723 Y125.567 E0.07247
G1 X129.487 Y126.155 E0.07247
G1 X127.203 Y126.505 E0.07245
G1 X124.907 Y126.615 E0.07208
G1 X122.622 Y126.487 E0.07177
G1 X120.368 Y126.124 E0.07157
G1 X118.157 Y125.528 E0.07180
G1 X116.019 Y124.707 E0.07181
G1 X113.978 Y123.668 E0.07181
G1 X112.071 Y122.435 E0.07120
G1 X110.287 Y121.000 E0.07180
G1 X108.661 Y119.388 E0.07180
G1 X107.198 Y117.599 E0.07245
G1 X105.930 Y115.666 E0.07247
G1 X104.871 Y113.612 E0.07247
G1 X104.031 Y111.457 E0.07251
G1 X103.383 Y109.043 E0.07836
G1 X103.028 Y106.736 E0.07318
G1 X102.918 Y104.428 E0.07247
G1 X103.046 Y102.160 E0.07120
G1 X103.410 Y99.900 E0.07179
G1 X104.005 Y97.689 E0.07179
G1 X104.827 Y95.551 E0.07181
G1 X105.866 Y93.511 E0.07180
G1 X107.099 Y91.604 E0.07119
G1 X108.465 Y89.906 E0.06835
G1 X108.759 Y90.142 F10800.000
G1 F1200.000
G1 X110.407 Y88.466 E0.07370
G1 X112.183 Y87.017 E0.07186
G1 X114.085 Y85.773 E0.07128
G1 X116.106 Y84.738 E0.07119
G1 X118.221 Y83.914 E0.07115
G1 X120.579 Y83.283 E0.07655
G1 X122.826 Y82.938 E0.07126
G1 X125.095 Y82.829 E0.07123
G1 X127.343 Y82.955 E0.07059
G1 X129.564 Y83.314 E0.07056
G1 X131.737 Y83.901 E0.07058
G1 X133.838 Y84.709 E0.07058
G1 X135.844 Y85.731 E0.07058
G1 X137.733 Y86.956 E0.07059
G1 X139.486 Y88.370 E0.07060
G1 X141.082 Y89.957 E0.07058
G1 X142.517 Y91.717 E0.07122
G1 X143.761 Y93.619 E0.07126
G1 X144.866 Y95.791 E0.07640
G1 X145.672 Y97.917 E0.07126
G1 X146.250 Y100.114 E0.07123
G1 X146.596 Y102.359 E0.07123
G1 X146.705 Y104.627 E0.07120
G1 X146.578 Y106.874 E0.07057
G1 X146.220 Y109.097 E0.07059
G1 X145.633 Y111.270 E0.07058
G1 X144.824 Y113.371 E0.07056
G1 X143.803 Y115.376 E0.07057
G1 X142.578 Y117.265 E0.07058
G1 X141.166 Y119.017 E0.07056
G1 X139.593 Y120.601 E0.06998
G1 X137.699 Y122.136 E0.07642
G1 X135.771 Y123.378 E0.07193
G1 X133.741 Y124.400 E0.07124
G1 X131.617 Y125.205 E0.07123
G1 X129.420 Y125.784 E0.07123
G1 X127.175 Y126.129 E0.07121
G1 X124.918 Y126.238 E0.07085
G1 X122.672 Y126.113 E0.07055
G1 X120.457 Y125.758 E0.07035
G1 X118.283 Y125.173 E0.07057
G1 X116.181 Y124.366 E0.07058
G1 X114.175 Y123.346 E0.07058
G1 X112.284 Y122.124 E0.07059
G1 X110.531 Y120.712 E0.07057
G1 X108.933 Y119.127 E0.07057
G1 X107.496 Y117.368 E0.07122
G1 X106.251 Y115.468 E0.07123
G1 X105.210 Y113.448 E0.07123
G1 X104.387 Y111.330 E0.07126
G1 X103.754 Y108.975 E0.07644
G1 X103.404 Y106.708 E0.07193
G1 X103.295 Y104.439 E0.07123
G1 X103.422 Y102.191 E0.07058
G1 X103.780 Y99.970 E0.07056
G1 X104.367 Y97.797 E0.07056
G1 X105.176 Y95.696 E0.07058
G1 X106.197 Y93.691 E0.07057
G1 X107.410 Y91.817 E0.06997
G1 X108.721 Y90.189 E0.06556
G1 X109.015 Y90.425 F10800.000
G1 F1200.000
G1 X109.109 Y90.308 E0.00472
G1 X110.668 Y88.739 E0.06934
G1 X112.413 Y87.316 E0.07062
G1 X114.283 Y86.094 E0.07003
G1 X116.269 Y85.078 E0.06995
G1 X118.348 Y84.270 E0.06992
G1 X120.647 Y83.655 E0.07462
G1 X122.854 Y83.314 E0.07002
G1 X125.084 Y83.206 E0.07000
G1 X127.311 Y83.331 E0.06997
G1 X129.494 Y83.685 E0.06933
G1 X131.629 Y84.262 E0.06935
G1 X133.693 Y85.058 E0.06936
G1 X135.664 Y86.063 E0.06935
G1 X137.520 Y87.267 E0.06937
G1 X139.241 Y88.657 E0.06937
G1 X140.809 Y90.217 E0.06935
G1 X142.219 Y91.948 E0.06999
G1 X143.440 Y93.817 E0.07002
G1 X144.518 Y95.934 E0.07449
G1 X145.310 Y98.022 E0.07002
G1 X145.879 Y100.181 E0.07000
G1 X146.220 Y102.387 E0.07000
G1 X146.328 Y104.616 E0.06997
G1 X146.204 Y106.824 E0.06934
G1 X145.853 Y109.009 E0.06936
G1 X145.277 Y111.144 E0.06935
G1 X144.484 Y113.208 E0.06934
G1 X143.481 Y115.180 E0.06935
G1 X142.279 Y117.036 E0.06936
G1 X140.891 Y118.758 E0.06934
G1 X139.332 Y120.328 E0.06936
G1 X137.486 Y121.824 E0.07451
G1 X135.592 Y123.045 E0.07068
G1 X133.598 Y124.051 E0.07001
G1 X131.511 Y124.843 E0.07000
G1 X129.353 Y125.412 E0.07000
G1 X127.147 Y125.753 E0.06998
G1 X124.929 Y125.861 E0.06962
G1 X122.722 Y125.739 E0.06932
G1 X120.526 Y125.387 E0.06973
G1 X118.391 Y124.811 E0.06934
G1 X116.326 Y124.018 E0.06936
G1 X114.354 Y123.014 E0.06936
G1 X112.497 Y121.812 E0.06936
G1 X110.775 Y120.425 E0.06934
G1 X109.206 Y118.866 E0.06934
G1 X107.795 Y117.137 E0.06998
G1 X106.571 Y115.270 E0.07000
G1 X105.550 Y113.285 E0.07000
G1 X104.742 Y111.203 E0.07002
M73 P5 R19
G1 X104.125 Y108.908 E0.07452
G1 X103.780 Y106.680 E0.07068
G1 X103.672 Y104.450 E0.07000
G1 X103.796 Y102.242 E0.06936
G1 X104.147 Y100.058 E0.06934
G1 X104.722 Y97.923 E0.06934
G1 X105.516 Y95.858 E0.06935
G1 X106.519 Y93.887 E0.06934
G1 X107.721 Y92.031 E0.06936
G1 X108.977 Y90.472 E0.06276
G1 X109.564 Y90.946 F10800.000
G1 F1200.000
G1 X109.684 Y90.797 E0.00598
G1 X111.188 Y89.285 E0.06688
G1 X112.874 Y87.913 E0.06814
G1 X114.678 Y86.736 E0.06754
G1 X116.595 Y85.758 E0.06747
G1 X118.601 Y84.980 E0.06747
G1 X120.782 Y84.397 E0.07079
G1 X122.911 Y84.066 E0.06753
G1 X125.062 Y83.960 E0.06752
G1 X127.211 Y84.079 E0.06750
G1 X129.317 Y84.418 E0.06687
G1 X131.377 Y84.973 E0.06689
G1 X133.386 Y85.747 E0.06751
G1 X135.287 Y86.716 E0.06689
G1 X137.092 Y87.889 E0.06752
G1 X138.752 Y89.231 E0.06691
G1 X140.262 Y90.737 E0.06690
G1 X141.621 Y92.408 E0.06752
G1 X142.797 Y94.212 E0.06753
G1 X143.820 Y96.221 E0.07069
G1 X144.586 Y98.234 E0.06753
G1 X145.137 Y100.316 E0.06752
G1 X145.467 Y102.444 E0.06752
G1 X145.574 Y104.595 E0.06750
G1 X145.457 Y106.724 E0.06688
G1 X145.116 Y108.851 E0.06752
G1 X144.560 Y110.911 E0.06690
G1 X143.795 Y112.902 E0.06688
G1 X142.827 Y114.803 E0.06689
G1 X141.656 Y116.610 E0.06751
G1 X140.317 Y118.269 E0.06687
G1 X138.812 Y119.782 E0.06689
G1 X137.060 Y121.202 E0.07071
G1 X135.234 Y122.381 E0.06818
G1 X133.312 Y123.353 E0.06753
G1 X131.299 Y124.119 E0.06752
G1 X129.217 Y124.670 E0.06752
