; generated by PrusaSlicer 2.2.0+win64 on 2020-08-09 at 20:54:40 UTC

; 

; external perimeters extrusion width = 0.45mm
; perimeters extrusion width = 0.45mm
; infill extrusion width = 0.45mm
; solid infill extrusion width = 0.45mm
; top infill extrusion width = 0.40mm
; first layer extrusion width = 0.42mm

M73 P0 R282
M201 X9000 Y9000 Z500 E10000 ; sets maximum accelerations, mm/sec^2
M203 X500 Y500 Z12 E120 ; sets maximum feedrates, mm/sec
M204 P2000 R1500 T2000 ; sets acceleration (P, T) and retract acceleration (R), mm/sec^2
M205 X10.00 Y10.00 Z0.20 E2.50 ; sets the jerk limits, mm/sec
M205 S0 T0 ; sets the minimum extruding and travel feed rate, mm/sec
M107
M862.3 P "MK2.5SMMU2S" ; printer model check
M862.1 P0.4 ; nozzle diameter check
M115 U3.8.0 ; tell printer latest fw version
G90 ; use absolute coordinates
M83 ; extruder relative mode
M104 S215 ; set extruder temp
M140 S60 ; set bed temp
Tx
M190 S60 ; wait for bed temp
M109 S215 ; wait for extruder temp
G28 W ; home all without mesh bed level
G80 ; mesh bed leveling

G21 ; set units to millimeters

;go outside print area
G1 Y-3.0 F1000.0
G1 Z0.4 F1000.0
; select extruder
Tc
; purge line
G1 X55.0 F2000.0
G1 Z0.3 F1000.0
G92 E0.0
G1 X240.0 E25.0 F2200.0
M73 P0 R281
G1 Y-2.0 F1000.0
G1 X55.0 E25 F1400.0
G1 Z0.20 F1000.0
G1 X5.0 E4.0 F1000.0
G92 E0.0
G21 ; set units to millimeters
G90 ; use absolute coordinates
M83 ; use relative distances for extrusion
M900 K30 ; Filament gcode
;BEFORE_LAYER_CHANGE
G92 E0.0
;0.2


G1 E-0.80000 F2100.00000
G1 Z0.600 F10800.000
;AFTER_LAYER_CHANGE
;0.2
G1 X82.121 Y57.259
G1 Z0.200
G1 E0.80000 F2100.00000
M204 S1000
G1 F1200.000
G1 X82.536 Y56.549 E0.02579
G1 X82.904 Y56.197 E0.01597
G1 X83.339 Y55.932 E0.01597
G1 X83.821 Y55.766 E0.01597
G1 X84.327 Y55.706 E0.01597
G1 X165.649 Y55.706 E2.54980
G1 X166.548 Y55.883 E0.02872
G1 X167.313 Y56.386 E0.02872
G1 X167.833 Y57.145 E0.02884
G1 X168.026 Y58.040 E0.02872
G1 X168.026 Y151.932 E2.94390
G1 X167.879 Y152.741 E0.02579
G1 X167.464 Y153.451 E0.02579
G1 X167.093 Y153.805 E0.01609
G1 X166.654 Y154.071 E0.01609
G1 X166.168 Y154.236 E0.01609
G1 X165.658 Y154.294 E0.01609
G1 X84.336 Y154.294 E2.54980
G1 X83.527 Y154.146 E0.02579
G1 X82.816 Y153.732 E0.02579
G1 X82.462 Y153.360 E0.01609
G1 X82.197 Y152.921 E0.01609
G1 X82.031 Y152.435 E0.01609
G1 X81.974 Y151.921 E0.01621
G1 X81.974 Y58.068 E2.94270
G1 X82.111 Y57.318 E0.02390
G1 E-0.80000 F2100.00000
G1 Z0.800 F10800.000
G1 X146.825 Y151.329
G1 Z0.200
G1 E0.80000 F2100.00000
G1 F1200.000
G1 X128.587 Y151.329 E0.57182
G1 X128.587 Y108.587 E1.34016
G1 X165.062 Y108.587 E1.14365
G1 X165.062 Y151.329 E1.34016
G1 X146.885 Y151.329 E0.56994
G1 X146.825 Y151.707 F10800.000
G1 F1200.000
G1 X128.210 Y151.707 E0.58365
G1 X128.210 Y108.210 E1.36380
G1 X165.439 Y108.210 E1.16729
G1 X165.439 Y151.707 E1.36380
G1 X146.885 Y151.707 E0.58176
G1 X146.508 Y151.462 F10800.000
G1 E-0.80000 F2100.00000
G1 Z0.800 F10800.000
G1 X164.949 Y109.467
G1 Z0.200
G1 E0.80000 F2100.00000
G1 F1200.000
G1 X164.352 Y108.870 E0.02663
G1 X163.815 Y108.870 E0.01691
G1 X164.779 Y109.834 E0.04298
G1 X164.779 Y110.370 E0.01691
G1 X163.279 Y108.870 E0.06690
G1 X162.743 Y108.870 E0.01691
G1 X164.779 Y110.906 E0.09082
G1 X164.779 Y111.443 E0.01691
G1 X162.206 Y108.870 E0.11474
G1 X161.670 Y108.870 E0.01691
G1 X164.779 Y111.979 E0.13865
G1 X164.779 Y112.515 E0.01691
G1 X161.134 Y108.870 E0.16257
G1 X160.597 Y108.870 E0.01691
G1 X164.779 Y113.052 E0.18649
G1 X164.779 Y113.588 E0.01691
G1 X160.061 Y108.870 E0.21041
G1 X159.525 Y108.870 E0.01691
G1 X164.779 Y114.124 E0.23433
G1 X164.779 Y114.661 E0.01691
G1 X158.988 Y108.870 E0.25824
G1 X158.452 Y108.870 E0.01691
G1 X164.779 Y115.197 E0.28216
G1 X164.779 Y115.733 E0.01691
G1 X157.916 Y108.870 E0.30608
G1 X157.379 Y108.870 E0.01691
G1 X164.779 Y116.270 E0.33000
G1 X164.779 Y116.806 E0.01691
G1 X156.843 Y108.870 E0.35392
G1 X156.307 Y108.870 E0.01691
G1 X164.779 Y117.342 E0.37783
G1 X164.779 Y117.879 E0.01691
G1 X155.770 Y108.870 E0.40175
G1 X155.234 Y108.870 E0.01691
G1 X164.779 Y118.415 E0.42567
G1 X164.779 Y118.951 E0.01691
G1 X154.698 Y108.870 E0.44959
G1 X154.161 Y108.870 E0.01691
G1 X164.779 Y119.488 E0.47351
G1 X164.779 Y120.024 E0.01691
G1 X153.625 Y108.870 E0.49742
G1 X153.089 Y108.870 E0.01691
G1 X164.779 Y120.560 E0.52134
G1 X164.779 Y121.097 E0.01691
G1 X152.553 Y108.870 E0.54526
G1 X152.016 Y108.870 E0.01691
G1 X164.779 Y121.633 E0.56918
G1 X164.779 Y122.169 E0.01691
G1 X151.480 Y108.870 E0.59310
M73 P0 R280
G1 X150.944 Y108.870 E0.01691
G1 X164.779 Y122.706 E0.61701
G1 X164.779 Y123.242 E0.01691
G1 X150.407 Y108.870 E0.64093
G1 X149.871 Y108.870 E0.01691
G1 X164.779 Y123.778 E0.66485
G1 X164.779 Y124.315 E0.01691
G1 X149.335 Y108.870 E0.68877
G1 X148.798 Y108.870 E0.01691
G1 X164.779 Y124.851 E0.71269
G1 X164.779 Y125.387 E0.01691
G1 X148.262 Y108.870 E0.73660
G1 X147.726 Y108.870 E0.01691
G1 X164.779 Y125.924 E0.76052
G1 X164.779 Y126.460 E0.01691
G1 X147.189 Y108.870 E0.78444
G1 X146.653 Y108.870 E0.01691
G1 X164.779 Y126.996 E0.80836
G1 X164.779 Y127.533 E0.01691
G1 X146.117 Y108.870 E0.83228
G1 X145.580 Y108.870 E0.01691
G1 X164.779 Y128.069 E0.85619
G1 X164.779 Y128.605 E0.01691
G1 X145.044 Y108.870 E0.88011
G1 X144.508 Y108.870 E0.01691
G1 X164.779 Y129.141 E0.90403
G1 X164.779 Y129.678 E0.01691
G1 X143.971 Y108.870 E0.92795
G1 X143.435 Y108.870 E0.01691
G1 X164.779 Y130.214 E0.95187
G1 X164.779 Y130.750 E0.01691
G1 X142.899 Y108.870 E0.97578
G1 X142.362 Y108.870 E0.01691
G1 X164.779 Y131.287 E0.99970
G1 X164.779 Y131.823 E0.01691
G1 X141.826 Y108.870 E1.02362
G1 X141.290 Y108.870 E0.01691
G1 X164.779 Y132.359 E1.04754
G1 X164.779 Y132.896 E0.01691
G1 X140.753 Y108.870 E1.07146
G1 X140.217 Y108.870 E0.01691
G1 X164.779 Y133.432 E1.09537
G1 X164.779 Y133.968 E0.01691
G1 X139.681 Y108.870 E1.11929
G1 X139.144 Y108.870 E0.01691
G1 X164.779 Y134.505 E1.14321
G1 X164.779 Y135.041 E0.01691
G1 X138.608 Y108.870 E1.16713
G1 X138.072 Y108.870 E0.01691
G1 X164.779 Y135.577 E1.19105
G1 X164.779 Y136.114 E0.01691
G1 X137.535 Y108.870 E1.21496
G1 X136.999 Y108.870 E0.01691
G1 X164.779 Y136.650 E1.23888
G1 X164.779 Y137.186 E0.01691
G1 X136.463 Y108.870 E1.26280
G1 X135.926 Y108.870 E0.01691
G1 X164.779 Y137.723 E1.28672
G1 X164.779 Y138.259 E0.01691
G1 X135.390 Y108.870 E1.31064
G1 X134.854 Y108.870 E0.01691
G1 X164.779 Y138.795 E1.33455
G1 X164.779 Y139.332 E0.01691
G1 X134.317 Y108.870 E1.35847
G1 X133.781 Y108.870 E0.01691
G1 X164.779 Y139.868 E1.38239
G1 X164.779 Y140.404 E0.01691
G1 X133.245 Y108.870 E1.40631
G1 X132.708 Y108.870 E0.01691
G1 X164.779 Y140.941 E1.43023
G1 X164.779 Y141.477 E0.01691
G1 X132.172 Y108.870 E1.45414
M73 P0 R279
G1 X131.636 Y108.870 E0.01691
G1 X164.779 Y142.013 E1.47806
G1 X164.779 Y142.550 E0.01691
G1 X131.099 Y108.870 E1.50198
G1 X130.563 Y108.870 E0.01691
G1 X164.779 Y143.086 E1.52590
G1 X164.779 Y143.622 E0.01691
G1 X130.027 Y108.870 E1.54981
G1 X129.490 Y108.870 E0.01691
G1 X164.779 Y144.159 E1.57373
G1 X164.779 Y144.695 E0.01691
G1 X128.954 Y108.870 E1.59765
G1 X128.870 Y108.870 E0.00266
G1 X128.870 Y109.322 E0.01426
G1 X164.779 Y145.231 E1.60141
G1 X164.779 Y145.768 E0.01691
G1 X128.870 Y109.858 E1.60141
G1 X128.870 Y110.395 E0.01691
G1 X164.779 Y146.304 E1.60141
G1 X164.779 Y146.840 E0.01691
G1 X128.870 Y110.931 E1.60141
G1 X128.870 Y111.467 E0.01691
G1 X164.779 Y147.377 E1.60141
G1 X164.779 Y147.913 E0.01691
G1 X128.870 Y112.004 E1.60141
G1 X128.870 Y112.540 E0.01691
G1 X164.779 Y148.449 E1.60141
G1 X164.779 Y148.986 E0.01691
G1 X128.870 Y113.076 E1.60141
G1 X128.870 Y113.613 E0.01691
G1 X164.779 Y149.522 E1.60141
G1 X164.779 Y150.058 E0.01691
G1 X128.870 Y114.149 E1.60141
G1 X128.870 Y114.685 E0.01691
G1 X164.779 Y150.595 E1.60141
G1 X164.779 Y151.047 E0.01426
G1 X164.695 Y151.047 E0.00266
G1 X128.870 Y115.222 E1.59765
G1 X128.870 Y115.758 E0.01691
G1 X164.159 Y151.047 E1.57373
G1 X163.622 Y151.047 E0.01691
G1 X128.870 Y116.294 E1.54981
G1 X128.870 Y116.831 E0.01691
G1 X163.086 Y151.047 E1.52589
G1 X162.550 Y151.047 E0.01691
G1 X128.870 Y117.367 E1.50198
G1 X128.870 Y117.903 E0.01691
G1 X162.013 Y151.047 E1.47806
G1 X161.477 Y151.047 E0.01691
G1 X128.870 Y118.440 E1.45414
M73 P1 R278
G1 X128.870 Y118.976 E0.01691
G1 X160.941 Y151.047 E1.43022
G1 X160.404 Y151.047 E0.01691
G1 X128.870 Y119.512 E1.40630
G1 X128.870 Y120.049 E0.01691
G1 X159.868 Y151.047 E1.38239
G1 X159.332 Y151.047 E0.01691
G1 X128.870 Y120.585 E1.35847
G1 X128.870 Y121.121 E0.01691
G1 X158.795 Y151.047 E1.33455
G1 X158.259 Y151.047 E0.01691
G1 X128.870 Y121.658 E1.31063
G1 X128.870 Y122.194 E0.01691
G1 X157.723 Y151.047 E1.28671
G1 X157.186 Y151.047 E0.01691
G1 X128.870 Y122.730 E1.26280
G1 X128.870 Y123.267 E0.01691
G1 X156.650 Y151.047 E1.23888
G1 X156.114 Y151.047 E0.01691
G1 X128.870 Y123.803 E1.21496
G1 X128.870 Y124.339 E0.01691
G1 X155.577 Y151.047 E1.19104
G1 X155.041 Y151.047 E0.01691
G1 X128.870 Y124.876 E1.16712
G1 X128.870 Y125.412 E0.01691
G1 X154.505 Y151.047 E1.14321
G1 X153.968 Y151.047 E0.01691
G1 X128.870 Y125.948 E1.11929
G1 X128.870 Y126.484 E0.01691
G1 X153.432 Y151.047 E1.09537
G1 X152.896 Y151.047 E0.01691
G1 X128.870 Y127.021 E1.07145
G1 X128.870 Y127.557 E0.01691
G1 X152.359 Y151.047 E1.04753
G1 X151.823 Y151.047 E0.01691
G1 X128.870 Y128.093 E1.02362
G1 X128.870 Y128.630 E0.01691
G1 X151.287 Y151.047 E0.99970
G1 X150.750 Y151.047 E0.01691
G1 X128.870 Y129.166 E0.97578
G1 X128.870 Y129.702 E0.01691
G1 X150.214 Y151.047 E0.95186
G1 X149.678 Y151.047 E0.01691
G1 X128.870 Y130.239 E0.92795
G1 X128.870 Y130.775 E0.01691
G1 X149.141 Y151.047 E0.90403
G1 X148.605 Y151.047 E0.01691
G1 X128.870 Y131.311 E0.88011
G1 X128.870 Y131.848 E0.01691
G1 X148.069 Y151.047 E0.85619
G1 X147.532 Y151.047 E0.01691
G1 X128.870 Y132.384 E0.83227
G1 X128.870 Y132.920 E0.01691
G1 X146.996 Y151.047 E0.80836
G1 X146.460 Y151.047 E0.01691
G1 X128.870 Y133.457 E0.78444
G1 X128.870 Y133.993 E0.01691
G1 X145.923 Y151.047 E0.76052
G1 X145.387 Y151.047 E0.01691
G1 X128.870 Y134.529 E0.73660
G1 X128.870 Y135.066 E0.01691
G1 X144.851 Y151.047 E0.71268
G1 X144.314 Y151.047 E0.01691
G1 X128.870 Y135.602 E0.68877
G1 X128.870 Y136.138 E0.01691
G1 X143.778 Y151.047 E0.66485
G1 X143.242 Y151.047 E0.01691
G1 X128.870 Y136.675 E0.64093
G1 X128.870 Y137.211 E0.01691
G1 X142.705 Y151.047 E0.61701
G1 X142.169 Y151.047 E0.01691
G1 X128.870 Y137.747 E0.59309
G1 X128.870 Y138.284 E0.01691
G1 X141.633 Y151.047 E0.56918
G1 X141.097 Y151.047 E0.01691
G1 X128.870 Y138.820 E0.54526
M73 P1 R277
G1 X128.870 Y139.356 E0.01691
G1 X140.560 Y151.047 E0.52134
G1 X140.024 Y151.047 E0.01691
G1 X128.870 Y139.893 E0.49742
G1 X128.870 Y140.429 E0.01691
G1 X139.488 Y151.047 E0.47350
G1 X138.951 Y151.047 E0.01691
G1 X128.870 Y140.965 E0.44959
G1 X128.870 Y141.502 E0.01691
G1 X138.415 Y151.047 E0.42567
G1 X137.879 Y151.047 E0.01691
G1 X128.870 Y142.038 E0.40175
G1 X128.870 Y142.574 E0.01691
G1 X137.342 Y151.047 E0.37783
G1 X136.806 Y151.047 E0.01691
G1 X128.870 Y143.111 E0.35391
G1 X128.870 Y143.647 E0.01691
G1 X136.270 Y151.047 E0.33000
G1 X135.733 Y151.047 E0.01691
G1 X128.870 Y144.183 E0.30608
G1 X128.870 Y144.720 E0.01691
G1 X135.197 Y151.047 E0.28216
G1 X134.661 Y151.047 E0.01691
G1 X128.870 Y145.256 E0.25824
G1 X128.870 Y145.792 E0.01691
G1 X134.124 Y151.047 E0.23432
G1 X133.588 Y151.047 E0.01691
G1 X128.870 Y146.329 E0.21041
G1 X128.870 Y146.865 E0.01691
G1 X133.052 Y151.047 E0.18649
G1 X132.515 Y151.047 E0.01691
G1 X128.870 Y147.401 E0.16257
G1 X128.870 Y147.938 E0.01691
G1 X131.979 Y151.047 E0.13865
G1 X131.443 Y151.047 E0.01691
G1 X128.870 Y148.474 E0.11473
G1 X128.870 Y149.010 E0.01691
G1 X130.906 Y151.047 E0.09082
G1 X130.370 Y151.047 E0.01691
G1 X128.870 Y149.547 E0.06690
G1 X128.870 Y150.083 E0.01691
G1 X129.834 Y151.047 E0.04298
G1 X129.297 Y151.047 E0.01691
G1 X128.700 Y150.450 E0.02663
G1 E-0.80000 F2100.00000
G1 Z0.800 F10800.000
G1 X103.175 Y151.329
G1 Z0.200
G1 E0.80000 F2100.00000
G1 F1200.000
G1 X84.938 Y151.329 E0.57182
G1 X84.938 Y108.587 E1.34016
G1 X121.413 Y108.587 E1.14365
G1 X121.413 Y151.329 E1.34016
G1 X103.235 Y151.329 E0.56994
G1 X103.175 Y151.707 F10800.000
G1 F1200.000
G1 X84.561 Y151.707 E0.58365
G1 X84.561 Y108.210 E1.36380
G1 X121.790 Y108.210 E1.16729
G1 X121.790 Y151.707 E1.36380
G1 X103.235 Y151.707 E0.58176
G1 X102.859 Y151.462 F10800.000
G1 E-0.80000 F2100.00000
G1 Z0.800 F10800.000
G1 X121.300 Y109.467
G1 Z0.200
G1 E0.80000 F2100.00000
G1 F1200.000
G1 X120.703 Y108.870 E0.02663
G1 X120.166 Y108.870 E0.01691
G1 X121.130 Y109.834 E0.04298
G1 X121.130 Y110.370 E0.01691
G1 X119.630 Y108.870 E0.06690
G1 X119.094 Y108.870 E0.01691
G1 X121.130 Y110.906 E0.09082
G1 X121.130 Y111.443 E0.01691
G1 X118.557 Y108.870 E0.11474
G1 X118.021 Y108.870 E0.01691
G1 X121.130 Y111.979 E0.13865
G1 X121.130 Y112.515 E0.01691
G1 X117.485 Y108.870 E0.16257
G1 X116.948 Y108.870 E0.01691
G1 X121.130 Y113.052 E0.18649
G1 X121.130 Y113.588 E0.01691
G1 X116.412 Y108.870 E0.21041
G1 X115.876 Y108.870 E0.01691
G1 X121.130 Y114.124 E0.23433
G1 X121.130 Y114.661 E0.01691
G1 X115.339 Y108.870 E0.25824
G1 X114.803 Y108.870 E0.01691
G1 X121.130 Y115.197 E0.28216
G1 X121.130 Y115.733 E0.01691
G1 X114.267 Y108.870 E0.30608
G1 X113.730 Y108.870 E0.01691
G1 X121.130 Y116.270 E0.33000
G1 X121.130 Y116.806 E0.01691
G1 X113.194 Y108.870 E0.35392
G1 X112.658 Y108.870 E0.01691
G1 X121.130 Y117.342 E0.37783
G1 X121.130 Y117.879 E0.01691
G1 X112.121 Y108.870 E0.40175
G1 X111.585 Y108.870 E0.01691
G1 X121.130 Y118.415 E0.42567
G1 X121.130 Y118.951 E0.01691
G1 X111.049 Y108.870 E0.44959
G1 X110.512 Y108.870 E0.01691
G1 X121.130 Y119.488 E0.47351
G1 X121.130 Y120.024 E0.01691
G1 X109.976 Y108.870 E0.49742
G1 X109.440 Y108.870 E0.01691
G1 X121.130 Y120.560 E0.52134
G1 X121.130 Y121.097 E0.01691
G1 X108.903 Y108.870 E0.54526
G1 X108.367 Y108.870 E0.01691
G1 X121.130 Y121.633 E0.56918
G1 X121.130 Y122.169 E0.01691
G1 X107.831 Y108.870 E0.59310
G1 X107.294 Y108.870 E0.01691
G1 X121.130 Y122.706 E0.61701
G1 X121.130 Y123.242 E0.01691
G1 X106.758 Y108.870 E0.64093
G1 X106.222 Y108.870 E0.01691
G1 X121.130 Y123.778 E0.66485
G1 X121.130 Y124.315 E0.01691
G1 X105.685 Y108.870 E0.68877
G1 X105.149 Y108.870 E0.01691
G1 X121.130 Y124.851 E0.71269
G1 X121.130 Y125.387 E0.01691
G1 X104.613 Y108.870 E0.73660
G1 X104.076 Y108.870 E0.01691
G1 X121.130 Y125.924 E0.76052
G1 X121.130 Y126.460 E0.01691
G1 X103.540 Y108.870 E0.78444
G1 X103.004 Y108.870 E0.01691
G1 X121.130 Y126.996 E0.80836
G1 X121.130 Y127.533 E0.01691
G1 X102.467 Y108.870 E0.83228
G1 X101.931 Y108.870 E0.01691
G1 X121.130 Y128.069 E0.85619
G1 X121.130 Y128.605 E0.01691
G1 X101.395 Y108.870 E0.88011
G1 X100.859 Y108.870 E0.01691
G1 X121.130 Y129.141 E0.90403
G1 X121.130 Y129.678 E0.01691
G1 X100.322 Y108.870 E0.92795
G1 X99.786 Y108.870 E0.01691
G1 X121.130 Y130.214 E0.95187
G1 X121.130 Y130.750 E0.01691
G1 X99.250 Y108.870 E0.97578
M73 P1 R276
G1 X98.713 Y108.870 E0.01691
G1 X121.130 Y131.287 E0.99970
G1 X121.130 Y131.823 E0.01691
G1 X98.177 Y108.870 E1.02362
G1 X97.641 Y108.870 E0.01691
G1 X121.130 Y132.359 E1.04754
G1 X121.130 Y132.896 E0.01691
G1 X97.104 Y108.870 E1.07146
G1 X96.568 Y108.870 E0.01691
G1 X121.130 Y133.432 E1.09537
G1 X121.130 Y133.968 E0.01691
G1 X96.032 Y108.870 E1.11929
G1 X95.495 Y108.870 E0.01691
G1 X121.130 Y134.505 E1.14321
G1 X121.130 Y135.041 E0.01691
G1 X94.959 Y108.870 E1.16713
G1 X94.423 Y108.870 E0.01691
G1 X121.130 Y135.577 E1.19105
G1 X121.130 Y136.114 E0.01691
G1 X93.886 Y108.870 E1.21496
G1 X93.350 Y108.870 E0.01691
G1 X121.130 Y136.650 E1.23888
G1 X121.130 Y137.186 E0.01691
G1 X92.814 Y108.870 E1.26280
G1 X92.277 Y108.870 E0.01691
G1 X121.130 Y137.723 E1.28672
G1 X121.130 Y138.259 E0.01691
G1 X91.741 Y108.870 E1.31064
G1 X91.205 Y108.870 E0.01691
G1 X121.130 Y138.795 E1.33455
G1 X121.130 Y139.332 E0.01691
G1 X90.668 Y108.870 E1.35847
G1 X90.132 Y108.870 E0.01691
G1 X121.130 Y139.868 E1.38239
G1 X121.130 Y140.404 E0.01691
G1 X89.596 Y108.870 E1.40631
G1 X89.059 Y108.870 E0.01691
G1 X121.130 Y140.941 E1.43023
G1 X121.130 Y141.477 E0.01691
