; generated by PrusaSlicer 2.2.0+win64 on 2020-08-20 at 17:07:50 UTC

; 

; external perimeters extrusion width = 0.45mm
; perimeters extrusion width = 0.45mm
; infill extrusion width = 0.45mm
; solid infill extrusion width = 0.45mm
; top infill extrusion width = 0.40mm
; support material extrusion width = 0.35mm
; first layer extrusion width = 0.42mm

M73 P0 R124
M201 X9000 Y9000 Z500 E10000 ; sets maximum accelerations, mm/sec^2
M203 X500 Y500 Z12 E120 ; sets maximum feedrates, mm/sec
M204 P2000 R1500 T2000 ; sets acceleration (P, T) and retract acceleration (R), mm/sec^2
M205 X10.00 Y10.00 Z0.20 E4.50 ; sets the jerk limits, mm/sec
M205 S0 T0 ; sets the minimum extruding and travel feed rate, mm/sec
M107
M862.3 P "MK2.5SMMU2S" ; printer model check
M862.1 P0.4 ; nozzle diameter check
M115 U3.9.0 ; tell printer latest fw version
G90 ; use absolute coordinates
M83 ; extruder relative mode
M104 S215 ; set extruder temp
M140 S60 ; set bed temp
Tx
M190 S60 ; wait for bed temp
M109 S215 ; wait for extruder temp
G28 W ; home all without mesh bed level
G80 ; mesh bed leveling

;go outside print area
G1 Y-3.0 F1000.0
G1 Z0.4 F1000.0
; select extruder
Tc
; purge line
G1 X55.0 F2000.0
G1 Z0.3 F1000.0
G92 E0.0
G1 X240.0 E25.0 F2200.0
M73 P0 R123
G1 Y-2.0 F1000.0
G1 X55.0 E25 F1400.0
G1 Z0.20 F1000.0
G1 X5.0 E4.0 F1000.0
G92 E0.0
G21 ; set units to millimeters
G90 ; use absolute coordinates
M83 ; use relative distances for extrusion
M900 K0.06 ; Filament gcode LA 1.5
M900 K30 ; Filament gcode LA 1.0
;BEFORE_LAYER_CHANGE
G92 E0.0
;0.2


G1 E-0.80000 F2100.00000
G1 Z0.600 F10800.000
;AFTER_LAYER_CHANGE
;0.2
G1 X61.088 Y86.026
G1 Z0.200
G1 E0.80000 F2100.00000
M204 S1000
G1 F1200.000
G1 X61.784 Y85.242 E0.03287
G1 X62.209 Y84.904 E0.01704
G1 X112.552 Y53.990 E1.85230
G1 X114.168 Y53.097 E0.05788
G1 X115.862 Y52.367 E0.05786
G1 X117.838 Y51.738 E0.06501
G1 X119.708 Y51.352 E0.05989
G1 X120.938 Y51.200 E0.03883
G1 X123.548 Y51.143 E0.08187
G1 X125.724 Y51.363 E0.06856
G1 X127.539 Y51.740 E0.05812
G1 X129.404 Y52.325 E0.06132
G1 X131.198 Y53.095 E0.06120
G1 X132.820 Y53.991 E0.05809
G1 X134.615 Y55.241 E0.06858
G1 X136.019 Y56.450 E0.05809
G1 X182.020 Y100.613 E1.99942
G1 X183.109 Y102.164 E0.05943
G1 X183.330 Y102.743 E0.01941
G1 X191.129 Y135.598 E1.05876
G1 X191.435 Y137.584 E0.06303
G1 X191.532 Y139.636 E0.06442
G1 X191.435 Y141.490 E0.05821
G1 X191.159 Y143.315 E0.05786
G1 X190.648 Y145.324 E0.06501
G1 X189.918 Y147.269 E0.06513
G1 X189.103 Y148.924 E0.05786
G1 X188.133 Y150.486 E0.05762
G1 X186.869 Y152.134 E0.06513
G1 X185.438 Y153.628 E0.06489
G1 X184.030 Y154.833 E0.05810
G1 X182.523 Y155.885 E0.05762
G1 X180.796 Y156.858 E0.06215
G1 X178.907 Y157.676 E0.06453
G1 X176.934 Y158.286 E0.06477
G1 X175.000 Y158.671 E0.06182
G1 X173.169 Y158.854 E0.05771
G1 X171.324 Y158.857 E0.05786
G1 X81.428 Y156.647 E2.81947
G1 X79.344 Y156.537 E0.06545
G1 X77.154 Y156.192 E0.06950
G1 X74.945 Y155.591 E0.07177
G1 X72.908 Y154.795 E0.06858
G1 X71.078 Y153.858 E0.06445
G1 X69.355 Y152.743 E0.06437
G1 X67.566 Y151.308 E0.07188
G1 X66.020 Y149.763 E0.06855
G1 X64.644 Y148.063 E0.06855
G1 X63.428 Y146.183 E0.07022
G1 X62.466 Y144.287 E0.06664
G1 X61.655 Y142.146 E0.07181
G1 X61.127 Y140.159 E0.06445
G1 X60.802 Y138.132 E0.06437
G1 X60.674 Y135.927 E0.06926
G1 X60.588 Y87.769 E1.50996
G1 X60.812 Y86.643 E0.03601
G1 X61.064 Y86.081 E0.01931
G1 F8640.000
G1 X61.784 Y85.242 E-0.25531
G1 X62.209 Y84.904 E-0.12550
G1 X63.609 Y84.044 E-0.37920
G1 E-0.04000 F2100.00000
G1 Z0.800 F10800.000
G1 X122.685 Y81.069
G1 Z0.200
G1 E0.80000 F2100.00000
G1 F1200.000
G1 X121.301 Y80.978 E0.04349
G1 X120.014 Y80.722 E0.04115
G1 X118.629 Y80.263 E0.04576
G1 X117.383 Y79.648 E0.04356
G1 X116.229 Y78.878 E0.04349
G1 X115.186 Y77.963 E0.04349
G1 X114.272 Y76.920 E0.04349
G1 X113.501 Y75.767 E0.04349
G1 X112.887 Y74.522 E0.04349
G1 X112.442 Y73.209 E0.04349
G1 X112.171 Y71.848 E0.04349
G1 X112.080 Y70.464 E0.04349
G1 X112.171 Y69.080 E0.04349
G1 X112.427 Y67.793 E0.04115
G1 X112.887 Y66.408 E0.04576
G1 X113.501 Y65.162 E0.04356
G1 X114.272 Y64.008 E0.04349
G1 X115.186 Y62.965 E0.04349
G1 X116.229 Y62.051 E0.04349
G1 X117.383 Y61.280 E0.04349
G1 X118.627 Y60.667 E0.04349
G1 X119.940 Y60.221 E0.04347
G1 X121.234 Y59.959 E0.04142
G1 X122.686 Y59.859 E0.04563
G1 X124.135 Y59.959 E0.04555
G1 X125.431 Y60.221 E0.04143
G1 X126.743 Y60.667 E0.04347
G1 X127.987 Y61.280 E0.04349
G1 X129.141 Y62.051 E0.04349
G1 X130.184 Y62.965 E0.04349
G1 X131.098 Y64.008 E0.04349
G1 X131.869 Y65.162 E0.04349
G1 X132.483 Y66.406 E0.04349
G1 X132.929 Y67.719 E0.04349
G1 X133.199 Y69.080 E0.04349
G1 X133.290 Y70.464 E0.04349
G1 X133.199 Y71.848 E0.04349
G1 X132.929 Y73.209 E0.04349
G1 X132.483 Y74.522 E0.04349
G1 X131.869 Y75.767 E0.04349
G1 X131.098 Y76.920 E0.04349
G1 X130.184 Y77.963 E0.04349
G1 X129.141 Y78.878 E0.04349
G1 X127.987 Y79.648 E0.04349
G1 X126.743 Y80.262 E0.04349
G1 X125.430 Y80.708 E0.04349
G1 X124.069 Y80.978 E0.04349
G1 X122.745 Y81.065 E0.04161
G1 X122.685 Y80.691 F10800.000
G1 F1200.000
G1 X121.350 Y80.604 E0.04194
G1 X120.110 Y80.357 E0.03964
G1 X118.772 Y79.913 E0.04421
G1 X117.572 Y79.321 E0.04197
G1 X116.459 Y78.578 E0.04194
G1 X115.453 Y77.696 E0.04194
G1 X114.571 Y76.690 E0.04194
G1 X113.828 Y75.578 E0.04194
G1 X113.237 Y74.378 E0.04194
G1 X112.807 Y73.111 E0.04194
G1 X112.546 Y71.799 E0.04194
G1 X112.458 Y70.464 E0.04194
G1 X112.546 Y69.129 E0.04194
G1 X112.792 Y67.889 E0.03964
G1 X113.236 Y66.551 E0.04421
G1 X113.828 Y65.351 E0.04197
G1 X114.571 Y64.238 E0.04194
G1 X115.453 Y63.233 E0.04194
G1 X116.459 Y62.351 E0.04194
G1 X117.572 Y61.607 E0.04194
G1 X118.771 Y61.016 E0.04194
G1 X120.038 Y60.586 E0.04193
G1 X121.285 Y60.334 E0.03990
G1 X122.685 Y60.237 E0.04401
G1 X124.085 Y60.334 E0.04398
G1 X125.332 Y60.586 E0.03990
G1 X126.599 Y61.016 E0.04193
G1 X127.799 Y61.607 E0.04194
G1 X128.911 Y62.351 E0.04194
G1 X129.917 Y63.233 E0.04194
G1 X130.799 Y64.238 E0.04194
G1 X131.542 Y65.351 E0.04194
G1 X132.134 Y66.550 E0.04194
G1 X132.564 Y67.817 E0.04194
G1 X132.825 Y69.129 E0.04194
G1 X132.912 Y70.464 E0.04194
G1 X132.825 Y71.799 E0.04194
G1 X132.564 Y73.111 E0.04194
G1 X132.134 Y74.378 E0.04194
G1 X131.542 Y75.578 E0.04194
G1 X130.799 Y76.690 E0.04194
G1 X129.917 Y77.696 E0.04194
G1 X128.911 Y78.578 E0.04194
G1 X127.799 Y79.321 E0.04194
G1 X126.599 Y79.913 E0.04194
G1 X125.332 Y80.343 E0.04194
G1 X124.020 Y80.604 E0.04194
G1 X122.745 Y80.687 E0.04006
G1 X122.485 Y81.038 F10800.000
G1 F8640.000
G1 X121.350 Y80.604 E-0.32263
G1 X120.110 Y80.357 E-0.29192
G1 X119.512 Y80.159 E-0.14545
G1 E-0.04000 F2100.00000
G1 Z0.800 F10800.000
G1 X122.685 Y86.822
G1 Z0.200
G1 E0.80000 F2100.00000
G1 F1200.000
G1 X121.856 Y86.822 E0.02601
G1 X120.205 Y86.654 E0.05202
G1 X118.580 Y86.320 E0.05202
G1 X116.997 Y85.823 E0.05202
G1 X115.472 Y85.169 E0.05202
G1 X114.021 Y84.364 E0.05202
G1 X112.660 Y83.416 E0.05202
G1 X111.401 Y82.335 E0.05202
G1 X110.258 Y81.133 E0.05202
G1 X109.242 Y79.821 E0.05202
G1 X108.365 Y78.413 E0.05202
G1 X107.634 Y76.923 E0.05202
G1 X107.058 Y75.367 E0.05202
G1 X106.642 Y73.761 E0.05202
G1 X106.391 Y72.121 E0.05202
G1 X106.307 Y70.464 E0.05202
G1 X106.391 Y68.807 E0.05202
G1 X106.642 Y67.167 E0.05202
G1 X107.058 Y65.561 E0.05202
G1 X107.634 Y64.005 E0.05202
G1 X108.365 Y62.516 E0.05202
G1 X109.242 Y61.108 E0.05202
G1 X110.258 Y59.796 E0.05202
G1 X111.401 Y58.593 E0.05202
G1 X112.660 Y57.512 E0.05202
G1 X114.021 Y56.565 E0.05202
G1 X115.472 Y55.759 E0.05202
G1 X116.997 Y55.105 E0.05202
G1 X118.580 Y54.609 E0.05202
G1 X120.206 Y54.274 E0.05206
G1 X121.846 Y54.107 E0.05169
G1 X123.524 Y54.107 E0.05261
G1 X125.164 Y54.274 E0.05169
G1 X126.790 Y54.609 E0.05206
G1 X128.373 Y55.105 E0.05202
G1 X129.898 Y55.759 E0.05202
G1 X131.349 Y56.565 E0.05202
G1 X132.710 Y57.512 E0.05202
G1 X133.969 Y58.593 E0.05202
G1 X135.112 Y59.796 E0.05202
G1 X136.128 Y61.108 E0.05202
G1 X137.006 Y62.516 E0.05202
G1 X137.736 Y64.005 E0.05202
G1 X138.312 Y65.561 E0.05202
G1 X138.728 Y67.167 E0.05202
G1 X138.980 Y68.807 E0.05202
G1 X139.064 Y70.464 E0.05202
G1 X138.980 Y72.121 E0.05202
G1 X138.728 Y73.761 E0.05202
G1 X138.312 Y75.367 E0.05202
G1 X137.736 Y76.923 E0.05202
G1 X137.006 Y78.413 E0.05202
G1 X136.128 Y79.821 E0.05202
G1 X135.112 Y81.133 E0.05202
G1 X133.969 Y82.335 E0.05202
G1 X132.710 Y83.416 E0.05202
G1 X131.349 Y84.364 E0.05202
G1 X129.898 Y85.169 E0.05202
G1 X128.373 Y85.823 E0.05202
G1 X126.790 Y86.320 E0.05202
G1 X125.165 Y86.654 E0.05202
G1 X123.515 Y86.822 E0.05202
G1 X122.745 Y86.822 E0.02413
G1 X122.685 Y87.199 F10800.000
G1 F1200.000
G1 X121.836 Y87.199 E0.02661
G1 X120.148 Y87.027 E0.05322
G1 X118.485 Y86.685 E0.05322
G1 X116.866 Y86.177 E0.05322
G1 X115.306 Y85.508 E0.05322
G1 X113.822 Y84.684 E0.05322
G1 X112.429 Y83.714 E0.05322
G1 X111.141 Y82.609 E0.05322
G1 X109.971 Y81.379 E0.05322
G1 X108.932 Y80.036 E0.05322
G1 X108.034 Y78.596 E0.05322
G1 X107.287 Y77.072 E0.05322
G1 X106.697 Y75.480 E0.05322
G1 X106.272 Y73.837 E0.05322
G1 X106.015 Y72.159 E0.05322
G1 X105.929 Y70.464 E0.05322
G1 X106.015 Y68.769 E0.05322
G1 X106.272 Y67.091 E0.05322
G1 X106.697 Y65.448 E0.05322
G1 X107.287 Y63.856 E0.05322
G1 X108.034 Y62.332 E0.05322
G1 X108.932 Y60.892 E0.05322
G1 X109.971 Y59.550 E0.05322
G1 X111.141 Y58.320 E0.05322
G1 X112.429 Y57.214 E0.05322
G1 X113.822 Y56.244 E0.05322
G1 X115.306 Y55.421 E0.05322
G1 X116.866 Y54.751 E0.05322
G1 X118.485 Y54.243 E0.05322
G1 X120.148 Y53.901 E0.05323
G1 X121.833 Y53.730 E0.05310
G1 X123.537 Y53.730 E0.05343
G1 X125.222 Y53.901 E0.05310
G1 X126.885 Y54.243 E0.05323
G1 X128.505 Y54.751 E0.05322
G1 X130.064 Y55.421 E0.05322
G1 X131.548 Y56.244 E0.05322
G1 X132.942 Y57.214 E0.05322
G1 X134.229 Y58.320 E0.05322
G1 X135.399 Y59.550 E0.05322
G1 X136.438 Y60.892 E0.05322
G1 X137.336 Y62.332 E0.05322
G1 X138.083 Y63.856 E0.05322
G1 X138.673 Y65.448 E0.05322
G1 X139.098 Y67.091 E0.05322
G1 X139.355 Y68.769 E0.05322
G1 X139.441 Y70.464 E0.05322
G1 X139.355 Y72.159 E0.05322
G1 X139.098 Y73.837 E0.05322
G1 X138.673 Y75.480 E0.05322
G1 X138.083 Y77.072 E0.05322
G1 X137.336 Y78.596 E0.05322
G1 X136.438 Y80.036 E0.05322
G1 X135.399 Y81.379 E0.05322
G1 X134.229 Y82.609 E0.05322
G1 X132.942 Y83.714 E0.05322
G1 X131.548 Y84.684 E0.05322
G1 X130.064 Y85.508 E0.05322
G1 X128.505 Y86.177 E0.05322
G1 X126.885 Y86.685 E0.05322
G1 X125.222 Y87.027 E0.05322
G1 X123.534 Y87.199 E0.05322
G1 X122.745 Y87.199 E0.02473
G1 X122.477 Y86.857 F10800.000
G1 X123.135 Y86.709
G1 F1200.000
G1 X106.604 Y70.177 E0.73593
G1 X106.590 Y70.464 E0.00904
G1 X106.602 Y70.711 E0.00777
G1 X122.430 Y86.539 E0.70463
G1 X121.895 Y86.539 E0.01685
G1 X106.631 Y71.275 E0.67952
G1 X106.659 Y71.839 E0.01778
G1 X121.302 Y86.481 E0.65184
G1 X120.706 Y86.420 E0.01886
G1 X106.726 Y72.440 E0.62237
G1 X106.822 Y73.073 E0.02013
G1 X120.092 Y86.342 E0.59072
G1 X119.418 Y86.203 E0.02166
G1 X106.919 Y73.705 E0.55640
G1 X107.106 Y74.427 E0.02349
G1 X118.744 Y86.065 E0.51808
G1 X117.978 Y85.835 E0.02516
G1 X107.294 Y75.150 E0.47567
G1 X107.585 Y75.977 E0.02760
G1 X117.198 Y85.590 E0.42797
G1 X116.281 Y85.208 E0.03127
G1 X107.904 Y76.831 E0.37296
M73 P0 R122
G1 X108.419 Y77.881 E0.03685
G1 X115.272 Y84.734 E0.30507
G1 X114.171 Y84.123 E0.03962
G1 X114.021 Y84.019 E0.00576
G1 X109.166 Y79.164 E0.21613
G1 X109.475 Y79.659 E0.01836
G1 X110.473 Y80.948 E0.05132
G1 X111.581 Y82.114 E0.05062
G1 X112.940 Y83.473 E0.06051
G1 F8640.000
G1 X111.581 Y82.114 E-0.44384
G1 X110.637 Y81.121 E-0.31616
G1 E-0.04000 F2100.00000
G1 Z0.800 F10800.000
G1 X138.876 Y71.932
G1 Z0.200
G1 E0.80000 F2100.00000
G1 F1200.000
G1 X132.261 Y65.317 E0.29448
G1 X132.764 Y66.356 E0.03633
G1 X138.672 Y72.263 E0.26299
G1 X138.601 Y72.727 E0.01479
G1 X133.039 Y67.166 E0.24757
G1 X133.202 Y67.646 E0.01596
G1 X133.257 Y67.919 E0.00875
G1 X138.529 Y73.192 E0.23474
G1 X138.458 Y73.656 E0.01479
G1 X133.389 Y68.587 E0.22565
G1 X133.480 Y69.043 E0.01464
G1 X133.492 Y69.225 E0.00574
G1 X138.352 Y74.085 E0.21636
G1 X138.242 Y74.510 E0.01383
G1 X133.530 Y69.798 E0.20979
G1 X133.567 Y70.371 E0.01807
G1 X138.132 Y74.936 E0.20322
G1 X138.016 Y75.355 E0.01369
G1 X133.546 Y70.885 E0.19899
G1 X133.513 Y71.387 E0.01585
G1 X137.871 Y75.745 E0.19401
G1 X137.726 Y76.136 E0.01311
G1 X133.479 Y71.889 E0.18906
G1 X133.391 Y72.336 E0.01433
G1 X137.581 Y76.527 E0.18657
G1 X137.476 Y76.811 E0.00956
G1 X137.428 Y76.909 E0.00341
G1 X133.302 Y72.782 E0.18370
G1 X133.213 Y73.229 E0.01433
G1 X137.252 Y77.268 E0.17981
G1 X137.076 Y77.627 E0.01259
G1 X133.083 Y73.634 E0.17776
G1 X132.947 Y74.034 E0.01329
G1 X136.900 Y77.986 E0.17596
G1 X136.718 Y78.340 E0.01251
G1 X132.811 Y74.434 E0.17390
G1 X132.745 Y74.631 E0.00656
G1 X132.655 Y74.813 E0.00637
G1 X136.512 Y78.670 E0.17171
G1 X136.307 Y78.999 E0.01223
G1 X132.478 Y75.171 E0.17043
G1 X132.301 Y75.530 E0.01259
G1 X136.101 Y79.329 E0.16915
G1 X135.895 Y79.659 E0.01223
G1 X132.124 Y75.888 E0.16787
G1 X131.912 Y76.211 E0.01217
G1 X135.662 Y79.961 E0.16693
G1 X135.428 Y80.263 E0.01201
G1 X131.698 Y76.532 E0.16607
G1 X131.483 Y76.853 E0.01215
G1 X135.195 Y80.564 E0.16522
G1 X134.961 Y80.866 E0.01201
G1 X131.260 Y77.165 E0.16477
G1 X131.010 Y77.450 E0.01194
G1 X134.707 Y81.148 E0.16462
G1 X134.447 Y81.423 E0.01192
G1 X130.759 Y77.736 E0.16414
G1 X130.509 Y78.021 E0.01194
G1 X134.186 Y81.697 E0.16366
G1 X133.925 Y81.972 E0.01192
G1 X130.242 Y78.288 E0.16397
G1 X129.956 Y78.539 E0.01194
G1 X133.652 Y82.235 E0.16454
G1 X133.364 Y82.482 E0.01195
G1 X129.671 Y78.789 E0.16441
G1 X129.386 Y79.039 E0.01194
G1 X133.076 Y82.729 E0.16428
G1 X132.788 Y82.976 E0.01195
G1 X129.074 Y79.262 E0.16534
G1 X128.753 Y79.477 E0.01215
G1 X132.496 Y83.220 E0.16665
G1 X132.181 Y83.440 E0.01211
G1 X128.432 Y79.691 E0.16688
G1 X128.109 Y79.904 E0.01217
G1 X131.865 Y83.660 E0.16721
G1 X131.549 Y83.879 E0.01211
G1 X127.750 Y80.080 E0.16912
G1 X127.392 Y80.257 E0.01259
G1 X131.234 Y84.099 E0.17103
G1 X130.893 Y84.293 E0.01236
G1 X127.033 Y80.434 E0.17181
G1 X126.852 Y80.524 E0.00637
G1 X126.654 Y80.591 E0.00656
G1 X130.548 Y84.484 E0.17335
G1 X130.204 Y84.676 E0.01240
G1 X126.255 Y80.726 E0.17581
G1 X125.855 Y80.862 E0.01329
G1 X129.860 Y84.867 E0.17828
G1 X129.493 Y85.035 E0.01271
G1 X125.450 Y80.992 E0.17998
G1 X125.003 Y81.081 E0.01433
G1 X129.118 Y85.196 E0.18319
G1 X128.743 Y85.357 E0.01283
G1 X124.557 Y81.170 E0.18639
G1 X124.110 Y81.259 E0.01433
G1 X128.369 Y85.517 E0.18959
G1 X128.275 Y85.558 E0.00321
G1 X127.970 Y85.653 E0.01008
G1 X123.608 Y81.292 E0.19416
G1 X123.106 Y81.325 E0.01585
G1 X127.562 Y85.781 E0.19839
G1 X127.155 Y85.909 E0.01345
G1 X122.592 Y81.346 E0.20313
G1 X122.019 Y81.309 E0.01807
G1 X126.747 Y86.037 E0.21049
G1 X126.719 Y86.046 E0.00091
G1 X126.305 Y86.131 E0.01331
G1 X121.446 Y81.271 E0.21634
G1 X121.264 Y81.259 E0.00574
G1 X120.808 Y81.169 E0.01464
G1 X125.861 Y86.222 E0.22497
G1 X125.417 Y86.313 E0.01427
G1 X120.139 Y81.036 E0.23495
G1 X119.941 Y80.996 E0.00636
G1 X119.378 Y80.809 E0.01870
G1 X124.959 Y86.391 E0.24847
G1 X124.473 Y86.440 E0.01538
G1 X118.576 Y80.543 E0.26250
G1 X117.538 Y80.040 E0.03633
G1 X123.987 Y86.489 E0.28711
G1 X123.501 Y86.539 E0.01538
G1 X106.630 Y69.668 E0.75106
G1 X106.656 Y69.158 E0.01606
G1 X113.109 Y75.612 E0.28729
G1 X112.606 Y74.573 E0.03633
G1 X106.698 Y68.665 E0.26299
G1 X106.770 Y68.201 E0.01479
G1 X112.331 Y73.762 E0.24757
G1 X112.168 Y73.282 E0.01596
G1 X112.114 Y73.010 E0.00874
G1 X106.841 Y67.737 E0.23474
G1 X106.912 Y67.273 E0.01479
G1 X111.981 Y72.341 E0.22566
G1 X111.890 Y71.885 E0.01464
G1 X111.878 Y71.703 E0.00574
G1 X107.018 Y66.843 E0.21636
G1 X107.128 Y66.418 E0.01383
G1 X111.840 Y71.131 E0.20979
G1 X111.803 Y70.558 E0.01807
G1 X107.238 Y65.993 E0.20322
G1 X107.328 Y65.646 E0.01128
G1 X107.355 Y65.574 E0.00242
G1 X111.824 Y70.044 E0.19899
G1 X111.857 Y69.541 E0.01585
G1 X107.499 Y65.183 E0.19401
G1 X107.644 Y64.792 E0.01311
G1 X111.891 Y69.039 E0.18906
G1 X111.980 Y68.593 E0.01433
G1 X107.789 Y64.402 E0.18657
G1 X107.942 Y64.020 E0.01296
G1 X112.068 Y68.146 E0.18370
G1 X112.159 Y67.702 E0.01428
G1 X108.118 Y63.660 E0.17991
G1 X108.294 Y63.301 E0.01259
