; generated by PrusaSlicer 2.1.0+win64 on 2019-11-25 at 20:42:16 UTC

; 

; external perimeters extrusion width = 0.45mm
; perimeters extrusion width = 0.45mm
; infill extrusion width = 0.45mm
; solid infill extrusion width = 0.45mm
; top infill extrusion width = 0.40mm
; support material extrusion width = 0.35mm
; first layer extrusion width = 0.42mm

M73 P0 R26
M201 X9000 Y9000 Z500 E10000 ; sets maximum accelerations, mm/sec^2
M203 X500 Y500 Z12 E120 ; sets maximum feedrates, mm/sec
M204 P2000 R1500 T2000 ; sets acceleration (P, T) and retract acceleration (R), mm/sec^2
M205 X10.00 Y10.00 Z0.20 E2.50 ; sets the jerk limits, mm/sec
M205 S0 T0 ; sets the minimum extruding and travel feed rate, mm/sec
M107
M862.3 P "MK2.5SMMU2S" ; printer model check
M862.1 P0.4 ; nozzle diameter check
M115 U3.8.0 ; tell printer latest fw version
G90 ; use absolute coordinates
M83 ; extruder relative mode
M104 S215 ; set extruder temp
M140 S60 ; set bed temp
Tx
M190 S60 ; wait for bed temp
M109 S215 ; wait for extruder temp
G28 W ; home all without mesh bed level
G80 ; mesh bed leveling

G21 ; set units to millimeters

;go outside print area
G1 Y-3.0 F1000.0
G1 Z0.4 F1000.0
; select extruder
Tc
; purge line
G1 X55.0 F2000.0
G1 Z0.3 F1000.0
G92 E0.0
G1 X240.0 E25.0 F2200.0
M73 P0 R26
G1 Y-2.0 F1000.0
G1 X55.0 E25 F1400.0
G1 Z0.20 F1000.0
G1 X5.0 E4.0 F1000.0
G92 E0.0
G21 ; set units to millimeters
G90 ; use absolute coordinates
M83 ; use relative distances for extrusion
M900 K30 ; Filament gcode
;BEFORE_LAYER_CHANGE
G92 E0.0
;0.2


G1 E-0.80000 F2100.00000
G1 Z0.600 F10800.000
;AFTER_LAYER_CHANGE
;0.2
G1 X108.889 Y91.891
G1 Z0.200
G1 E0.80000 F2100.00000
M204 S1000
G1 F1200
G1 X109.488 Y91.645 E0.02029
G1 X110.125 Y91.557 E0.02017
G1 X139.850 Y91.557 E0.93199
G1 X142.949 Y91.862 E0.09766
G1 X143.756 Y92.119 E0.02655
G1 X144.307 Y92.501 E0.02103
G1 X144.741 Y93.013 E0.02103
G1 X145.027 Y93.620 E0.02103
G1 X145.146 Y94.280 E0.02103
G1 X145.113 Y114.408 E0.63110
G1 X144.839 Y115.202 E0.02631
G1 X144.324 Y115.864 E0.02631
G1 X141.110 Y118.110 E0.12293
G1 X140.511 Y118.355 E0.02029
G1 X139.870 Y118.443 E0.02029
G1 X109.760 Y118.413 E0.94407
G1 X109.009 Y118.173 E0.02472
G1 X108.366 Y117.717 E0.02472
G1 X103.728 Y112.683 E0.21463
G1 X103.397 Y112.225 E0.01771
G1 X103.154 Y111.634 E0.02005
G1 X103.064 Y111.005 E0.01992
G1 X103.064 Y98.009 E0.40746
G1 X103.153 Y97.356 E0.02066
G1 X103.425 Y96.713 E0.02189
G1 X103.860 Y96.167 E0.02189
G1 X108.843 Y91.930 E0.20510
G1 X109.085 Y92.214 F10800.000
G1 F1200
G1 X109.594 Y92.007 E0.01721
G1 X110.135 Y91.934 E0.01714
G1 X139.849 Y91.934 E0.93166
G1 X142.878 Y92.233 E0.09541
G1 X143.536 Y92.431 E0.02157
G1 X144.025 Y92.755 E0.01839
G1 X144.413 Y93.200 E0.01851
G1 X144.667 Y93.733 E0.01851
G1 X144.770 Y94.311 E0.01839
G1 X144.743 Y114.336 E0.62787
G1 X144.505 Y115.027 E0.02293
G1 X144.049 Y115.604 E0.02304
G1 X140.910 Y117.790 E0.11995
G1 X140.406 Y117.993 E0.01703
G1 X139.864 Y118.066 E0.01714
G1 X109.819 Y118.040 E0.94203
G1 X109.171 Y117.833 E0.02134
G1 X108.618 Y117.436 E0.02134
G1 X104.007 Y112.428 E0.21344
G1 X103.716 Y112.022 E0.01567
G1 X103.515 Y111.525 E0.01680
G1 X103.441 Y110.991 E0.01692
G1 X103.441 Y98.014 E0.40687
G1 X103.517 Y97.454 E0.01771
G1 X103.752 Y96.901 E0.01885
G1 X104.131 Y96.430 E0.01896
G1 X109.040 Y92.253 E0.20209
G1 E-0.80000 F2100.00000
G1 Z0.800 F10800.000
G1 X105.629 Y110.960
G1 Z0.200
G1 E0.80000 F2100.00000
G1 F1200
G1 X105.629 Y98.025 E0.40557
G1 X106.384 Y98.025 E0.02365
G1 X106.384 Y110.790 E0.40025
G1 X107.138 Y110.790 E0.02365
G1 X107.138 Y98.025 E0.40025
G1 X107.892 Y98.025 E0.02365
G1 X107.892 Y110.790 E0.40025
G1 X108.646 Y110.790 E0.02365
G1 X108.646 Y98.025 E0.40025
G1 X109.400 Y98.025 E0.02365
G1 X109.400 Y110.790 E0.40025
G1 X109.628 Y110.790 E0.00715
G1 X109.628 Y107.285 E0.10991
G1 X109.936 Y106.977 E0.01366
G1 X110.154 Y106.977 E0.00683
G1 X110.154 Y101.163 E0.18228
G1 X110.909 Y101.163 E0.02365
G1 X110.909 Y106.977 E0.18228
G1 X111.663 Y106.977 E0.02365
G1 X111.663 Y101.163 E0.18228
G1 X112.417 Y101.163 E0.02365
G1 X112.417 Y106.977 E0.18228
G1 X113.171 Y106.977 E0.02365
G1 X113.171 Y101.163 E0.18228
G1 X113.925 Y101.163 E0.02365
G1 X113.925 Y106.977 E0.18228
G1 X114.679 Y106.977 E0.02365
G1 X114.679 Y101.163 E0.18228
G1 X115.433 Y101.163 E0.02365
G1 X115.433 Y106.977 E0.18228
G1 X116.188 Y106.977 E0.02365
G1 X116.188 Y101.163 E0.18228
G1 X116.942 Y101.163 E0.02365
G1 X116.942 Y106.977 E0.18228
G1 X117.696 Y106.977 E0.02365
G1 X117.696 Y101.163 E0.18228
G1 X118.450 Y101.163 E0.02365
G1 X118.450 Y106.977 E0.18228
G1 X119.204 Y106.977 E0.02365
G1 X119.204 Y101.163 E0.18228
G1 X119.958 Y101.163 E0.02365
G1 X119.958 Y106.977 E0.18228
G1 X120.713 Y106.977 E0.02365
G1 X120.713 Y101.163 E0.18228
G1 X121.467 Y101.163 E0.02365
G1 X121.467 Y106.977 E0.18228
G1 X122.221 Y106.977 E0.02365
G1 X122.221 Y101.163 E0.18228
G1 X122.975 Y101.163 E0.02365
G1 X122.975 Y106.977 E0.18228
G1 X123.729 Y106.977 E0.02365
G1 X123.729 Y101.163 E0.18228
G1 X124.483 Y101.163 E0.02365
G1 X124.483 Y106.977 E0.18228
G1 X125.238 Y106.977 E0.02365
G1 X125.238 Y101.163 E0.18228
G1 X125.992 Y101.163 E0.02365
G1 X125.992 Y106.977 E0.18228
G1 X126.746 Y106.977 E0.02365
G1 X126.746 Y101.163 E0.18228
G1 X127.500 Y101.163 E0.02365
G1 X127.500 Y106.977 E0.18228
G1 X128.254 Y106.977 E0.02365
G1 X128.254 Y101.163 E0.18228
G1 X129.008 Y101.163 E0.02365
G1 X129.008 Y106.977 E0.18228
G1 X129.763 Y106.977 E0.02365
G1 X129.763 Y101.163 E0.18228
G1 X130.517 Y101.163 E0.02365
G1 X130.517 Y106.977 E0.18228
G1 X131.271 Y106.977 E0.02365
G1 X131.271 Y101.163 E0.18228
G1 X132.025 Y101.163 E0.02365
G1 X132.025 Y106.977 E0.18228
G1 X132.779 Y106.977 E0.02365
G1 X132.779 Y101.163 E0.18228
G1 X133.533 Y101.163 E0.02365
G1 X133.533 Y106.977 E0.18228
G1 X134.287 Y106.977 E0.02365
G1 X134.287 Y101.163 E0.18228
G1 X135.042 Y101.163 E0.02365
G1 X135.042 Y106.977 E0.18228
G1 X135.796 Y106.977 E0.02365
G1 X135.796 Y101.163 E0.18228
G1 X136.550 Y101.163 E0.02365
G1 X136.550 Y106.977 E0.18228
G1 X137.304 Y106.977 E0.02365
G1 X137.304 Y101.163 E0.18228
G1 X138.058 Y101.163 E0.02365
G1 X138.058 Y106.977 E0.18228
G1 X138.812 Y106.977 E0.02365
G1 X138.812 Y101.163 E0.18228
G1 X139.567 Y101.163 E0.02365
G1 X139.567 Y106.977 E0.18228
G1 X140.064 Y106.977 E0.01558
G1 X140.321 Y107.234 E0.01141
G1 X140.321 Y100.906 E0.19840
G1 X140.372 Y100.855 E0.00226
G1 X140.372 Y96.613 E0.13302
G1 X141.075 Y95.910 E0.03118
G1 X141.075 Y112.231 E0.51174
G1 X141.829 Y112.985 E0.03344
G1 X141.829 Y95.155 E0.55903
G1 X142.583 Y94.401 E0.03344
G1 X142.583 Y113.979 E0.61385
G1 E-0.80000 F2100.00000
G1 Z0.800 F10800.000
G1 X128.774 Y114.596
G1 Z0.200
G1 E0.80000 F2100.00000
G1 F1200
G1 X126.970 Y114.447 E0.05677
G1 X125.000 Y114.251 E0.06207
G1 X123.030 Y114.447 E0.06207
G1 X119.425 Y114.745 E0.11341
G1 X110.364 Y115.646 E0.28550
G1 X110.364 Y107.713 E0.24872
G1 X139.636 Y107.713 E0.91778
G1 X139.636 Y115.646 E0.24872
G1 X130.575 Y114.745 E0.28550
G1 X128.834 Y114.601 E0.05476
G1 X128.605 Y114.234 F10800.000
G1 X128.806 Y114.221
G1 F1200
G1 X127.004 Y114.072 E0.05667
G1 X125.000 Y113.872 E0.06315
G1 X122.996 Y114.072 E0.06315
G1 X119.391 Y114.370 E0.11341
G1 X110.741 Y115.229 E0.27254
G1 X110.741 Y108.090 E0.22385
G1 X139.259 Y108.090 E0.89413
G1 X139.259 Y115.229 E0.22385
G1 X130.609 Y114.370 E0.27254
G1 X128.865 Y114.226 E0.05485
G1 E-0.80000 F2100.00000
G1 Z0.800 F10800.000
G1 X139.145 Y108.967
G1 Z0.200
G1 E0.80000 F2100.00000
G1 F1200
G1 X138.551 Y108.373 E0.02641
G1 X138.017 Y108.373 E0.01679
G1 X138.976 Y109.332 E0.04261
G1 X138.976 Y109.866 E0.01679
G1 X137.482 Y108.373 E0.06636
G1 X136.948 Y108.373 E0.01679
G1 X138.976 Y110.401 E0.09010
G1 X138.976 Y110.935 E0.01679
G1 X136.414 Y108.373 E0.11385
G1 X135.879 Y108.373 E0.01679
G1 X138.976 Y111.469 E0.13759
G1 X138.976 Y112.004 E0.01679
G1 X135.345 Y108.373 E0.16134
G1 X134.810 Y108.373 E0.01679
G1 X138.976 Y112.538 E0.18508
G1 X138.976 Y113.072 E0.01679
G1 X134.276 Y108.373 E0.20883
G1 X133.742 Y108.373 E0.01679
G1 X138.976 Y113.607 E0.23257
G1 X138.976 Y114.141 E0.01679
G1 X133.207 Y108.373 E0.25632
G1 X132.673 Y108.373 E0.01679
G1 X138.976 Y114.676 E0.28006
G1 X138.976 Y114.917 E0.00758
G1 X138.650 Y114.885 E0.01027
G1 X132.139 Y108.373 E0.28935
G1 X131.604 Y108.373 E0.01679
G1 X138.057 Y114.826 E0.28673
G1 X137.464 Y114.767 E0.01873
G1 X131.070 Y108.373 E0.28411
G1 X130.535 Y108.373 E0.01679
G1 X136.870 Y114.708 E0.28149
G1 X136.277 Y114.649 E0.01873
G1 X130.001 Y108.373 E0.27887
M73 P4 R25
G1 X129.467 Y108.373 E0.01679
G1 X135.684 Y114.590 E0.27625
G1 X135.090 Y114.531 E0.01873
G1 X128.932 Y108.373 E0.27363
G1 X128.398 Y108.373 E0.01679
G1 X134.497 Y114.472 E0.27101
G1 X133.904 Y114.413 E0.01873
G1 X127.863 Y108.373 E0.26839
G1 X127.329 Y108.373 E0.01679
G1 X133.310 Y114.354 E0.26578
G1 X132.717 Y114.295 E0.01873
G1 X126.795 Y108.373 E0.26316
G1 X126.260 Y108.373 E0.01679
G1 X132.124 Y114.236 E0.26054
G1 X131.530 Y114.177 E0.01873
G1 X125.726 Y108.373 E0.25792
G1 X125.192 Y108.373 E0.01679
G1 X130.937 Y114.118 E0.25530
G1 X130.349 Y114.065 E0.01855
G1 X124.657 Y108.373 E0.25291
G1 X124.123 Y108.373 E0.01679
G1 X129.766 Y114.016 E0.25077
G1 X129.184 Y113.968 E0.01837
G1 X123.588 Y108.373 E0.24863
G1 X123.054 Y108.373 E0.01679
G1 X128.601 Y113.920 E0.24649
G1 X128.019 Y113.872 E0.01837
G1 X122.520 Y108.373 E0.24434
G1 X121.985 Y108.373 E0.01679
G1 X127.436 Y113.824 E0.24220
G1 X126.850 Y113.772 E0.01848
G1 X121.451 Y108.373 E0.23991
G1 X120.916 Y108.373 E0.01679
G1 X126.256 Y113.713 E0.23728
G1 X125.663 Y113.654 E0.01874
G1 X120.382 Y108.373 E0.23465
G1 X119.848 Y108.373 E0.01679
G1 X125.069 Y113.594 E0.23202
G1 X124.571 Y113.630 E0.01570
G1 X119.313 Y108.373 E0.23361
G1 X118.779 Y108.373 E0.01679
G1 X124.085 Y113.679 E0.23577
G1 X123.599 Y113.727 E0.01534
G1 X118.245 Y108.373 E0.23792
G1 X117.710 Y108.373 E0.01679
G1 X123.113 Y113.776 E0.24008
G1 X122.622 Y113.819 E0.01550
G1 X117.176 Y108.373 E0.24199
G1 X116.641 Y108.373 E0.01679
G1 X122.128 Y113.860 E0.24380
G1 X121.635 Y113.900 E0.01556
G1 X116.107 Y108.373 E0.24562
G1 X115.573 Y108.373 E0.01679
G1 X121.141 Y113.941 E0.24743
G1 X120.648 Y113.982 E0.01556
G1 X115.038 Y108.373 E0.24925
G1 X114.504 Y108.373 E0.01679
G1 X120.154 Y114.023 E0.25106
G1 X119.660 Y114.064 E0.01556
G1 X113.969 Y108.373 E0.25288
G1 X113.435 Y108.373 E0.01679
G1 X119.170 Y114.108 E0.25483
G1 X118.684 Y114.156 E0.01535
G1 X112.901 Y108.373 E0.25697
G1 X112.366 Y108.373 E0.01679
G1 X118.198 Y114.204 E0.25912
G1 X117.712 Y114.253 E0.01535
G1 X111.832 Y108.373 E0.26126
G1 X111.298 Y108.373 E0.01679
G1 X117.226 Y114.301 E0.26341
G1 X116.739 Y114.349 E0.01535
G1 X111.024 Y108.634 E0.25395
G1 X111.024 Y109.168 E0.01679
G1 X116.253 Y114.397 E0.23235
G1 X115.767 Y114.446 E0.01535
G1 X111.024 Y109.703 E0.21075
G1 X111.024 Y110.237 E0.01679
G1 X115.281 Y114.494 E0.18916
G1 X114.795 Y114.542 E0.01535
G1 X111.024 Y110.771 E0.16756
G1 X111.024 Y111.306 E0.01679
G1 X114.309 Y114.591 E0.14596
G1 X113.823 Y114.639 E0.01535
G1 X111.024 Y111.840 E0.12436
G1 X111.024 Y112.375 E0.01679
G1 X113.337 Y114.687 E0.10276
G1 X112.851 Y114.736 E0.01535
G1 X111.024 Y112.909 E0.08116
G1 X111.024 Y113.443 E0.01679
G1 X112.365 Y114.784 E0.05956
G1 X111.879 Y114.832 E0.01535
G1 X111.024 Y113.978 E0.03796
G1 X111.024 Y114.512 E0.01679
G1 X111.548 Y115.035 E0.02325
G1 E-0.80000 F2100.00000
G1 Z0.800 F10800.000
G1 X125.000 Y100.427
G1 Z0.200
G1 E0.80000 F2100.00000
G1 F1200
G1 X110.364 Y100.427 E0.45889
G1 X110.364 Y94.332 E0.19110
G1 X139.636 Y94.332 E0.91778
G1 X139.636 Y100.427 E0.19110
G1 X125.060 Y100.427 E0.45701
G1 X124.756 Y100.110 F10800.000
G1 X125.000 Y100.050
G1 F1200
G1 X110.741 Y100.050 E0.44707
G1 X110.741 Y94.710 E0.16746
G1 X139.259 Y94.710 E0.89413
G1 X139.259 Y100.050 E0.16746
G1 X125.060 Y100.050 E0.44519
G1 E-0.80000 F2100.00000
G1 Z0.800 F10800.000
G1 X111.627 Y99.937
G1 Z0.200
G1 E0.80000 F2100.00000
G1 F1200
G1 X111.024 Y99.335 E0.02706
G1 X111.024 Y98.795 E0.01715
G1 X111.997 Y99.768 E0.04369
G1 X112.537 Y99.768 E0.01715
G1 X111.024 Y98.255 E0.06793
G1 X111.024 Y97.715 E0.01715
G1 X113.077 Y99.768 E0.09218
G1 X113.617 Y99.768 E0.01715
G1 X111.024 Y97.175 E0.11643
G1 X111.024 Y96.635 E0.01715
G1 X114.157 Y99.768 E0.14068
G1 X114.697 Y99.768 E0.01715
G1 X111.024 Y96.095 E0.16493
G1 X111.024 Y95.555 E0.01715
G1 X115.237 Y99.768 E0.18917
G1 X115.777 Y99.768 E0.01715
G1 X111.024 Y95.015 E0.21342
G1 X111.024 Y94.992 E0.00071
G1 X111.542 Y94.992 E0.01644
G1 X116.317 Y99.768 E0.21442
G1 X116.857 Y99.768 E0.01715
G1 X112.082 Y94.992 E0.21442
G1 X112.622 Y94.992 E0.01715
G1 X117.397 Y99.768 E0.21442
G1 X117.937 Y99.768 E0.01715
G1 X113.162 Y94.992 E0.21442
G1 X113.702 Y94.992 E0.01715
G1 X118.477 Y99.768 E0.21442
G1 X119.017 Y99.768 E0.01715
G1 X114.242 Y94.992 E0.21442
G1 X114.782 Y94.992 E0.01715
G1 X119.557 Y99.768 E0.21442
G1 X120.097 Y99.768 E0.01715
G1 X115.322 Y94.992 E0.21442
G1 X115.862 Y94.992 E0.01715
G1 X120.637 Y99.768 E0.21442
G1 X121.177 Y99.768 E0.01715
G1 X116.402 Y94.992 E0.21442
G1 X116.942 Y94.992 E0.01715
G1 X121.717 Y99.768 E0.21442
G1 X122.257 Y99.768 E0.01715
G1 X117.482 Y94.992 E0.21442
G1 X118.022 Y94.992 E0.01715
G1 X122.797 Y99.768 E0.21442
G1 X123.337 Y99.768 E0.01715
G1 X118.562 Y94.992 E0.21442
G1 X119.102 Y94.992 E0.01715
G1 X123.877 Y99.768 E0.21442
G1 X124.417 Y99.768 E0.01715
G1 X119.642 Y94.992 E0.21442
G1 X120.182 Y94.992 E0.01715
G1 X124.957 Y99.768 E0.21442
G1 X125.498 Y99.768 E0.01715
G1 X120.722 Y94.992 E0.21442
G1 X121.262 Y94.992 E0.01715
G1 X126.038 Y99.768 E0.21442
G1 X126.578 Y99.768 E0.01715
G1 X121.802 Y94.992 E0.21442
G1 X122.342 Y94.992 E0.01715
G1 X127.118 Y99.768 E0.21442
G1 X127.658 Y99.768 E0.01715
G1 X122.882 Y94.992 E0.21442
G1 X123.422 Y94.992 E0.01715
G1 X128.198 Y99.768 E0.21442
G1 X128.738 Y99.768 E0.01715
G1 X123.962 Y94.992 E0.21442
G1 X124.502 Y94.992 E0.01715
G1 X129.278 Y99.768 E0.21442
G1 X129.818 Y99.768 E0.01715
G1 X125.042 Y94.992 E0.21442
G1 X125.582 Y94.992 E0.01715
G1 X130.358 Y99.768 E0.21442
G1 X130.898 Y99.768 E0.01715
G1 X126.122 Y94.992 E0.21442
G1 X126.662 Y94.992 E0.01715
G1 X131.438 Y99.768 E0.21442
G1 X131.978 Y99.768 E0.01715
G1 X127.202 Y94.992 E0.21442
G1 X127.742 Y94.992 E0.01715
G1 X132.518 Y99.768 E0.21442
G1 X133.058 Y99.768 E0.01715
G1 X128.282 Y94.992 E0.21442
G1 X128.822 Y94.992 E0.01715
G1 X133.598 Y99.768 E0.21442
G1 X134.138 Y99.768 E0.01715
G1 X129.362 Y94.992 E0.21442
G1 X129.903 Y94.992 E0.01715
G1 X134.678 Y99.768 E0.21442
G1 X135.218 Y99.768 E0.01715
G1 X130.443 Y94.992 E0.21442
G1 X130.983 Y94.992 E0.01715
G1 X135.758 Y99.768 E0.21442
G1 X136.298 Y99.768 E0.01715
G1 X131.523 Y94.992 E0.21442
G1 X132.063 Y94.992 E0.01715
G1 X136.838 Y99.768 E0.21442
G1 X137.378 Y99.768 E0.01715
G1 X132.603 Y94.992 E0.21442
G1 X133.143 Y94.992 E0.01715
G1 X137.918 Y99.768 E0.21442
G1 X138.458 Y99.768 E0.01715
G1 X133.683 Y94.992 E0.21442
G1 X134.223 Y94.992 E0.01715
G1 X138.976 Y99.745 E0.21343
G1 X138.976 Y99.205 E0.01715
G1 X134.763 Y94.992 E0.18918
G1 X135.303 Y94.992 E0.01715
G1 X138.976 Y98.665 E0.16493
G1 X138.976 Y98.125 E0.01715
G1 X135.843 Y94.992 E0.14068
G1 X136.383 Y94.992 E0.01715
G1 X138.976 Y97.585 E0.11644
G1 X138.976 Y97.045 E0.01715
G1 X136.923 Y94.992 E0.09219
G1 X137.463 Y94.992 E0.01715
G1 X138.976 Y96.505 E0.06794
G1 X138.976 Y95.965 E0.01715
G1 X138.003 Y94.992 E0.04369
G1 X138.543 Y94.992 E0.01715
G1 X139.145 Y95.595 E0.02706
M106 S255
;BEFORE_LAYER_CHANGE
G92 E0.0
;0.45


G1 E-0.80000 F2100.00000
G1 Z0.800 F10800.000
;AFTER_LAYER_CHANGE
;0.45
M104 S210 ; set temperature
G1 X139.867 Y107.151
G1 Z0.450
G1 E0.80000 F2100.00000
G1 F900
G1 X139.867 Y101.118 E0.18584
G1 X137.582 Y101.118 E0.07040
G1 X137.582 Y107.023 E0.18188
G1 X135.296 Y107.023 E0.07040
G1 X135.296 Y101.118 E0.18188
G1 X133.011 Y101.118 E0.07040
G1 X133.011 Y107.023 E0.18188
G1 X130.725 Y107.023 E0.07040
G1 X130.725 Y101.118 E0.18188
G1 X128.439 Y101.118 E0.07040
G1 X128.439 Y107.023 E0.18188
G1 X126.154 Y107.023 E0.07040
G1 X126.154 Y101.118 E0.18188
G1 X123.868 Y101.118 E0.07040
