; generated by PrusaSlicer 2.1.1+win64 on 2020-02-19 at 18:45:36 UTC

; 

; external perimeters extrusion width = 0.45mm
; perimeters extrusion width = 0.45mm
; infill extrusion width = 0.45mm
; solid infill extrusion width = 0.45mm
; top infill extrusion width = 0.40mm
; support material extrusion width = 0.35mm
; first layer extrusion width = 0.42mm

M73 P0 R9
M201 X9000 Y9000 Z500 E10000 ; sets maximum accelerations, mm/sec^2
M203 X500 Y500 Z12 E120 ; sets maximum feedrates, mm/sec
M204 P2000 R1500 T2000 ; sets acceleration (P, T) and retract acceleration (R), mm/sec^2
M205 X10.00 Y10.00 Z0.20 E2.50 ; sets the jerk limits, mm/sec
M205 S0 T0 ; sets the minimum extruding and travel feed rate, mm/sec
M107
M862.3 P "MK2.5SMMU2S" ; printer model check
M862.1 P0.4 ; nozzle diameter check
M115 U3.8.0 ; tell printer latest fw version
G90 ; use absolute coordinates
M83 ; extruder relative mode
M104 S215 ; set extruder temp
M140 S60 ; set bed temp
Tx
M190 S60 ; wait for bed temp
M109 S215 ; wait for extruder temp
G28 W ; home all without mesh bed level
G80 ; mesh bed leveling

G21 ; set units to millimeters

;go outside print area
G1 Y-3.0 F1000.0
G1 Z0.4 F1000.0
; select extruder
Tc
; purge line
G1 X55.0 F2000.0
G1 Z0.3 F1000.0
G92 E0.0
G1 X240.0 E25.0 F2200.0
M73 P1 R9
G1 Y-2.0 F1000.0
G1 X55.0 E25 F1400.0
G1 Z0.20 F1000.0
G1 X5.0 E4.0 F1000.0
G92 E0.0
G21 ; set units to millimeters
G90 ; use absolute coordinates
M83 ; use relative distances for extrusion
M900 K30 ; Filament gcode
;BEFORE_LAYER_CHANGE
G92 E0.0
;0.2


G1 E-0.80000 F2100.00000
G1 Z0.600 F10800.000
;AFTER_LAYER_CHANGE
;0.2
G1 X109.249 Y93.002
G1 Z0.200
G1 E0.80000 F2100.00000
M204 S1000
G1 F1200
G1 X109.635 Y92.377 E0.02300
G1 X120.858 Y81.166 E0.49738
G1 X121.334 Y80.871 E0.01758
G1 X121.863 Y80.685 E0.01758
G1 X125.243 Y80.154 E0.10727
G1 X129.340 Y80.594 E0.12919
G1 X129.897 Y80.757 E0.01820
G1 X130.406 Y81.043 E0.01832
G1 X140.852 Y91.443 E0.46217
G1 X141.311 Y92.069 E0.02435
G1 X141.562 Y92.809 E0.02447
G1 X141.785 Y96.746 E0.12366
G1 X141.521 Y100.009 E0.10263
G1 X141.326 Y100.736 E0.02361
G1 X131.808 Y120.136 E0.67753
G1 X131.304 Y120.978 E0.03077
G1 X130.350 Y122.086 E0.04586
G1 X129.607 Y122.704 E0.03030
G1 X128.585 Y123.309 E0.03723
G1 X127.667 Y123.680 E0.03105
G1 X126.639 Y123.928 E0.03315
G1 X124.451 Y124.021 E0.06865
G1 X123.413 Y123.937 E0.03267
G1 X122.494 Y123.726 E0.02956
G1 X121.263 Y123.236 E0.04155
G1 X120.362 Y122.683 E0.03315
G1 X119.627 Y122.068 E0.03005
G1 X118.711 Y121.004 E0.04401
G1 X118.186 Y120.128 E0.03204
G1 X108.940 Y101.066 E0.66427
G1 X108.749 Y100.505 E0.01857
G1 X108.692 Y99.919 E0.01845
G1 X109.057 Y93.705 E0.19517
G1 X109.233 Y93.059 E0.02099
G1 X109.591 Y93.160 F10800.000
G1 F1200
G1 X109.921 Y92.623 E0.01976
G1 X121.084 Y81.468 E0.49484
G1 X121.499 Y81.210 E0.01532
G1 X121.961 Y81.050 E0.01532
G1 X125.243 Y80.531 E0.10418
G1 X129.261 Y80.963 E0.12671
G1 X129.748 Y81.103 E0.01589
G1 X130.193 Y81.354 E0.01601
G1 X140.585 Y91.709 E0.45999
G1 X140.983 Y92.257 E0.02123
G1 X141.195 Y92.900 E0.02123
G1 X141.408 Y96.741 E0.12062
G1 X141.148 Y99.957 E0.10116
G1 X140.980 Y100.587 E0.02044
G1 X131.470 Y119.969 E0.67693
G1 X130.990 Y120.769 E0.02924
G1 X130.105 Y121.799 E0.04258
G1 X129.395 Y122.392 E0.02901
G1 X128.423 Y122.968 E0.03541
G1 X127.552 Y123.321 E0.02948
G1 X126.571 Y123.558 E0.03165
G1 X124.459 Y123.644 E0.06627
G1 X123.467 Y123.564 E0.03119
G1 X122.587 Y123.361 E0.02833
G1 X121.440 Y122.903 E0.03872
G1 X120.579 Y122.375 E0.03165
G1 X119.876 Y121.785 E0.02879
G1 X119.022 Y120.791 E0.04111
G1 X118.525 Y119.963 E0.03027
G1 X109.282 Y100.906 E0.66409
G1 X109.118 Y100.426 E0.01589
G1 X109.069 Y99.925 E0.01578
G1 X109.429 Y93.769 E0.19334
G1 X109.576 Y93.218 E0.01787
G1 E-0.80000 F2100.00000
G1 Z0.800 F10800.000
G1 X111.602 Y94.024
G1 Z0.200
G1 E0.80000 F2100.00000
G1 F1200
G1 X122.441 Y83.185 E0.48059
G1 X122.974 Y83.718 E0.02365
G1 X112.256 Y94.437 E0.47527
G1 X112.789 Y94.970 E0.02365
G1 X123.507 Y84.252 E0.47527
G1 X123.607 Y84.351 E0.00442
G1 X125.238 Y82.720 E0.07234
G1 X125.672 Y83.154 E0.01923
G1 X111.691 Y97.135 E0.61995
G1 X112.224 Y97.668 E0.02365
G1 X126.205 Y83.687 E0.61995
G1 X126.739 Y84.220 E0.02365
G1 X112.757 Y98.201 E0.61995
G1 X112.889 Y98.332 E0.00582
G1 X111.257 Y99.964 E0.07234
G1 X111.659 Y100.366 E0.01783
G1 X128.903 Y83.122 E0.76462
G1 X129.436 Y83.655 E0.02365
G1 X112.193 Y100.899 E0.76462
G1 X112.726 Y101.432 E0.02365
G1 X119.704 Y94.454 E0.30942
G1 X120.048 Y93.625 E0.02815
G1 X120.438 Y92.995 E0.02324
G1 X120.950 Y92.397 E0.02469
G1 X121.536 Y91.895 E0.02419
G1 X122.179 Y91.498 E0.02370
G1 X122.997 Y91.161 E0.02775
G1 X129.970 Y84.189 E0.30916
G1 X130.503 Y84.722 E0.02365
G1 X124.281 Y90.944 E0.27591
G1 X125.362 Y90.930 E0.03390
G1 X131.036 Y85.255 E0.25161
G1 X131.570 Y85.788 E0.02365
G1 X126.353 Y91.005 E0.23132
G1 X127.000 Y91.161 E0.02086
G1 X127.193 Y91.232 E0.00646
G1 X132.103 Y86.322 E0.21771
G1 X132.636 Y86.855 E0.02365
G1 X127.927 Y91.564 E0.20881
G1 X128.427 Y91.871 E0.01839
G1 X128.571 Y91.987 E0.00579
G1 X133.169 Y87.388 E0.20391
G1 X133.703 Y87.922 E0.02365
G1 X129.133 Y92.491 E0.20264
G1 X129.614 Y93.077 E0.02376
G1 X134.236 Y88.455 E0.20494
G1 X134.769 Y88.988 E0.02365
G1 X130.010 Y93.747 E0.21102
G1 X130.262 Y94.356 E0.02067
G1 X130.309 Y94.515 E0.00520
G1 X135.302 Y89.521 E0.22143
G1 X135.836 Y90.055 E0.02365
G1 X130.484 Y95.406 E0.23730
G1 X130.526 Y95.965 E0.01757
G1 X130.397 Y96.559 E0.01908
G1 X136.369 Y90.588 E0.26479
G1 X136.902 Y91.121 E0.02365
G1 X129.853 Y98.170 E0.31257
G1 X129.483 Y98.993 E0.02827
G1 X128.854 Y100.236 E0.04370
G1 X137.436 Y91.654 E0.38054
G1 X137.969 Y92.188 E0.02365
G1 X127.882 Y102.275 E0.44727
G1 X127.775 Y102.525 E0.00855
G1 X127.517 Y103.284 E0.02514
G1 X127.382 Y103.841 E0.01796
G1 X138.502 Y92.721 E0.49309
G1 X139.035 Y93.254 E0.02365
G1 X127.238 Y105.052 E0.52312
G1 X127.228 Y105.420 E0.01154
G1 X127.283 Y106.073 E0.02056
G1 X137.937 Y95.419 E0.47241
G1 X138.471 Y95.952 E0.02365
G1 X127.446 Y106.977 E0.48885
G1 X127.670 Y107.819 E0.02733
G1 X139.004 Y96.485 E0.50255
G1 X139.220 Y96.701 E0.00957
G1 X137.588 Y98.332 E0.07234
G1 X137.906 Y98.650 E0.01408
G1 X127.934 Y108.621 E0.44215
G1 X128.222 Y109.400 E0.02603
G1 X138.439 Y99.183 E0.45304
G1 X138.972 Y99.717 E0.02365
G1 X128.401 Y110.288 E0.46875
G1 E-0.80000 F2100.00000
G1 Z0.800 F10800.000
G1 X121.138 Y110.085
G1 Z0.200
G1 E0.80000 F2100.00000
G1 F1200
G1 X121.744 Y109.479 E0.02684
G1 X121.892 Y109.116 E0.01230
G1 X122.324 Y107.832 E0.04248
G1 X120.725 Y109.432 E0.07090
G1 X120.192 Y108.898 E0.02365
G1 X122.653 Y106.437 E0.10914
G1 X122.709 Y106.136 E0.00959
G1 X122.770 Y105.420 E0.02256
G1 X122.766 Y105.258 E0.00507
G1 X119.658 Y108.365 E0.13778
G1 X119.125 Y107.832 E0.02365
G1 X122.691 Y104.266 E0.15813
G1 X122.655 Y104.001 E0.00839
G1 X122.505 Y103.385 E0.01987
G1 X118.592 Y107.298 E0.17353
G1 X118.059 Y106.765 E0.02365
G1 X122.242 Y102.582 E0.18550
G1 X121.927 Y101.830 E0.02555
G1 X117.525 Y106.232 E0.19517
G1 X116.992 Y105.699 E0.02365
G1 X121.580 Y101.110 E0.20345
G1 X121.226 Y100.398 E0.02495
G1 X116.459 Y105.165 E0.21140
G1 X115.926 Y104.632 E0.02365
G1 X120.868 Y99.690 E0.21914
G1 X120.510 Y98.982 E0.02489
G1 X115.392 Y104.099 E0.22691
G1 X114.859 Y103.566 E0.02365
G1 X120.179 Y98.246 E0.23590
G1 X119.881 Y97.477 E0.02584
G1 X114.326 Y103.032 E0.24631
G1 X113.792 Y102.499 E0.02365
G1 X119.628 Y96.663 E0.25877
G1 X119.479 Y96.043 E0.02001
G1 X119.488 Y95.737 E0.00957
G1 X113.139 Y102.086 E0.28150
G1 E-0.80000 F2100.00000
G1 Z0.800 F10800.000
G1 X123.013 Y114.089
G1 Z0.200
G1 E0.80000 F2100.00000
G1 F1200
G1 X123.454 Y113.780 E0.01688
G1 X123.942 Y113.553 E0.01688
G1 X124.463 Y113.413 E0.01688
G1 X124.975 Y113.368 E0.01612
G1 X125.533 Y113.413 E0.01756
G1 X126.056 Y113.553 E0.01696
G1 X126.544 Y113.780 E0.01688
G1 X126.985 Y114.089 E0.01688
G1 X127.366 Y114.470 E0.01688
G1 X127.674 Y114.911 E0.01688
G1 X127.892 Y115.377 E0.01612
G1 X128.041 Y115.917 E0.01756
G1 X128.088 Y116.456 E0.01696
G1 X128.041 Y116.992 E0.01688
G1 X127.902 Y117.512 E0.01688
G1 X127.674 Y118.000 E0.01688
G1 X127.366 Y118.441 E0.01688
G1 X127.002 Y118.805 E0.01612
G1 X126.546 Y119.130 E0.01756
G1 X126.056 Y119.359 E0.01696
G1 X125.535 Y119.498 E0.01688
G1 X124.999 Y119.545 E0.01688
G1 X124.463 Y119.498 E0.01688
G1 X123.942 Y119.359 E0.01688
G1 X123.454 Y119.131 E0.01688
G1 X123.013 Y118.822 E0.01688
G1 X122.632 Y118.441 E0.01688
G1 X122.324 Y118.000 E0.01688
G1 X122.106 Y117.534 E0.01612
G1 X121.957 Y116.994 E0.01756
G1 X121.910 Y116.456 E0.01696
G1 X121.957 Y115.919 E0.01688
G1 X122.096 Y115.399 E0.01688
G1 X122.324 Y114.911 E0.01688
G1 X122.632 Y114.470 E0.01688
G1 X122.971 Y114.131 E0.01500
G1 X123.237 Y114.398 F10800.000
G1 F1200
G1 X123.644 Y114.108 E0.01565
G1 X124.072 Y113.908 E0.01482
G1 X124.528 Y113.786 E0.01482
G1 X124.976 Y113.747 E0.01411
G1 X125.469 Y113.786 E0.01549
G1 X125.926 Y113.908 E0.01484
G1 X126.354 Y114.108 E0.01482
G1 X126.741 Y114.379 E0.01482
G1 X127.076 Y114.713 E0.01482
G1 X127.347 Y115.100 E0.01482
G1 X127.537 Y115.508 E0.01411
G1 X127.669 Y115.984 E0.01549
G1 X127.710 Y116.456 E0.01484
G1 X127.669 Y116.926 E0.01482
G1 X127.546 Y117.383 E0.01482
G1 X127.347 Y117.811 E0.01482
G1 X127.076 Y118.198 E0.01482
G1 X126.757 Y118.516 E0.01411
G1 X126.355 Y118.803 E0.01549
G1 X125.926 Y119.003 E0.01484
G1 X125.470 Y119.125 E0.01482
G1 X124.999 Y119.166 E0.01482
G1 X124.528 Y119.125 E0.01482
G1 X124.072 Y119.003 E0.01482
G1 X123.644 Y118.803 E0.01482
G1 X123.257 Y118.532 E0.01482
G1 X122.922 Y118.198 E0.01482
G1 X122.651 Y117.811 E0.01482
G1 X122.461 Y117.403 E0.01411
G1 X122.329 Y116.927 E0.01549
G1 X122.288 Y116.456 E0.01484
G1 X122.329 Y115.985 E0.01482
G1 X122.452 Y115.528 E0.01482
G1 X122.651 Y115.100 E0.01482
G1 X122.922 Y114.713 E0.01482
G1 X123.195 Y114.441 E0.01209
G1 X123.165 Y114.005 F10800.000
G1 E-0.80000 F2100.00000
G1 Z0.800 F10800.000
G1 X124.504 Y99.502
G1 Z0.200
G1 E0.80000 F2100.00000
G1 F1200
G1 X123.940 Y99.358 E0.01825
G1 X123.451 Y99.129 E0.01695
G1 X123.002 Y98.812 E0.01722
G1 X122.630 Y98.438 E0.01656
G1 X122.326 Y98.005 E0.01657
G1 X122.098 Y97.517 E0.01690
G1 X121.957 Y96.996 E0.01692
G1 X121.910 Y96.458 E0.01695
G1 X121.956 Y95.921 E0.01689
G1 X122.096 Y95.400 E0.01691
G1 X122.324 Y94.910 E0.01694
G1 X122.641 Y94.461 E0.01723
G1 X123.015 Y94.088 E0.01657
G1 X123.447 Y93.785 E0.01656
G1 X123.935 Y93.555 E0.01691
G1 X124.466 Y93.413 E0.01724
G1 X124.993 Y93.366 E0.01659
G1 X125.530 Y93.412 E0.01690
G1 X126.052 Y93.551 E0.01692
G1 X126.542 Y93.779 E0.01694
G1 X126.992 Y94.096 E0.01726
G1 X127.372 Y94.478 E0.01690
G1 X127.674 Y94.911 E0.01656
G1 X127.898 Y95.390 E0.01657
G1 X128.042 Y95.920 E0.01723
G1 X128.088 Y96.459 E0.01694
G1 X128.041 Y96.997 E0.01695
G1 X127.896 Y97.527 E0.01722
G1 X127.671 Y98.005 E0.01655
G1 X127.368 Y98.438 E0.01657
G1 X126.988 Y98.819 E0.01690
G1 X126.546 Y99.129 E0.01692
G1 X126.058 Y99.358 E0.01692
G1 X125.536 Y99.498 E0.01692
G1 X124.999 Y99.545 E0.01692
G1 X124.564 Y99.507 E0.01368
G1 X124.527 Y99.125 F10800.000
G1 F1200
G1 X124.070 Y99.002 E0.01484
G1 X123.641 Y98.802 E0.01486
G1 X123.246 Y98.523 E0.01515
G1 X122.920 Y98.195 E0.01452
G1 X122.654 Y97.815 E0.01452
G1 X122.453 Y97.387 E0.01484
G1 X122.330 Y96.930 E0.01484
G1 X122.288 Y96.457 E0.01487
G1 X122.329 Y95.987 E0.01481
G1 X122.451 Y95.529 E0.01484
G1 X122.651 Y95.100 E0.01485
G1 X122.930 Y94.705 E0.01515
G1 X123.258 Y94.378 E0.01452
G1 X123.637 Y94.112 E0.01452
G1 X124.065 Y93.911 E0.01484
G1 X124.532 Y93.785 E0.01516
G1 X124.994 Y93.745 E0.01453
G1 X125.465 Y93.785 E0.01484
G1 X125.923 Y93.907 E0.01484
G1 X126.352 Y94.107 E0.01485
G1 X126.748 Y94.385 E0.01516
G1 X127.081 Y94.721 E0.01484
G1 X127.347 Y95.100 E0.01452
G1 X127.543 Y95.520 E0.01452
G1 X127.669 Y95.986 E0.01515
G1 X127.710 Y96.458 E0.01485
G1 X127.668 Y96.930 E0.01486
G1 X127.540 Y97.396 E0.01515
G1 X127.344 Y97.815 E0.01451
G1 X127.078 Y98.195 E0.01452
G1 X126.744 Y98.530 E0.01484
G1 X126.357 Y98.802 E0.01484
G1 X125.928 Y99.002 E0.01484
G1 X125.471 Y99.125 E0.01484
G1 X124.999 Y99.166 E0.01484
G1 X124.587 Y99.130 E0.01296
G1 X124.270 Y99.431 F10800.000
G1 E-0.80000 F2100.00000
G1 Z0.800 F10800.000
G1 X120.591 Y95.911
G1 Z0.200
G1 E0.80000 F2100.00000
G1 F1200
G1 X120.637 Y95.338 E0.01801
G1 X120.774 Y94.764 E0.01850
G1 X121.014 Y94.180 E0.01981
G1 X121.346 Y93.643 E0.01978
G1 X121.733 Y93.190 E0.01870
G1 X122.181 Y92.807 E0.01847
G1 X122.751 Y92.459 E0.02094
G1 X123.290 Y92.236 E0.01831
G1 X123.872 Y92.095 E0.01878
G1 X124.523 Y92.043 E0.02045
G1 X125.496 Y92.043 E0.03052
G1 X126.111 Y92.093 E0.01934
G1 X126.684 Y92.230 E0.01849
G1 X127.267 Y92.467 E0.01973
G1 X127.798 Y92.792 E0.01952
G1 X128.254 Y93.180 E0.01879
G1 X128.663 Y93.657 E0.01970
G1 X128.984 Y94.180 E0.01922
G1 X129.219 Y94.747 E0.01924
G1 X129.362 Y95.344 E0.01924
G1 X129.407 Y95.918 E0.01806
G1 X129.369 Y96.099 E0.00579
G1 X129.173 Y96.818 E0.02339
G1 X128.875 Y97.629 E0.02708
G1 X128.480 Y98.510 E0.03029
G1 X127.120 Y101.223 E0.09514
G1 X126.735 Y102.128 E0.03084
G1 X126.447 Y102.973 E0.02801
G1 X126.248 Y103.793 E0.02644
G1 X126.136 Y104.605 E0.02569
G1 X126.114 Y105.452 E0.02656
G1 X126.184 Y106.286 E0.02626
G1 X126.376 Y107.310 E0.03265
G1 X126.662 Y108.352 E0.03391
G1 X127.064 Y109.510 E0.03841
G1 X127.564 Y110.735 E0.04149
G1 X128.762 Y113.379 E0.09102
G1 X129.009 Y114.069 E0.02296
G1 X129.198 Y114.829 E0.02458
G1 X129.326 Y115.694 E0.02740
G1 X129.410 Y116.952 E0.03954
G1 X129.362 Y117.567 E0.01935
G1 X129.219 Y118.164 E0.01924
G1 X128.984 Y118.731 E0.01924
G1 X128.663 Y119.254 E0.01924
M73 P12 R8
G1 X128.265 Y119.721 E0.01924
G1 X127.798 Y120.120 E0.01924
G1 X127.275 Y120.440 E0.01924
G1 X126.708 Y120.675 E0.01924
G1 X126.111 Y120.819 E0.01924
G1 X125.476 Y120.869 E0.01997
G1 X124.522 Y120.869 E0.02991
G1 X123.887 Y120.819 E0.01997
G1 X123.290 Y120.675 E0.01924
G1 X122.723 Y120.440 E0.01924
G1 X122.228 Y120.137 E0.01821
G1 X121.732 Y119.719 E0.02034
G1 X121.335 Y119.254 E0.01917
G1 X121.014 Y118.731 E0.01924
G1 X120.779 Y118.164 E0.01924
G1 X120.636 Y117.567 E0.01924
G1 X120.588 Y116.952 E0.01935
G1 X120.672 Y115.694 E0.03954
G1 X120.799 Y114.829 E0.02740
G1 X120.989 Y114.069 E0.02458
G1 X121.236 Y113.379 E0.02296
G1 X122.434 Y110.735 E0.09102
G1 X122.934 Y109.510 E0.04149
G1 X123.336 Y108.352 E0.03841
G1 X123.622 Y107.310 E0.03391
G1 X123.814 Y106.286 E0.03265
G1 X123.884 Y105.452 E0.02626
G1 X123.862 Y104.605 E0.02656
G1 X123.750 Y103.793 E0.02569
G1 X123.551 Y102.973 E0.02644
G1 X123.263 Y102.128 E0.02801
G1 X122.878 Y101.223 E0.03084
G1 X121.518 Y98.510 E0.09514
G1 X121.123 Y97.629 E0.03029
G1 X120.825 Y96.818 E0.02708
G1 X120.603 Y95.970 E0.02750
G1 X120.233 Y96.044 F10800.000
G1 F1200
G1 X120.211 Y95.934 E0.00354
G1 X120.263 Y95.279 E0.02059
G1 X120.414 Y94.648 E0.02034
G1 X120.677 Y94.008 E0.02169
G1 X121.040 Y93.420 E0.02167
G1 X121.466 Y92.923 E0.02054
G1 X121.959 Y92.501 E0.02033
G1 X122.579 Y92.122 E0.02281
G1 X123.173 Y91.876 E0.02015
G1 X123.813 Y91.722 E0.02062
G1 X124.507 Y91.666 E0.02185
G1 X125.511 Y91.666 E0.03147
G1 X126.170 Y91.719 E0.02073
G1 X126.800 Y91.869 E0.02031
G1 X127.438 Y92.130 E0.02159
G1 X128.020 Y92.486 E0.02141
G1 X128.521 Y92.913 E0.02064
G1 X128.969 Y93.435 E0.02156
G1 X129.321 Y94.008 E0.02110
G1 X129.578 Y94.630 E0.02110
G1 X129.736 Y95.285 E0.02110
G1 X129.787 Y95.942 E0.02068
G1 X129.533 Y96.933 E0.03208
G1 X129.225 Y97.772 E0.02800
G1 X128.821 Y98.672 E0.03095
G1 X127.462 Y101.381 E0.09502
G1 X127.087 Y102.262 E0.03003
G1 X126.809 Y103.079 E0.02704
G1 X126.619 Y103.863 E0.02531
G1 X126.513 Y104.636 E0.02444
G1 X126.491 Y105.441 E0.02525
G1 X126.558 Y106.235 E0.02500
G1 X126.744 Y107.225 E0.03156
G1 X127.023 Y108.240 E0.03302
G1 X127.417 Y109.376 E0.03771
G1 X127.911 Y110.586 E0.04095
G1 X129.112 Y113.237 E0.09128
G1 X129.371 Y113.959 E0.02404
G1 X129.569 Y114.756 E0.02575
G1 X129.701 Y115.654 E0.02845
G1 X129.788 Y116.954 E0.04088
G1 X129.736 Y117.627 E0.02114
G1 X129.578 Y118.281 E0.02110
G1 X129.321 Y118.903 E0.02110
G1 X128.969 Y119.477 E0.02110
