; generated by PrusaSlicer 2.1.0+ on 2019-09-26 at 19:58:04 UTC

; 

; external perimeters extrusion width = 0.45mm
; perimeters extrusion width = 0.45mm
; infill extrusion width = 0.45mm
; solid infill extrusion width = 0.45mm
; top infill extrusion width = 0.40mm
; support material extrusion width = 0.35mm
; first layer extrusion width = 0.42mm

M73 P0 R44
M201 X9000 Y9000 Z500 E10000 ; sets maximum accelerations, mm/sec^2
M203 X500 Y500 Z12 E120 ; sets maximum feedrates, mm/sec
M204 P2000 R1500 T2000 ; sets acceleration (P, T) and retract acceleration (R), mm/sec^2
M205 X10.00 Y10.00 Z0.20 E2.50 ; sets the jerk limits, mm/sec
M205 S0 T0 ; sets the minimum extruding and travel feed rate, mm/sec
M107
M862.3 P "MK2.5SMMU2S" ; printer model check
M862.1 P0.4 ; nozzle diameter check
M115 U3.8.0 ; tell printer latest fw version
G90 ; use absolute coordinates
M83 ; extruder relative mode
M104 S230 ; set extruder temp
M140 S60 ; set bed temp
Tx
M190 S60 ; wait for bed temp
M109 S230 ; wait for extruder temp
G28 W ; home all without mesh bed level
G80 ; mesh bed leveling

G21 ; set units to millimeters

;go outside print area
G1 Y-3.0 F1000.0
G1 Z0.4 F1000.0
; select extruder
Tc
; purge line
G1 X55.0 F2000.0
G1 Z0.3 F1000.0
G92 E0.0
G1 X240.0 E25.0 F2200.0
M73 P0 R44
G1 Y-2.0 F1000.0
G1 X55.0 E25 F1400.0
G1 Z0.20 F1000.0
G1 X5.0 E4.0 F1000.0
G92 E0.0
G21 ; set units to millimeters
G90 ; use absolute coordinates
M83 ; use relative distances for extrusion
M900 K30 ; Filament gcode
;BEFORE_LAYER_CHANGE
G92 E0.0
;0.2


G1 E-0.80000 F2100.00000
G1 Z0.600 F10800.000
;AFTER_LAYER_CHANGE
;0.2
G1 X111.582 Y92.104
G1 Z0.200
G1 E0.80000 F2100.00000
M204 S1000
G1 F1200
G1 X123.438 Y91.884 E0.37182
G1 X127.077 Y91.884 E0.11410
G1 X137.940 Y92.054 E0.34062
G1 X138.492 Y92.126 E0.01746
G1 X139.093 Y92.354 E0.02017
G1 X139.619 Y92.725 E0.02017
G1 X142.234 Y95.550 E0.12070
G1 X142.530 Y96.204 E0.02251
G1 X142.633 Y96.919 E0.02263
G1 X142.633 Y114.608 E0.55466
G1 X142.541 Y115.245 E0.02017
G1 X142.293 Y115.839 E0.02017
G1 X141.854 Y116.402 E0.02238
G1 X139.167 Y118.873 E0.11445
G1 X138.335 Y119.209 E0.02814
G1 X136.568 Y119.419 E0.05579
G1 X112.713 Y119.434 E0.74797
G1 X112.068 Y119.343 E0.02042
G1 X111.467 Y119.093 E0.02042
G1 X110.950 Y118.702 E0.02029
G1 X108.520 Y116.214 E0.10907
G1 X108.137 Y115.602 E0.02263
G1 X107.940 Y114.908 E0.02263
G1 X107.917 Y96.883 E0.56517
G1 X108.009 Y96.242 E0.02029
G1 X108.257 Y95.648 E0.02017
G1 X110.217 Y92.862 E0.10680
G1 X110.838 Y92.377 E0.02472
G1 X111.525 Y92.124 E0.02296
G1 X111.654 Y92.477 F10800.000
G1 F1200
G1 X127.077 Y92.261 E0.48363
G1 X138.389 Y92.489 E0.35475
G1 X138.917 Y92.688 E0.01771
G1 X139.375 Y93.013 E0.01760
G1 X141.914 Y95.751 E0.11708
G1 X142.168 Y96.312 E0.01930
G1 X142.256 Y96.921 E0.01930
G1 X142.256 Y114.598 E0.55424
G1 X142.176 Y115.149 E0.01749
G1 X141.959 Y115.663 E0.01749
G1 X141.588 Y116.136 E0.01885
G1 X138.962 Y118.557 E0.11198
G1 X138.235 Y118.844 E0.02451
G1 X136.520 Y119.045 E0.05414
G1 X112.719 Y119.056 E0.74627
G1 X112.163 Y118.978 E0.01760
G1 X111.642 Y118.759 E0.01771
G1 X111.211 Y118.429 E0.01703
G1 X108.816 Y115.980 E0.10740
G1 X108.482 Y115.450 E0.01964
G1 X108.312 Y114.851 E0.01953
G1 X108.294 Y96.893 E0.56304
G1 X108.373 Y96.341 E0.01749
G1 X108.591 Y95.824 E0.01760
G1 X110.475 Y93.138 E0.10285
G1 X111.020 Y92.708 E0.02179
G1 X111.597 Y92.497 E0.01926
G1 F8640
G1 X114.888 Y92.447 E-0.76000
G1 E-0.04000 F2100.00000
G1 Z0.800 F10800.000
G1 X108.931 Y95.828
G1 Z0.200
G1 E0.80000 F2100.00000
G1 F1200
G1 X109.436 Y95.336 E0.02210
G1 X109.637 Y95.217 E0.00733
G1 X110.207 Y95.018 E0.01892
G1 X110.236 Y94.166 E0.02672
G1 X110.396 Y93.737 E0.01435
G1 X110.594 Y93.444 E0.01108
G1 X110.915 Y93.124 E0.01422
G1 X111.177 Y92.944 E0.00995
G1 X111.834 Y92.734 E0.02163
G1 X112.993 Y92.734 E0.03634
G1 X113.121 Y92.756 E0.00410
G1 X113.250 Y92.734 E0.00410
G1 X114.501 Y92.734 E0.03923
G1 X114.630 Y92.756 E0.00410
G1 X114.758 Y92.734 E0.00410
G1 X116.009 Y92.734 E0.03923
G1 X116.138 Y92.756 E0.00410
G1 X116.267 Y92.734 E0.00410
G1 X117.518 Y92.734 E0.03923
G1 X117.646 Y92.756 E0.00410
G1 X117.775 Y92.734 E0.00410
G1 X119.026 Y92.734 E0.03923
G1 X119.155 Y92.756 E0.00410
G1 X119.283 Y92.734 E0.00410
G1 X120.534 Y92.734 E0.03923
G1 X120.663 Y92.756 E0.00410
G1 X120.792 Y92.734 E0.00410
G1 X122.043 Y92.734 E0.03923
G1 X122.171 Y92.756 E0.00410
G1 X122.300 Y92.734 E0.00410
G1 X123.512 Y92.734 E0.03800
G1 X123.704 Y92.750 E0.00605
G1 X123.821 Y92.734 E0.00371
G1 X126.729 Y92.734 E0.09117
G1 X126.846 Y92.750 E0.00371
G1 X127.038 Y92.734 E0.00605
G1 X128.250 Y92.734 E0.03800
G1 X128.378 Y92.756 E0.00410
G1 X128.507 Y92.734 E0.00410
G1 X129.758 Y92.734 E0.03923
G1 X129.887 Y92.756 E0.00410
G1 X130.015 Y92.734 E0.00410
G1 X131.266 Y92.734 E0.03923
G1 X131.395 Y92.756 E0.00410
G1 X131.524 Y92.734 E0.00410
G1 X132.775 Y92.734 E0.03923
G1 X132.903 Y92.756 E0.00410
G1 X133.032 Y92.734 E0.00410
G1 X134.283 Y92.734 E0.03923
G1 X134.412 Y92.756 E0.00410
G1 X134.540 Y92.734 E0.00410
G1 X135.791 Y92.734 E0.03923
G1 X135.920 Y92.756 E0.00410
G1 X136.049 Y92.734 E0.00410
G1 X137.300 Y92.734 E0.03923
G1 X137.428 Y92.756 E0.00410
G1 X137.557 Y92.734 E0.00410
G1 X138.140 Y92.734 E0.01830
G1 X138.801 Y92.943 E0.02173
G1 X138.960 Y93.048 E0.00597
G1 X139.385 Y93.448 E0.01830
G1 X139.699 Y94.033 E0.02082
G1 X139.773 Y94.395 E0.01159
G1 X139.773 Y95.044 E0.02034
G1 X140.382 Y95.049 E0.01911
G1 X140.661 Y95.115 E0.00898
G1 X141.109 Y95.333 E0.01562
G1 X141.642 Y95.853 E0.02334
G1 X141.783 Y96.096 E0.00882
G1 X141.920 Y96.479 E0.01274
G1 X141.953 Y114.863 E0.57642
G1 X141.813 Y115.319 E0.01497
G1 X141.659 Y115.559 E0.00892
G1 X141.243 Y115.975 E0.01845
G1 X140.819 Y116.198 E0.01502
G1 X140.531 Y116.259 E0.00922
G1 X139.689 Y116.246 E0.02640
G1 X139.669 Y117.085 E0.02629
G1 X139.473 Y117.623 E0.01794
G1 X139.316 Y117.851 E0.00871
G1 X138.945 Y118.220 E0.01639
G1 X138.665 Y118.399 E0.01042
G1 X138.058 Y118.584 E0.01988
G1 X136.815 Y118.584 E0.03898
G1 X136.684 Y118.565 E0.00416
G1 X135.953 Y118.554 E0.02291
G1 X135.781 Y118.584 E0.00547
G1 X134.540 Y118.584 E0.03891
G1 X134.412 Y118.561 E0.00410
G1 X134.283 Y118.584 E0.00410
G1 X133.032 Y118.584 E0.03923
G1 X132.903 Y118.561 E0.00410
G1 X132.775 Y118.584 E0.00410
G1 X131.524 Y118.584 E0.03923
G1 X131.395 Y118.561 E0.00410
G1 X131.266 Y118.584 E0.00410
G1 X130.015 Y118.584 E0.03923
G1 X129.887 Y118.561 E0.00410
G1 X129.758 Y118.584 E0.00410
G1 X128.507 Y118.584 E0.03923
G1 X128.378 Y118.561 E0.00410
G1 X128.250 Y118.584 E0.00410
G1 X127.038 Y118.584 E0.03800
G1 X126.846 Y118.567 E0.00605
G1 X126.729 Y118.584 E0.00371
G1 X123.821 Y118.584 E0.09117
G1 X123.704 Y118.567 E0.00371
G1 X123.512 Y118.584 E0.00605
G1 X122.300 Y118.584 E0.03800
G1 X122.171 Y118.561 E0.00410
G1 X122.043 Y118.584 E0.00410
G1 X120.792 Y118.584 E0.03923
G1 X120.663 Y118.561 E0.00410
G1 X120.534 Y118.584 E0.00410
G1 X119.283 Y118.584 E0.03923
G1 X119.155 Y118.561 E0.00410
G1 X119.026 Y118.584 E0.00410
G1 X117.775 Y118.584 E0.03923
G1 X117.646 Y118.561 E0.00410
G1 X117.518 Y118.584 E0.00410
G1 X116.267 Y118.584 E0.03923
G1 X116.138 Y118.561 E0.00410
G1 X116.009 Y118.584 E0.00410
G1 X114.758 Y118.584 E0.03923
G1 X114.630 Y118.561 E0.00410
G1 X114.501 Y118.584 E0.00410
G1 X113.260 Y118.584 E0.03891
G1 X113.088 Y118.554 E0.00547
G1 X112.200 Y118.558 E0.02785
G1 X111.995 Y118.506 E0.00663
G1 X111.570 Y118.282 E0.01507
G1 X111.142 Y117.854 E0.01896
G1 X110.903 Y117.385 E0.01650
G1 X110.859 Y117.153 E0.00740
G1 X110.859 Y116.248 E0.02839
G1 X109.937 Y116.251 E0.02890
G1 X109.735 Y116.201 E0.00654
G1 X109.412 Y116.048 E0.01120
G1 X108.841 Y115.496 E0.02489
G1 X108.737 Y115.320 E0.00640
G1 X108.596 Y114.863 E0.01500
G1 X108.596 Y96.672 E0.57037
G1 X108.761 Y96.112 E0.01832
G1 X108.900 Y95.879 E0.00848
G1 X109.221 Y96.065 F10800.000
G1 F1200
G1 X109.652 Y95.645 E0.01889
G1 X109.784 Y95.564 E0.00486
G1 X110.134 Y95.439 E0.01165
G1 X110.578 Y95.415 E0.01392
G1 X110.601 Y94.267 E0.03602
G1 X110.741 Y93.891 E0.01257
G1 X110.873 Y93.699 E0.00730
G1 X111.168 Y93.404 E0.01310
G1 X111.365 Y93.271 E0.00743
G1 X111.863 Y93.111 E0.01642
G1 X112.969 Y93.111 E0.03467
G1 X113.121 Y93.143 E0.00488
G1 X113.274 Y93.111 E0.00488
G1 X114.477 Y93.111 E0.03774
G1 X114.630 Y93.143 E0.00488
G1 X114.782 Y93.111 E0.00488
G1 X115.986 Y93.111 E0.03774
G1 X116.138 Y93.143 E0.00488
G1 X116.290 Y93.111 E0.00488
G1 X117.494 Y93.111 E0.03774
G1 X117.646 Y93.143 E0.00488
G1 X117.799 Y93.111 E0.00488
G1 X119.002 Y93.111 E0.03774
G1 X119.155 Y93.143 E0.00488
G1 X119.307 Y93.111 E0.00488
G1 X120.511 Y93.111 E0.03774
G1 X120.663 Y93.143 E0.00488
G1 X120.815 Y93.111 E0.00488
G1 X122.019 Y93.111 E0.03774
G1 X122.171 Y93.143 E0.00488
G1 X122.324 Y93.111 E0.00488
G1 X123.503 Y93.111 E0.03697
G1 X123.720 Y93.131 E0.00684
G1 X123.839 Y93.111 E0.00378
G1 X126.711 Y93.111 E0.09004
G1 X126.830 Y93.131 E0.00378
G1 X127.047 Y93.111 E0.00684
G1 X128.226 Y93.111 E0.03697
G1 X128.378 Y93.143 E0.00488
G1 X128.531 Y93.111 E0.00488
G1 X129.734 Y93.111 E0.03774
G1 X129.887 Y93.143 E0.00488
G1 X130.039 Y93.111 E0.00488
G1 X131.243 Y93.111 E0.03774
G1 X131.395 Y93.143 E0.00488
G1 X131.547 Y93.111 E0.00488
G1 X132.751 Y93.111 E0.03774
G1 X132.903 Y93.143 E0.00488
G1 X133.056 Y93.111 E0.00488
G1 X134.259 Y93.111 E0.03774
G1 X134.412 Y93.143 E0.00488
G1 X134.564 Y93.111 E0.00488
G1 X135.768 Y93.111 E0.03774
G1 X135.920 Y93.143 E0.00488
G1 X136.072 Y93.111 E0.00488
G1 X137.276 Y93.111 E0.03774
G1 X137.428 Y93.143 E0.00488
G1 X137.581 Y93.111 E0.00488
G1 X138.111 Y93.111 E0.01663
G1 X138.618 Y93.273 E0.01671
G1 X138.715 Y93.336 E0.00361
G1 X139.103 Y93.700 E0.01668
G1 X139.351 Y94.180 E0.01694
G1 X139.396 Y94.412 E0.00742
G1 X139.396 Y95.417 E0.03152
G1 X140.355 Y95.426 E0.03006
G1 X140.550 Y95.476 E0.00633
G1 X140.871 Y95.628 E0.01113
G1 X141.332 Y96.069 E0.02001
G1 X141.435 Y96.242 E0.00629
G1 X141.554 Y96.575 E0.01112
G1 X141.576 Y114.832 E0.57241
G1 X141.463 Y115.176 E0.01136
G1 X141.379 Y115.305 E0.00484
G1 X140.998 Y115.686 E0.01687
G1 X140.674 Y115.850 E0.01141
G1 X140.517 Y115.881 E0.00501
G1 X139.693 Y115.869 E0.02584
G1 X139.312 Y115.925 E0.01208
G1 X139.303 Y116.988 E0.03332
G1 X139.128 Y117.467 E0.01600
G1 X139.021 Y117.616 E0.00575
G1 X138.696 Y117.935 E0.01428
G1 X138.487 Y118.066 E0.00773
G1 X138.030 Y118.207 E0.01500
G1 X136.833 Y118.207 E0.03754
G1 X136.720 Y118.188 E0.00359
G1 X135.918 Y118.176 E0.02514
G1 X135.761 Y118.207 E0.00500
G1 X134.564 Y118.207 E0.03754
G1 X134.412 Y118.174 E0.00488
G1 X134.259 Y118.207 E0.00488
G1 X133.056 Y118.207 E0.03774
G1 X132.903 Y118.174 E0.00488
G1 X132.751 Y118.207 E0.00488
G1 X131.547 Y118.207 E0.03774
G1 X131.395 Y118.174 E0.00488
G1 X131.243 Y118.207 E0.00488
G1 X130.039 Y118.207 E0.03774
G1 X129.887 Y118.174 E0.00488
G1 X129.734 Y118.207 E0.00488
G1 X128.531 Y118.207 E0.03774
G1 X128.378 Y118.174 E0.00488
G1 X128.226 Y118.207 E0.00488
G1 X127.047 Y118.207 E0.03697
G1 X126.830 Y118.187 E0.00684
G1 X126.711 Y118.207 E0.00378
G1 X123.839 Y118.207 E0.09004
G1 X123.720 Y118.187 E0.00378
G1 X123.503 Y118.207 E0.00684
G1 X122.324 Y118.207 E0.03697
G1 X122.171 Y118.174 E0.00488
G1 X122.019 Y118.207 E0.00488
G1 X120.815 Y118.207 E0.03774
G1 X120.663 Y118.174 E0.00488
G1 X120.511 Y118.207 E0.00488
G1 X119.307 Y118.207 E0.03774
G1 X119.155 Y118.174 E0.00488
G1 X119.002 Y118.207 E0.00488
G1 X117.799 Y118.207 E0.03774
G1 X117.646 Y118.174 E0.00488
G1 X117.494 Y118.207 E0.00488
G1 X116.290 Y118.207 E0.03774
G1 X116.138 Y118.174 E0.00488
G1 X115.986 Y118.207 E0.00488
G1 X114.782 Y118.207 E0.03774
G1 X114.630 Y118.174 E0.00488
G1 X114.477 Y118.207 E0.00488
G1 X113.280 Y118.207 E0.03754
G1 X113.124 Y118.177 E0.00499
G1 X112.260 Y118.185 E0.02710
G1 X112.141 Y118.158 E0.00383
G1 X111.814 Y117.993 E0.01148
G1 X111.432 Y117.611 E0.01693
G1 X111.255 Y117.247 E0.01270
G1 X111.236 Y117.139 E0.00345
G1 X111.236 Y115.926 E0.03803
G1 X110.857 Y115.869 E0.01200
G1 X109.997 Y115.878 E0.02697
G1 X109.876 Y115.850 E0.00391
G1 X109.602 Y115.721 E0.00950
G1 X109.149 Y115.277 E0.01988
G1 X109.087 Y115.178 E0.00366
G1 X108.973 Y114.832 E0.01144
G1 X108.973 Y96.702 E0.56845
G1 X109.114 Y96.245 E0.01500
G1 X109.190 Y96.117 E0.00466
G1 X109.464 Y96.387 F10800.000
G1 F1200
G1 X109.527 Y96.286 E0.00371
G1 X109.930 Y95.913 E0.01723
G1 X110.229 Y95.805 E0.00999
G1 X110.953 Y95.791 E0.02270
G1 X110.966 Y94.367 E0.04465
G1 X111.086 Y94.047 E0.01071
G1 X111.150 Y93.955 E0.00352
G1 X111.420 Y93.685 E0.01197
G1 X111.550 Y93.601 E0.00484
G1 X111.894 Y93.488 E0.01136
G1 X112.940 Y93.488 E0.03280
G1 X113.121 Y93.536 E0.00588
G1 X113.303 Y93.488 E0.00588
G1 X114.448 Y93.488 E0.03592
G1 X114.630 Y93.536 E0.00588
G1 X114.811 Y93.488 E0.00588
G1 X115.957 Y93.488 E0.03592
G1 X116.138 Y93.536 E0.00588
G1 X116.319 Y93.488 E0.00588
G1 X117.465 Y93.488 E0.03592
G1 X117.646 Y93.536 E0.00588
G1 X117.828 Y93.488 E0.00588
G1 X118.973 Y93.488 E0.03592
G1 X119.155 Y93.536 E0.00588
G1 X119.336 Y93.488 E0.00588
G1 X120.482 Y93.488 E0.03592
G1 X120.663 Y93.536 E0.00588
G1 X120.844 Y93.488 E0.00588
G1 X121.990 Y93.488 E0.03592
G1 X122.171 Y93.536 E0.00588
G1 X122.353 Y93.488 E0.00588
G1 X123.493 Y93.488 E0.03576
G1 X123.743 Y93.512 E0.00786
G1 X123.861 Y93.488 E0.00379
G1 X125.182 Y93.488 E0.04142
G1 X125.275 Y93.504 E0.00295
G1 X125.367 Y93.488 E0.00295
G1 X126.689 Y93.488 E0.04142
G1 X126.807 Y93.512 E0.00379
G1 X127.057 Y93.488 E0.00786
G1 X128.197 Y93.488 E0.03576
G1 X128.378 Y93.536 E0.00588
G1 X128.560 Y93.488 E0.00588
G1 X129.705 Y93.488 E0.03592
G1 X129.887 Y93.536 E0.00588
G1 X130.068 Y93.488 E0.00588
G1 X131.214 Y93.488 E0.03592
G1 X131.395 Y93.536 E0.00588
G1 X131.576 Y93.488 E0.00588
G1 X132.722 Y93.488 E0.03592
G1 X132.903 Y93.536 E0.00588
G1 X133.085 Y93.488 E0.00588
G1 X134.230 Y93.488 E0.03592
G1 X134.412 Y93.536 E0.00588
G1 X134.593 Y93.488 E0.00588
G1 X135.739 Y93.488 E0.03592
G1 X135.920 Y93.536 E0.00588
G1 X136.101 Y93.488 E0.00588
G1 X137.247 Y93.488 E0.03592
G1 X137.428 Y93.536 E0.00588
G1 X137.610 Y93.488 E0.00588
G1 X138.080 Y93.488 E0.01475
G1 X138.442 Y93.607 E0.01194
G1 X138.819 Y93.950 E0.01599
G1 X139.000 Y94.319 E0.01288
G1 X139.019 Y94.427 E0.00343
G1 X139.019 Y95.794 E0.04288
G1 X140.291 Y95.798 E0.03990
G1 X140.409 Y95.826 E0.00378
G1 X140.682 Y95.955 E0.00946
G1 X141.024 Y96.288 E0.01499
G1 X141.087 Y96.389 E0.00373
G1 X141.188 Y96.672 E0.00942
G1 X141.199 Y114.797 E0.56828
G1 X141.118 Y115.024 E0.00757
G1 X140.757 Y115.394 E0.01622
G1 X140.538 Y115.498 E0.00759
G1 X139.647 Y115.492 E0.02793
G1 X139.509 Y115.523 E0.00444
G1 X138.938 Y115.523 E0.01788
G1 X138.926 Y116.950 E0.04477
G1 X138.806 Y117.270 E0.01071
G1 X138.741 Y117.362 E0.00352
G1 X138.472 Y117.632 E0.01197
G1 X138.342 Y117.717 E0.00484
G1 X137.998 Y117.830 E0.01136
G1 X136.854 Y117.830 E0.03587
G1 X136.763 Y117.811 E0.00292
G1 X135.876 Y117.799 E0.02781
G1 X135.738 Y117.830 E0.00444
G1 X134.593 Y117.830 E0.03589
G1 X134.412 Y117.782 E0.00588
G1 X134.230 Y117.830 E0.00588
G1 X133.085 Y117.830 E0.03592
G1 X132.903 Y117.782 E0.00588
G1 X132.722 Y117.830 E0.00588
G1 X131.576 Y117.830 E0.03592
G1 X131.395 Y117.782 E0.00588
G1 X131.214 Y117.830 E0.00588
G1 X130.068 Y117.830 E0.03592
G1 X129.887 Y117.782 E0.00588
G1 X129.705 Y117.830 E0.00588
G1 X128.560 Y117.830 E0.03592
G1 X128.378 Y117.782 E0.00588
G1 X128.197 Y117.830 E0.00588
G1 X127.057 Y117.830 E0.03576
G1 X126.807 Y117.806 E0.00786
G1 X126.689 Y117.830 E0.00379
G1 X125.367 Y117.830 E0.04142
G1 X125.275 Y117.813 E0.00295
G1 X125.182 Y117.830 E0.00295
G1 X123.861 Y117.830 E0.04142
G1 X123.743 Y117.806 E0.00379
G1 X123.493 Y117.830 E0.00786
G1 X122.353 Y117.830 E0.03576
G1 X122.171 Y117.782 E0.00588
G1 X121.990 Y117.830 E0.00588
G1 X120.844 Y117.830 E0.03592
G1 X120.663 Y117.782 E0.00588
G1 X120.482 Y117.830 E0.00588
G1 X119.336 Y117.830 E0.03592
G1 X119.155 Y117.782 E0.00588
G1 X118.973 Y117.830 E0.00588
G1 X117.828 Y117.830 E0.03592
G1 X117.646 Y117.782 E0.00588
G1 X117.465 Y117.830 E0.00588
G1 X116.319 Y117.830 E0.03592
G1 X116.138 Y117.782 E0.00588
G1 X115.957 Y117.830 E0.00588
