; generated by PrusaSlicer 2.1.1+win64 on 2020-01-13 at 18:30:09 UTC

; 

; external perimeters extrusion width = 0.45mm
; perimeters extrusion width = 0.45mm
; infill extrusion width = 0.45mm
; solid infill extrusion width = 0.45mm
; top infill extrusion width = 0.40mm
; first layer extrusion width = 0.42mm

M73 P0 R156
M201 X9000 Y9000 Z500 E10000 ; sets maximum accelerations, mm/sec^2
M203 X500 Y500 Z12 E120 ; sets maximum feedrates, mm/sec
M204 P2000 R1500 T2000 ; sets acceleration (P, T) and retract acceleration (R), mm/sec^2
M205 X10.00 Y10.00 Z0.20 E2.50 ; sets the jerk limits, mm/sec
M205 S0 T0 ; sets the minimum extruding and travel feed rate, mm/sec
M107
M862.3 P "MK2.5SMMU2S" ; printer model check
M862.1 P0.4 ; nozzle diameter check
M115 U3.8.1 ; tell printer latest fw version
G90 ; use absolute coordinates
M83 ; extruder relative mode
M104 S215 ; set extruder temp
M140 S60 ; set bed temp
Tx
M190 S60 ; wait for bed temp
M109 S215 ; wait for extruder temp
G28 W ; home all without mesh bed level
G80 ; mesh bed leveling

;go outside print area
G1 Y-3.0 F1000.0
G1 Z0.4 F1000.0
; select extruder
Tc
; purge line
G1 X55.0 F2000.0
G1 Z0.3 F1000.0
G92 E0.0
G1 X240.0 E25.0 F2200.0
M73 P0 R156
G1 Y-2.0 F1000.0
G1 X55.0 E25 F1400.0
G1 Z0.20 F1000.0
G1 X5.0 E4.0 F1000.0
G92 E0.0
G21 ; set units to millimeters
G90 ; use absolute coordinates
M83 ; use relative distances for extrusion
M900 K30 ; Filament gcode
;BEFORE_LAYER_CHANGE
G92 E0.0
;0.2


G1 E-0.80000 F2100.00000
G1 Z0.600 F10800.000
;AFTER_LAYER_CHANGE
;0.2
G1 X26.196 Y50.385
G1 Z0.200
G1 E0.80000 F2100.00000
M204 S1000
G1 F1200
G1 X26.733 Y50.221 E0.01760
G1 X138.615 Y31.369 E3.55743
G1 X184.523 Y31.353 E1.43941
G1 X185.302 Y31.498 E0.02484
G1 X185.978 Y31.911 E0.02484
G1 X224.377 Y66.535 E1.62116
G1 X224.782 Y67.032 E0.02010
G1 X225.026 Y67.625 E0.02010
G1 X225.090 Y68.151 E0.01660
G1 X225.088 Y155.408 E2.73590
G1 X222.257 Y176.839 E0.67780
G1 X222.103 Y177.345 E0.01658
G1 X221.830 Y177.802 E0.01669
G1 X221.457 Y178.177 E0.01658
G1 X221.005 Y178.452 E0.01658
G1 X220.102 Y178.647 E0.02897
G1 X144.047 Y178.647 E2.38467
G1 X143.268 Y178.502 E0.02484
G1 X25.929 Y104.565 E4.34855
G1 X25.448 Y104.152 E0.01987
G1 X25.105 Y103.619 E0.01987
G1 X24.910 Y102.722 E0.02878
G1 X24.911 Y52.335 E1.57985
G1 X25.010 Y51.727 E0.01930
G1 X25.272 Y51.174 E0.01919
G1 X25.677 Y50.715 E0.01919
G1 X26.146 Y50.417 E0.01742
G1 F8640
G1 X26.733 Y50.221 E-0.14301
G1 X29.368 Y49.777 E-0.61699
G1 E-0.04000 F2100.00000
G1 Z0.800 F10800.000
G1 X120.873 Y109.931
G1 Z0.200
G1 E0.80000 F2100.00000
G1 F1200
G1 X129.127 Y109.931 E0.25879
G1 X129.128 Y121.775 E0.37136
G1 X128.508 Y123.493 E0.05726
G1 X121.493 Y123.493 E0.21994
G1 X120.873 Y121.775 E0.05726
G1 X120.873 Y109.991 E0.36948
G1 X120.496 Y109.554 F10800.000
G1 F1200
G1 X129.504 Y109.554 E0.28244
G1 X129.505 Y121.841 E0.38525
G1 X128.773 Y123.870 E0.06763
G1 X121.228 Y123.870 E0.23655
G1 X120.496 Y121.841 E0.06763
G1 X120.496 Y109.614 E0.38337
G1 X120.846 Y109.748 F10800.000
G1 F8640
G1 X123.788 Y109.592 E-0.76000
G1 E-0.04000 F2100.00000
G1 Z0.800 F10800.000
G1 X129.014 Y110.808
G1 Z0.200
G1 E0.80000 F2100.00000
G1 F1200
G1 X128.420 Y110.214 E0.02642
G1 X127.885 Y110.214 E0.01680
G1 X128.844 Y111.173 E0.04264
G1 X128.844 Y111.708 E0.01680
G1 X127.350 Y110.214 E0.06640
G1 X126.816 Y110.214 E0.01680
G1 X128.844 Y112.242 E0.09016
G1 X128.844 Y112.777 E0.01680
G1 X126.281 Y110.214 E0.11392
G1 X125.747 Y110.214 E0.01680
G1 X128.844 Y113.312 E0.13768
G1 X128.844 Y113.846 E0.01680
G1 X125.212 Y110.214 E0.16144
G1 X124.678 Y110.214 E0.01680
G1 X128.844 Y114.381 E0.18519
G1 X128.844 Y114.915 E0.01680
G1 X124.143 Y110.214 E0.20895
G1 X123.609 Y110.214 E0.01680
G1 X128.845 Y115.450 E0.23271
G1 X128.845 Y115.984 E0.01680
G1 X123.074 Y110.214 E0.25647
G1 X122.540 Y110.214 E0.01680
G1 X128.845 Y116.519 E0.28023
G1 X128.845 Y117.053 E0.01680
G1 X122.005 Y110.214 E0.30399
G1 X121.471 Y110.214 E0.01680
G1 X128.845 Y117.588 E0.32775
G1 X128.845 Y118.123 E0.01680
G1 X121.156 Y110.434 E0.34173
G1 X121.156 Y110.969 E0.01680
G1 X128.845 Y118.657 E0.34173
G1 X128.845 Y119.192 E0.01680
G1 X121.156 Y111.503 E0.34173
G1 X121.156 Y112.038 E0.01680
G1 X128.845 Y119.726 E0.34173
G1 X128.845 Y120.261 E0.01680
G1 X121.156 Y112.572 E0.34173
G1 X121.156 Y113.107 E0.01680
G1 X128.845 Y120.795 E0.34173
G1 X128.845 Y121.330 E0.01680
G1 X121.156 Y113.641 E0.34173
G1 X121.156 Y114.176 E0.01680
G1 X128.808 Y121.828 E0.34010
G1 X128.666 Y122.221 E0.01312
G1 X121.156 Y114.710 E0.33380
G1 X121.156 Y115.245 E0.01680
G1 X128.525 Y122.613 E0.32750
G1 X128.383 Y123.006 E0.01312
G1 X121.156 Y115.780 E0.32120
G1 X121.156 Y116.314 E0.01680
G1 X128.052 Y123.210 E0.30652
G1 X127.518 Y123.210 E0.01680
G1 X121.156 Y116.849 E0.28276
G1 X121.156 Y117.383 E0.01680
G1 X126.983 Y123.210 E0.25900
G1 X126.449 Y123.210 E0.01680
G1 X121.156 Y117.918 E0.23524
G1 X121.156 Y118.452 E0.01680
G1 X125.914 Y123.210 E0.21149
M73 P0 R155
G1 X125.380 Y123.210 E0.01680
G1 X121.156 Y118.987 E0.18773
G1 X121.156 Y119.521 E0.01680
G1 X124.845 Y123.210 E0.16397
G1 X124.311 Y123.210 E0.01680
G1 X121.156 Y120.056 E0.14021
G1 X121.156 Y120.590 E0.01680
G1 X123.776 Y123.210 E0.11645
G1 X123.242 Y123.210 E0.01680
G1 X121.156 Y121.125 E0.09269
G1 X121.156 Y121.659 E0.01680
G1 X122.707 Y123.210 E0.06893
G1 X122.173 Y123.210 E0.01680
G1 X121.138 Y122.176 E0.04598
G1 F8640
G1 X122.173 Y123.210 E-0.33778
G1 X122.707 Y123.210 E-0.12343
G1 X121.792 Y122.295 E-0.29880
G1 E-0.04000 F2100.00000
G1 Z0.800 F10800.000
G1 X113.079 Y123.493
G1 Z0.200
G1 E0.80000 F2100.00000
G1 F1200
G1 X106.064 Y123.493 E0.21994
G1 X105.444 Y121.775 E0.05726
G1 X105.444 Y109.931 E0.37136
G1 X113.698 Y109.931 E0.25879
G1 X113.698 Y121.775 E0.37136
G1 X113.099 Y123.437 E0.05538
G1 X113.343 Y123.870 F10800.000
G1 F1200
G1 X105.799 Y123.870 E0.23655
G1 X105.067 Y121.841 E0.06763
G1 X105.067 Y109.554 E0.38525
G1 X114.075 Y109.554 E0.28244
G1 X114.075 Y121.841 E0.38525
G1 X113.364 Y123.814 E0.06575
G1 X113.000 Y123.664 F10800.000
G1 F8640
G1 X110.072 Y123.838 E-0.76000
G1 E-0.04000 F2100.00000
G1 Z0.800 F10800.000
G1 X105.709 Y122.176
G1 Z0.200
G1 E0.80000 F2100.00000
G1 F1200
G1 X106.743 Y123.210 E0.04598
G1 X107.278 Y123.210 E0.01680
G1 X105.727 Y121.659 E0.06893
G1 X105.727 Y121.125 E0.01680
G1 X107.812 Y123.210 E0.09269
G1 X108.347 Y123.210 E0.01680
G1 X105.727 Y120.590 E0.11645
G1 X105.727 Y120.056 E0.01680
G1 X108.881 Y123.210 E0.14021
G1 X109.416 Y123.210 E0.01680
G1 X105.727 Y119.521 E0.16397
G1 X105.727 Y118.987 E0.01680
G1 X109.951 Y123.210 E0.18773
G1 X110.485 Y123.210 E0.01680
G1 X105.727 Y118.452 E0.21149
G1 X105.727 Y117.918 E0.01680
G1 X111.020 Y123.210 E0.23524
G1 X111.554 Y123.210 E0.01680
G1 X105.727 Y117.383 E0.25900
G1 X105.727 Y116.849 E0.01680
G1 X112.089 Y123.210 E0.28276
G1 X112.623 Y123.210 E0.01680
G1 X105.727 Y116.314 E0.30652
G1 X105.727 Y115.780 E0.01680
G1 X112.954 Y123.006 E0.32120
G1 X113.095 Y122.613 E0.01312
G1 X105.727 Y115.245 E0.32750
G1 X105.727 Y114.710 E0.01680
G1 X113.237 Y122.221 E0.33380
G1 X113.379 Y121.828 E0.01312
G1 X105.727 Y114.176 E0.34010
G1 X105.727 Y113.641 E0.01680
G1 X113.416 Y121.330 E0.34173
G1 X113.415 Y120.795 E0.01680
G1 X105.727 Y113.107 E0.34173
G1 X105.727 Y112.572 E0.01680
G1 X113.415 Y120.261 E0.34173
G1 X113.415 Y119.726 E0.01680
G1 X105.727 Y112.038 E0.34173
G1 X105.727 Y111.503 E0.01680
G1 X113.415 Y119.192 E0.34173
G1 X113.415 Y118.657 E0.01680
G1 X105.727 Y110.969 E0.34173
G1 X105.727 Y110.434 E0.01680
G1 X113.415 Y118.123 E0.34173
G1 X113.415 Y117.588 E0.01680
G1 X106.041 Y110.214 E0.32775
G1 X106.576 Y110.214 E0.01680
G1 X113.415 Y117.053 E0.30399
G1 X113.415 Y116.519 E0.01680
G1 X107.111 Y110.214 E0.28023
G1 X107.645 Y110.214 E0.01680
G1 X113.415 Y115.984 E0.25647
G1 X113.415 Y115.450 E0.01680
G1 X108.180 Y110.214 E0.23271
G1 X108.714 Y110.214 E0.01680
G1 X113.415 Y114.915 E0.20895
G1 X113.415 Y114.381 E0.01680
G1 X109.249 Y110.214 E0.18519
G1 X109.783 Y110.214 E0.01680
G1 X113.415 Y113.846 E0.16144
G1 X113.415 Y113.312 E0.01680
G1 X110.318 Y110.214 E0.13768
G1 X110.852 Y110.214 E0.01680
G1 X113.415 Y112.777 E0.11392
G1 X113.415 Y112.242 E0.01680
G1 X111.387 Y110.214 E0.09016
G1 X111.921 Y110.214 E0.01680
G1 X113.415 Y111.708 E0.06640
G1 X113.415 Y111.173 E0.01680
G1 X112.456 Y110.214 E0.04264
G1 X112.990 Y110.214 E0.01680
G1 X113.585 Y110.808 E0.02642
G1 F8640
G1 X112.990 Y110.214 E-0.19413
G1 X112.456 Y110.214 E-0.12342
G1 X113.415 Y111.173 E-0.31327
G1 X113.415 Y111.708 E-0.12343
G1 X113.398 Y111.690 E-0.00574
G1 E-0.04000 F2100.00000
G1 Z0.800 F10800.000
G1 X145.744 Y125.724
G1 Z0.200
G1 E0.80000 F2100.00000
G1 F1200
G1 X165.655 Y125.724 E0.62431
G1 X165.655 Y163.963 E1.19898
G1 X145.744 Y163.963 E0.62431
G1 X145.744 Y125.784 E1.19710
G1 X146.121 Y126.101 F10800.000
G1 F1200
G1 X165.278 Y126.101 E0.60066
G1 X165.278 Y163.586 E1.17533
G1 X146.121 Y163.586 E0.60066
G1 X146.121 Y126.161 E1.17345
G1 X146.058 Y125.706 F10800.000
G1 F8640
G1 X149.412 Y126.151 E-0.76000
G1 E-0.04000 F2100.00000
G1 Z0.800 F10800.000
G1 X169.187 Y125.724
G1 Z0.200
G1 E0.80000 F2100.00000
G1 F1200
G1 X192.337 Y125.724 E0.72586
G1 X192.337 Y163.963 E1.19898
G1 X169.187 Y163.963 E0.72586
G1 X169.187 Y125.784 E1.19710
G1 X169.564 Y126.101 F10800.000
G1 F1200
G1 X191.960 Y126.101 E0.70222
G1 X191.960 Y163.586 E1.17533
G1 X169.564 Y163.586 E0.70222
G1 X169.564 Y126.161 E1.17345
G1 X169.493 Y125.707 F10800.000
G1 F8640
G1 X172.856 Y126.152 E-0.76000
G1 E-0.04000 F2100.00000
G1 Z0.800 F10800.000
G1 X195.507 Y125.724
G1 Z0.200
G1 E0.80000 F2100.00000
G1 F1200
G1 X215.639 Y125.724 E0.63124
G1 X215.639 Y163.963 E1.19898
G1 X195.507 Y163.963 E0.63124
G1 X195.507 Y125.784 E1.19710
G1 X195.884 Y126.101 F10800.000
G1 F1200
G1 X215.262 Y126.101 E0.60760
G1 X215.262 Y163.586 E1.17533
G1 X195.884 Y163.586 E0.60760
G1 X195.884 Y126.161 E1.17345
G1 X195.820 Y125.706 F10800.000
G1 F8640
G1 X199.175 Y126.151 E-0.76000
G1 E-0.04000 F2100.00000
G1 Z0.800 F10800.000
G1 X165.655 Y96.358
G1 Z0.200
G1 E0.80000 F2100.00000
G1 F1200
G1 X145.744 Y96.358 E0.62431
M73 P1 R154
G1 X145.744 Y57.476 E1.21912
G1 X165.655 Y57.476 E0.62431
G1 X165.655 Y96.298 E1.21724
G1 X165.278 Y95.981 F10800.000
G1 F1200
G1 X146.121 Y95.981 E0.60066
G1 X146.121 Y57.853 E1.19547
G1 X165.278 Y57.853 E0.60066
G1 X165.278 Y95.921 E1.19359
G1 X165.340 Y96.376 F10800.000
G1 F8640
G1 X161.987 Y95.931 E-0.76000
G1 E-0.04000 F2100.00000
G1 Z0.800 F10800.000
G1 X169.187 Y57.476
G1 Z0.200
G1 E0.80000 F2100.00000
G1 F1200
G1 X169.187 Y96.358 E1.21912
G1 X192.337 Y96.358 E0.72586
G1 X192.337 Y68.738 E0.86602
G1 X195.507 Y68.738 E0.09936
G1 X195.507 Y96.358 E0.86602
G1 X215.639 Y96.358 E0.63124
G1 X215.639 Y68.738 E0.86602
G1 X222.314 Y68.738 E0.20929
G1 X222.314 Y73.410 E0.14649
G1 X219.515 Y73.410 E0.08776
G1 X219.515 Y81.987 E0.26894
G1 X222.314 Y81.987 E0.08776
G1 X222.314 Y86.837 E0.15207
G1 X219.515 Y86.837 E0.08776
G1 X219.515 Y95.207 E0.26243
G1 X222.314 Y95.207 E0.08776
G1 X222.314 Y100.467 E0.16493
G1 X219.515 Y100.467 E0.08776
G1 X219.515 Y108.899 E0.26438
G1 X222.314 Y108.899 E0.08776
G1 X222.314 Y113.821 E0.15434
G1 X219.515 Y113.821 E0.08776
G1 X219.515 Y122.108 E0.25983
G1 X222.314 Y122.108 E0.08776
G1 X222.314 Y127.461 E0.16785
G1 X219.515 Y127.461 E0.08776
G1 X219.515 Y135.730 E0.25926
G1 X222.314 Y135.730 E0.08776
G1 X222.314 Y140.999 E0.16520
G1 X219.515 Y140.999 E0.08776
G1 X219.515 Y149.316 E0.26079
G1 X222.314 Y149.316 E0.08776
G1 X222.314 Y154.741 E0.17008
G1 X219.515 Y154.741 E0.08776
G1 X219.515 Y175.871 E0.66253
G1 X144.637 Y175.871 E2.34774
G1 X144.637 Y154.649 E0.66542
G1 X141.869 Y154.649 E0.08681
G1 X141.869 Y149.123 E0.17326
G1 X144.637 Y149.123 E0.08681
G1 X144.637 Y140.926 E0.25699
G1 X141.869 Y140.926 E0.08681
G1 X141.869 Y135.585 E0.16747
G1 X144.637 Y135.585 E0.08681
G1 X144.637 Y127.172 E0.26380
G1 X141.869 Y127.172 E0.08681
G1 X141.869 Y122.108 E0.15877
G1 X144.637 Y122.108 E0.08681
G1 X144.637 Y113.821 E0.25983
G1 X141.869 Y113.821 E0.08681
G1 X141.869 Y108.899 E0.15434
G1 X144.637 Y108.899 E0.08681
G1 X144.637 Y100.467 E0.26438
G1 X141.869 Y100.467 E0.08681
G1 X141.869 Y95.140 E0.16702
G1 X144.637 Y95.140 E0.08681
G1 X144.637 Y87.017 E0.25471
G1 X141.869 Y87.017 E0.08681
G1 X141.869 Y81.469 E0.17394
G1 X144.637 Y81.469 E0.08681
G1 X144.637 Y73.212 E0.25890
G1 X141.869 Y73.212 E0.08681
G1 X141.869 Y67.787 E0.17009
G1 X144.637 Y67.787 E0.08681
G1 X144.637 Y61.827 E0.18688
G1 X139.464 Y61.827 E0.16220
G1 X139.464 Y34.129 E0.86845
G1 X183.932 Y34.129 E1.39425
G1 X183.932 Y57.476 E0.73203
G1 X169.247 Y57.476 E0.46043
G1 X169.564 Y57.853 F10800.000
G1 F1200
G1 X169.564 Y95.981 E1.19547
G1 X191.960 Y95.981 E0.70222
G1 X191.960 Y68.361 E0.86602
G1 X195.884 Y68.361 E0.12301
G1 X195.884 Y95.981 E0.86602
G1 X215.262 Y95.981 E0.60760
G1 X215.262 Y68.361 E0.86602
G1 X222.691 Y68.361 E0.23293
G1 X222.691 Y73.787 E0.17013
G1 X219.892 Y73.787 E0.08776
G1 X219.892 Y81.610 E0.24529
G1 X222.691 Y81.610 E0.08776
G1 X222.691 Y87.214 E0.17572
G1 X219.892 Y87.214 E0.08776
G1 X219.892 Y94.830 E0.23878
G1 X222.691 Y94.830 E0.08776
G1 X222.691 Y100.844 E0.18857
G1 X219.892 Y100.844 E0.08776
G1 X219.892 Y108.522 E0.24073
G1 X222.691 Y108.522 E0.08776
G1 X222.691 Y114.198 E0.17798
G1 X219.892 Y114.198 E0.08776
G1 X219.892 Y121.731 E0.23618
G1 X222.691 Y121.731 E0.08776
G1 X222.691 Y127.838 E0.19150
G1 X219.892 Y127.838 E0.08776
G1 X219.892 Y135.353 E0.23561
G1 X222.691 Y135.353 E0.08776
G1 X222.691 Y141.376 E0.18885
G1 X219.892 Y141.376 E0.08776
G1 X219.892 Y148.939 E0.23714
G1 X222.691 Y148.939 E0.08776
G1 X222.691 Y155.118 E0.19372
G1 X219.892 Y155.118 E0.08776
G1 X219.892 Y176.248 E0.66253
M73 P2 R153
G1 X144.260 Y176.248 E2.37138
G1 X144.260 Y155.026 E0.66542
G1 X141.492 Y155.026 E0.08681
G1 X141.492 Y148.746 E0.19690
G1 X144.260 Y148.746 E0.08681
G1 X144.260 Y141.304 E0.23334
G1 X141.492 Y141.304 E0.08681
G1 X141.492 Y135.208 E0.19112
G1 X144.260 Y135.208 E0.08681
G1 X144.260 Y127.549 E0.24015
G1 X141.492 Y127.549 E0.08681
G1 X141.492 Y121.731 E0.18242
G1 X144.260 Y121.731 E0.08681
G1 X144.260 Y114.198 E0.23618
G1 X141.492 Y114.198 E0.08681
G1 X141.492 Y108.522 E0.17798
G1 X144.260 Y108.522 E0.08681
G1 X144.260 Y100.844 E0.24073
G1 X141.492 Y100.844 E0.08681
G1 X141.492 Y94.763 E0.19066
G1 X144.260 Y94.763 E0.08681
G1 X144.260 Y87.394 E0.23106
G1 X141.492 Y87.394 E0.08681
G1 X141.492 Y81.092 E0.19759
G1 X144.260 Y81.092 E0.08681
G1 X144.260 Y73.589 E0.23526
G1 X141.492 Y73.589 E0.08681
G1 X141.492 Y67.410 E0.19373
G1 X144.260 Y67.410 E0.08681
G1 X144.260 Y62.204 E0.16323
G1 X139.087 Y62.204 E0.16220
G1 X139.087 Y33.752 E0.89210
G1 X184.309 Y33.752 E1.41790
G1 X184.309 Y57.853 E0.75568
G1 X169.624 Y57.853 E0.46043
G1 X169.187 Y57.987 F10800.000
G1 F8640
G1 X169.619 Y61.145 E-0.76000
G1 E-0.04000 F2100.00000
G1 Z0.800 F10800.000
G1 X165.578 Y57.363
G1 Z0.200
G1 E0.80000 F2100.00000
G1 F1200
G1 X142.627 Y34.412 E1.02021
G1 X142.092 Y34.412 E0.01680
G1 X164.874 Y57.193 E1.01267
G1 X164.339 Y57.193 E0.01680
G1 X141.558 Y34.412 E1.01267
G1 X141.023 Y34.412 E0.01680
G1 X163.804 Y57.193 E1.01267
G1 X163.270 Y57.193 E0.01680
G1 X140.488 Y34.412 E1.01267
G1 X139.954 Y34.412 E0.01680
G1 X162.735 Y57.193 E1.01267
G1 X162.201 Y57.193 E0.01680
G1 X139.747 Y34.740 E0.99809
G1 X139.747 Y35.274 E0.01680
G1 X161.666 Y57.193 E0.97433
G1 X161.132 Y57.193 E0.01680
G1 X139.747 Y35.809 E0.95057
G1 X139.747 Y36.343 E0.01680
G1 X160.597 Y57.193 E0.92680
G1 X160.062 Y57.193 E0.01680
G1 X139.747 Y36.878 E0.90304
G1 X139.747 Y37.413 E0.01680
G1 X159.528 Y57.193 E0.87928
G1 X158.993 Y57.193 E0.01680
G1 X139.747 Y37.947 E0.85551
G1 X139.747 Y38.482 E0.01680
G1 X158.459 Y57.193 E0.83175
G1 X157.924 Y57.193 E0.01680
G1 X139.747 Y39.016 E0.80799
G1 X139.747 Y39.551 E0.01680
G1 X157.389 Y57.193 E0.78422
G1 X156.855 Y57.193 E0.01680
G1 X139.747 Y40.085 E0.76046
G1 X139.747 Y40.620 E0.01680
G1 X156.320 Y57.193 E0.73670
G1 X155.786 Y57.193 E0.01680
G1 X139.747 Y41.155 E0.71293
G1 X139.747 Y41.689 E0.01680
G1 X155.251 Y57.193 E0.68917
G1 X154.716 Y57.193 E0.01680
