; generated by PrusaSlicer 2.2.0+win64 on 2020-11-03 at 17:51:52 UTC

; 

; external perimeters extrusion width = 0.60mm
; perimeters extrusion width = 0.43mm
; infill extrusion width = 0.45mm
; solid infill extrusion width = 0.70mm
; top infill extrusion width = 0.43mm
; first layer extrusion width = 0.42mm

M73 P0 R9
M201 X9000 Y9000 Z500 E10000 ; sets maximum accelerations, mm/sec^2
M203 X500 Y500 Z12 E120 ; sets maximum feedrates, mm/sec
M204 P2000 R1500 T2000 ; sets acceleration (P, T) and retract acceleration (R), mm/sec^2
M205 X10.00 Y10.00 Z0.20 E2.50 ; sets the jerk limits, mm/sec
M205 S0 T0 ; sets the minimum extruding and travel feed rate, mm/sec
M107
M862.3 P "MK2.5SMMU2S" ; printer model check
M862.1 P0.4 ; nozzle diameter check
M115 U3.8.0 ; tell printer latest fw version
G90 ; use absolute coordinates
M83 ; extruder relative mode
M104 S215 ; set extruder temp
M140 S60 ; set bed temp
Tx
M190 S60 ; wait for bed temp
M109 S215 ; wait for extruder temp
G28 W ; home all without mesh bed level
G80 ; mesh bed leveling

G21 ; set units to millimeters

;go outside print area
G1 Y-3.0 F1000.0
G1 Z0.4 F1000.0
; select extruder
Tc
; purge line
G1 X55.0 F2000.0
G1 Z0.3 F1000.0
G92 E0.0
G1 X240.0 E25.0 F2200.0
M73 P1 R9
G1 Y-2.0 F1000.0
G1 X55.0 E25 F1400.0
G1 Z0.20 F1000.0
G1 X5.0 E4.0 F1000.0
G92 E0.0
G21 ; set units to millimeters
G90 ; use absolute coordinates
M83 ; use relative distances for extrusion
M900 K0.06 ; Filament gcode LA 1.5
M900 K30 ; Filament gcode LA 1.0
;BEFORE_LAYER_CHANGE
G92 E0.0
;0.2


G1 E-0.80000 F2100.00000
G1 Z0.600 F10800.000
;AFTER_LAYER_CHANGE
;0.2
G1 X111.261 Y112.572
G1 Z0.200
G1 E0.80000 F2100.00000
M204 S1000
G1 F1200.000
G1 X111.694 Y111.917 E0.02460
G1 X131.965 Y91.652 E0.89873
G1 X132.607 Y91.244 E0.02383
G1 X133.335 Y91.027 E0.02383
G1 X136.254 Y90.996 E0.09152
G1 X137.259 Y91.187 E0.03208
G1 X138.125 Y91.733 E0.03208
G1 X138.730 Y92.552 E0.03195
G1 X138.996 Y93.540 E0.03208
G1 X139.003 Y116.328 E0.71448
G1 X138.809 Y117.267 E0.03006
G1 X138.306 Y118.082 E0.03006
G1 X137.882 Y118.468 E0.01796
G1 X137.384 Y118.760 E0.01809
G1 X136.840 Y118.940 E0.01796
G1 X136.271 Y119.004 E0.01796
G1 X113.672 Y119.003 E0.70857
G1 X112.733 Y118.810 E0.03006
G1 X111.918 Y118.306 E0.03006
G1 X111.542 Y117.896 E0.01745
G1 X111.258 Y117.422 E0.01733
G1 X111.073 Y116.896 E0.01745
G1 X110.998 Y116.345 E0.01745
G1 X111.030 Y113.321 E0.09481
G1 X111.243 Y112.629 E0.02272
G1 E-0.80000 F2100.00000
G1 Z0.800 F10800.000
G1 X111.591 Y117.244
G1 Z0.200
G1 E0.80000 F2100.00000
G1 F1200.000
G1 X111.374 Y116.320 E0.02977
G1 X111.398 Y113.405 E0.09140
G1 X111.600 Y112.736 E0.02190
G1 X111.988 Y112.155 E0.02190
G1 X132.204 Y91.945 E0.89628
G1 X132.774 Y91.583 E0.02119
G1 X133.419 Y91.396 E0.02107
G1 X136.254 Y91.373 E0.08887
G1 X137.127 Y91.541 E0.02790
G1 X137.876 Y92.016 E0.02778
G1 X138.399 Y92.735 E0.02790
G1 X138.622 Y93.593 E0.02778
G1 X138.626 Y116.311 E0.71231
G1 X138.458 Y117.131 E0.02626
G1 X138.012 Y117.845 E0.02637
G1 X137.648 Y118.173 E0.01538
G1 X137.223 Y118.419 E0.01538
G1 X136.757 Y118.572 E0.01538
G1 X136.266 Y118.627 E0.01550
G1 X113.689 Y118.626 E0.70788
G1 X112.869 Y118.458 E0.02626
G1 X112.155 Y118.013 E0.02637
G1 X111.626 Y117.292 E0.02801
G1 E-0.80000 F2100.00000
G1 Z0.800 F10800.000
G1 X114.537 Y115.463
G1 Z0.200
G1 E0.80000 F2100.00000
G1 F1200.000
G1 X114.537 Y114.537 E0.02903
G1 X134.537 Y114.537 E0.62709
G1 X134.537 Y94.537 E0.62708
G1 X135.463 Y94.537 E0.02902
G1 X135.463 Y115.463 E0.65611
G1 X114.597 Y115.463 E0.65422
G1 E-0.80000 F2100.00000
G1 Z0.800 F10800.000
G1 X134.160 Y114.160
G1 Z0.200
G1 E0.80000 F2100.00000
G1 F1200.000
G1 X134.160 Y94.160 E0.62708
G1 X135.840 Y94.160 E0.05266
G1 X135.840 Y115.840 E0.67976
G1 X114.160 Y115.840 E0.67975
G1 X114.160 Y114.160 E0.05268
G1 X134.100 Y114.160 E0.62521
G1 X134.560 Y114.149 F10800.000
G1 E-0.80000 F2100.00000
G1 Z0.800 F10800.000
G1 X114.721 Y114.650
G1 Z0.200
G1 E0.80000 F2100.00000
G1 F1200.000
G1 X115.251 Y115.180 E0.02373
G1 X115.790 Y115.180 E0.01706
G1 X115.429 Y114.820 E0.01613
G1 X115.968 Y114.820 E0.01706
G1 X116.328 Y115.180 E0.01613
G1 X116.867 Y115.180 E0.01706
G1 X116.507 Y114.820 E0.01613
G1 X117.045 Y114.820 E0.01706
G1 X117.405 Y115.180 E0.01613
G1 X117.944 Y115.180 E0.01706
G1 X117.584 Y114.820 E0.01613
G1 X118.122 Y114.820 E0.01706
G1 X118.483 Y115.180 E0.01613
G1 X119.021 Y115.180 E0.01706
G1 X118.661 Y114.820 E0.01613
G1 X119.200 Y114.820 E0.01706
G1 X119.560 Y115.180 E0.01613
G1 X120.099 Y115.180 E0.01706
G1 X119.738 Y114.820 E0.01613
G1 X120.277 Y114.820 E0.01706
G1 X120.637 Y115.180 E0.01613
G1 X121.176 Y115.180 E0.01706
G1 X120.816 Y114.820 E0.01613
G1 X121.354 Y114.820 E0.01706
G1 X121.714 Y115.180 E0.01613
G1 X122.253 Y115.180 E0.01706
G1 X121.893 Y114.820 E0.01613
G1 X122.431 Y114.820 E0.01706
G1 X122.792 Y115.180 E0.01613
G1 X123.330 Y115.180 E0.01706
G1 X122.970 Y114.820 E0.01613
G1 X123.509 Y114.820 E0.01706
G1 X123.869 Y115.180 E0.01613
G1 X124.408 Y115.180 E0.01706
G1 X124.047 Y114.820 E0.01613
G1 X124.586 Y114.820 E0.01706
G1 X124.946 Y115.180 E0.01613
G1 X125.485 Y115.180 E0.01706
G1 X125.125 Y114.820 E0.01613
G1 X125.663 Y114.820 E0.01706
G1 X126.023 Y115.180 E0.01613
G1 X126.562 Y115.180 E0.01706
G1 X126.202 Y114.820 E0.01613
G1 X126.740 Y114.820 E0.01706
G1 X127.101 Y115.180 E0.01613
G1 X127.639 Y115.180 E0.01706
G1 X127.279 Y114.820 E0.01613
G1 X127.818 Y114.820 E0.01706
G1 X128.178 Y115.180 E0.01613
G1 X128.717 Y115.180 E0.01706
G1 X128.356 Y114.820 E0.01613
G1 X128.895 Y114.820 E0.01706
G1 X129.255 Y115.180 E0.01613
G1 X129.794 Y115.180 E0.01706
G1 X129.434 Y114.820 E0.01613
G1 X129.972 Y114.820 E0.01706
G1 X130.332 Y115.180 E0.01613
G1 X130.871 Y115.180 E0.01706
G1 X130.511 Y114.820 E0.01613
G1 X131.049 Y114.820 E0.01706
G1 X131.410 Y115.180 E0.01613
G1 X131.948 Y115.180 E0.01706
G1 X131.588 Y114.820 E0.01613
G1 X132.127 Y114.820 E0.01706
G1 X132.487 Y115.180 E0.01613
G1 X133.026 Y115.180 E0.01706
G1 X132.665 Y114.820 E0.01613
G1 X133.204 Y114.820 E0.01706
G1 X133.564 Y115.180 E0.01613
G1 X134.103 Y115.180 E0.01706
G1 X133.743 Y114.820 E0.01613
G1 X134.281 Y114.820 E0.01706
G1 X134.641 Y115.180 E0.01613
G1 X135.180 Y115.180 E0.01706
G1 X134.820 Y114.820 E0.01613
G1 X134.820 Y114.282 E0.01705
G1 X135.180 Y114.641 E0.01611
G1 X135.180 Y114.103 E0.01706
G1 X134.820 Y113.743 E0.01611
G1 X134.820 Y113.204 E0.01706
G1 X135.180 Y113.564 E0.01611
G1 X135.180 Y113.026 E0.01706
G1 X134.820 Y112.666 E0.01611
G1 X134.820 Y112.127 E0.01706
G1 X135.180 Y112.487 E0.01611
G1 X135.180 Y111.948 E0.01706
G1 X134.820 Y111.588 E0.01611
G1 X134.820 Y111.050 E0.01706
G1 X135.180 Y111.410 E0.01611
G1 X135.180 Y110.871 E0.01706
G1 X134.820 Y110.511 E0.01611
G1 X134.820 Y109.973 E0.01706
G1 X135.180 Y110.332 E0.01611
G1 X135.180 Y109.794 E0.01706
G1 X134.820 Y109.434 E0.01611
G1 X134.820 Y108.895 E0.01706
G1 X135.180 Y109.255 E0.01611
G1 X135.180 Y108.717 E0.01706
G1 X134.820 Y108.357 E0.01611
G1 X134.820 Y107.818 E0.01706
G1 X135.180 Y108.178 E0.01611
G1 X135.180 Y107.639 E0.01706
G1 X134.820 Y107.279 E0.01611
G1 X134.820 Y106.741 E0.01706
G1 X135.180 Y107.101 E0.01611
G1 X135.180 Y106.562 E0.01706
G1 X134.820 Y106.202 E0.01611
G1 X134.820 Y105.664 E0.01706
G1 X135.180 Y106.023 E0.01611
G1 X135.180 Y105.485 E0.01706
G1 X134.820 Y105.125 E0.01611
G1 X134.820 Y104.586 E0.01706
G1 X135.180 Y104.946 E0.01611
G1 X135.180 Y104.407 E0.01706
G1 X134.820 Y104.048 E0.01611
G1 X134.820 Y103.509 E0.01706
G1 X135.180 Y103.869 E0.01611
G1 X135.180 Y103.330 E0.01706
G1 X134.820 Y102.970 E0.01611
G1 X134.820 Y102.432 E0.01706
G1 X135.180 Y102.792 E0.01611
G1 X135.180 Y102.253 E0.01706
G1 X134.820 Y101.893 E0.01611
G1 X134.820 Y101.355 E0.01706
G1 X135.180 Y101.714 E0.01611
G1 X135.180 Y101.176 E0.01706
G1 X134.820 Y100.816 E0.01611
G1 X134.820 Y100.277 E0.01706
G1 X135.180 Y100.637 E0.01611
G1 X135.180 Y100.098 E0.01706
G1 X134.820 Y99.739 E0.01611
G1 X134.820 Y99.200 E0.01706
G1 X135.180 Y99.560 E0.01611
G1 X135.180 Y99.021 E0.01706
G1 X134.820 Y98.661 E0.01611
G1 X134.820 Y98.123 E0.01706
G1 X135.180 Y98.483 E0.01611
G1 X135.180 Y97.944 E0.01706
G1 X134.820 Y97.584 E0.01611
G1 X134.820 Y97.046 E0.01706
G1 X135.180 Y97.405 E0.01611
G1 X135.180 Y96.867 E0.01706
G1 X134.820 Y96.507 E0.01611
G1 X134.820 Y95.968 E0.01706
G1 X135.180 Y96.328 E0.01611
G1 X135.180 Y95.789 E0.01706
G1 X134.820 Y95.430 E0.01611
G1 X134.820 Y94.891 E0.01706
G1 X135.350 Y95.421 E0.02371
M106 S175.95
;BEFORE_LAYER_CHANGE
G92 E0.0
;0.55


G1 E-0.80000 F2100.00000
G1 Z0.800 F10800.000
;AFTER_LAYER_CHANGE
;0.55
G1 X138.730 Y92.552
G1 Z0.550
G1 E0.80000 F2100.00000
G1 F1295
G1 X138.996 Y93.540 E0.05135
G1 X139.003 Y116.328 E1.14361
G1 X138.809 Y117.267 E0.04811
G1 X138.306 Y118.082 E0.04811
G1 X137.882 Y118.468 E0.02875
G1 X137.384 Y118.760 E0.02896
G1 X136.840 Y118.940 E0.02875
G1 X136.271 Y119.004 E0.02875
G1 X113.672 Y119.003 E1.13414
G1 X112.733 Y118.810 E0.04811
G1 X111.918 Y118.306 E0.04811
G1 X111.542 Y117.896 E0.02794
G1 X111.258 Y117.422 E0.02773
G1 X111.073 Y116.896 E0.02794
G1 X110.998 Y116.345 E0.02794
G1 X111.030 Y113.321 E0.15176
G1 X111.261 Y112.572 E0.03937
G1 X111.694 Y111.917 E0.03937
G1 X131.965 Y91.652 E1.43851
G1 X132.607 Y91.244 E0.03815
G1 X133.335 Y91.027 E0.03815
G1 X136.254 Y90.996 E0.14648
G1 X137.259 Y91.187 E0.05135
G1 X138.125 Y91.733 E0.05135
G1 X138.694 Y92.504 E0.04813
G1 X138.392 Y92.725 F10800.000
G1 F1295
G1 X138.622 Y93.593 E0.04508
G1 X138.626 Y116.311 E1.14012
G1 X138.458 Y117.131 E0.04203
G1 X138.012 Y117.845 E0.04221
G1 X137.648 Y118.173 E0.02462
G1 X137.223 Y118.419 E0.02462
G1 X136.757 Y118.572 E0.02462
G1 X136.266 Y118.627 E0.02481
G1 X113.689 Y118.626 E1.13304
G1 X112.869 Y118.458 E0.04203
G1 X112.155 Y118.013 E0.04221
G1 X111.591 Y117.244 E0.04785
G1 X111.374 Y116.320 E0.04766
G1 X111.398 Y113.405 E0.14630
G1 X111.600 Y112.736 E0.03505
G1 X111.988 Y112.155 E0.03505
G1 X132.204 Y91.945 E1.43459
G1 X132.774 Y91.583 E0.03391
G1 X133.419 Y91.396 E0.03372
G1 X136.254 Y91.373 E0.14224
G1 X137.127 Y91.541 E0.04466
G1 X137.876 Y92.016 E0.04447
G1 X138.356 Y92.676 E0.04099
G1 E-0.80000 F2100.00000
G1 Z1.150 F10800.000
G1 X135.510 Y94.490
G1 Z0.550
G1 E0.80000 F2100.00000
M204 S800
G1 F1295
G1 X135.510 Y115.510 E1.08550
G1 X114.490 Y115.510 E1.08549
G1 X114.490 Y114.490 E0.05269
G1 X134.490 Y114.490 E1.03283
G1 X134.490 Y94.490 E1.03282
G1 X135.450 Y94.490 E0.04956
M204 S1000
G1 E-0.80000 F2100.00000
G1 Z1.150 F10800.000
G1 X134.050 Y114.050
G1 Z0.550
G1 E0.80000 F2100.00000
M204 S800
G1 F1295
G1 X134.050 Y94.050 E1.52756
G1 X135.950 Y94.050 E0.14509
G1 X135.950 Y115.950 E1.67268
G1 X114.050 Y115.950 E1.67266
G1 X114.050 Y114.050 E0.14512
G1 X133.990 Y114.050 E1.52299
M204 S1000
G1 X134.450 Y114.037 F10800.000
G1 X134.122 Y115.424
M204 S2000
G1 F1295
G1 X135.143 Y114.404 E0.13496
G1 X135.143 Y113.495 E0.08505
G1 X134.858 Y113.779 E0.03770
G1 X134.858 Y112.870 E0.08505
G1 X135.143 Y112.585 E0.03770
G1 X135.143 Y111.676 E0.08505
G1 X134.858 Y111.961 E0.03770
G1 X134.858 Y111.052 E0.08505
G1 X135.143 Y110.767 E0.03770
G1 X135.143 Y109.858 E0.08505
G1 X134.858 Y110.143 E0.03770
G1 X134.858 Y109.234 E0.08505
G1 X135.143 Y108.949 E0.03770
G1 X135.143 Y108.039 E0.08505
G1 X134.858 Y108.324 E0.03770
G1 X134.858 Y107.415 E0.08505
G1 X135.143 Y107.130 E0.03770
G1 X135.143 Y106.221 E0.08505
G1 X134.858 Y106.506 E0.03770
G1 X134.858 Y105.597 E0.08505
G1 X135.143 Y105.312 E0.03770
G1 X135.143 Y104.403 E0.08505
G1 X134.858 Y104.688 E0.03770
G1 X134.858 Y103.779 E0.08505
G1 X135.143 Y103.494 E0.03770
G1 X135.143 Y102.584 E0.08505
G1 X134.858 Y102.869 E0.03770
G1 X134.858 Y101.960 E0.08505
G1 X135.143 Y101.675 E0.03770
G1 X135.143 Y100.766 E0.08505
G1 X134.858 Y101.051 E0.03770
G1 X134.858 Y100.142 E0.08505
G1 X135.143 Y99.857 E0.03770
G1 X135.143 Y98.948 E0.08505
G1 X134.858 Y99.233 E0.03770
G1 X134.858 Y98.323 E0.08505
G1 X135.143 Y98.039 E0.03770
G1 X135.143 Y97.129 E0.08505
G1 X134.858 Y97.414 E0.03770
G1 X134.858 Y96.505 E0.08505
G1 X135.143 Y96.220 E0.03770
G1 X135.143 Y95.311 E0.08505
G1 X134.576 Y95.877 E0.07490
M204 S1000
G1 E-0.80000 F2100.00000
G1 Z1.150 F10800.000
G1 X133.213 Y115.424
G1 Z0.550
G1 E0.80000 F2100.00000
M204 S2000
G1 F1295
G1 X133.780 Y114.857 E0.07496
G1 X132.871 Y114.857 E0.08505
G1 X132.585 Y115.143 E0.03776
G1 X131.676 Y115.143 E0.08505
G1 X131.961 Y114.857 E0.03776
G1 X131.052 Y114.857 E0.08505
G1 X130.767 Y115.143 E0.03776
G1 X129.858 Y115.143 E0.08505
G1 X130.143 Y114.857 E0.03776
G1 X129.234 Y114.857 E0.08505
G1 X128.949 Y115.143 E0.03776
G1 X128.039 Y115.143 E0.08505
G1 X128.325 Y114.857 E0.03776
G1 X127.416 Y114.857 E0.08505
G1 X127.130 Y115.143 E0.03776
G1 X126.221 Y115.143 E0.08505
G1 X126.506 Y114.857 E0.03776
G1 X125.597 Y114.857 E0.08505
G1 X125.312 Y115.143 E0.03776
G1 X124.403 Y115.143 E0.08505
G1 X124.688 Y114.857 E0.03776
G1 X123.779 Y114.857 E0.08505
G1 X123.493 Y115.143 E0.03776
G1 X122.584 Y115.143 E0.08505
G1 X122.870 Y114.857 E0.03776
G1 X121.961 Y114.857 E0.08505
G1 X121.675 Y115.143 E0.03776
G1 X120.766 Y115.143 E0.08505
G1 X121.051 Y114.857 E0.03776
G1 X120.142 Y114.857 E0.08505
G1 X119.857 Y115.143 E0.03776
G1 X118.948 Y115.143 E0.08505
G1 X119.233 Y114.857 E0.03776
G1 X118.324 Y114.857 E0.08505
G1 X118.038 Y115.143 E0.03776
G1 X117.129 Y115.143 E0.08505
G1 X117.415 Y114.857 E0.03776
G1 X116.505 Y114.857 E0.08505
G1 X116.220 Y115.143 E0.03776
G1 X115.311 Y115.143 E0.08505
G1 X115.877 Y114.576 E0.07496
M204 S1000
;BEFORE_LAYER_CHANGE
G92 E0.0
;0.9


G1 E-0.80000 F2100.00000
G1 Z1.150 F10800.000
;AFTER_LAYER_CHANGE
;0.9
G1 X112.733 Y118.810
G1 Z0.900
G1 E0.80000 F2100.00000
G1 F1295
G1 X111.918 Y118.306 E0.04811
G1 X111.542 Y117.896 E0.02794
G1 X111.258 Y117.422 E0.02773
G1 X111.073 Y116.896 E0.02794
G1 X110.998 Y116.345 E0.02794
G1 X111.030 Y113.321 E0.15176
G1 X111.261 Y112.572 E0.03937
G1 X111.694 Y111.917 E0.03937
G1 X131.965 Y91.652 E1.43851
G1 X132.607 Y91.244 E0.03815
G1 X133.335 Y91.027 E0.03815
G1 X136.254 Y90.996 E0.14648
M73 P11 R8
G1 X137.259 Y91.187 E0.05135
G1 X138.125 Y91.733 E0.05135
G1 X138.730 Y92.552 E0.05114
G1 X138.996 Y93.540 E0.05135
G1 X139.003 Y116.328 E1.14361
G1 X138.809 Y117.267 E0.04811
G1 X138.306 Y118.082 E0.04811
G1 X137.882 Y118.468 E0.02875
G1 X137.384 Y118.760 E0.02896
G1 X136.840 Y118.940 E0.02875
G1 X136.271 Y119.004 E0.02875
G1 X113.672 Y119.003 E1.13414
G1 X112.792 Y118.822 E0.04510
G1 X111.591 Y117.244 F10800.000
G1 F1295
G1 X111.374 Y116.320 E0.04766
G1 X111.398 Y113.405 E0.14630
G1 X111.600 Y112.736 E0.03505
G1 X111.988 Y112.155 E0.03505
G1 X132.204 Y91.945 E1.43459
G1 X132.774 Y91.583 E0.03391
G1 X133.419 Y91.396 E0.03372
G1 X136.254 Y91.373 E0.14224
G1 X137.127 Y91.541 E0.04466
G1 X137.876 Y92.016 E0.04447
G1 X138.399 Y92.735 E0.04466
G1 X138.622 Y93.593 E0.04447
G1 X138.626 Y116.311 E1.14012
G1 X138.458 Y117.131 E0.04203
G1 X138.012 Y117.845 E0.04221
G1 X137.648 Y118.173 E0.02462
G1 X137.223 Y118.419 E0.02462
G1 X136.757 Y118.572 E0.02462
G1 X136.266 Y118.627 E0.02481
G1 X113.689 Y118.626 E1.13304
G1 X112.869 Y118.458 E0.04203
G1 X112.155 Y118.013 E0.04221
G1 X111.626 Y117.292 E0.04483
G1 E-0.80000 F2100.00000
G1 Z1.500 F10800.000
G1 X114.490 Y115.510
G1 Z0.900
G1 E0.80000 F2100.00000
M204 S800
G1 F1295
G1 X114.490 Y114.490 E0.05269
G1 X134.490 Y114.490 E1.03283
G1 X134.490 Y94.490 E1.03282
G1 X135.510 Y94.490 E0.05266
G1 X135.510 Y115.510 E1.08550
G1 X114.550 Y115.510 E1.08239
M204 S1000
G1 E-0.80000 F2100.00000
G1 Z1.500 F10800.000
G1 X134.050 Y114.050
G1 Z0.900
G1 E0.80000 F2100.00000
M204 S800
G1 F1295
G1 X134.050 Y94.050 E1.52756
G1 X135.950 Y94.050 E0.14509
G1 X135.950 Y115.950 E1.67268
G1 X114.050 Y115.950 E1.67266
G1 X114.050 Y114.050 E0.14512
G1 X133.990 Y114.050 E1.52299
M204 S1000
G1 X134.450 Y114.037 F10800.000
G1 E-0.80000 F2100.00000
G1 Z1.500 F10800.000
G1 X115.001 Y114.576
G1 Z0.900
G1 E0.80000 F2100.00000
M204 S2000
G1 F1295
G1 X115.567 Y115.143 E0.07336
G1 X116.457 Y115.143 E0.08146
G1 X116.172 Y114.857 E0.03695
G1 X117.061 Y114.857 E0.08146
G1 X117.347 Y115.143 E0.03695
G1 X118.237 Y115.143 E0.08146
