; generated by PrusaSlicer 2.1.1+win64 on 2020-06-08 at 21:10:10 UTC

; 

; external perimeters extrusion width = 0.45mm
; perimeters extrusion width = 0.45mm
; infill extrusion width = 0.45mm
; solid infill extrusion width = 0.45mm
; top infill extrusion width = 0.40mm
; first layer extrusion width = 0.42mm

M73 P0 R165
M201 X9000 Y9000 Z500 E10000 ; sets maximum accelerations, mm/sec^2
M203 X500 Y500 Z12 E120 ; sets maximum feedrates, mm/sec
M204 P2000 R1500 T2000 ; sets acceleration (P, T) and retract acceleration (R), mm/sec^2
M205 X10.00 Y10.00 Z0.20 E2.50 ; sets the jerk limits, mm/sec
M205 S0 T0 ; sets the minimum extruding and travel feed rate, mm/sec
M107
M862.3 P "MK2.5SMMU2S" ; printer model check
M862.1 P0.4 ; nozzle diameter check
M115 U3.8.0 ; tell printer latest fw version
G90 ; use absolute coordinates
M83 ; extruder relative mode
M104 S215 ; set extruder temp
M140 S60 ; set bed temp
Tx
M190 S60 ; wait for bed temp
M109 S215 ; wait for extruder temp
G28 W ; home all without mesh bed level
G80 ; mesh bed leveling

G21 ; set units to millimeters

;go outside print area
G1 Y-3.0 F1000.0
G1 Z0.4 F1000.0
; select extruder
Tc
; purge line
G1 X55.0 F2000.0
G1 Z0.3 F1000.0
G92 E0.0
G1 X240.0 E25.0 F2200.0
M73 P0 R164
G1 Y-2.0 F1000.0
G1 X55.0 E25 F1400.0
G1 Z0.20 F1000.0
G1 X5.0 E4.0 F1000.0
G92 E0.0
G21 ; set units to millimeters
G90 ; use absolute coordinates
M83 ; use relative distances for extrusion
M900 K30 ; Filament gcode
;BEFORE_LAYER_CHANGE
G92 E0.0
;0.2


G1 E-0.80000 F2100.00000
G1 Z0.600 F10800.000
;AFTER_LAYER_CHANGE
;0.2
G1 X25.753 Y31.816
G1 Z0.200
G1 E0.80000 F2100.00000
M204 S1000
G1 F1200
G1 X26.352 Y31.485 E0.02146
G1 X27.027 Y31.354 E0.02157
G1 X72.744 Y31.353 E1.43343
G1 X73.237 Y31.410 E0.01555
G1 X73.705 Y31.577 E0.01559
G1 X223.866 Y105.320 E5.24528
G1 X224.309 Y105.609 E0.01658
G1 X224.637 Y105.951 E0.01487
G1 X224.883 Y106.356 E0.01487
G1 X225.036 Y106.802 E0.01475
G1 X225.090 Y107.273 E0.01487
G1 X225.089 Y157.644 E1.57934
G1 X224.954 Y158.380 E0.02349
G1 X224.575 Y159.031 E0.02360
G1 X223.989 Y159.520 E0.02394
G1 X223.267 Y159.779 E0.02405
G1 X108.537 Y178.636 E3.64553
G1 X32.257 Y178.647 E2.39171
G1 X31.513 Y178.511 E0.02372
G1 X30.862 Y178.132 E0.02360
G1 X30.366 Y177.534 E0.02439
G1 X30.110 Y176.795 E0.02451
G1 X27.316 Y155.322 E0.67895
G1 X24.911 Y62.456 E2.91273
G1 X24.910 Y33.535 E0.90682
G1 X24.994 Y32.943 E0.01873
G1 X25.284 Y32.319 E0.02157
G1 X25.712 Y31.860 E0.01969
G1 E-0.80000 F2100.00000
G1 Z0.800 F10800.000
G1 X125.000 Y100.069
G1 Z0.200
G1 E0.80000 F2100.00000
G1 F1200
G1 X120.872 Y100.069 E0.12940
G1 X120.872 Y88.225 E0.37136
G1 X121.492 Y86.507 E0.05726
G1 X128.507 Y86.507 E0.21993
G1 X129.127 Y88.225 E0.05727
G1 X129.127 Y100.069 E0.37136
G1 X125.060 Y100.069 E0.12752
G1 X125.000 Y100.446 F10800.000
G1 F1200
G1 X120.495 Y100.446 E0.14122
G1 X120.495 Y88.159 E0.38525
G1 X121.227 Y86.130 E0.06763
G1 X128.771 Y86.130 E0.23653
G1 X129.504 Y88.159 E0.06764
G1 X129.504 Y100.446 E0.38525
G1 X125.060 Y100.446 E0.13934
G1 X124.679 Y100.207 F10800.000
G1 E-0.80000 F2100.00000
G1 Z0.800 F10800.000
G1 X120.986 Y99.191
G1 Z0.200
G1 E0.80000 F2100.00000
G1 F1200
G1 X121.580 Y99.786 E0.02642
G1 X122.115 Y99.786 E0.01680
G1 X121.155 Y98.827 E0.04264
G1 X121.155 Y98.292 E0.01680
G1 X122.649 Y99.786 E0.06639
G1 X123.184 Y99.786 E0.01680
G1 X121.155 Y97.758 E0.09015
G1 X121.155 Y97.223 E0.01680
G1 X123.718 Y99.786 E0.11391
G1 X124.253 Y99.786 E0.01680
G1 X121.155 Y96.688 E0.13767
G1 X121.155 Y96.154 E0.01680
G1 X124.787 Y99.786 E0.16143
G1 X125.322 Y99.786 E0.01680
G1 X121.155 Y95.619 E0.18519
G1 X121.155 Y95.085 E0.01680
G1 X125.856 Y99.786 E0.20894
G1 X126.391 Y99.786 E0.01680
G1 X121.155 Y94.550 E0.23270
G1 X121.155 Y94.016 E0.01680
G1 X126.925 Y99.786 E0.25646
G1 X127.460 Y99.786 E0.01680
G1 X121.155 Y93.481 E0.28022
G1 X121.155 Y92.947 E0.01680
G1 X127.994 Y99.786 E0.30398
G1 X128.529 Y99.786 E0.01680
G1 X121.155 Y92.412 E0.32774
G1 X121.155 Y91.878 E0.01680
G1 X128.844 Y99.566 E0.34173
G1 X128.844 Y99.032 E0.01680
G1 X121.155 Y91.343 E0.34173
G1 X121.155 Y90.809 E0.01680
G1 X128.844 Y98.497 E0.34173
G1 X128.844 Y97.963 E0.01680
G1 X121.155 Y90.274 E0.34173
G1 X121.155 Y89.740 E0.01680
G1 X128.844 Y97.428 E0.34173
G1 X128.844 Y96.894 E0.01680
G1 X121.155 Y89.205 E0.34173
G1 X121.155 Y88.670 E0.01680
G1 X128.844 Y96.359 E0.34173
G1 X128.844 Y95.824 E0.01680
G1 X121.192 Y88.173 E0.34010
G1 X121.334 Y87.780 E0.01312
G1 X128.844 Y95.290 E0.33380
G1 X128.844 Y94.755 E0.01680
G1 X121.475 Y87.387 E0.32751
G1 X121.617 Y86.994 E0.01312
G1 X128.844 Y94.221 E0.32121
G1 X128.844 Y93.686 E0.01680
G1 X121.947 Y86.790 E0.30654
G1 X122.482 Y86.790 E0.01680
G1 X128.844 Y93.152 E0.28278
G1 X128.844 Y92.617 E0.01680
G1 X123.016 Y86.790 E0.25902
M73 P0 R163
G1 X123.551 Y86.790 E0.01680
G1 X128.844 Y92.083 E0.23526
G1 X128.844 Y91.548 E0.01680
G1 X124.085 Y86.790 E0.21150
G1 X124.620 Y86.790 E0.01680
G1 X128.844 Y91.014 E0.18774
G1 X128.844 Y90.479 E0.01680
G1 X125.154 Y86.790 E0.16399
G1 X125.689 Y86.790 E0.01680
G1 X128.844 Y89.945 E0.14023
G1 X128.844 Y89.410 E0.01680
G1 X126.223 Y86.790 E0.11647
G1 X126.758 Y86.790 E0.01680
G1 X128.844 Y88.876 E0.09271
G1 X128.844 Y88.341 E0.01680
G1 X127.292 Y86.790 E0.06895
G1 X127.827 Y86.790 E0.01680
G1 X128.862 Y87.825 E0.04600
G1 E-0.80000 F2100.00000
G1 Z0.800 F10800.000
G1 X140.429 Y100.069
G1 Z0.200
G1 E0.80000 F2100.00000
G1 F1200
G1 X136.302 Y100.069 E0.12940
G1 X136.302 Y88.225 E0.37136
G1 X136.921 Y86.507 E0.05726
G1 X143.936 Y86.507 E0.21993
G1 X144.556 Y88.225 E0.05727
G1 X144.556 Y100.069 E0.37136
G1 X140.489 Y100.069 E0.12752
G1 X140.429 Y100.446 F10800.000
G1 F1200
G1 X135.925 Y100.446 E0.14122
G1 X135.925 Y88.159 E0.38525
G1 X136.657 Y86.130 E0.06763
G1 X144.201 Y86.130 E0.23653
G1 X144.933 Y88.159 E0.06764
G1 X144.933 Y100.446 E0.38525
G1 X140.489 Y100.446 E0.13934
G1 X140.108 Y100.207 F10800.000
G1 E-0.80000 F2100.00000
G1 Z0.800 F10800.000
G1 X136.415 Y99.191
G1 Z0.200
G1 E0.80000 F2100.00000
G1 F1200
G1 X137.009 Y99.786 E0.02642
G1 X137.544 Y99.786 E0.01680
G1 X136.584 Y98.827 E0.04264
G1 X136.584 Y98.292 E0.01680
G1 X138.078 Y99.786 E0.06639
G1 X138.613 Y99.786 E0.01680
G1 X136.584 Y97.758 E0.09015
G1 X136.584 Y97.223 E0.01680
G1 X139.147 Y99.786 E0.11391
G1 X139.682 Y99.786 E0.01680
G1 X136.584 Y96.688 E0.13767
G1 X136.584 Y96.154 E0.01680
G1 X140.216 Y99.786 E0.16143
G1 X140.751 Y99.786 E0.01680
G1 X136.584 Y95.619 E0.18519
G1 X136.584 Y95.085 E0.01680
G1 X141.285 Y99.786 E0.20894
G1 X141.820 Y99.786 E0.01680
G1 X136.584 Y94.550 E0.23270
G1 X136.584 Y94.016 E0.01680
G1 X142.355 Y99.786 E0.25646
G1 X142.889 Y99.786 E0.01680
G1 X136.584 Y93.481 E0.28022
G1 X136.584 Y92.947 E0.01680
G1 X143.424 Y99.786 E0.30398
G1 X143.958 Y99.786 E0.01680
G1 X136.584 Y92.412 E0.32774
G1 X136.584 Y91.878 E0.01680
G1 X144.273 Y99.566 E0.34173
G1 X144.273 Y99.032 E0.01680
G1 X136.584 Y91.343 E0.34173
G1 X136.584 Y90.809 E0.01680
G1 X144.273 Y98.497 E0.34173
G1 X144.273 Y97.963 E0.01680
G1 X136.584 Y90.274 E0.34173
G1 X136.584 Y89.740 E0.01680
G1 X144.273 Y97.428 E0.34173
G1 X144.273 Y96.894 E0.01680
G1 X136.584 Y89.205 E0.34173
G1 X136.584 Y88.670 E0.01680
G1 X144.273 Y96.359 E0.34173
G1 X144.273 Y95.824 E0.01680
G1 X136.621 Y88.173 E0.34010
G1 X136.763 Y87.780 E0.01312
G1 X144.273 Y95.290 E0.33380
G1 X144.273 Y94.755 E0.01680
G1 X136.905 Y87.387 E0.32751
G1 X137.046 Y86.994 E0.01312
G1 X144.273 Y94.221 E0.32121
G1 X144.273 Y93.686 E0.01680
G1 X137.376 Y86.790 E0.30654
G1 X137.911 Y86.790 E0.01680
G1 X144.273 Y93.152 E0.28278
G1 X144.273 Y92.617 E0.01680
G1 X138.445 Y86.790 E0.25902
G1 X138.980 Y86.790 E0.01680
G1 X144.273 Y92.083 E0.23526
G1 X144.273 Y91.548 E0.01680
G1 X139.514 Y86.790 E0.21150
G1 X140.049 Y86.790 E0.01680
G1 X144.273 Y91.014 E0.18774
G1 X144.273 Y90.479 E0.01680
G1 X140.584 Y86.790 E0.16399
G1 X141.118 Y86.790 E0.01680
G1 X144.273 Y89.945 E0.14023
G1 X144.273 Y89.410 E0.01680
G1 X141.653 Y86.790 E0.11647
G1 X142.187 Y86.790 E0.01680
G1 X144.273 Y88.876 E0.09271
G1 X144.273 Y88.341 E0.01680
G1 X142.722 Y86.790 E0.06895
G1 X143.256 Y86.790 E0.01680
G1 X144.291 Y87.825 E0.04600
G1 E-0.80000 F2100.00000
G1 Z0.800 F10800.000
G1 X53.877 Y163.963
G1 Z0.200
G1 E0.80000 F2100.00000
G1 F1200
G1 X33.965 Y163.963 E0.62431
G1 X33.965 Y125.724 E1.19898
G1 X53.877 Y125.724 E0.62431
G1 X53.877 Y163.903 E1.19710
G1 X53.500 Y163.586 F10800.000
G1 F1200
G1 X34.342 Y163.586 E0.60066
G1 X34.342 Y126.101 E1.17533
G1 X53.500 Y126.101 E0.60066
G1 X53.500 Y163.526 E1.17345
G1 X53.563 Y163.981 F10800.000
G1 E-0.80000 F2100.00000
G1 Z0.800 F10800.000
G1 X69.111 Y163.963
G1 Z0.200
G1 E0.80000 F2100.00000
G1 F1200
G1 X57.409 Y163.963 E0.36691
G1 X57.409 Y125.724 E1.19898
G1 X80.559 Y125.724 E0.72586
G1 X80.559 Y163.963 E1.19898
G1 X69.171 Y163.963 E0.35707
G1 X69.111 Y163.586 F10800.000
G1 F1200
G1 X57.786 Y163.586 E0.35509
G1 X57.786 Y126.101 E1.17533
G1 X80.182 Y126.101 E0.70222
G1 X80.182 Y163.586 E1.17533
G1 X69.171 Y163.586 E0.34525
G1 X69.073 Y163.985 F10800.000
G1 E-0.80000 F2100.00000
G1 Z0.800 F10800.000
G1 X83.728 Y163.963
G1 Z0.200
G1 E0.80000 F2100.00000
G1 F1200
G1 X83.728 Y125.724 E1.19898
G1 X103.861 Y125.724 E0.63124
G1 X103.861 Y163.963 E1.19898
G1 X83.788 Y163.963 E0.62936
G1 X84.105 Y163.586 F10800.000
G1 F1200
G1 X84.105 Y126.101 E1.17533
G1 X103.484 Y126.101 E0.60760
G1 X103.484 Y163.586 E1.17533
G1 X84.165 Y163.586 E0.60572
G1 X83.732 Y163.729 F10800.000
G1 E-0.80000 F2100.00000
G1 Z0.800 F10800.000
G1 X53.877 Y96.358
G1 Z0.200
G1 E0.80000 F2100.00000
M73 P1 R162
G1 F1200
G1 X33.965 Y96.358 E0.62431
G1 X33.965 Y57.476 E1.21912
G1 X53.877 Y57.476 E0.62431
G1 X53.877 Y96.298 E1.21724
G1 X53.500 Y95.981 F10800.000
G1 F1200
G1 X34.342 Y95.981 E0.60066
G1 X34.342 Y57.853 E1.19547
G1 X53.500 Y57.853 E0.60066
G1 X53.500 Y95.921 E1.19359
G1 X53.562 Y96.376 F10800.000
G1 E-0.80000 F2100.00000
G1 Z0.800 F10800.000
G1 X69.111 Y175.871
G1 Z0.200
G1 E0.80000 F2100.00000
G1 F1200
G1 X32.859 Y175.871 E1.13665
G1 X32.859 Y154.649 E0.66542
G1 X30.090 Y154.649 E0.08681
G1 X30.090 Y149.123 E0.17326
G1 X32.859 Y149.123 E0.08681
G1 X32.859 Y140.926 E0.25699
G1 X30.090 Y140.926 E0.08681
G1 X30.090 Y135.585 E0.16747
G1 X32.859 Y135.585 E0.08681
G1 X32.859 Y127.172 E0.26380
G1 X30.090 Y127.172 E0.08681
G1 X30.090 Y122.108 E0.15877
G1 X32.859 Y122.108 E0.08681
G1 X32.859 Y113.821 E0.25983
G1 X30.090 Y113.821 E0.08681
G1 X30.090 Y108.899 E0.15434
G1 X32.859 Y108.899 E0.08681
G1 X32.859 Y100.467 E0.26438
G1 X30.090 Y100.467 E0.08681
G1 X30.090 Y95.140 E0.16702
G1 X32.859 Y95.140 E0.08681
G1 X32.859 Y87.017 E0.25471
G1 X30.090 Y87.017 E0.08681
G1 X30.090 Y81.469 E0.17394
G1 X32.859 Y81.469 E0.08681
G1 X32.859 Y73.212 E0.25890
G1 X30.090 Y73.212 E0.08681
G1 X30.090 Y67.787 E0.17009
G1 X32.859 Y67.787 E0.08681
G1 X32.859 Y61.827 E0.18688
G1 X27.686 Y61.827 E0.16220
G1 X27.686 Y34.129 E0.86845
G1 X72.154 Y34.129 E1.39425
G1 X72.154 Y57.476 E0.73203
G1 X57.409 Y57.476 E0.46232
G1 X57.409 Y96.358 E1.21912
G1 X80.559 Y96.358 E0.72586
G1 X80.559 Y68.738 E0.86602
G1 X83.728 Y68.738 E0.09936
G1 X83.728 Y96.358 E0.86602
G1 X103.861 Y96.358 E0.63124
G1 X103.861 Y68.738 E0.86602
G1 X110.536 Y68.738 E0.20929
G1 X110.536 Y73.410 E0.14649
G1 X107.737 Y73.410 E0.08776
G1 X107.737 Y81.987 E0.26894
G1 X110.536 Y81.987 E0.08776
G1 X110.536 Y86.837 E0.15207
G1 X107.737 Y86.837 E0.08776
G1 X107.737 Y95.207 E0.26243
G1 X110.536 Y95.207 E0.08776
G1 X110.536 Y100.467 E0.16493
G1 X107.737 Y100.467 E0.08776
G1 X107.737 Y108.899 E0.26438
G1 X110.536 Y108.899 E0.08776
G1 X110.536 Y113.821 E0.15434
G1 X107.737 Y113.821 E0.08776
G1 X107.737 Y122.108 E0.25983
G1 X110.536 Y122.108 E0.08776
G1 X110.536 Y127.461 E0.16785
G1 X107.737 Y127.461 E0.08776
G1 X107.737 Y135.730 E0.25926
G1 X110.536 Y135.730 E0.08776
G1 X110.536 Y140.999 E0.16520
G1 X107.737 Y140.999 E0.08776
G1 X107.737 Y149.316 E0.26079
G1 X110.536 Y149.316 E0.08776
G1 X110.536 Y154.741 E0.17008
G1 X107.737 Y154.741 E0.08776
G1 X107.737 Y175.871 E0.66253
G1 X69.171 Y175.871 E1.20920
G1 X69.111 Y176.248 F10800.000
G1 F1200
G1 X32.482 Y176.248 E1.14847
G1 X32.482 Y155.026 E0.66542
G1 X29.713 Y155.026 E0.08681
G1 X29.713 Y148.746 E0.19690
G1 X32.482 Y148.746 E0.08681
G1 X32.482 Y141.304 E0.23334
G1 X29.713 Y141.304 E0.08681
G1 X29.713 Y135.208 E0.19112
G1 X32.482 Y135.208 E0.08681
G1 X32.482 Y127.549 E0.24015
G1 X29.713 Y127.549 E0.08681
G1 X29.713 Y121.731 E0.18242
G1 X32.482 Y121.731 E0.08681
G1 X32.482 Y114.198 E0.23618
G1 X29.713 Y114.198 E0.08681
G1 X29.713 Y108.522 E0.17798
G1 X32.482 Y108.522 E0.08681
G1 X32.482 Y100.844 E0.24073
G1 X29.713 Y100.844 E0.08681
G1 X29.713 Y94.763 E0.19066
G1 X32.482 Y94.763 E0.08681
G1 X32.482 Y87.394 E0.23106
G1 X29.713 Y87.394 E0.08681
G1 X29.713 Y81.092 E0.19759
G1 X32.482 Y81.092 E0.08681
G1 X32.482 Y73.589 E0.23526
G1 X29.713 Y73.589 E0.08681
G1 X29.713 Y67.410 E0.19373
G1 X32.482 Y67.410 E0.08681
G1 X32.482 Y62.204 E0.16323
G1 X27.309 Y62.204 E0.16220
G1 X27.309 Y33.752 E0.89210
G1 X72.531 Y33.752 E1.41790
G1 X72.531 Y57.853 E0.75568
M73 P1 R161
G1 X57.786 Y57.853 E0.46232
G1 X57.786 Y95.981 E1.19547
G1 X80.182 Y95.981 E0.70222
G1 X80.182 Y68.361 E0.86602
G1 X84.105 Y68.361 E0.12301
G1 X84.105 Y95.981 E0.86602
G1 X103.484 Y95.981 E0.60760
G1 X103.484 Y68.361 E0.86602
G1 X110.913 Y68.361 E0.23293
G1 X110.913 Y73.787 E0.17013
G1 X108.114 Y73.787 E0.08776
G1 X108.114 Y81.610 E0.24529
G1 X110.913 Y81.610 E0.08776
G1 X110.913 Y87.214 E0.17572
G1 X108.114 Y87.214 E0.08776
G1 X108.114 Y94.830 E0.23878
G1 X110.913 Y94.830 E0.08776
G1 X110.913 Y100.844 E0.18857
G1 X108.114 Y100.844 E0.08776
G1 X108.114 Y108.522 E0.24073
G1 X110.913 Y108.522 E0.08776
G1 X110.913 Y114.198 E0.17798
G1 X108.114 Y114.198 E0.08776
G1 X108.114 Y121.731 E0.23618
G1 X110.913 Y121.731 E0.08776
G1 X110.913 Y127.838 E0.19150
G1 X108.114 Y127.838 E0.08776
G1 X108.114 Y135.353 E0.23561
G1 X110.913 Y135.353 E0.08776
G1 X110.913 Y141.376 E0.18885
G1 X108.114 Y141.376 E0.08776
G1 X108.114 Y148.939 E0.23714
G1 X110.913 Y148.939 E0.08776
G1 X110.913 Y155.118 E0.19372
G1 X108.114 Y155.118 E0.08776
G1 X108.114 Y176.248 E0.66253
G1 X69.171 Y176.248 E1.22103
G1 X68.857 Y175.939 F10800.000
G1 X67.950 Y175.758
G1 F1200
G1 X54.160 Y161.968 E0.61300
G1 X54.160 Y162.502 E0.01680
G1 X67.246 Y175.588 E0.58169
G1 X66.711 Y175.588 E0.01680
G1 X54.160 Y163.037 E0.55793
G1 X54.160 Y163.571 E0.01680
G1 X66.177 Y175.588 E0.53417
G1 X65.642 Y175.588 E0.01680
G1 X54.160 Y164.106 E0.51040
G1 X54.160 Y164.246 E0.00441
G1 X53.765 Y164.246 E0.01239
G1 X65.107 Y175.588 E0.50417
G1 X64.573 Y175.588 E0.01680
G1 X53.231 Y164.246 E0.50417
G1 X52.696 Y164.246 E0.01680
G1 X64.038 Y175.588 E0.50417
G1 X63.504 Y175.588 E0.01680
G1 X52.162 Y164.246 E0.50417
G1 X51.627 Y164.246 E0.01680
G1 X62.969 Y175.588 E0.50417
G1 X62.434 Y175.588 E0.01680
G1 X51.092 Y164.246 E0.50417
G1 X50.558 Y164.246 E0.01680
G1 X61.900 Y175.588 E0.50417
G1 X61.365 Y175.588 E0.01680
G1 X50.023 Y164.246 E0.50417
G1 X49.489 Y164.246 E0.01680
G1 X60.831 Y175.588 E0.50417
G1 X60.296 Y175.588 E0.01680
G1 X48.954 Y164.246 E0.50417
G1 X48.419 Y164.246 E0.01680
G1 X59.761 Y175.588 E0.50417
G1 X59.227 Y175.588 E0.01680
G1 X47.885 Y164.246 E0.50417
G1 X47.350 Y164.246 E0.01680
G1 X58.692 Y175.588 E0.50417
G1 X58.158 Y175.588 E0.01680
G1 X46.816 Y164.246 E0.50417
G1 X46.281 Y164.246 E0.01680
G1 X57.623 Y175.588 E0.50417
G1 X57.089 Y175.588 E0.01680
G1 X45.747 Y164.246 E0.50417
G1 X45.212 Y164.246 E0.01680
G1 X56.554 Y175.588 E0.50417
G1 X56.019 Y175.588 E0.01680
G1 X44.677 Y164.246 E0.50417
G1 X44.143 Y164.246 E0.01680
G1 X55.485 Y175.588 E0.50417
G1 X54.950 Y175.588 E0.01680
G1 X43.608 Y164.246 E0.50417
G1 X43.074 Y164.246 E0.01680
G1 X54.585 Y175.758 E0.51171
G1 X54.051 Y175.758 F10800.000
G1 F1200
G1 X42.539 Y164.246 E0.51171
G1 X42.004 Y164.246 E0.01680
G1 X53.346 Y175.588 E0.50417
G1 X52.812 Y175.588 E0.01680
G1 X41.470 Y164.246 E0.50417
G1 X40.935 Y164.246 E0.01680
G1 X52.277 Y175.588 E0.50417
G1 X51.743 Y175.588 E0.01680
G1 X40.401 Y164.246 E0.50417
G1 X39.866 Y164.246 E0.01680
