; generated by PrusaSlicer 2.1.0+ on 2019-09-19 at 19:55:10 UTC

; 

; external perimeters extrusion width = 0.45mm
; perimeters extrusion width = 0.45mm
; infill extrusion width = 0.45mm
; solid infill extrusion width = 0.45mm
; top infill extrusion width = 0.40mm
; first layer extrusion width = 0.42mm

M73 P0 R226
M201 X9000 Y9000 Z500 E10000 ; sets maximum accelerations, mm/sec^2
M203 X500 Y500 Z12 E120 ; sets maximum feedrates, mm/sec
M204 P2000 R1500 T2000 ; sets acceleration (P, T) and retract acceleration (R), mm/sec^2
M205 X10.00 Y10.00 Z0.20 E2.50 ; sets the jerk limits, mm/sec
M205 S0 T0 ; sets the minimum extruding and travel feed rate, mm/sec
M107
M862.3 P "MK2.5SMMU2S" ; printer model check
M862.1 P0.4 ; nozzle diameter check
M115 U3.8.0 ; tell printer latest fw version
G90 ; use absolute coordinates
M83 ; extruder relative mode
M104 S230 ; set extruder temp
M140 S60 ; set bed temp
Tx
M190 S60 ; wait for bed temp
M109 S230 ; wait for extruder temp
G28 W ; home all without mesh bed level
G80 ; mesh bed leveling

G21 ; set units to millimeters

;go outside print area
G1 Y-3.0 F1000.0
G1 Z0.4 F1000.0
; select extruder
Tc
; purge line
G1 X55.0 F2000.0
G1 Z0.3 F1000.0
G92 E0.0
G1 X240.0 E25.0 F2200.0
M73 P0 R226
G1 Y-2.0 F1000.0
G1 X55.0 E25 F1400.0
G1 Z0.20 F1000.0
G1 X5.0 E4.0 F1000.0
G92 E0.0
G21 ; set units to millimeters
G90 ; use absolute coordinates
M83 ; use relative distances for extrusion
M900 K30 ; Filament gcode
;BEFORE_LAYER_CHANGE
G92 E0.0
;0.2


G1 E-0.80000 F2100.00000
G1 Z0.600 F10800.000
;AFTER_LAYER_CHANGE
;0.2
G1 X120.888 Y92.245
G1 Z0.200
G1 E0.80000 F2100.00000
M204 S1000
G1 F1200
G1 X121.616 Y92.105 E0.02324
G1 X131.259 Y92.103 E0.30237
G1 X132.004 Y92.214 E0.02361
G1 X132.688 Y92.540 E0.02374
G1 X133.247 Y93.050 E0.02374
G1 X133.632 Y93.702 E0.02374
G1 X135.648 Y102.901 E0.29529
G1 X135.641 Y107.575 E0.14653
G1 X133.629 Y116.307 E0.28096
G1 X133.286 Y116.901 E0.02152
G1 X132.800 Y117.381 E0.02140
G1 X132.202 Y117.717 E0.02152
G1 X131.535 Y117.882 E0.02152
G1 X121.687 Y117.897 E0.30877
G1 X120.759 Y117.706 E0.02973
G1 X120.018 Y117.242 E0.02741
G1 X119.474 Y116.552 E0.02753
G1 X114.552 Y106.247 E0.35807
G1 X114.382 Y105.750 E0.01647
G1 X114.316 Y105.225 E0.01660
G1 X114.358 Y104.702 E0.01647
G1 X114.507 Y104.198 E0.01647
G1 X119.428 Y93.535 E0.36820
G1 X119.770 Y93.013 E0.01956
G1 X120.227 Y92.589 E0.01956
G1 X120.835 Y92.273 E0.02149
G1 X121.007 Y92.605 F10800.000
G1 F1200
G1 X121.648 Y92.481 E0.02047
G1 X131.259 Y92.480 E0.30135
G1 X131.907 Y92.579 E0.02055
G1 X132.496 Y92.865 E0.02055
G1 X132.977 Y93.317 E0.02066
G1 X133.300 Y93.887 E0.02055
G1 X135.275 Y102.966 E0.29133
G1 X135.268 Y107.517 E0.14268
G1 X133.276 Y116.174 E0.27855
G1 X132.977 Y116.683 E0.01851
G1 X132.556 Y117.092 E0.01839
G1 X132.039 Y117.376 E0.01851
G1 X131.464 Y117.510 E0.01851
G1 X121.698 Y117.520 E0.30620
G1 X120.887 Y117.351 E0.02597
G1 X120.256 Y116.948 E0.02349
G1 X119.799 Y116.359 E0.02338
G1 X114.895 Y106.090 E0.35679
G1 X114.693 Y105.214 E0.02822
G1 X114.861 Y104.329 E0.02822
G1 X119.764 Y93.708 E0.36681
G1 X120.056 Y93.259 E0.01680
G1 X120.449 Y92.894 E0.01680
G1 X120.954 Y92.632 E0.01782
G1 F8640
G1 X121.648 Y92.481 E-0.16408
G1 X124.229 Y92.481 E-0.59592
G1 E-0.04000 F2100.00000
G1 Z0.800 F10800.000
G1 X122.762 Y96.009
G1 Z0.200
G1 E0.80000 F2100.00000
G1 F1200
G1 X130.373 Y96.009 E0.23861
G1 X130.373 Y114.131 E0.56820
G1 X122.762 Y114.131 E0.23861
G1 X122.762 Y111.716 E0.07573
G1 X118.564 Y105.176 E0.24367
G1 X122.762 Y98.429 E0.24916
G1 X122.762 Y96.069 E0.07397
G1 X123.139 Y96.386 F10800.000
G1 F1200
G1 X129.995 Y96.386 E0.21497
G1 X129.995 Y113.754 E0.54455
G1 X123.139 Y113.754 E0.21497
G1 X123.139 Y111.605 E0.06738
G1 X119.010 Y105.173 E0.23966
G1 X123.139 Y98.536 E0.24506
G1 X123.139 Y96.446 E0.06553
G1 X123.198 Y95.991 F10800.000
G1 X122.318 Y96.826
G1 F1200
G1 X122.318 Y95.255 E0.04924
G1 X130.782 Y95.255 E0.26540
G1 X132.507 Y103.215 E0.25537
G1 X132.516 Y107.125 E0.12259
G1 X130.787 Y114.745 E0.24498
G1 X122.318 Y114.745 E0.26555
G1 X122.318 Y113.169 E0.04942
G1 X117.560 Y105.165 E0.29194
G1 X122.288 Y96.878 E0.29914
G1 X121.940 Y96.726 F10800.000
G1 F1200
G1 X121.940 Y94.878 E0.05793
G1 X131.086 Y94.878 E0.28676
G1 X132.884 Y103.174 E0.26616
G1 X132.893 Y107.167 E0.12518
G1 X131.088 Y115.122 E0.25576
G1 X121.940 Y115.122 E0.28681
G1 X121.940 Y113.272 E0.05799
G1 X117.124 Y105.169 E0.29557
G1 X121.911 Y96.778 E0.30289
G1 X122.287 Y96.526 F10800.000
G1 X122.484 Y97.299
G1 F1200
G1 X122.540 Y96.876 E0.00241
G1 X122.540 Y95.821 E0.00594
G1 X122.634 Y95.632 E0.00178
G1 X122.728 Y95.444 E0.00238
G1 X122.506 Y95.632 F10800.000
G1 F1200
G1 X130.671 Y95.632 E0.25598
G1 X130.404 Y95.444 F10800.000
G1 F1200
G1 X130.636 Y95.821 E0.00691
G1 X130.659 Y96.040 E0.00345
G1 X130.683 Y96.260 E0.00416
G1 X130.706 Y96.479 E0.00487
G1 X130.730 Y96.699 E0.00559
G1 F8640
G1 X130.706 Y96.479 E-0.05096
G1 E-0.74904 F2100.00000
G1 Z0.800 F10800.000
G1 X131.216 Y97.792
G1 Z0.200
G1 E0.80000 F2100.00000
G1 F1200
G1 X130.655 Y97.231 E0.02564
G1 X130.655 Y97.781 E0.01779
G1 X131.147 Y98.272 E0.02246
G1 X131.299 Y98.975 E0.02324
G1 X130.655 Y98.331 E0.02942
G1 X130.655 Y98.881 E0.01779
G1 X131.451 Y99.677 E0.03638
G1 X131.603 Y100.379 E0.02324
G1 X130.655 Y99.431 E0.04334
G1 X130.655 Y99.981 E0.01779
G1 X131.755 Y101.081 E0.05030
G1 X131.907 Y101.783 E0.02324
G1 X130.655 Y100.531 E0.05726
G1 X130.655 Y101.081 E0.01779
G1 X132.060 Y102.485 E0.06422
G1 X132.212 Y103.188 E0.02324
G1 X130.655 Y101.631 E0.07118
G1 X130.655 Y102.181 E0.01779
G1 X132.224 Y103.750 E0.07173
G1 X132.225 Y104.301 E0.01784
G1 X130.655 Y102.731 E0.07180
G1 X130.655 Y103.281 E0.01779
G1 X132.227 Y104.853 E0.07187
G1 X132.228 Y105.404 E0.01784
G1 X130.655 Y103.831 E0.07195
G1 X130.655 Y104.381 E0.01779
G1 X132.230 Y105.956 E0.07202
G1 X132.232 Y106.508 E0.01784
G1 X130.655 Y104.931 E0.07209
G1 X130.655 Y105.481 E0.01779
G1 X132.233 Y107.059 E0.07216
G1 X132.233 Y107.094 E0.00112
G1 X132.138 Y107.514 E0.01393
G1 X130.655 Y106.031 E0.06781
G1 X130.655 Y106.581 E0.01779
G1 X132.036 Y107.962 E0.06315
G1 X131.934 Y108.410 E0.01487
G1 X130.655 Y107.131 E0.05850
G1 X130.655 Y107.681 E0.01779
G1 X131.833 Y108.859 E0.05385
G1 X131.731 Y109.307 E0.01487
G1 X130.655 Y108.231 E0.04919
G1 X130.655 Y108.781 E0.01779
G1 X131.629 Y109.755 E0.04454
G1 X131.528 Y110.204 E0.01487
G1 X130.655 Y109.331 E0.03989
G1 X130.655 Y109.881 E0.01779
G1 X131.426 Y110.652 E0.03523
G1 X131.324 Y111.100 E0.01487
G1 X130.655 Y110.431 E0.03058
G1 X130.655 Y110.981 E0.01779
G1 X131.222 Y111.548 E0.02593
G1 X131.121 Y111.997 E0.01487
G1 X130.655 Y111.531 E0.02127
G1 X130.655 Y112.081 E0.01779
G1 X131.019 Y112.445 E0.01662
G1 X130.917 Y112.893 E0.01486
G1 X130.486 Y112.462 E0.01973
G1 X130.729 Y113.392 F10800.000
G1 F1200
G1 X130.703 Y113.624 E0.00585
G1 X130.677 Y113.856 E0.00501
G1 X130.651 Y114.088 E0.00416
G1 X130.625 Y114.320 E0.00331
G1 X130.542 Y114.438 E0.00205
G1 X122.506 Y114.438 E0.11409
G1 X122.599 Y114.438 F10800.000
G1 F1200
G1 X122.540 Y114.320 E0.00112
G1 X122.540 Y113.117 E0.00678
G1 X122.484 Y112.713 E0.00230
G1 X122.649 Y112.383 F10800.000
G1 F1200
G1 X121.005 Y110.739 E0.07449
G1 X121.833 Y110.477 F10800.000
G1 F1200
G1 X119.408 Y108.053 E0.10986
G1 X119.880 Y107.434 F10800.000
G1 F1200
G1 X117.811 Y105.366 E0.09372
G1 F8640
G1 X119.880 Y107.434 E-0.67549
G1 E-0.12451 F2100.00000
G1 Z0.800 F10800.000
G1 X118.903 Y105.913
G1 Z0.200
G1 E0.80000 F2100.00000
G1 F1200
G1 X117.984 Y104.993 E0.04167
G1 X118.181 Y104.646 E0.01280
G1 X118.415 Y104.880 E0.01059
G1 X118.624 Y104.544 E0.01267
G1 X118.379 Y104.299 E0.01109
G1 X118.577 Y103.952 E0.01280
G1 X118.833 Y104.208 E0.01159
G1 X119.042 Y103.873 E0.01267
G1 X118.775 Y103.606 E0.01209
G1 X118.973 Y103.259 E0.01280
G1 X119.251 Y103.537 E0.01260
G1 X119.460 Y103.201 E0.01267
G1 X119.171 Y102.912 E0.01310
G1 X119.369 Y102.565 E0.01280
G1 X119.669 Y102.865 E0.01360
G1 X119.878 Y102.529 E0.01267
G1 X119.567 Y102.218 E0.01410
G1 X119.765 Y101.871 E0.01280
G1 X120.087 Y102.193 E0.01460
G1 X120.296 Y101.857 E0.01267
G1 X119.963 Y101.524 E0.01510
G1 X120.161 Y101.177 E0.01280
G1 X120.505 Y101.521 E0.01560
G1 X120.714 Y101.185 E0.01267
G1 X120.359 Y100.830 E0.01610
G1 X120.557 Y100.483 E0.01280
G1 X120.923 Y100.850 E0.01660
G1 X121.132 Y100.514 E0.01267
G1 X120.755 Y100.136 E0.01710
G1 X120.952 Y99.789 E0.01280
G1 X121.341 Y100.178 E0.01761
G1 X121.550 Y99.842 E0.01267
G1 X121.150 Y99.442 E0.01811
G1 X121.348 Y99.095 E0.01280
G1 X121.759 Y99.506 E0.01861
G1 X121.968 Y99.170 E0.01267
G1 X121.546 Y98.748 E0.01911
G1 X121.744 Y98.402 E0.01280
G1 X122.177 Y98.834 E0.01961
G1 X122.386 Y98.498 E0.01267
G1 X121.942 Y98.055 E0.02011
G1 X122.140 Y97.708 E0.01280
G1 X122.649 Y98.217 E0.02307
G1 F8640
G1 X122.140 Y97.708 E-0.16632
G1 X121.942 Y98.055 E-0.09223
G1 X122.386 Y98.498 E-0.14494
G1 X122.177 Y98.834 E-0.09134
G1 X121.744 Y98.402 E-0.14133
G1 X121.546 Y98.748 E-0.09223
G1 X121.643 Y98.845 E-0.03161
G1 E-0.04000 F2100.00000
G1 Z0.800 F10800.000
G1 X118.610 Y106.709
G1 Z0.200
G1 E0.80000 F2100.00000
G1 F1200
G1 X120.856 Y108.956 E0.10179
G1 X120.207 Y109.396 F10800.000
G1 F1200
G1 X122.649 Y111.838 E0.11066
G1 F8640
G1 X120.322 Y109.511 E-0.76000
G1 E-0.04000 F2100.00000
G1 Z0.800 F10800.000
G1 X122.599 Y114.438
G1 Z0.200
G1 E0.80000 F2100.00000
G1 F1200
G1 X122.658 Y114.556 E0.00149
M106 S255
;BEFORE_LAYER_CHANGE
G92 E0.0
;0.4


G1 F8640
G1 X122.599 Y114.438 E-0.03051
G1 E-0.76949 F2100.00000
G1 Z0.800 F10800.000
;AFTER_LAYER_CHANGE
;0.4
G1 X120.759 Y117.706
G1 Z0.400
G1 E0.80000 F2100.00000
G1 F1230
G1 X120.018 Y117.242 E0.02741
G1 X119.474 Y116.552 E0.02753
G1 X114.552 Y106.247 E0.35807
G1 X114.382 Y105.750 E0.01647
G1 X114.316 Y105.225 E0.01660
G1 X114.358 Y104.702 E0.01647
G1 X114.507 Y104.198 E0.01647
G1 X119.428 Y93.535 E0.36820
G1 X119.770 Y93.013 E0.01956
G1 X120.227 Y92.589 E0.01956
G1 X120.888 Y92.245 E0.02337
G1 X121.616 Y92.105 E0.02324
G1 X131.259 Y92.103 E0.30237
G1 X132.004 Y92.214 E0.02361
G1 X132.688 Y92.540 E0.02374
G1 X133.247 Y93.050 E0.02374
G1 X133.632 Y93.702 E0.02374
G1 X135.648 Y102.901 E0.29529
G1 X135.641 Y107.575 E0.14653
G1 X133.629 Y116.307 E0.28096
G1 X133.286 Y116.901 E0.02152
G1 X132.800 Y117.381 E0.02140
G1 X132.202 Y117.717 E0.02152
G1 X131.535 Y117.882 E0.02152
G1 X121.687 Y117.897 E0.30877
G1 X120.817 Y117.718 E0.02785
G1 F8640
G1 X120.018 Y117.242 E-0.21489
G1 X119.474 Y116.552 E-0.20276
G1 X118.835 Y115.214 E-0.34235
G1 E-0.04000 F2100.00000
G1 Z1.000 F10800.000
G1 X122.718 Y114.176
G1 Z0.400
G1 E0.80000 F2100.00000
M204 S800
G1 F1230
G1 X122.718 Y111.729 E0.08283
G1 X118.512 Y105.176 E0.26357
G1 X122.718 Y98.416 E0.26951
G1 X122.718 Y95.964 E0.08298
G1 X130.418 Y95.964 E0.26064
G1 X130.418 Y114.176 E0.61645
G1 X122.778 Y114.176 E0.25861
M204 S1000
G1 X123.125 Y113.769 F10800.000
M204 S800
G1 F1230
G1 X123.125 Y111.610 E0.07310
G1 X118.993 Y105.173 E0.25890
G1 X123.125 Y98.532 E0.26473
G1 X123.125 Y96.371 E0.07313
G1 X130.011 Y96.371 E0.23308
G1 X130.011 Y113.769 E0.58889
G1 X123.185 Y113.769 E0.23105
M204 S1000
G1 X122.756 Y113.924 F10800.000
G1 F8640
G1 X123.125 Y111.610 E-0.49883
G1 X122.514 Y110.658 E-0.26117
G1 E-0.04000 F2100.00000
G1 Z1.000 F10800.000
G1 X122.363 Y113.156
G1 Z0.400
G1 E0.80000 F2100.00000
M204 S800
G1 F1230
G1 X117.613 Y105.164 E0.31469
G1 X122.363 Y96.838 E0.32449
G1 X122.363 Y95.300 E0.05204
G1 X130.746 Y95.300 E0.28376
G1 X132.462 Y103.220 E0.27430
G1 X132.471 Y107.120 E0.13201
G1 X130.751 Y114.700 E0.26308
G1 X122.363 Y114.700 E0.28393
G1 X122.363 Y113.216 E0.05021
M204 S1000
G1 X121.956 Y113.268 F10800.000
M204 S800
G1 F1230
G1 X117.141 Y105.169 E0.31893
G1 X121.956 Y96.730 E0.32886
G1 X121.956 Y94.893 E0.06216
G1 X131.074 Y94.893 E0.30865
G1 X132.869 Y103.176 E0.28687
G1 X132.879 Y107.165 E0.13503
G1 X131.076 Y115.107 E0.27565
G1 X121.956 Y115.107 E0.30871
G1 X121.956 Y113.328 E0.06021
M204 S1000
G1 X122.048 Y112.879 F10800.000
G1 X122.112 Y112.496
M204 S2000
G1 F1230
G1 X122.412 Y112.196 E0.01510
G1 X122.412 Y111.819 E0.01344
G1 X122.323 Y111.680 E0.00587
G1 X122.020 Y111.983 E0.01525
G1 X121.795 Y111.603 E0.01573
G1 X122.087 Y111.311 E0.01470
G1 X121.850 Y110.942 E0.01560
G1 X121.569 Y111.223 E0.01414
G1 X121.343 Y110.843 E0.01573
G1 X121.613 Y110.573 E0.01359
G1 X121.376 Y110.205 E0.01560
G1 X121.117 Y110.463 E0.01304
G1 X120.892 Y110.084 E0.01573
G1 X121.140 Y109.836 E0.01248
G1 X120.903 Y109.467 E0.01560
G1 X120.666 Y109.704 E0.01193
G1 X120.440 Y109.324 E0.01573
G1 X120.666 Y109.098 E0.01138
G1 X120.429 Y108.729 E0.01560
G1 X120.214 Y108.944 E0.01083
G1 X119.989 Y108.565 E0.01573
G1 X120.193 Y108.361 E0.01027
G1 X119.956 Y107.992 E0.01560
G1 X119.763 Y108.185 E0.00972
G1 X119.537 Y107.805 E0.01573
G1 X119.719 Y107.623 E0.00917
G1 X119.483 Y107.254 E0.01560
G1 X119.312 Y107.425 E0.00861
G1 X119.086 Y107.045 E0.01573
G1 X119.378 Y106.753 E0.01473
M204 S1000
G1 X118.803 Y106.378 F10800.000
G1 F1230
G1 X118.121 Y105.274 E0.04229
G1 X118.075 Y105.160 E0.00399
G1 X118.438 Y104.532 E0.02364
G1 X118.489 Y103.875 F10800.000
M204 S2000
G1 F1230
G1 X120.311 Y102.052 E0.09964
M204 S1000
G1 X119.362 Y102.344 F10800.000
M204 S2000
G1 F1230
G1 X121.394 Y100.312 E0.11109
M204 S1000
G1 F8640
G1 X119.362 Y102.344 E-0.66357
G1 E-0.13643 F2100.00000
G1 Z1.000 F10800.000
G1 X121.109 Y99.283
G1 Z0.400
G1 E0.80000 F2100.00000
M204 S2000
G1 F1230
G1 X122.596 Y97.796 E0.08130
M204 S1000
G1 X122.477 Y98.572 F10800.000
M204 S2000
G1 F1230
G1 X120.235 Y100.813 E0.12255
M204 S1000
G1 F8640
G1 X122.477 Y98.572 E-0.73197
G1 E-0.06803 F2100.00000
G1 Z1.000 F10800.000
G1 X122.566 Y95.632
G1 Z0.400
G1 E0.80000 F2100.00000
G1 F1230
G1 X130.610 Y95.632 E0.17192
G1 X130.646 Y95.912 F10800.000
G1 F1230
G1 X130.672 Y96.157 E0.00205
G1
G1 X130.698 Y96.402 E0.00299
G1
G1 X130.724 Y96.648 E0.00393
G1
G1 X130.751 Y96.893 E0.00487
G1
G1 X130.777 Y97.139 E0.00581
G1
G1 X130.803 Y97.384 E0.00675
G1 X131.154 Y97.757 F10800.000
M204 S2000
G1 F1230
G1 X130.723 Y98.188 E0.02086
G1 X130.723 Y98.771 E0.01998
G1 X131.103 Y98.390 E0.01843
G1 X131.207 Y98.870 E0.01680
G1 X130.723 Y99.354 E0.02346
G1 X130.723 Y99.937 E0.01998
G1 X131.311 Y99.349 E0.02850
G1 X131.415 Y99.828 E0.01680
G1 X130.723 Y100.520 E0.03353
G1 X130.723 Y101.103 E0.01998
G1 X131.519 Y100.307 E0.03856
G1 X131.623 Y100.786 E0.01680
G1 X130.723 Y101.686 E0.04360
G1 X130.723 Y102.269 E0.01998
G1 X131.726 Y101.265 E0.04863
G1 X131.830 Y101.744 E0.01680
G1 X130.723 Y102.852 E0.05366
G1 X130.723 Y103.434 E0.01998
G1 X131.934 Y102.224 E0.05870
G1 X132.038 Y102.703 E0.01680
G1 X130.723 Y104.017 E0.06373
M73 P0 R225
G1 X130.723 Y104.600 E0.01998
G1 X132.142 Y103.182 E0.06877
G1 X132.157 Y103.253 E0.00250
G1 X132.158 Y103.748 E0.01697
G1 X130.723 Y105.183 E0.06957
G1 X130.723 Y105.766 E0.01998
G1 X132.160 Y104.330 E0.06964
G1 X132.161 Y104.912 E0.01994
G1 X130.723 Y106.349 E0.06970
G1 X130.723 Y106.932 E0.01998
G1 X132.162 Y105.493 E0.06977
G1 X132.164 Y106.075 E0.01994
G1 X130.723 Y107.515 E0.06983
G1 X130.723 Y108.098 E0.01998
G1 X132.165 Y106.656 E0.06990
G1 X132.166 Y107.086 E0.01474
G1 X132.121 Y107.283 E0.00692
G1 X130.723 Y108.681 E0.06778
G1 X130.723 Y109.264 E0.01998
G1 X131.950 Y108.037 E0.05948
G1 X131.779 Y108.791 E0.02651
G1 X130.723 Y109.847 E0.05119
G1 X130.723 Y110.430 E0.01998
G1 X131.608 Y109.545 E0.04289
G1 X131.437 Y110.300 E0.02651
G1 X130.723 Y111.013 E0.03459
G1 X130.723 Y111.596 E0.01998
G1 X131.266 Y111.054 E0.02629
G1 X131.094 Y111.808 E0.02651
G1 X130.540 Y112.362 E0.02687
M204 S1000
G1 X130.802 Y112.737 F10800.000
G1 F1230
G1 X130.776 Y112.971 E0.00635
G1
G1 X130.750 Y113.204 E0.00547
G1
G1 X130.724 Y113.437 E0.00459
G1
G1 X130.698 Y113.671 E0.00370
G1
G1 X130.672 Y113.904 E0.00282
G1
G1 X130.645 Y114.137 E0.00194
G1 X130.602 Y114.438 F10800.000
G1 F1230
G1 X122.566 Y114.438 E0.07776
;BEFORE_LAYER_CHANGE
G92 E0.0
;0.6


G1 F8640
G1 X125.858 Y114.438 E-0.76000
G1 E-0.04000 F2100.00000
G1 Z1.000 F10800.000
;AFTER_LAYER_CHANGE
;0.6
G1 X120.759 Y117.706
G1 Z0.600
G1 E0.80000 F2100.00000
G1 F1250
