; generated by PrusaSlicer 2.1.1+win64 on 2020-01-21 at 17:25:01 UTC

; 

; external perimeters extrusion width = 0.45mm
; perimeters extrusion width = 0.45mm
; infill extrusion width = 0.45mm
; solid infill extrusion width = 0.45mm
; top infill extrusion width = 0.40mm
; first layer extrusion width = 0.42mm

; external perimeters extrusion width = 0.45mm
; perimeters extrusion width = 0.45mm
; infill extrusion width = 0.45mm
; solid infill extrusion width = 0.45mm
; top infill extrusion width = 0.40mm
; first layer extrusion width = 0.42mm

M73 P0 R37
M201 X9000 Y9000 Z500 E10000 ; sets maximum accelerations, mm/sec^2
M203 X500 Y500 Z12 E120 ; sets maximum feedrates, mm/sec
M204 P2000 R1500 T2000 ; sets acceleration (P, T) and retract acceleration (R), mm/sec^2
M205 X10.00 Y10.00 Z0.20 E2.50 ; sets the jerk limits, mm/sec
M205 S0 T0 ; sets the minimum extruding and travel feed rate, mm/sec
M107
M862.3 P "MK2.5SMMU2S" ; printer model check
M862.1 P0.4 ; nozzle diameter check
M115 U3.8.1 ; tell printer latest fw version
G90 ; use absolute coordinates
M83 ; extruder relative mode
M104 S215 ; set extruder temp
M140 S60 ; set bed temp
M190 S60 ; wait for bed temp
M109 S215 ; wait for extruder temp
G28 W ; home all without mesh bed level
G80 ; mesh bed leveling

; Send the filament type to the MMU2.0 unit.
; E stands for extruder number, F stands for filament type (0: default; 1:flex; 2: PVA)
M403 E0 F0
M403 E1 F0
M403 E2 F0
M403 E3 F0
M403 E4 F0


;go outside print area
G1 Y-3.0 F1000.0
G1 Z0.4 F1000.0
; select extruder
T0
; initial load
G1 X55.0 E29.0 F1073.0
M73 P0 R37
G1 X5.0 E29.0 F1800.0
G1 X55.0 E8.0 F2000.0
G1 Z0.3 F1000.0
G92 E0.0
G1 X240.0 E25.0 F2200.0
G1 Y-2.0 F1000.0
G1 X55.0 E25 F1400.0
G1 Z0.20 F1000.0
G1 X5.0 E4.0 F1000.0
G92 E0.0

G92 E0.0
G21 ; set units to millimeters
G90 ; use absolute coordinates
M83 ; use relative distances for extrusion
T0
M900 K30 ; Filament gcode
G1 Z0.200 F10800.000
;BEFORE_LAYER_CHANGE
G92 E0.0
;0.2


G1 E-0.80000 F2100.00000
G1 Z0.800 F10800.000
G1 Z0.200
;AFTER_LAYER_CHANGE
;0.2
G1 E-2.20000 F2100.00000
G1 Z0.800 F10800.000
G1 X174.346 Y65.099
G1 Z0.200
G1 E3.00000 F2100.00000
;-------------------------------------
; CP WIPE TOWER FIRST LAYER BRIM START
G1  X174.346 Y79.159 E0.8016 F2400
G1  X171.803 Y79.616  F7000
G1  Y64.642 E0.6260 F2100
G1  X110.889 E2.5466
G1  Y79.616 E0.6260
G1  X171.803 E2.5466
G1  X172.260 Y80.073  F7000
G1  Y64.185 E0.6642 F2100
G1  X110.432 E2.5849
G1  Y80.073 E0.6642
G1  X172.260 E2.5849
G1  X172.717 Y80.530  F7000
G1  Y63.728 E0.7025 F2100
G1  X109.975 E2.6231
G1  Y80.530 E0.7025
G1  X172.717 E2.6231
G1  X173.174 Y80.987  F7000
G1  Y63.271 E0.7407 F2100
G1  X109.518 E2.6613
G1  Y80.987 E0.7407
G1  X173.174 E2.6613
G1  X171.346 Y79.159  F7000
G1  X111.346
G1  X171.346
; CP WIPE TOWER FIRST LAYER BRIM END
;-----------------------------------

G1 F8640
G1 X168.054 Y79.159 E-0.76000
G1 E-0.04000 F2100.00000
G1 Z0.800 F10800.000
G1 X101.695 Y63.989
G1 Z0.200
G1 E0.80000 F2100.00000
M204 S1000
G1 F1200
G1 X101.961 Y64.697 E0.02372
G1 X107.091 Y101.945 E1.17890
G1 X107.076 Y108.259 E0.19798
G1 X101.937 Y145.412 E1.17599
G1 X101.674 Y146.047 E0.02157
G1 X101.226 Y146.569 E0.02157
G1 X100.638 Y146.926 E0.02157
G1 X99.968 Y147.083 E0.02157
G1 X80.070 Y147.089 E0.62389
G1 X79.567 Y147.029 E0.01589
G1 X78.978 Y146.793 E0.01987
G1 X78.482 Y146.399 E0.01987
G1 X78.118 Y145.876 E0.01998
G1 X77.921 Y145.274 E0.01987
G1 X72.796 Y108.045 E1.17831
G1 X72.810 Y101.741 E0.19763
G1 X77.949 Y64.588 E1.17600
G1 X78.211 Y63.956 E0.02146
G1 X78.658 Y63.433 E0.02157
G1 X79.245 Y63.075 E0.02157
G1 X79.911 Y62.917 E0.02146
G1 X99.813 Y62.911 E0.62401
G1 X100.554 Y63.041 E0.02360
G1 X101.207 Y63.416 E0.02360
G1 X101.656 Y63.943 E0.02172
G1 F8640
G1 X101.961 Y64.697 E-0.18774
G1 X102.299 Y67.153 E-0.57226
G1 E-0.04000 F2100.00000
G1 Z0.800 F10800.000
G1 X92.419 Y113.747
G1 Z0.200
G1 E0.80000 F2100.00000
G1 F1200
G1 X93.323 Y113.977 E0.02925
G1 X94.113 Y114.246 E0.02617
G1 X94.877 Y114.569 E0.02599
G1 X95.612 Y114.943 E0.02585
G1 X96.316 Y115.366 E0.02575
G1 X96.986 Y115.835 E0.02567
G1 X97.621 Y116.350 E0.02562
G1 X98.218 Y116.906 E0.02559
G1 X98.776 Y117.502 E0.02559
G1 X99.291 Y118.137 E0.02562
G1 X99.761 Y118.806 E0.02566
G1 X100.185 Y119.510 E0.02574
G1 X100.559 Y120.244 E0.02585
G1 X100.883 Y121.007 E0.02599
G1 X101.152 Y121.797 E0.02616
G1 X101.366 Y122.611 E0.02639
G1 X101.521 Y123.447 E0.02666
G1 X101.616 Y124.302 E0.02698
G1 X101.648 Y125.174 E0.02736
G1 X101.616 Y126.046 E0.02736
G1 X101.521 Y126.901 E0.02698
G1 X101.366 Y127.737 E0.02666
G1 X101.152 Y128.551 E0.02639
G1 X100.883 Y129.341 E0.02616
G1 X100.559 Y130.104 E0.02599
G1 X100.185 Y130.838 E0.02585
G1 X99.761 Y131.541 E0.02574
G1 X99.291 Y132.211 E0.02566
G1 X98.776 Y132.845 E0.02562
G1 X98.218 Y133.442 E0.02559
G1 X97.621 Y133.998 E0.02559
G1 X96.986 Y134.512 E0.02562
G1 X96.316 Y134.982 E0.02567
G1 X95.612 Y135.405 E0.02575
G1 X94.877 Y135.779 E0.02585
G1 X94.113 Y136.102 E0.02599
G1 X93.323 Y136.371 E0.02617
G1 X92.509 Y136.584 E0.02639
G1 X91.673 Y136.739 E0.02666
G1 X90.818 Y136.834 E0.02698
G1 X89.946 Y136.866 E0.02736
G1 X89.073 Y136.834 E0.02736
G1 X88.218 Y136.739 E0.02698
G1 X87.382 Y136.584 E0.02666
G1 X86.568 Y136.371 E0.02639
G1 X85.778 Y136.102 E0.02617
G1 X85.014 Y135.779 E0.02599
G1 X84.279 Y135.405 E0.02585
G1 X83.575 Y134.982 E0.02575
G1 X82.905 Y134.512 E0.02567
G1 X82.270 Y133.998 E0.02562
G1 X81.673 Y133.442 E0.02559
G1 X81.115 Y132.845 E0.02559
G1 X80.600 Y132.211 E0.02562
G1 X80.130 Y131.541 E0.02566
G1 X79.706 Y130.838 E0.02574
G1 X79.332 Y130.104 E0.02585
G1 X79.009 Y129.341 E0.02599
G1 X78.739 Y128.551 E0.02616
G1 X78.525 Y127.737 E0.02639
G1 X78.370 Y126.901 E0.02666
G1 X78.275 Y126.046 E0.02698
G1 X78.243 Y125.174 E0.02736
G1 X78.275 Y124.302 E0.02736
G1 X78.370 Y123.447 E0.02698
G1 X78.525 Y122.611 E0.02666
G1 X78.739 Y121.797 E0.02639
G1 X79.009 Y121.007 E0.02616
G1 X79.332 Y120.244 E0.02599
G1 X79.706 Y119.510 E0.02585
G1 X80.130 Y118.806 E0.02574
G1 X80.600 Y118.137 E0.02566
G1 X81.115 Y117.502 E0.02562
G1 X81.673 Y116.906 E0.02559
G1 X82.270 Y116.350 E0.02559
G1 X82.905 Y115.835 E0.02562
G1 X83.575 Y115.366 E0.02567
G1 X84.279 Y114.943 E0.02575
G1 X85.014 Y114.569 E0.02585
G1 X85.778 Y114.246 E0.02599
G1 X86.568 Y113.977 E0.02617
G1 X87.382 Y113.764 E0.02639
G1 X88.220 Y113.609 E0.02672
G1 X89.158 Y113.511 E0.02957
G1 X89.946 Y113.482 E0.02471
G1 X90.818 Y113.514 E0.02736
G1 X91.673 Y113.609 E0.02698
G1 X92.360 Y113.736 E0.02191
G1 X92.291 Y114.107 F10800.000
G1 F1200
G1 X93.215 Y114.339 E0.02985
G1 X93.979 Y114.599 E0.02532
G1 X94.718 Y114.911 E0.02515
G1 X95.429 Y115.273 E0.02502
G1 X96.110 Y115.682 E0.02492
G1 X96.759 Y116.137 E0.02484
G1 X97.374 Y116.634 E0.02480
G1 X97.952 Y117.173 E0.02477
G1 X98.491 Y117.750 E0.02477
G1 X98.990 Y118.364 E0.02479
G1 X99.445 Y119.012 E0.02484
G1 X99.855 Y119.693 E0.02491
G1 X100.217 Y120.403 E0.02501
G1 X100.530 Y121.142 E0.02514
G1 X100.791 Y121.906 E0.02531
G1 X100.998 Y122.693 E0.02553
G1 X101.148 Y123.502 E0.02579
G1 X101.240 Y124.330 E0.02611
G1 X101.271 Y125.174 E0.02649
G1 X101.240 Y126.018 E0.02649
G1 X101.148 Y126.846 E0.02611
G1 X100.998 Y127.655 E0.02579
G1 X100.791 Y128.442 E0.02553
G1 X100.530 Y129.206 E0.02531
G1 X100.217 Y129.945 E0.02514
G1 X99.855 Y130.655 E0.02501
G1 X99.445 Y131.336 E0.02491
G1 X98.990 Y131.984 E0.02484
G1 X98.491 Y132.598 E0.02479
G1 X97.952 Y133.175 E0.02477
G1 X97.374 Y133.713 E0.02477
G1 X96.759 Y134.211 E0.02480
G1 X96.110 Y134.666 E0.02484
G1 X95.429 Y135.075 E0.02492
G1 X94.718 Y135.437 E0.02502
G1 X93.979 Y135.749 E0.02515
G1 X93.215 Y136.009 E0.02532
G1 X92.427 Y136.216 E0.02554
G1 X91.618 Y136.366 E0.02580
G1 X90.790 Y136.457 E0.02611
G1 X89.946 Y136.488 E0.02649
G1 X89.101 Y136.457 E0.02649
G1 X88.273 Y136.366 E0.02611
G1 X87.464 Y136.216 E0.02580
G1 X86.677 Y136.009 E0.02554
G1 X85.912 Y135.749 E0.02532
G1 X85.173 Y135.437 E0.02515
G1 X84.462 Y135.075 E0.02502
G1 X83.781 Y134.666 E0.02492
G1 X83.132 Y134.211 E0.02484
G1 X82.517 Y133.713 E0.02480
G1 X81.939 Y133.175 E0.02477
G1 X81.400 Y132.598 E0.02477
G1 X80.902 Y131.984 E0.02479
G1 X80.446 Y131.336 E0.02484
G1 X80.036 Y130.655 E0.02491
G1 X79.674 Y129.945 E0.02501
G1 X79.361 Y129.206 E0.02514
G1 X79.100 Y128.442 E0.02531
G1 X78.893 Y127.655 E0.02553
G1 X78.743 Y126.846 E0.02579
G1 X78.651 Y126.018 E0.02611
G1 X78.620 Y125.174 E0.02649
G1 X78.651 Y124.330 E0.02649
G1 X78.743 Y123.502 E0.02611
G1 X78.893 Y122.693 E0.02579
G1 X79.100 Y121.906 E0.02553
G1 X79.361 Y121.142 E0.02531
G1 X79.674 Y120.403 E0.02514
G1 X80.036 Y119.693 E0.02501
G1 X80.446 Y119.012 E0.02491
G1 X80.902 Y118.364 E0.02484
G1 X81.400 Y117.750 E0.02479
G1 X81.939 Y117.173 E0.02477
G1 X82.517 Y116.634 E0.02477
G1 X83.132 Y116.137 E0.02480
G1 X83.781 Y115.682 E0.02484
G1 X84.462 Y115.273 E0.02492
G1 X85.173 Y114.911 E0.02502
G1 X85.912 Y114.599 E0.02515
G1 X86.677 Y114.339 E0.02532
G1 X87.464 Y114.132 E0.02553
G1 X88.274 Y113.982 E0.02582
G1 X89.185 Y113.888 E0.02870
M73 P3 R36
G1 X89.946 Y113.860 E0.02388
G1 X90.790 Y113.891 E0.02649
G1 X91.618 Y113.982 E0.02611
G1 X92.232 Y114.096 E0.01959
G1 X92.559 Y113.810 F10800.000
G1 F8640
G1 X93.215 Y114.339 E-0.23363
G1 X93.979 Y114.599 E-0.18648
G1 X94.718 Y114.911 E-0.18522
G1 X95.315 Y115.215 E-0.15468
G1 E-0.04000 F2100.00000
G1 Z0.800 F10800.000
G1 X104.229 Y108.587
G1 Z0.200
G1 E0.80000 F2100.00000
G1 F1200
G1 X99.298 Y144.314 E1.13080
G1 X80.589 Y144.314 E0.58660
G1 X75.657 Y108.587 E1.13080
G1 X104.169 Y108.587 E0.89397
G1 X104.662 Y108.210 F10800.000
G1 F1200
G1 X99.626 Y144.691 E1.15467
G1 X80.260 Y144.691 E0.60721
G1 X75.225 Y108.210 E1.15467
G1 X104.602 Y108.210 E0.92111
G1 X104.548 Y108.594 F10800.000
G1 F8640
G1 X104.157 Y111.471 E-0.76000
G1 E-0.04000 F2100.00000
G1 Z0.800 F10800.000
G1 X95.862 Y131.845
G1 Z0.200
G1 E0.80000 F2100.00000
G1 F1200
G1 X96.211 Y132.189 E0.01535
G1 X95.699 Y132.614 E0.02086
G1 X95.166 Y132.991 E0.02047
G1 X94.573 Y133.357 E0.02186
G1 X93.988 Y133.669 E0.02079
G1 X93.417 Y133.925 E0.01961
G1 X92.923 Y134.107 E0.01652
G1 X92.799 Y133.634 E0.01533
G1 X93.217 Y133.478 E0.01399
G1 X93.851 Y133.197 E0.02173
G1 X94.386 Y132.916 E0.01895
G1 X94.897 Y132.597 E0.01891
G1 X95.355 Y132.264 E0.01775
G1 X95.818 Y131.886 E0.01873
G1 F8640
G1 X96.211 Y132.189 E-0.11459
G1 X95.699 Y132.614 E-0.15360
G1 X95.166 Y132.991 E-0.15074
G1 X94.573 Y133.357 E-0.16100
G1 X93.988 Y133.669 E-0.15310
G1 X93.881 Y133.717 E-0.02696
G1 E-0.04000 F2100.00000
G1 Z0.800 F10800.000
G1 X92.624 Y134.456
G1 Z0.200
G1 E0.80000 F2100.00000
G1 F1200
G1 X92.343 Y133.381 E0.03484
G1 X92.556 Y133.322 E0.00692
G1 X93.074 Y133.129 E0.01736
G1 X93.686 Y132.858 E0.02099
G1 X94.198 Y132.589 E0.01812
G1 X94.686 Y132.284 E0.01805
G1 X95.125 Y131.965 E0.01699
G1 X95.576 Y131.596 E0.01826
G1 X95.869 Y131.323 E0.01257
G1 X96.671 Y132.113 E0.03531
G1 X97.455 Y131.229 E0.03705
G1 X97.896 Y130.620 E0.02356
G1 X98.012 Y130.686 E0.00416
G1 X97.681 Y131.164 E0.01823
G1 X97.169 Y131.782 E0.02517
G1 X96.590 Y132.364 E0.02573
G1 X95.929 Y132.913 E0.02694
G1 X95.374 Y133.306 E0.02130
G1 X94.761 Y133.684 E0.02261
G1 X94.154 Y134.008 E0.02157
G1 X93.559 Y134.275 E0.02043
G1 X92.975 Y134.489 E0.01952
G1 X92.399 Y134.658 E0.01881
G1 X91.830 Y134.786 E0.01829
G1 X91.267 Y134.879 E0.01790
G1 X90.743 Y134.934 E0.01652
G1 X90.742 Y134.797 E0.00430
G1 X91.560 Y134.703 E0.02582
G1 X92.084 Y134.602 E0.01672
G1 X92.566 Y134.472 E0.01567
G1 X93.012 Y134.358 F10800.000
G1 F8640
G1 X92.343 Y133.381 E-0.25708
G1 X92.556 Y133.322 E-0.05098
G1 X93.074 Y133.129 E-0.12786
G1 X93.686 Y132.858 E-0.15455
G1 X94.198 Y132.589 E-0.13342
G1 X94.331 Y132.506 E-0.03610
G1 E-0.04000 F2100.00000
G1 Z0.800 F10800.000
G1 X87.139 Y133.637
G1 Z0.200
G1 E0.80000 F2100.00000
G1 F1200
G1 X87.016 Y134.113 E0.01542
G1 X86.590 Y133.963 E0.01416
G1 X85.999 Y133.707 E0.02019
G1 X85.391 Y133.396 E0.02142
G1 X84.805 Y133.050 E0.02134
G1 X84.113 Y132.564 E0.02650
G1 X83.712 Y132.223 E0.01650
G1 X84.055 Y131.884 E0.01514
G1 X84.400 Y132.167 E0.01399
G1 X84.960 Y132.575 E0.02173
G1 X85.472 Y132.897 E0.01895
G1 X86.005 Y133.179 E0.01891
G1 X86.522 Y133.409 E0.01775
G1 X87.081 Y133.619 E0.01873
G1 F8640
G1 X87.016 Y134.113 E-0.11509
G1 X86.590 Y133.963 E-0.10425
G1 X85.999 Y133.707 E-0.14868
G1 X85.391 Y133.396 E-0.15775
G1 X84.805 Y133.050 E-0.15715
G1 X84.532 Y132.858 E-0.07709
G1 E-0.04000 F2100.00000
G1 Z0.800 F10800.000
G1 X83.257 Y132.144
G1 Z0.200
G1 E0.80000 F2100.00000
G1 F1200
G1 X84.046 Y131.362 E0.03484
G1 X84.203 Y131.517 E0.00692
G1 X84.631 Y131.869 E0.01736
G1 X85.172 Y132.262 E0.02099
G1 X85.661 Y132.571 E0.01812
G1 X86.170 Y132.840 E0.01805
G1 X86.665 Y133.060 E0.01699
G1 X87.210 Y133.265 E0.01826
G1 X87.594 Y133.381 E0.01257
G1 X87.313 Y134.472 E0.03531
G1 X88.471 Y134.707 E0.03706
G1 X89.218 Y134.781 E0.02354
G1 X89.219 Y134.919 E0.00431
G1 X88.838 Y134.892 E0.01197
G1 X88.243 Y134.812 E0.01883
G1 X87.650 Y134.692 E0.01897
G1 X87.055 Y134.527 E0.01937
G1 X86.452 Y134.314 E0.02004
G1 X85.838 Y134.048 E0.02097
G1 X85.209 Y133.727 E0.02216
G1 X84.600 Y133.367 E0.02217
G1 X83.882 Y132.863 E0.02751
G1 X83.254 Y132.329 E0.02586
G1 X82.701 Y131.767 E0.02471
G1 X82.209 Y131.182 E0.02397
G1 X81.900 Y130.758 E0.01646
G1 X82.019 Y130.688 E0.00430
G1 X82.509 Y131.348 E0.02577
G1 X82.859 Y131.750 E0.01672
G1 X83.214 Y132.102 E0.01567
G1 X83.536 Y132.431 F10800.000
G1 F8640
G1 X84.046 Y131.362 E-0.25708
G1 X84.203 Y131.517 E-0.05098
G1 X84.631 Y131.869 E-0.12786
G1 X85.172 Y132.262 E-0.15455
G1 X85.661 Y132.571 E-0.13342
G1 X85.799 Y132.644 E-0.03610
G1 E-0.04000 F2100.00000
G1 Z0.800 F10800.000
G1 X89.430 Y131.223
G1 Z0.200
G1 E0.80000 F2100.00000
G1 F1200
G1 X89.948 Y128.400 E0.09000
G1 X90.511 Y131.217 E0.09007
G1 X90.070 Y131.246 E0.01386
G1 X89.490 Y131.226 E0.01821
G1 F8640
G1 X89.948 Y128.400 E-0.66122
G1 X90.032 Y128.819 E-0.09878
G1 E-0.04000 F2100.00000
G1 Z0.800 F10800.000
G1 X92.737 Y126.791
G1 Z0.200
G1 E0.80000 F2100.00000
G1 F1200
G1 X95.454 Y127.718 E0.09003
G1 X95.356 Y127.934 E0.00742
G1 X95.144 Y128.314 E0.01365
G1 X94.918 Y128.657 E0.01289
G1 X92.782 Y126.830 E0.08812
G1 F8640
G1 X95.454 Y127.718 E-0.65019
G1 X95.356 Y127.934 E-0.05462
G1 X95.240 Y128.142 E-0.05520
G1 E-0.04000 F2100.00000
G1 Z0.800 F10800.000
G1 X92.749 Y123.578
G1 Z0.200
G1 E0.80000 F2100.00000
G1 F1200
G1 X94.920 Y121.697 E0.09007
G1 X95.164 Y122.066 E0.01386
G1 X95.460 Y122.635 E0.02009
G1 X92.806 Y123.558 E0.08812
G1 X92.380 Y123.793 F10800.000
G1 F1200
G1 X92.611 Y124.489 E0.02300
G1 X92.648 Y124.674 E0.00590
G1 X92.675 Y125.183 E0.01598
G1 X92.643 Y125.691 E0.01599
G1 X92.605 Y125.876 E0.00591
G1 X92.363 Y126.585 E0.02350
G1 X91.880 Y127.130 E0.02283
G1 X91.738 Y127.256 E0.00594
G1 X91.310 Y127.537 E0.01605
G1 X90.853 Y127.766 E0.01604
G1 X90.673 Y127.826 E0.00593
G1 X89.937 Y127.974 E0.02355
G1 X89.225 Y127.829 E0.02278
G1 X89.044 Y127.768 E0.00599
G1 X88.584 Y127.536 E0.01616
G1 X88.153 Y127.253 E0.01616
G1 X88.010 Y127.126 E0.00599
G1 X87.514 Y126.565 E0.02350
G1 X87.286 Y125.874 E0.02282
G1 X87.248 Y125.685 E0.00603
G1 X87.220 Y125.168 E0.01623
G1 X87.252 Y124.651 E0.01624
G1 X87.291 Y124.463 E0.00603
G1 X87.529 Y123.756 E0.02338
G1 X88.018 Y123.212 E0.02294
G1 X88.162 Y123.086 E0.00601
G1 X88.596 Y122.806 E0.01621
G1 X89.060 Y122.577 E0.01622
G1 X89.243 Y122.517 E0.00602
G1 X89.969 Y122.373 E0.02321
G1 X90.690 Y122.525 E0.02312
G1 X90.869 Y122.587 E0.00593
G1 X91.325 Y122.820 E0.01605
G1 X91.751 Y123.104 E0.01606
G1 X91.892 Y123.231 E0.00594
G1 X92.341 Y123.747 E0.02145
G1 F8640
G1 X92.611 Y124.489 E-0.18224
G1 X92.648 Y124.674 E-0.04346
G1 X92.675 Y125.183 E-0.11769
G1 X92.643 Y125.691 E-0.11773
G1 X92.605 Y125.876 E-0.04350
G1 X92.363 Y126.585 E-0.17307
G1 X92.127 Y126.852 E-0.08230
G1 E-0.04000 F2100.00000
G1 Z0.800 F10800.000
G1 X89.972 Y121.948
G1 Z0.200
G1 E0.80000 F2100.00000
G1 F1200
G1 X89.435 Y119.126 E0.09006
G1 X89.888 Y119.101 E0.01423
G1 X90.517 Y119.130 E0.01972
G1 X89.984 Y121.889 E0.08812
G1 F8640
G1 X89.435 Y119.126 E-0.65041
G1 X89.888 Y119.101 E-0.10479
