; generated by PrusaSlicer 2.0.0+ on 2019-08-21 at 10:49:14

; 

; external perimeters extrusion width = 0.45mm
; perimeters extrusion width = 0.45mm
; infill extrusion width = 0.45mm
; solid infill extrusion width = 0.45mm
; top infill extrusion width = 0.40mm
; first layer extrusion width = 0.42mm

; external perimeters extrusion width = 0.45mm
; perimeters extrusion width = 0.45mm
; infill extrusion width = 0.45mm
; solid infill extrusion width = 0.45mm
; top infill extrusion width = 0.40mm
; first layer extrusion width = 0.42mm

M73 P0 R35
M201 X9000 Y9000 Z500 E10000 ; sets maximum accelerations, mm/sec^2
M203 X500 Y500 Z12 E120 ; sets maximum feedrates, mm/sec
M204 P2000 R1500 T2000 ; sets acceleration (P, T) and retract acceleration (R), mm/sec^2
M205 X10.00 Y10.00 Z0.20 E2.50 ; sets the jerk limits, mm/sec
M205 S0 T0 ; sets the minimum extruding and travel feed rate, mm/sec
M107
M115 U3.7.2 ; tell printer latest fw version
G90 ; use absolute coordinates
M83 ; extruder relative mode
M104 S215 ; set extruder temp
M140 S60 ; set bed temp
M190 S60 ; wait for bed temp
M109 S215 ; wait for extruder temp
G28 W ; home all without mesh bed level
G80 ; mesh bed leveling
G21 ; set units to millimeters

; Send the filament type to the MMU2.0 unit.
; E stands for extruder number, F stands for filament type (0: default; 1:flex; 2: PVA)
M403 E0 F0
M403 E1 F0
M403 E2 F0
M403 E3 F0
M403 E4 F0


;go outside print area
G1 Y-3.0 F1000.0
G1 Z0.4 F1000.0
; select extruder
T0
; initial load
G1 X55.0 E29.0 F1073.0
M73 P0 R35
G1 X5.0 E29.0 F1800.0
G1 X55.0 E8.0 F2000.0
G1 Z0.3 F1000.0
G92 E0.0
G1 X240.0 E25.0 F2200.0
G1 Y-2.0 F1000.0
G1 X55.0 E25 F1400.0
G1 Z0.20 F1000.0
G1 X5.0 E4.0 F1000.0
G92 E0.0

G92 E0.0
G21 ; set units to millimeters
G90 ; use absolute coordinates
M83 ; use relative distances for extrusion
T0
M900 K30 ; Filament gcode
G1 Z0.200 F10800.000
;BEFORE_LAYER_CHANGE
G92 E0.0
;0.2


G1 E-0.80000 F2100.00000
G1 Z0.800 F10800.000
G1 Z0.200
;AFTER_LAYER_CHANGE
;0.2
M900 K0
G1 E-2.20000 F2100.00000
G1 Z0.800 F10800.000
G1 X174.129 Y65.099
G1 Z0.200
G1 E3.00000 F2100.00000
;-------------------------------------
; CP WIPE TOWER FIRST LAYER BRIM START
G1 X174.129 Y79.159 E0.8016 F2400
G1 X171.586 Y79.616  F7000
G1 Y64.642 E0.6260 F2100
G1 X110.672 E2.5466
G1 Y79.616 E0.6260
G1 X171.586 E2.5466
G1 X172.043 Y80.073  F7000
G1 Y64.185 E0.6642 F2100
G1 X110.215 E2.5849
G1 Y80.073 E0.6642
G1 X172.043 E2.5849
G1 X172.500 Y80.530  F7000
G1 Y63.728 E0.7025 F2100
G1 X109.758 E2.6231
G1 Y80.530 E0.7025
G1 X172.500 E2.6231
G1 X172.957 Y80.987  F7000
G1 Y63.271 E0.7407 F2100
G1 X109.301 E2.6613
G1 Y80.987 E0.7407
G1 X172.957 E2.6613
G1 X171.129 Y79.159  F7000
G1 X111.129
G1 X171.129
; CP WIPE TOWER FIRST LAYER BRIM END
;-----------------------------------

M900 K30 ; Filament gcode
G1 F8640
G1 X167.838 Y79.159 E-0.76000
G1 E-0.04000 F2100.00000
G1 Z0.800 F10800.000
G1 X101.771 Y63.992
G1 Z0.200
G1 E0.80000 F2100.00000
M204 S1000
G1 F1200
G1 X102.034 Y64.697 E0.02360
G1 X107.164 Y101.945 E1.17890
G1 X107.162 Y108.258 E0.19795
G1 X102.023 Y145.412 E1.17601
G1 X101.759 Y146.047 E0.02157
G1 X101.311 Y146.569 E0.02157
G1 X100.724 Y146.926 E0.02157
G1 X100.054 Y147.083 E0.02157
G1 X80.156 Y147.089 E0.62389
G1 X79.653 Y147.029 E0.01589
G1 X79.064 Y146.793 E0.01987
G1 X78.568 Y146.399 E0.01987
G1 X78.206 Y145.879 E0.01987
G1 X78.007 Y145.274 E0.01998
G1 X72.881 Y108.045 E1.17831
G1 X72.883 Y101.742 E0.19760
G1 X78.022 Y64.588 E1.17603
G1 X78.284 Y63.956 E0.02146
G1 X78.731 Y63.433 E0.02157
G1 X79.315 Y63.076 E0.02146
G1 X79.984 Y62.917 E0.02157
G1 X99.886 Y62.911 E0.62401
G1 X100.631 Y63.043 E0.02372
G1 X101.284 Y63.418 E0.02360
G1 X101.732 Y63.946 E0.02172
G1 F8640
G1 X102.034 Y64.697 E-0.18691
G1 X102.373 Y67.156 E-0.57309
G1 E-0.04000 F2100.00000
G1 Z0.800 F10800.000
G1 X90.052 Y112.314
G1 Z0.200
G1 E0.80000 F2100.00000
G1 F1200
G1 X92.733 Y115.332 E0.12656
G1 X92.223 Y116.281 E0.03378
G1 X93.095 Y115.677 E0.03328
G1 X95.198 Y118.082 E0.10018
G1 X94.040 Y118.652 E0.04047
G1 X93.807 Y118.815 E0.00893
G1 X93.362 Y119.191 E0.01827
G1 X92.971 Y119.648 E0.01886
G1 X92.826 Y119.848 E0.00775
G1 X92.512 Y120.474 E0.02194
G1 X92.391 Y120.787 E0.01055
G1 X92.271 Y121.200 E0.01346
G1 X92.183 Y121.621 E0.01349
G1 X92.091 Y122.558 E0.02952
G1 X92.095 Y123.000 E0.01386
G1 X92.132 Y123.420 E0.01324
G1 X92.240 Y123.983 E0.01797
G1 X92.372 Y124.405 E0.01386
G1 X92.489 Y124.643 E0.00832
G1 X92.829 Y125.161 E0.01943
G1 X93.151 Y125.436 E0.01327
G1 X93.463 Y125.605 E0.01113
G1 X93.842 Y125.678 E0.01209
G1 X94.180 Y125.682 E0.01062
G1 X94.570 Y125.599 E0.01248
G1 X94.953 Y125.441 E0.01300
G1 X95.433 Y125.159 E0.01747
G1 X95.716 Y124.938 E0.01124
G1 X96.123 Y124.547 E0.01769
G1 X96.567 Y123.991 E0.02232
G1 X96.705 Y123.783 E0.00784
G1 X97.027 Y123.166 E0.02181
G1 X97.276 Y122.507 E0.02210
G1 X97.424 Y121.901 E0.01955
G1 X97.499 Y121.507 E0.01257
G1 X97.540 Y120.982 E0.01651
G1 X97.541 Y120.574 E0.01281
G1 X97.514 Y120.173 E0.01259
G1 X97.461 Y119.784 E0.01231
G1 X97.332 Y119.199 E0.01877
G1 X97.058 Y118.375 E0.02724
G1 X96.823 Y117.849 E0.01806
G1 X96.601 Y117.431 E0.01485
G1 X96.175 Y116.715 E0.02612
G1 X96.159 Y115.463 E0.03924
G1 X97.474 Y115.598 E0.04144
G1 X98.402 Y116.502 E0.04062
G1 X98.906 Y117.072 E0.02384
G1 X99.307 Y117.583 E0.02040
G1 X99.857 Y118.388 E0.03056
G1 X100.425 Y119.423 E0.03699
G1 X100.811 Y120.329 E0.03089
G1 X100.949 Y120.711 E0.01273
G1 X101.179 Y121.465 E0.02472
G1 X101.402 Y122.454 E0.03181
G1 X101.486 Y123.066 E0.01935
G1 X101.566 Y124.086 E0.03210
G1 X101.542 Y125.133 E0.03281
G1 X101.431 Y126.196 E0.03354
G1 X101.225 Y127.198 E0.03205
G1 X101.031 Y127.924 E0.02356
G1 X100.734 Y128.827 E0.02982
G1 X100.355 Y129.730 E0.03070
G1 X99.811 Y130.776 E0.03697
G1 X99.380 Y131.458 E0.02530
G1 X98.893 Y132.117 E0.02569
G1 X98.429 Y132.657 E0.02233
G1 X97.889 Y133.204 E0.02409
G1 X97.307 Y133.709 E0.02416
G1 X96.728 Y134.143 E0.02269
G1 X95.974 Y134.614 E0.02787
G1 X95.159 Y135.027 E0.02864
G1 X94.712 Y135.216 E0.01523
G1 X93.798 Y135.532 E0.03032
G1 X92.813 Y135.778 E0.03183
G1 X91.761 Y135.947 E0.03343
G1 X90.645 Y136.034 E0.03508
G1 X90.051 Y136.046 E0.01863
G1 X89.374 Y136.030 E0.02125
G1 X88.717 Y135.982 E0.02065
G1 X88.081 Y135.904 E0.02007
G1 X87.468 Y135.795 E0.01954
G1 X86.877 Y135.658 E0.01902
G1 X86.307 Y135.493 E0.01859
G1 X85.759 Y135.302 E0.01822
G1 X85.224 Y135.083 E0.01810
G1 X84.014 Y134.462 E0.04266
G1 X83.343 Y134.004 E0.02547
G1 X82.920 Y133.681 E0.01669
G1 X82.285 Y133.124 E0.02649
G1 X81.792 Y132.632 E0.02183
G1 X81.146 Y131.874 E0.03124
G1 X80.846 Y131.471 E0.01576
G1 X80.432 Y130.865 E0.02301
G1 X79.856 Y129.818 E0.03748
G1 X79.651 Y129.385 E0.01501
G1 X79.376 Y128.747 E0.02179
G1 X79.148 Y128.094 E0.02166
G1 X78.899 Y127.244 E0.02777
G1 X78.675 Y126.207 E0.03328
G1 X78.594 Y125.589 E0.01953
G1 X78.524 Y124.641 E0.02980
G1 X78.553 Y123.571 E0.03359
G1 X78.666 Y122.556 E0.03200
G1 X78.789 Y121.891 E0.02121
G1 X78.911 Y121.396 E0.01598
G1 X79.253 Y120.305 E0.03585
G1 X79.710 Y119.266 E0.03558
G1 X79.939 Y118.824 E0.01561
G1 X80.275 Y118.262 E0.02053
G1 X80.738 Y117.597 E0.02541
G1 X81.178 Y117.045 E0.02214
G1 X81.689 Y116.484 E0.02378
G1 X82.532 Y115.679 E0.03654
G1 X83.921 Y115.405 E0.04441
G1 X83.933 Y116.709 E0.04089
G1 X83.505 Y117.428 E0.02622
G1 X83.282 Y117.849 E0.01495
G1 X83.046 Y118.376 E0.01811
G1 X82.772 Y119.200 E0.02721
G1 X82.643 Y119.784 E0.01877
G1 X82.590 Y120.174 E0.01232
G1 X82.563 Y120.575 E0.01260
G1 X82.564 Y120.983 E0.01279
G1 X82.605 Y121.508 E0.01651
G1 X82.680 Y121.903 E0.01263
G1 X82.827 Y122.505 E0.01943
G1 X82.962 Y122.898 E0.01302
G1 X83.077 Y123.167 E0.00919
G1 X83.398 Y123.782 E0.02175
G1 X83.537 Y123.992 E0.00787
G1 X83.982 Y124.548 E0.02232
G1 X84.389 Y124.939 E0.01771
G1 X84.671 Y125.159 E0.01121
G1 X85.151 Y125.441 E0.01746
G1 X85.535 Y125.599 E0.01300
G1 X85.924 Y125.682 E0.01248
G1 X86.263 Y125.678 E0.01062
G1 X86.596 Y125.614 E0.01063
G1 X86.917 Y125.464 E0.01111
G1 X87.279 Y125.157 E0.01488
G1 X87.586 Y124.704 E0.01716
G1 X87.732 Y124.405 E0.01044
G1 X87.863 Y123.989 E0.01367
G1 X87.985 Y123.277 E0.02264
G1 X88.009 Y123.000 E0.00874
G1 X88.013 Y122.548 E0.01416
G1 X87.988 Y122.158 E0.01225
G1 X87.922 Y121.627 E0.01677
G1 X87.833 Y121.200 E0.01370
G1 X87.713 Y120.788 E0.01344
G1 X87.592 Y120.473 E0.01059
G1 X87.278 Y119.848 E0.02191
G1 X87.126 Y119.637 E0.00817
G1 X86.748 Y119.196 E0.01822
G1 X86.293 Y118.813 E0.01863
G1 X86.064 Y118.652 E0.00879
G1 X84.906 Y118.082 E0.04047
G1 X87.009 Y115.677 E0.10017
G1 X87.878 Y116.278 E0.03315
G1 X87.372 Y115.331 E0.03366
G1 X90.012 Y112.359 E0.12465
G1 X90.052 Y112.882 F10800.000
G1 F1200
G1 X92.276 Y115.385 E0.10499
G1 X91.749 Y116.366 E0.03491
G1 X91.601 Y116.690 E0.01117
G1 X91.435 Y117.180 E0.01622
G1 X91.372 Y117.495 E0.01008
G1 X91.509 Y117.349 E0.00630
G1 X92.064 Y116.849 E0.02342
G1 X93.033 Y116.178 E0.03695
G1 X94.591 Y117.960 E0.07422
G1 X93.848 Y118.326 E0.02598
G1 X93.577 Y118.516 E0.01037
G1 X93.095 Y118.922 E0.01977
G1 X92.674 Y119.415 E0.02031
G1 X92.503 Y119.652 E0.00918
G1 X92.167 Y120.321 E0.02346
G1 X92.033 Y120.667 E0.01162
G1 X91.905 Y121.108 E0.01443
G1 X91.810 Y121.564 E0.01459
G1 X91.714 Y122.541 E0.03078
G1 X91.718 Y123.018 E0.01496
G1 X91.758 Y123.472 E0.01431
G1 X91.873 Y124.076 E0.01926
G1 X92.021 Y124.545 E0.01544
M73 P3 R34
G1 X92.161 Y124.830 E0.00995
G1 X92.543 Y125.413 E0.02186
G1 X92.936 Y125.748 E0.01620
G1 X93.335 Y125.964 E0.01420
G1 X93.803 Y126.054 E0.01497
G1 X94.217 Y126.059 E0.01298
G1 X94.682 Y125.961 E0.01488
G1 X95.121 Y125.780 E0.01491
G1 X95.645 Y125.471 E0.01907
G1 X95.963 Y125.224 E0.01262
G1 X96.402 Y124.802 E0.01908
G1 X96.872 Y124.213 E0.02363
G1 X97.031 Y123.975 E0.00898
G1 X97.368 Y123.328 E0.02288
G1 X97.493 Y123.035 E0.00999
G1 X97.639 Y122.613 E0.01398
G1 X97.793 Y121.981 E0.02040
G1 X97.873 Y121.557 E0.01353
G1 X97.917 Y120.998 E0.01760
G1 X97.918 Y120.562 E0.01367
G1 X97.889 Y120.135 E0.01341
G1 X97.832 Y119.718 E0.01319
G1 X97.697 Y119.105 E0.01969
G1 X97.408 Y118.234 E0.02877
G1 X97.162 Y117.684 E0.01889
G1 X96.930 Y117.246 E0.01554
G1 X96.551 Y116.609 E0.02324
G1 X96.542 Y115.882 E0.02281
G1 X97.305 Y115.960 E0.02406
G1 X98.129 Y116.762 E0.03606
G1 X98.616 Y117.313 E0.02305
G1 X99.003 Y117.806 E0.01966
G1 X99.536 Y118.586 E0.02959
G1 X100.085 Y119.588 E0.03583
G1 X100.460 Y120.467 E0.02998
G1 X100.592 Y120.830 E0.01210
G1 X100.816 Y121.565 E0.02410
G1 X101.031 Y122.519 E0.03065
G1 X101.111 Y123.106 E0.01859
G1 X101.189 Y124.097 E0.03115
G1 X101.165 Y125.109 E0.03173
G1 X101.058 Y126.139 E0.03247
G1 X100.858 Y127.111 E0.03112
G1 X100.670 Y127.816 E0.02288
G1 X100.381 Y128.695 E0.02901
G1 X100.013 Y129.569 E0.02974
G1 X99.483 Y130.588 E0.03600
G1 X99.068 Y131.245 E0.02437
G1 X98.598 Y131.882 E0.02482
G1 X98.151 Y132.401 E0.02148
G1 X97.631 Y132.928 E0.02323
G1 X97.070 Y133.415 E0.02329
G1 X96.515 Y133.832 E0.02176
G1 X95.789 Y134.285 E0.02684
G1 X95.001 Y134.684 E0.02770
G1 X94.577 Y134.864 E0.01443
G1 X93.691 Y135.171 E0.02939
G1 X92.738 Y135.408 E0.03080
G1 X91.716 Y135.573 E0.03245
G1 X90.627 Y135.658 E0.03426
G1 X90.052 Y135.669 E0.01803
G1 X89.392 Y135.654 E0.02070
G1 X88.753 Y135.607 E0.02006
G1 X88.138 Y135.531 E0.01946
G1 X87.543 Y135.425 E0.01892
G1 X86.972 Y135.293 E0.01839
G1 X86.422 Y135.134 E0.01796
G1 X85.892 Y134.949 E0.01758
G1 X85.382 Y134.741 E0.01728
G1 X84.207 Y134.138 E0.04141
G1 X83.564 Y133.698 E0.02442
G1 X83.159 Y133.389 E0.01598
G1 X82.543 Y132.848 E0.02570
G1 X82.069 Y132.376 E0.02097
G1 X81.441 Y131.639 E0.03037
G1 X81.153 Y131.252 E0.01512
G1 X80.754 Y130.667 E0.02220
G1 X80.192 Y129.646 E0.03656
G1 X79.994 Y129.230 E0.01444
G1 X79.727 Y128.610 E0.02116
G1 X79.507 Y127.979 E0.02094
G1 X79.265 Y127.151 E0.02704
G1 X79.047 Y126.142 E0.03237
G1 X78.969 Y125.551 E0.01870
G1 X78.902 Y124.633 E0.02886
G1 X78.930 Y123.597 E0.03250
G1 X79.039 Y122.611 E0.03108
G1 X79.158 Y121.970 E0.02044
G1 X79.274 Y121.497 E0.01527
G1 X79.606 Y120.438 E0.03483
G1 X80.050 Y119.429 E0.03455
G1 X80.269 Y119.008 E0.01488
G1 X80.592 Y118.466 E0.01976
G1 X81.040 Y117.823 E0.02461
G1 X81.466 Y117.290 E0.02138
G1 X81.959 Y116.747 E0.02299
G1 X82.712 Y116.028 E0.03267
G1 X83.548 Y115.863 E0.02671
G1 X83.555 Y116.607 E0.02332
G1 X83.176 Y117.243 E0.02321
G1 X82.943 Y117.684 E0.01563
G1 X82.696 Y118.235 E0.01894
G1 X82.407 Y119.105 E0.02874
G1 X82.272 Y119.718 E0.01968
G1 X82.215 Y120.135 E0.01319
G1 X82.186 Y120.562 E0.01343
G1 X82.187 Y120.998 E0.01365
G1 X82.231 Y121.557 E0.01760
G1 X82.311 Y121.983 E0.01359
G1 X82.465 Y122.612 E0.02028
G1 X82.610 Y123.034 E0.01399
G1 X82.736 Y123.329 E0.01007
G1 X83.073 Y123.974 E0.02282
G1 X83.232 Y124.214 E0.00901
G1 X83.703 Y124.802 E0.02363
G1 X84.142 Y125.225 E0.01910
G1 X84.459 Y125.471 E0.01260
G1 X84.983 Y125.779 E0.01906
G1 X85.423 Y125.961 E0.01491
G1 X85.887 Y126.059 E0.01488
G1 X86.301 Y126.054 E0.01298
G1 X86.713 Y125.975 E0.01315
G1 X87.122 Y125.785 E0.01417
G1 X87.562 Y125.412 E0.01809
G1 X87.913 Y124.893 E0.01961
G1 X88.083 Y124.545 E0.01216
G1 X88.230 Y124.078 E0.01536
G1 X88.359 Y123.326 E0.02392
G1 X88.386 Y123.018 E0.00970
G1 X88.390 Y122.537 E0.01506
G1 X88.363 Y122.123 E0.01302
G1 X88.295 Y121.566 E0.01761
G1 X88.200 Y121.108 E0.01465
G1 X88.071 Y120.667 E0.01441
G1 X87.937 Y120.320 E0.01166
G1 X87.602 Y119.652 E0.02343
G1 X87.422 Y119.404 E0.00961
G1 X87.014 Y118.927 E0.01967
G1 X86.524 Y118.513 E0.02013
G1 X86.256 Y118.326 E0.01023
G1 X85.513 Y117.960 E0.02598
G1 X87.071 Y116.178 E0.07422
G1 X88.007 Y116.826 E0.03570
G1 X88.596 Y117.349 E0.02470
G1 X88.732 Y117.495 E0.00626
G1 X88.669 Y117.180 E0.01008
G1 X88.504 Y116.692 E0.01615
G1 X88.369 Y116.397 E0.01019
G1 X87.828 Y115.385 E0.03595
G1 X90.012 Y112.927 E0.10310
G1 X90.313 Y112.579 F10800.000
G1 F8640
G1 X92.242 Y115.348 E-0.76000
G1 E-0.04000 F2100.00000
G1 Z0.800 F10800.000
G1 X75.743 Y108.587
G1 Z0.200
G1 E0.80000 F2100.00000
G1 F1200
G1 X104.315 Y108.587 E0.89585
G1 X99.384 Y144.314 E1.13080
G1 X80.675 Y144.314 E0.58660
G1 X75.751 Y108.647 E1.12891
G1 X75.311 Y108.210 F10800.000
G1 F1200
G1 X104.748 Y108.210 E0.92299
G1 X99.712 Y144.691 E1.15467
G1 X80.346 Y144.691 E0.60721
G1 X75.319 Y108.270 E1.15278
G1 X75.689 Y108.339 F10800.000
G1 F8640
G1 X78.610 Y108.263 E-0.76000
G1 E-0.04000 F2100.00000
G1 Z0.800 F10800.000
G1 X85.603 Y117.112
G1 Z0.200
G1 E0.80000 F2100.00000
G1 F1200
G1 X84.207 Y115.715 E0.06217
G1 X84.211 Y116.255 E0.01699
G1 X85.233 Y117.277 E0.04549
G1 X84.984 Y117.563 E0.01194
G1 X84.213 Y116.792 E0.03433
G1 X84.013 Y117.127 E0.01229
G1 X84.854 Y117.969 E0.03746
G1 X85.275 Y118.390 F10800.000
G1 F1200
G1 X87.541 Y120.656 E0.10086
G1 X87.762 Y121.412 F10800.000
G1 F1200
G1 X83.813 Y117.463 E0.17578
G1 X83.623 Y117.808 E0.01241
G1 X87.665 Y121.850 E0.17991
G1 X87.723 Y122.443 E0.01875
G1 X83.448 Y118.169 E0.19025
G1 X83.288 Y118.544 E0.01284
G1 X87.727 Y122.986 E0.19765
G1 X87.667 Y123.458 E0.01497
G1 X83.154 Y118.946 E0.20086
G1 X83.028 Y119.354 E0.01346
G1 X87.589 Y123.915 E0.20302
G1 X87.459 Y124.320 E0.01340
G1 X82.931 Y119.793 E0.20153
G1 X82.867 Y120.264 E0.01498
G1 X87.270 Y124.667 E0.19595
G1 X87.049 Y124.981 E0.01210
G1 X82.846 Y120.779 E0.18707
G1 X82.876 Y121.344 E0.01781
G1 X86.758 Y125.226 E0.17281
G1 X86.508 Y125.343 E0.00869
G1 X86.367 Y125.370 E0.00453
G1 X82.994 Y121.997 E0.15012
G1 X83.099 Y122.426 E0.01388
G1 X83.210 Y122.748 E0.01073
G1 X85.836 Y125.374 E0.11689
G1 X85.619 Y125.328 E0.00699
G1 X85.277 Y125.187 E0.01161
G1 X84.880 Y124.953 E0.01452
G1 X83.327 Y123.400 E0.06913
G1 F8640
G1 X84.880 Y124.953 E-0.50712
G1 X85.277 Y125.187 E-0.10656
G1 X85.619 Y125.328 E-0.08519
G1 X85.836 Y125.374 E-0.05126
G1 X85.805 Y125.344 E-0.00987
G1 E-0.04000 F2100.00000
G1 Z0.800 F10800.000
G1 X78.190 Y123.685
G1 Z0.200
G1 E0.80000 F2100.00000
G1 F1200
G1 X78.208 Y124.004 E0.00841
G1 X78.225 Y124.324 E0.00724
G1 X78.243 Y124.643 E0.00608
G1 X78.295 Y125.133 E0.00756
G1 X78.345 Y125.613 E0.00613
G1 X78.431 Y126.252 E0.00653
G1 X78.620 Y127.319 E0.01099
G1 X78.816 Y128.233 E0.01855
G1 X78.676 Y128.379 F10800.000
G1 F1200
