; generated by PrusaSlicer 2.2.0+win64 on 2020-07-30 at 16:52:33 UTC

; 

; external perimeters extrusion width = 0.45mm
; perimeters extrusion width = 0.45mm
; infill extrusion width = 0.45mm
; solid infill extrusion width = 0.45mm
; top infill extrusion width = 0.40mm
; support material extrusion width = 0.35mm
; first layer extrusion width = 0.42mm

M73 P0 R32
M201 X9000 Y9000 Z500 E10000 ; sets maximum accelerations, mm/sec^2
M203 X500 Y500 Z12 E120 ; sets maximum feedrates, mm/sec
M204 P2000 R1500 T2000 ; sets acceleration (P, T) and retract acceleration (R), mm/sec^2
M205 X10.00 Y10.00 Z0.20 E2.50 ; sets the jerk limits, mm/sec
M205 S0 T0 ; sets the minimum extruding and travel feed rate, mm/sec
M107
M862.3 P "MK2.5SMMU2S" ; printer model check
M862.1 P0.4 ; nozzle diameter check
M115 U3.8.0 ; tell printer latest fw version
G90 ; use absolute coordinates
M83 ; extruder relative mode
M104 S215 ; set extruder temp
M140 S60 ; set bed temp
Tx
M190 S60 ; wait for bed temp
M109 S215 ; wait for extruder temp
G28 W ; home all without mesh bed level
G80 ; mesh bed leveling

G21 ; set units to millimeters

;go outside print area
G1 Y-3.0 F1000.0
G1 Z0.4 F1000.0
; select extruder
Tc
; purge line
G1 X55.0 F2000.0
G1 Z0.3 F1000.0
G92 E0.0
G1 X240.0 E25.0 F2200.0
M73 P0 R31
G1 Y-2.0 F1000.0
G1 X55.0 E25 F1400.0
G1 Z0.20 F1000.0
G1 X5.0 E4.0 F1000.0
G92 E0.0
G21 ; set units to millimeters
G90 ; use absolute coordinates
M83 ; use relative distances for extrusion
M900 K0.06 ; Filament gcode LA 1.5
M900 K30 ; Filament gcode LA 1.0
;BEFORE_LAYER_CHANGE
G92 E0.0
;0.2


G1 E-0.80000 F2100.00000
G1 Z0.600 F10800.000
;AFTER_LAYER_CHANGE
;0.2
G1 X107.371 Y61.936
G1 Z0.200
G1 E0.80000 F2100.00000
M204 S1000
G1 F1200.000
G1 X108.155 Y61.848 E0.02472
G1 X141.951 Y61.847 E1.05966
G1 X143.007 Y61.999 E0.03347
G1 X143.837 Y62.344 E0.02816
G1 X144.702 Y63.010 E0.03424
G1 X145.270 Y63.759 E0.02948
G1 X153.473 Y82.746 E0.64850
G1 X161.652 Y121.980 E1.25661
G1 X161.772 Y123.142 E0.03661
G1 X161.731 Y124.000 E0.02696
G1 X161.559 Y124.878 E0.02804
G1 X161.176 Y125.936 E0.03530
G1 X160.656 Y126.845 E0.03280
G1 X159.993 Y127.658 E0.03292
G1 X159.173 Y128.374 E0.03411
G1 X129.245 Y147.647 E1.11611
G1 X128.440 Y147.990 E0.02746
G1 X127.500 Y148.147 E0.02986
G1 X122.761 Y148.152 E0.14860
G1 X121.983 Y148.063 E0.02454
G1 X121.438 Y147.903 E0.01781
G1 X120.794 Y147.588 E0.02247
G1 X90.919 Y128.403 E1.11324
G1 X90.085 Y127.687 E0.03446
G1 X89.508 Y126.999 E0.02815
G1 X88.819 Y125.809 E0.04312
G1 X88.514 Y124.973 E0.02791
G1 X88.316 Y123.976 E0.03185
G1 X88.278 Y122.976 E0.03138
G1 X88.392 Y122.009 E0.03054
G1 X96.530 Y82.915 E1.25206
G1 X104.695 Y64.076 E0.64377
G1 X104.987 Y63.556 E0.01870
G1 X105.416 Y63.024 E0.02141
G1 X105.898 Y62.601 E0.02011
G1 X106.497 Y62.239 E0.02195
G1 X107.314 Y61.956 E0.02713
G1 E-0.80000 F2100.00000
G1 Z0.800 F10800.000
G1 X125.067 Y133.132
G1 Z0.200
G1 E0.80000 F2100.00000
G1 F1200.000
G1 X128.220 Y133.132 E0.09885
G1 X128.390 Y133.147 E0.00536
G1 X128.658 Y133.239 E0.00889
G1 X128.891 Y133.420 E0.00923
G1 X128.980 Y133.535 E0.00457
G1 X129.096 Y133.801 E0.00909
G1 X129.120 Y133.951 E0.00476
G1 X129.119 Y134.116 E0.00517
G1 X128.223 Y144.358 E0.32236
G1 X128.194 Y144.525 E0.00531
G1 X128.147 Y144.660 E0.00451
G1 X127.988 Y144.903 E0.00909
G1 X127.759 Y145.080 E0.00908
G1 X127.477 Y145.175 E0.00931
G1 X127.317 Y145.188 E0.00504
G1 X122.819 Y145.188 E0.14103
G1 X122.650 Y145.174 E0.00532
G1 X122.377 Y145.080 E0.00905
G1 X122.251 Y144.997 E0.00474
G1 X122.060 Y144.790 E0.00883
G1 X121.942 Y144.525 E0.00909
G1 X121.914 Y144.358 E0.00532
G1 X121.018 Y134.117 E0.32232
G1 X121.017 Y133.941 E0.00552
G1 X121.040 Y133.802 E0.00441
G1 X121.156 Y133.535 E0.00914
G1 X121.353 Y133.320 E0.00913
G1 X121.604 Y133.183 E0.00897
G1 X121.751 Y133.146 E0.00475
G1 X121.919 Y133.132 E0.00529
G1 X125.007 Y133.132 E0.09682
G1 E-0.80000 F2100.00000
G1 Z0.800 F10800.000
G1 X125.068 Y145.565
G1 Z0.200
G1 E0.80000 F2100.00000
G1 F1200.000
G1 X122.804 Y145.565 E0.07100
G1 X122.588 Y145.547 E0.00678
G1 X122.393 Y145.498 E0.00630
G1 X122.198 Y145.413 E0.00669
G1 X122.018 Y145.296 E0.00672
G1 X121.871 Y145.160 E0.00627
G1 X121.743 Y144.997 E0.00649
G1 X121.641 Y144.807 E0.00676
G1 X121.576 Y144.619 E0.00625
G1 X121.539 Y144.406 E0.00678
G1 X120.641 Y134.134 E0.32331
G1 X120.640 Y133.910 E0.00700
G1 X120.673 Y133.710 E0.00636
G1 X120.740 Y133.513 E0.00654
G1 X120.839 Y133.329 E0.00654
G1 X120.963 Y133.168 E0.00638
G1 X121.120 Y133.022 E0.00671
G1 X121.294 Y132.908 E0.00653
G1 X121.481 Y132.826 E0.00640
G1 X121.688 Y132.773 E0.00672
G1 X121.904 Y132.755 E0.00677
G1 X128.236 Y132.755 E0.19855
G1 X128.453 Y132.774 E0.00683
G1 X128.651 Y132.824 E0.00641
G1 X128.838 Y132.906 E0.00640
G1 X129.017 Y133.023 E0.00668
G1 X129.170 Y133.164 E0.00653
G1 X129.298 Y133.329 E0.00654
G1 X129.396 Y133.513 E0.00654
G1 X129.463 Y133.710 E0.00653
G1 X129.497 Y133.922 E0.00673
G1 X129.496 Y134.133 E0.00663
G1 X128.597 Y144.406 E0.32333
G1 X128.561 Y144.619 E0.00677
G1 X128.493 Y144.814 E0.00649
G1 X128.389 Y145.003 E0.00675
G1 X128.266 Y145.160 E0.00626
G1 X128.113 Y145.300 E0.00651
G1 X127.939 Y145.413 E0.00650
G1 X127.759 Y145.492 E0.00614
G1 X127.540 Y145.548 E0.00710
G1 X127.333 Y145.565 E0.00652
G1 X125.128 Y145.565 E0.06912
G1 X124.867 Y145.219 F10800.000
G1 E-0.80000 F2100.00000
G1 Z0.800 F10800.000
G1 X129.003 Y133.938
G1 Z0.200
G1 E0.80000 F2100.00000
G1 F1200.000
G1 X128.618 Y133.553 E0.01741
G1 X128.424 Y133.447 E0.00706
G1 X128.208 Y133.415 E0.00700
G1 X127.936 Y133.415 E0.00868
G1 X128.819 Y134.297 E0.03992
G1 X128.775 Y134.798 E0.01606
G1 X127.393 Y133.415 E0.06255
G1 X126.849 Y133.415 E0.01740
G1 X128.732 Y135.298 E0.08517
G1 X128.688 Y135.798 E0.01606
G1 X126.305 Y133.415 E0.10779
G1 X125.761 Y133.415 E0.01740
G1 X128.644 Y136.298 E0.13042
G1 X128.600 Y136.798 E0.01606
G1 X125.217 Y133.415 E0.15304
G1 X124.673 Y133.415 E0.01740
G1 X128.557 Y137.299 E0.17566
G1 X128.513 Y137.799 E0.01606
G1 X124.129 Y133.415 E0.19829
G1 X123.585 Y133.415 E0.01740
G1 X128.469 Y138.299 E0.22091
G1 X128.425 Y138.799 E0.01606
G1 X123.041 Y133.415 E0.24353
G1 X122.497 Y133.415 E0.01740
G1 X128.382 Y139.299 E0.26615
G1 X128.338 Y139.799 E0.01606
G1 X121.953 Y133.415 E0.28878
G1 X121.810 Y133.425 E0.00460
G1 X121.612 Y133.492 E0.00668
G1 X121.542 Y133.547 E0.00285
G1 X128.294 Y140.300 E0.30539
G1 X128.250 Y140.800 E0.01606
G1 X121.326 Y133.875 E0.31320
G1 X121.300 Y133.976 E0.00332
G1 X121.300 Y134.104 E0.00412
G1 X121.328 Y134.422 E0.01018
G1 X128.207 Y141.300 E0.31110
G1 X128.163 Y141.800 E0.01606
G1 X121.380 Y135.018 E0.30676
G1 X121.432 Y135.614 E0.01914
G1 X128.119 Y142.300 E0.30243
G1 X128.075 Y142.801 E0.01606
G1 X121.485 Y136.210 E0.29809
G1 X121.537 Y136.806 E0.01914
G1 X128.031 Y143.301 E0.29375
G1 X127.988 Y143.801 E0.01606
G1 X121.589 Y137.402 E0.28941
G1 X121.641 Y137.998 E0.01914
G1 X127.944 Y144.301 E0.28507
G1 X127.891 Y144.535 E0.00765
G1 X127.789 Y144.690 E0.00596
G1 X121.693 Y138.594 E0.27572
G1 X121.745 Y139.190 E0.01914
G1 X127.443 Y144.888 E0.25770
G1 X127.306 Y144.905 E0.00442
G1 X126.916 Y144.905 E0.01247
G1 X121.797 Y139.786 E0.23150
G1 X121.850 Y140.383 E0.01914
G1 X126.372 Y144.905 E0.20454
G1 X125.828 Y144.905 E0.01740
G1 X121.902 Y140.979 E0.17758
G1 X121.954 Y141.575 E0.01914
G1 X125.284 Y144.905 E0.15062
G1 X124.740 Y144.905 E0.01740
G1 X122.006 Y142.171 E0.12366
G1 X122.058 Y142.767 E0.01914
G1 X124.196 Y144.905 E0.09670
G1 X123.652 Y144.905 E0.01740
G1 X122.110 Y143.363 E0.06974
G1 X122.163 Y143.959 E0.01914
G1 X123.108 Y144.905 E0.04278
G1 X122.709 Y144.895 E0.01279
G1 X122.503 Y144.824 E0.00696
G1 X122.031 Y144.371 E0.02093
G1 E-0.80000 F2100.00000
G1 Z0.800 F10800.000
G1 X143.706 Y124.823
G1 Z0.200
G1 E0.80000 F2100.00000
G1 F1200.000
G1 X143.257 Y124.784 E0.01415
G1 X142.821 Y124.667 E0.01415
G1 X142.411 Y124.476 E0.01415
G1 X142.042 Y124.217 E0.01415
G1 X141.723 Y123.898 E0.01415
G1 X141.464 Y123.529 E0.01415
G1 X141.273 Y123.120 E0.01415
G1 X141.156 Y122.684 E0.01415
G1 X141.117 Y122.234 E0.01415
G1 X141.156 Y121.784 E0.01415
G1 X141.273 Y121.348 E0.01415
G1 X141.464 Y120.939 E0.01415
G1 X141.723 Y120.570 E0.01415
G1 X142.042 Y120.250 E0.01415
G1 X142.411 Y119.992 E0.01415
G1 X142.821 Y119.801 E0.01415
G1 X143.257 Y119.684 E0.01415
G1 X143.686 Y119.646 E0.01353
G1 X144.153 Y119.683 E0.01469
G1 X144.592 Y119.801 E0.01423
G1 X145.001 Y119.992 E0.01415
G1 X145.371 Y120.250 E0.01415
G1 X145.690 Y120.570 E0.01415
G1 X145.937 Y120.923 E0.01353
G1 X146.139 Y121.346 E0.01469
G1 X146.256 Y121.784 E0.01423
G1 X146.295 Y122.234 E0.01415
G1 X146.256 Y122.684 E0.01415
G1 X146.139 Y123.120 E0.01415
G1 X145.949 Y123.529 E0.01415
G1 X145.690 Y123.898 E0.01415
G1 X145.371 Y124.217 E0.01415
G1 X145.001 Y124.476 E0.01415
G1 X144.592 Y124.667 E0.01415
G1 X144.156 Y124.784 E0.01415
G1 X143.766 Y124.818 E0.01227
G1 X143.706 Y124.445 F10800.000
G1 F1200.000
G1 X143.322 Y124.411 E0.01208
G1 X142.950 Y124.311 E0.01208
G1 X142.601 Y124.149 E0.01208
G1 X142.285 Y123.928 E0.01208
G1 X142.013 Y123.655 E0.01208
G1 X141.792 Y123.339 E0.01208
G1 X141.629 Y122.990 E0.01208
G1 X141.529 Y122.618 E0.01208
G1 X141.495 Y122.234 E0.01208
G1 X141.529 Y121.850 E0.01208
G1 X141.629 Y121.478 E0.01208
G1 X141.792 Y121.129 E0.01208
G1 X142.013 Y120.813 E0.01208
G1 X142.285 Y120.540 E0.01208
G1 X142.601 Y120.319 E0.01208
G1 X142.950 Y120.156 E0.01208
G1 X143.322 Y120.057 E0.01208
G1 X143.688 Y120.025 E0.01151
G1 X144.089 Y120.057 E0.01262
G1 X144.462 Y120.156 E0.01211
G1 X144.812 Y120.319 E0.01208
G1 X145.127 Y120.540 E0.01208
G1 X145.400 Y120.813 E0.01208
G1 X145.610 Y121.114 E0.01151
G1 X145.783 Y121.477 E0.01262
G1 X145.883 Y121.850 E0.01211
G1 X145.917 Y122.234 E0.01208
G1 X145.883 Y122.618 E0.01208
G1 X145.784 Y122.990 E0.01208
G1 X145.621 Y123.339 E0.01208
G1 X145.400 Y123.655 E0.01208
G1 X145.127 Y123.928 E0.01208
G1 X144.812 Y124.149 E0.01208
G1 X144.462 Y124.311 E0.01208
G1 X144.090 Y124.411 E0.01208
G1 X143.766 Y124.440 E0.01020
G1 X143.513 Y124.778 F10800.000
G1 E-0.80000 F2100.00000
G1 Z0.800 F10800.000
G1 X143.706 Y126.647
G1 Z0.200
G1 E0.80000 F2100.00000
G1 F1200.000
G1 X132.036 Y126.647 E0.36591
G1 X131.465 Y126.601 E0.01797
G1 X130.931 Y126.469 E0.01723
G1 X130.426 Y126.254 E0.01723
G1 X129.962 Y125.960 E0.01723
G1 X129.551 Y125.595 E0.01723
G1 X129.203 Y125.169 E0.01723
G1 X128.929 Y124.693 E0.01723
G1 X128.745 Y124.207 E0.01629
G1 X128.626 Y123.638 E0.01823
G1 X128.604 Y123.091 E0.01716
G1 X128.671 Y122.546 E0.01723
G1 X128.832 Y121.996 E0.01797
G1 X136.796 Y101.109 E0.70089
G1 X136.796 Y84.038 E0.53523
G1 X150.616 Y84.038 E0.43331
G1 X150.616 Y101.109 E0.53523
G1 X158.581 Y121.996 E0.70089
G1 X158.741 Y122.546 E0.01797
G1 X158.808 Y123.091 E0.01723
G1 X158.787 Y123.641 E0.01723
G1 X158.677 Y124.179 E0.01723
G1 X158.483 Y124.693 E0.01723
G1 X158.209 Y125.169 E0.01723
G1 X157.862 Y125.595 E0.01723
G1 X157.451 Y125.960 E0.01723
G1 X156.987 Y126.254 E0.01723
G1 X156.481 Y126.469 E0.01723
G1 X155.948 Y126.601 E0.01723
G1 X155.376 Y126.647 E0.01797
G1 X143.766 Y126.647 E0.36403
G1 X143.706 Y127.024 F10800.000
G1 F1200.000
G1 X132.021 Y127.024 E0.36639
G1 X131.404 Y126.974 E0.01940
G1 X130.811 Y126.828 E0.01914
G1 X130.250 Y126.588 E0.01914
G1 X129.734 Y126.262 E0.01914
G1 X129.277 Y125.857 E0.01914
G1 X128.892 Y125.384 E0.01914
G1 X128.587 Y124.855 E0.01914
G1 X128.382 Y124.313 E0.01815
G1 X128.250 Y123.685 E0.02014
G1 X128.226 Y123.076 E0.01911
G1 X128.301 Y122.470 E0.01914
G1 X128.474 Y121.876 E0.01941
G1 X136.419 Y101.039 E0.69919
G1 X136.419 Y83.661 E0.54487
G1 X150.993 Y83.661 E0.45696
G1 X150.993 Y101.039 E0.54487
G1 X158.938 Y121.876 E0.69919
G1 X159.111 Y122.470 E0.01941
G1 X159.186 Y123.076 E0.01914
G1 X159.162 Y123.686 E0.01914
G1 X159.041 Y124.284 E0.01914
G1 X158.825 Y124.855 E0.01914
G1 X158.520 Y125.384 E0.01914
G1 X158.135 Y125.857 E0.01914
G1 X157.678 Y126.262 E0.01914
G1 X157.162 Y126.588 E0.01914
G1 X156.601 Y126.828 E0.01914
G1 X156.008 Y126.974 E0.01914
G1 X155.392 Y127.024 E0.01940
G1 X143.766 Y127.024 E0.36450
G1 X143.506 Y126.678 F10800.000
G1 X143.244 Y126.534
G1 F1200.000
G1 X131.777 Y115.066 E0.51210
G1 X131.628 Y115.455 E0.01314
G1 X142.537 Y126.364 E0.48716
G1 X142.000 Y126.364 E0.01696
G1 X131.480 Y115.844 E0.46979
G1 X131.332 Y116.233 E0.01314
G1 X141.463 Y126.364 E0.45243
M73 P3 R30
G1 X140.926 Y126.364 E0.01696
G1 X131.184 Y116.622 E0.43507
G1 X131.035 Y117.011 E0.01314
G1 X140.389 Y126.364 E0.41771
G1 X139.852 Y126.364 E0.01696
G1 X130.887 Y117.399 E0.40034
G1 X130.739 Y117.788 E0.01314
G1 X139.315 Y126.364 E0.38298
G1 X138.778 Y126.364 E0.01696
G1 X130.591 Y118.177 E0.36562
G1 X130.442 Y118.566 E0.01314
G1 X138.241 Y126.364 E0.34825
G1 X137.704 Y126.364 E0.01696
G1 X130.294 Y118.955 E0.33089
G1 X130.146 Y119.343 E0.01314
G1 X137.167 Y126.364 E0.31353
G1 X136.630 Y126.364 E0.01696
G1 X129.998 Y119.732 E0.29616
G1 X129.849 Y120.121 E0.01314
G1 X136.092 Y126.364 E0.27880
G1 X135.555 Y126.364 E0.01696
G1 X129.701 Y120.510 E0.26144
G1 X129.553 Y120.899 E0.01314
G1 X135.018 Y126.364 E0.24407
G1 X134.481 Y126.364 E0.01696
G1 X129.405 Y121.287 E0.22671
G1 X129.256 Y121.676 E0.01314
G1 X133.944 Y126.364 E0.20935
G1 X133.407 Y126.364 E0.01696
G1 X129.108 Y122.065 E0.19198
G1 X128.985 Y122.479 E0.01365
G1 X132.870 Y126.364 E0.17348
G1 X132.333 Y126.364 E0.01696
G1 X128.908 Y122.939 E0.15295
G1 X128.888 Y123.103 E0.00523
G1 X128.902 Y123.470 E0.01159
G1 X131.774 Y126.342 E0.12825
G1 X131.510 Y126.321 E0.00835
G1 X131.119 Y126.224 E0.01273
G1 X129.016 Y124.122 E0.09389
G1 X129.186 Y124.572 E0.01518
G1 X129.437 Y125.008 E0.01591
G1 X129.751 Y125.393 E0.01568
G1 X130.535 Y126.177 E0.03501
G1 E-0.80000 F2100.00000
G1 Z0.800 F10800.000
G1 X133.869 Y109.103
G1 Z0.200
G1 E0.80000 F2100.00000
G1 F1200.000
G1 X144.167 Y119.401 E0.45988
G1 X143.599 Y119.370 E0.01795
G1 X133.852 Y109.623 E0.43527
G1 X133.704 Y110.012 E0.01314
G1 X143.120 Y119.428 E0.42049
G1 X142.700 Y119.545 E0.01377
G1 X133.556 Y110.401 E0.40836
G1 X133.408 Y110.790 E0.01314
G1 X142.334 Y119.716 E0.39862
G1 X142.009 Y119.928 E0.01225
G1 X133.259 Y111.178 E0.39074
G1 X133.111 Y111.567 E0.01314
G1 X141.718 Y120.174 E0.38437
G1 X141.459 Y120.453 E0.01200
G1 X132.963 Y111.956 E0.37943
G1 X132.815 Y112.345 E0.01314
G1 X141.238 Y120.768 E0.37618
G1 X141.063 Y121.130 E0.01269
G1 X132.666 Y112.734 E0.37496
G1 X132.518 Y113.122 E0.01314
G1 X140.930 Y121.535 E0.37567
G1 X140.877 Y121.735 E0.00655
G1 X140.854 Y121.995 E0.00825
G1 X132.370 Y113.511 E0.37888
G1 X132.221 Y113.900 E0.01314
G1 X140.860 Y122.538 E0.38575
G1 X140.877 Y122.733 E0.00617
G1 X141.011 Y123.226 E0.01615
G1 X132.073 Y114.289 E0.39913
G1 X131.925 Y114.678 E0.01314
G1 X143.611 Y126.364 E0.52188
G1 X144.148 Y126.364 E0.01696
G1 X142.714 Y124.929 E0.06407
G1 X143.207 Y125.064 E0.01615
G1 X143.402 Y125.081 E0.00617
G1 X144.686 Y126.364 E0.05732
G1 X145.223 Y126.364 E0.01696
G1 X143.945 Y125.086 E0.05706
G1 X144.205 Y125.064 E0.00825
G1 X144.405 Y125.010 E0.00655
G1 X145.760 Y126.364 E0.06048
G1 X146.297 Y126.364 E0.01696
G1 X144.810 Y124.877 E0.06639
G1 X145.172 Y124.702 E0.01269
G1 X146.834 Y126.364 E0.07423
G1 X147.371 Y126.364 E0.01696
G1 X145.488 Y124.481 E0.08410
G1 X145.766 Y124.222 E0.01200
G1 X147.908 Y126.364 E0.09566
G1 X148.445 Y126.364 E0.01696
G1 X146.012 Y123.931 E0.10865
G1 X146.224 Y123.606 E0.01225
G1 X148.982 Y126.364 E0.12315
G1 X149.519 Y126.364 E0.01696
G1 X146.395 Y123.240 E0.13951
G1 X146.512 Y122.820 E0.01377
G1 X150.056 Y126.364 E0.15826
G1 X150.593 Y126.364 E0.01696
G1 X146.570 Y122.341 E0.17967
G1 X146.579 Y122.234 E0.00339
G1 X146.539 Y121.773 E0.01462
G1 X151.130 Y126.364 E0.20504
G1 X151.667 Y126.364 E0.01696
G1 X134.149 Y108.845 E0.78233
G1 X134.297 Y108.457 E0.01314
G1 X152.204 Y126.364 E0.79970
G1 X152.742 Y126.364 E0.01696
G1 X134.445 Y108.068 E0.81706
G1 X134.594 Y107.679 E0.01314
G1 X153.279 Y126.364 E0.83442
G1 X153.816 Y126.364 E0.01696
G1 X134.742 Y107.290 E0.85179
G1 X134.890 Y106.901 E0.01314
G1 X154.353 Y126.364 E0.86915
G1 X154.890 Y126.364 E0.01696
G1 X135.038 Y106.513 E0.88651
