; generated by PrusaSlicer 2.2.0+win64 on 2020-07-30 at 17:08:05 UTC

; 

; external perimeters extrusion width = 0.45mm
; perimeters extrusion width = 0.45mm
; infill extrusion width = 0.45mm
; solid infill extrusion width = 0.45mm
; top infill extrusion width = 0.40mm
; first layer extrusion width = 0.42mm

M73 P0 R102
M201 X9000 Y9000 Z500 E10000 ; sets maximum accelerations, mm/sec^2
M203 X500 Y500 Z12 E120 ; sets maximum feedrates, mm/sec
M204 P2000 R1500 T2000 ; sets acceleration (P, T) and retract acceleration (R), mm/sec^2
M205 X10.00 Y10.00 Z0.20 E2.50 ; sets the jerk limits, mm/sec
M205 S0 T0 ; sets the minimum extruding and travel feed rate, mm/sec
M107
M862.3 P "MK2.5SMMU2S" ; printer model check
M862.1 P0.4 ; nozzle diameter check
M115 U3.8.0 ; tell printer latest fw version
G90 ; use absolute coordinates
M83 ; extruder relative mode
M104 S215 ; set extruder temp
M140 S60 ; set bed temp
Tx
M190 S60 ; wait for bed temp
M109 S215 ; wait for extruder temp
G28 W ; home all without mesh bed level
G80 ; mesh bed leveling

G21 ; set units to millimeters

;go outside print area
G1 Y-3.0 F1000.0
G1 Z0.4 F1000.0
; select extruder
Tc
; purge line
G1 X55.0 F2000.0
G1 Z0.3 F1000.0
G92 E0.0
G1 X240.0 E25.0 F2200.0
M73 P0 R102
G1 Y-2.0 F1000.0
G1 X55.0 E25 F1400.0
G1 Z0.20 F1000.0
G1 X5.0 E4.0 F1000.0
G92 E0.0
G21 ; set units to millimeters
G90 ; use absolute coordinates
M83 ; use relative distances for extrusion
M900 K0.06 ; Filament gcode LA 1.5
M900 K30 ; Filament gcode LA 1.0
;BEFORE_LAYER_CHANGE
G92 E0.0
;0.2


G1 E-0.80000 F2100.00000
G1 Z0.600 F10800.000
;AFTER_LAYER_CHANGE
;0.2
G1 X75.348 Y65.646
G1 Z0.200
G1 E0.80000 F2100.00000
M204 S1000
G1 F1200.000
G1 X76.117 Y65.513 E0.02449
G1 X173.874 Y65.513 E3.06508
G1 X174.758 Y65.685 E0.02825
G1 X175.512 Y66.172 E0.02813
G1 X176.032 Y66.903 E0.02813
G1 X176.244 Y67.779 E0.02825
G1 X176.214 Y115.798 E1.50560
G1 X175.954 Y116.543 E0.02473
G1 X161.128 Y143.353 E0.96058
G1 X160.517 Y144.069 E0.02954
G1 X159.831 Y144.444 E0.02449
G1 X159.065 Y144.576 E0.02437
G1 X76.119 Y144.576 E2.60074
G1 X75.586 Y144.513 E0.01680
G1 X75.085 Y144.334 E0.01668
G1 X74.636 Y144.048 E0.01668
G1 X74.260 Y143.667 E0.01680
G1 X73.885 Y142.981 E0.02449
G1 X73.753 Y142.215 E0.02437
G1 X73.753 Y67.879 E2.33077
G1 X73.816 Y67.347 E0.01680
G1 X73.995 Y66.845 E0.01668
G1 X74.281 Y66.397 E0.01668
G1 X74.662 Y66.020 E0.01680
G1 X75.295 Y65.674 E0.02261
G1 E-0.80000 F2100.00000
G1 Z0.800 F10800.000
G1 X154.640 Y122.076
G1 Z0.200
G1 E0.80000 F2100.00000
G1 F1200.000
G1 X158.463 Y122.076 E0.11987
G1 X158.463 Y141.612 E0.61254
G1 X150.817 Y141.612 E0.23973
G1 X150.817 Y122.076 E0.61254
G1 X154.580 Y122.076 E0.11798
G1 E-0.80000 F2100.00000
G1 Z0.800 F10800.000
G1 X154.640 Y141.989
G1 Z0.200
G1 E0.80000 F2100.00000
G1 F1200.000
G1 X150.440 Y141.989 E0.13169
G1 X150.440 Y121.699 E0.63618
G1 X158.840 Y121.699 E0.26338
G1 X158.840 Y141.989 E0.63618
G1 X154.700 Y141.989 E0.12981
G1 X154.308 Y141.766 F10800.000
G1 E-0.80000 F2100.00000
G1 Z0.800 F10800.000
G1 X158.350 Y122.956
G1 Z0.200
G1 E0.80000 F2100.00000
G1 F1200.000
G1 X157.753 Y122.359 E0.02660
G1 X157.217 Y122.359 E0.01690
G1 X158.180 Y123.322 E0.04294
G1 X158.180 Y123.858 E0.01690
G1 X156.681 Y122.359 E0.06683
G1 X156.145 Y122.359 E0.01690
G1 X158.180 Y124.394 E0.09073
G1 X158.180 Y124.930 E0.01690
G1 X155.609 Y122.359 E0.11463
G1 X155.073 Y122.359 E0.01690
G1 X158.180 Y125.466 E0.13853
G1 X158.180 Y126.002 E0.01690
G1 X154.536 Y122.359 E0.16242
G1 X154.000 Y122.359 E0.01690
G1 X158.180 Y126.539 E0.18632
G1 X158.180 Y127.075 E0.01690
G1 X153.464 Y122.359 E0.21022
G1 X152.928 Y122.359 E0.01690
G1 X158.180 Y127.611 E0.23411
G1 X158.180 Y128.147 E0.01690
G1 X152.392 Y122.359 E0.25801
G1 X151.856 Y122.359 E0.01690
G1 X158.180 Y128.683 E0.28191
G1 X158.180 Y129.219 E0.01690
G1 X151.320 Y122.359 E0.30581
G1 X151.100 Y122.359 E0.00693
G1 X151.100 Y122.675 E0.00996
G1 X158.180 Y129.755 E0.31561
G1 X158.180 Y130.291 E0.01690
G1 X151.100 Y123.211 E0.31561
G1 X151.100 Y123.747 E0.01690
G1 X158.180 Y130.827 E0.31561
G1 X158.180 Y131.363 E0.01690
G1 X151.100 Y124.283 E0.31561
G1 X151.100 Y124.819 E0.01690
G1 X158.180 Y131.899 E0.31561
G1 X158.180 Y132.436 E0.01690
G1 X151.100 Y125.355 E0.31561
G1 X151.100 Y125.891 E0.01690
G1 X158.180 Y132.972 E0.31561
G1 X158.180 Y133.508 E0.01690
G1 X151.100 Y126.428 E0.31561
G1 X151.100 Y126.964 E0.01690
G1 X158.180 Y134.044 E0.31561
G1 X158.180 Y134.580 E0.01690
G1 X151.100 Y127.500 E0.31561
G1 X151.100 Y128.036 E0.01690
G1 X158.180 Y135.116 E0.31561
G1 X158.180 Y135.652 E0.01690
G1 X151.100 Y128.572 E0.31561
G1 X151.100 Y129.108 E0.01690
G1 X158.180 Y136.188 E0.31561
G1 X158.180 Y136.724 E0.01690
G1 X151.100 Y129.644 E0.31561
G1 X151.100 Y130.180 E0.01690
G1 X158.180 Y137.260 E0.31561
G1 X158.180 Y137.797 E0.01690
G1 X151.100 Y130.716 E0.31561
G1 X151.100 Y131.252 E0.01690
G1 X158.180 Y138.333 E0.31561
G1 X158.180 Y138.869 E0.01690
G1 X151.100 Y131.788 E0.31561
G1 X151.100 Y132.325 E0.01690
G1 X158.180 Y139.405 E0.31561
G1 X158.180 Y139.941 E0.01690
G1 X151.100 Y132.861 E0.31561
G1 X151.100 Y133.397 E0.01690
G1 X158.180 Y140.477 E0.31561
G1 X158.180 Y141.013 E0.01690
G1 X151.100 Y133.933 E0.31561
G1 X151.100 Y134.469 E0.01690
G1 X157.960 Y141.329 E0.30580
G1 X157.424 Y141.329 E0.01690
G1 X151.100 Y135.005 E0.28190
G1 X151.100 Y135.541 E0.01690
G1 X156.888 Y141.329 E0.25801
G1 X156.352 Y141.329 E0.01690
G1 X151.100 Y136.077 E0.23411
G1 X151.100 Y136.613 E0.01690
G1 X155.816 Y141.329 E0.21021
G1 X155.280 Y141.329 E0.01690
G1 X151.100 Y137.149 E0.18632
G1 X151.100 Y137.685 E0.01690
G1 X154.743 Y141.329 E0.16242
G1 X154.207 Y141.329 E0.01690
G1 X151.100 Y138.222 E0.13852
G1 X151.100 Y138.758 E0.01690
G1 X153.671 Y141.329 E0.11462
G1 X153.135 Y141.329 E0.01690
G1 X151.100 Y139.294 E0.09073
G1 X151.100 Y139.830 E0.01690
G1 X152.599 Y141.329 E0.06683
G1 X152.063 Y141.329 E0.01690
G1 X151.100 Y140.366 E0.04293
G1 X151.100 Y140.902 E0.01690
G1 X151.697 Y141.499 E0.02660
G1 E-0.80000 F2100.00000
G1 Z0.800 F10800.000
G1 X139.820 Y141.612
G1 Z0.200
G1 E0.80000 F2100.00000
G1 F1200.000
G1 X135.997 Y141.612 E0.11987
G1 X135.997 Y122.076 E0.61254
G1 X143.643 Y122.076 E0.23973
G1 X143.643 Y141.612 E0.61254
G1 X139.880 Y141.612 E0.11798
G1 X139.820 Y141.989 F10800.000
G1 F1200.000
G1 X135.620 Y141.989 E0.13169
G1 X135.620 Y121.699 E0.63618
M73 P1 R101
G1 X144.020 Y121.699 E0.26338
G1 X144.020 Y141.989 E0.63618
G1 X139.880 Y141.989 E0.12981
G1 X139.488 Y141.766 F10800.000
G1 E-0.80000 F2100.00000
G1 Z0.800 F10800.000
G1 X143.530 Y122.956
G1 Z0.200
G1 E0.80000 F2100.00000
G1 F1200.000
G1 X142.933 Y122.359 E0.02660
G1 X142.397 Y122.359 E0.01690
G1 X143.360 Y123.322 E0.04294
G1 X143.360 Y123.858 E0.01690
G1 X141.861 Y122.359 E0.06683
G1 X141.325 Y122.359 E0.01690
G1 X143.360 Y124.394 E0.09073
G1 X143.360 Y124.930 E0.01690
G1 X140.789 Y122.359 E0.11463
G1 X140.253 Y122.359 E0.01690
G1 X143.360 Y125.466 E0.13853
G1 X143.360 Y126.002 E0.01690
G1 X139.716 Y122.359 E0.16242
G1 X139.180 Y122.359 E0.01690
G1 X143.360 Y126.539 E0.18632
G1 X143.360 Y127.075 E0.01690
G1 X138.644 Y122.359 E0.21022
G1 X138.108 Y122.359 E0.01690
G1 X143.360 Y127.611 E0.23411
G1 X143.360 Y128.147 E0.01690
G1 X137.572 Y122.359 E0.25801
G1 X137.036 Y122.359 E0.01690
G1 X143.360 Y128.683 E0.28191
G1 X143.360 Y129.219 E0.01690
G1 X136.500 Y122.359 E0.30581
G1 X136.280 Y122.359 E0.00693
G1 X136.280 Y122.675 E0.00996
G1 X143.360 Y129.755 E0.31561
G1 X143.360 Y130.291 E0.01690
G1 X136.280 Y123.211 E0.31561
G1 X136.280 Y123.747 E0.01690
G1 X143.360 Y130.827 E0.31561
G1 X143.360 Y131.363 E0.01690
G1 X136.280 Y124.283 E0.31561
G1 X136.280 Y124.819 E0.01690
G1 X143.360 Y131.899 E0.31561
G1 X143.360 Y132.436 E0.01690
G1 X136.280 Y125.355 E0.31561
G1 X136.280 Y125.891 E0.01690
G1 X143.360 Y132.972 E0.31561
G1 X143.360 Y133.508 E0.01690
G1 X136.280 Y126.428 E0.31561
G1 X136.280 Y126.964 E0.01690
G1 X143.360 Y134.044 E0.31561
G1 X143.360 Y134.580 E0.01690
G1 X136.280 Y127.500 E0.31561
G1 X136.280 Y128.036 E0.01690
G1 X143.360 Y135.116 E0.31561
G1 X143.360 Y135.652 E0.01690
G1 X136.280 Y128.572 E0.31561
G1 X136.280 Y129.108 E0.01690
G1 X143.360 Y136.188 E0.31561
G1 X143.360 Y136.724 E0.01690
G1 X136.280 Y129.644 E0.31561
G1 X136.280 Y130.180 E0.01690
G1 X143.360 Y137.260 E0.31561
G1 X143.360 Y137.797 E0.01690
G1 X136.280 Y130.716 E0.31561
G1 X136.280 Y131.252 E0.01690
G1 X143.360 Y138.333 E0.31561
G1 X143.360 Y138.869 E0.01690
G1 X136.280 Y131.788 E0.31561
G1 X136.280 Y132.325 E0.01690
G1 X143.360 Y139.405 E0.31561
G1 X143.360 Y139.941 E0.01690
G1 X136.280 Y132.861 E0.31561
G1 X136.280 Y133.397 E0.01690
G1 X143.360 Y140.477 E0.31561
G1 X143.360 Y141.013 E0.01690
G1 X136.280 Y133.933 E0.31561
G1 X136.280 Y134.469 E0.01690
G1 X143.140 Y141.329 E0.30580
G1 X142.604 Y141.329 E0.01690
G1 X136.280 Y135.005 E0.28190
G1 X136.280 Y135.541 E0.01690
G1 X142.068 Y141.329 E0.25801
G1 X141.532 Y141.329 E0.01690
G1 X136.280 Y136.077 E0.23411
G1 X136.280 Y136.613 E0.01690
G1 X140.996 Y141.329 E0.21021
G1 X140.460 Y141.329 E0.01690
G1 X136.280 Y137.149 E0.18632
G1 X136.280 Y137.685 E0.01690
G1 X139.923 Y141.329 E0.16242
G1 X139.387 Y141.329 E0.01690
G1 X136.280 Y138.222 E0.13852
G1 X136.280 Y138.758 E0.01690
G1 X138.851 Y141.329 E0.11462
G1 X138.315 Y141.329 E0.01690
G1 X136.280 Y139.294 E0.09073
G1 X136.280 Y139.830 E0.01690
G1 X137.779 Y141.329 E0.06683
G1 X137.243 Y141.329 E0.01690
G1 X136.280 Y140.366 E0.04293
G1 X136.280 Y140.902 E0.01690
G1 X136.877 Y141.499 E0.02660
G1 E-0.80000 F2100.00000
G1 Z0.800 F10800.000
G1 X125.000 Y141.612
G1 Z0.200
G1 E0.80000 F2100.00000
G1 F1200.000
G1 X121.177 Y141.612 E0.11987
G1 X121.177 Y122.076 E0.61254
G1 X128.823 Y122.076 E0.23973
G1 X128.823 Y141.612 E0.61254
G1 X125.060 Y141.612 E0.11798
G1 X125.000 Y141.989 F10800.000
G1 F1200.000
G1 X120.800 Y141.989 E0.13169
G1 X120.800 Y121.699 E0.63618
G1 X129.200 Y121.699 E0.26338
G1 X129.200 Y141.989 E0.63618
G1 X125.060 Y141.989 E0.12981
G1 X124.668 Y141.766 F10800.000
G1 E-0.80000 F2100.00000
G1 Z0.800 F10800.000
G1 X128.710 Y122.956
G1 Z0.200
G1 E0.80000 F2100.00000
G1 F1200.000
G1 X128.113 Y122.359 E0.02660
G1 X127.577 Y122.359 E0.01690
G1 X128.540 Y123.322 E0.04294
G1 X128.540 Y123.858 E0.01690
G1 X127.041 Y122.359 E0.06683
G1 X126.505 Y122.359 E0.01690
G1 X128.540 Y124.394 E0.09073
G1 X128.540 Y124.930 E0.01690
G1 X125.969 Y122.359 E0.11463
G1 X125.433 Y122.359 E0.01690
G1 X128.540 Y125.466 E0.13853
G1 X128.540 Y126.002 E0.01690
G1 X124.896 Y122.359 E0.16242
G1 X124.360 Y122.359 E0.01690
G1 X128.540 Y126.539 E0.18632
G1 X128.540 Y127.075 E0.01690
G1 X123.824 Y122.359 E0.21022
G1 X123.288 Y122.359 E0.01690
G1 X128.540 Y127.611 E0.23411
G1 X128.540 Y128.147 E0.01690
G1 X122.752 Y122.359 E0.25801
G1 X122.216 Y122.359 E0.01690
G1 X128.540 Y128.683 E0.28191
G1 X128.540 Y129.219 E0.01690
G1 X121.680 Y122.359 E0.30581
G1 X121.460 Y122.359 E0.00693
G1 X121.460 Y122.675 E0.00996
G1 X128.540 Y129.755 E0.31561
G1 X128.540 Y130.291 E0.01690
G1 X121.460 Y123.211 E0.31561
G1 X121.460 Y123.747 E0.01690
G1 X128.540 Y130.827 E0.31561
G1 X128.540 Y131.363 E0.01690
G1 X121.460 Y124.283 E0.31561
G1 X121.460 Y124.819 E0.01690
G1 X128.540 Y131.899 E0.31561
G1 X128.540 Y132.436 E0.01690
G1 X121.460 Y125.355 E0.31561
G1 X121.460 Y125.891 E0.01690
G1 X128.540 Y132.972 E0.31561
G1 X128.540 Y133.508 E0.01690
G1 X121.460 Y126.428 E0.31561
G1 X121.460 Y126.964 E0.01690
G1 X128.540 Y134.044 E0.31561
G1 X128.540 Y134.580 E0.01690
G1 X121.460 Y127.500 E0.31561
G1 X121.460 Y128.036 E0.01690
G1 X128.540 Y135.116 E0.31561
G1 X128.540 Y135.652 E0.01690
G1 X121.460 Y128.572 E0.31561
G1 X121.460 Y129.108 E0.01690
G1 X128.540 Y136.188 E0.31561
G1 X128.540 Y136.724 E0.01690
G1 X121.460 Y129.644 E0.31561
G1 X121.460 Y130.180 E0.01690
G1 X128.540 Y137.260 E0.31561
G1 X128.540 Y137.797 E0.01690
G1 X121.460 Y130.716 E0.31561
G1 X121.460 Y131.252 E0.01690
G1 X128.540 Y138.333 E0.31561
G1 X128.540 Y138.869 E0.01690
G1 X121.460 Y131.788 E0.31561
G1 X121.460 Y132.325 E0.01690
G1 X128.540 Y139.405 E0.31561
G1 X128.540 Y139.941 E0.01690
G1 X121.460 Y132.861 E0.31561
G1 X121.460 Y133.397 E0.01690
G1 X128.540 Y140.477 E0.31561
G1 X128.540 Y141.013 E0.01690
G1 X121.460 Y133.933 E0.31561
G1 X121.460 Y134.469 E0.01690
G1 X128.320 Y141.329 E0.30580
G1 X127.784 Y141.329 E0.01690
G1 X121.460 Y135.005 E0.28190
G1 X121.460 Y135.541 E0.01690
G1 X127.248 Y141.329 E0.25801
G1 X126.712 Y141.329 E0.01690
G1 X121.460 Y136.077 E0.23411
G1 X121.460 Y136.613 E0.01690
G1 X126.176 Y141.329 E0.21021
G1 X125.640 Y141.329 E0.01690
G1 X121.460 Y137.149 E0.18632
G1 X121.460 Y137.685 E0.01690
G1 X125.103 Y141.329 E0.16242
G1 X124.567 Y141.329 E0.01690
G1 X121.460 Y138.222 E0.13852
G1 X121.460 Y138.758 E0.01690
G1 X124.031 Y141.329 E0.11462
G1 X123.495 Y141.329 E0.01690
G1 X121.460 Y139.294 E0.09073
G1 X121.460 Y139.830 E0.01690
G1 X122.959 Y141.329 E0.06683
G1 X122.423 Y141.329 E0.01690
G1 X121.460 Y140.366 E0.04293
G1 X121.460 Y140.902 E0.01690
G1 X122.057 Y141.499 E0.02660
G1 E-0.80000 F2100.00000
G1 Z0.800 F10800.000
G1 X110.180 Y141.612
G1 Z0.200
G1 E0.80000 F2100.00000
G1 F1200.000
G1 X106.357 Y141.612 E0.11987
G1 X106.357 Y122.076 E0.61254
G1 X114.003 Y122.076 E0.23973
G1 X114.003 Y141.612 E0.61254
G1 X110.240 Y141.612 E0.11798
G1 X110.180 Y141.989 F10800.000
G1 F1200.000
G1 X105.980 Y141.989 E0.13169
G1 X105.980 Y121.699 E0.63618
G1 X114.380 Y121.699 E0.26338
G1 X114.380 Y141.989 E0.63618
G1 X110.240 Y141.989 E0.12981
G1 X109.848 Y141.766 F10800.000
G1 E-0.80000 F2100.00000
G1 Z0.800 F10800.000
G1 X113.890 Y122.956
G1 Z0.200
G1 E0.80000 F2100.00000
G1 F1200.000
G1 X113.293 Y122.359 E0.02660
G1 X112.757 Y122.359 E0.01690
G1 X113.720 Y123.322 E0.04294
G1 X113.720 Y123.858 E0.01690
G1 X112.221 Y122.359 E0.06683
G1 X111.685 Y122.359 E0.01690
G1 X113.720 Y124.394 E0.09073
G1 X113.720 Y124.930 E0.01690
G1 X111.149 Y122.359 E0.11463
G1 X110.613 Y122.359 E0.01690
G1 X113.720 Y125.466 E0.13853
G1 X113.720 Y126.002 E0.01690
G1 X110.076 Y122.359 E0.16242
G1 X109.540 Y122.359 E0.01690
G1 X113.720 Y126.539 E0.18632
G1 X113.720 Y127.075 E0.01690
G1 X109.004 Y122.359 E0.21022
G1 X108.468 Y122.359 E0.01690
G1 X113.720 Y127.611 E0.23411
G1 X113.720 Y128.147 E0.01690
G1 X107.932 Y122.359 E0.25801
G1 X107.396 Y122.359 E0.01690
G1 X113.720 Y128.683 E0.28191
G1 X113.720 Y129.219 E0.01690
G1 X106.860 Y122.359 E0.30581
G1 X106.640 Y122.359 E0.00693
G1 X106.640 Y122.675 E0.00996
G1 X113.720 Y129.755 E0.31561
G1 X113.720 Y130.291 E0.01690
G1 X106.640 Y123.211 E0.31561
G1 X106.640 Y123.747 E0.01690
G1 X113.720 Y130.827 E0.31561
G1 X113.720 Y131.363 E0.01690
G1 X106.640 Y124.283 E0.31561
M73 P2 R100
G1 X106.640 Y124.819 E0.01690
G1 X113.720 Y131.899 E0.31561
G1 X113.720 Y132.436 E0.01690
G1 X106.640 Y125.355 E0.31561
G1 X106.640 Y125.891 E0.01690
G1 X113.720 Y132.972 E0.31561
G1 X113.720 Y133.508 E0.01690
G1 X106.640 Y126.428 E0.31561
G1 X106.640 Y126.964 E0.01690
G1 X113.720 Y134.044 E0.31561
G1 X113.720 Y134.580 E0.01690
G1 X106.640 Y127.500 E0.31561
G1 X106.640 Y128.036 E0.01690
G1 X113.720 Y135.116 E0.31561
G1 X113.720 Y135.652 E0.01690
G1 X106.640 Y128.572 E0.31561
G1 X106.640 Y129.108 E0.01690
G1 X113.720 Y136.188 E0.31561
G1 X113.720 Y136.724 E0.01690
G1 X106.640 Y129.644 E0.31561
G1 X106.640 Y130.180 E0.01690
G1 X113.720 Y137.260 E0.31561
G1 X113.720 Y137.797 E0.01690
G1 X106.640 Y130.716 E0.31561
G1 X106.640 Y131.252 E0.01690
G1 X113.720 Y138.333 E0.31561
G1 X113.720 Y138.869 E0.01690
G1 X106.640 Y131.788 E0.31561
G1 X106.640 Y132.325 E0.01690
G1 X113.720 Y139.405 E0.31561
G1 X113.720 Y139.941 E0.01690
G1 X106.640 Y132.861 E0.31561
G1 X106.640 Y133.397 E0.01690
G1 X113.720 Y140.477 E0.31561
G1 X113.720 Y141.013 E0.01690
G1 X106.640 Y133.933 E0.31561
G1 X106.640 Y134.469 E0.01690
G1 X113.500 Y141.329 E0.30580
G1 X112.964 Y141.329 E0.01690
G1 X106.640 Y135.005 E0.28190
G1 X106.640 Y135.541 E0.01690
G1 X112.428 Y141.329 E0.25801
G1 X111.892 Y141.329 E0.01690
G1 X106.640 Y136.077 E0.23411
G1 X106.640 Y136.613 E0.01690
G1 X111.356 Y141.329 E0.21021
G1 X110.820 Y141.329 E0.01690
