; generated by PrusaSlicer 2.2.0+win64 on 2020-07-30 at 16:52:45 UTC

; 

; external perimeters extrusion width = 0.45mm
; perimeters extrusion width = 0.45mm
; infill extrusion width = 0.45mm
; solid infill extrusion width = 0.45mm
; top infill extrusion width = 0.40mm
; support material extrusion width = 0.35mm
; first layer extrusion width = 0.42mm

M73 P0 R62
M201 X9000 Y9000 Z500 E10000 ; sets maximum accelerations, mm/sec^2
M203 X500 Y500 Z12 E120 ; sets maximum feedrates, mm/sec
M204 P2000 R1500 T2000 ; sets acceleration (P, T) and retract acceleration (R), mm/sec^2
M205 X10.00 Y10.00 Z0.20 E2.50 ; sets the jerk limits, mm/sec
M205 S0 T0 ; sets the minimum extruding and travel feed rate, mm/sec
M107
M862.3 P "MK2.5SMMU2S" ; printer model check
M862.1 P0.4 ; nozzle diameter check
M115 U3.8.0 ; tell printer latest fw version
G90 ; use absolute coordinates
M83 ; extruder relative mode
M104 S215 ; set extruder temp
M140 S60 ; set bed temp
Tx
M190 S60 ; wait for bed temp
M109 S215 ; wait for extruder temp
G28 W ; home all without mesh bed level
G80 ; mesh bed leveling

G21 ; set units to millimeters

;go outside print area
G1 Y-3.0 F1000.0
G1 Z0.4 F1000.0
; select extruder
Tc
; purge line
G1 X55.0 F2000.0
G1 Z0.3 F1000.0
G92 E0.0
G1 X240.0 E25.0 F2200.0
M73 P0 R62
G1 Y-2.0 F1000.0
G1 X55.0 E25 F1400.0
G1 Z0.20 F1000.0
G1 X5.0 E4.0 F1000.0
G92 E0.0
G21 ; set units to millimeters
G90 ; use absolute coordinates
M83 ; use relative distances for extrusion
M900 K0.06 ; Filament gcode LA 1.5
M900 K30 ; Filament gcode LA 1.0
;BEFORE_LAYER_CHANGE
G92 E0.0
;0.2


G1 E-0.80000 F2100.00000
G1 Z0.600 F10800.000
;AFTER_LAYER_CHANGE
;0.2
G1 X98.044 Y58.796
G1 Z0.200
G1 E0.80000 F2100.00000
M204 S1000
G1 F1200.000
G1 X121.185 Y53.087 E0.74733
G1 X121.847 Y53.026 E0.02084
G1 X128.223 Y53.025 E0.19991
G1 X129.047 Y53.118 E0.02601
G1 X152.131 Y58.835 E0.74564
G1 X170.890 Y69.542 E0.67723
G1 X171.350 Y69.866 E0.01766
G1 X171.836 Y70.346 E0.02142
G1 X172.203 Y70.857 E0.01974
G1 X172.518 Y71.522 E0.02306
G1 X172.674 Y72.071 E0.01790
G1 X176.319 Y91.726 E0.62678
G1 X176.320 Y92.383 E0.02058
G1 X175.400 Y102.839 E0.32912
G1 X161.503 Y152.476 E1.61616
G1 X161.165 Y153.345 E0.02923
G1 X160.651 Y154.229 E0.03209
G1 X160.013 Y155.010 E0.03161
G1 X159.250 Y155.687 E0.03197
G1 X158.383 Y156.237 E0.03221
G1 X157.460 Y156.633 E0.03149
G1 X156.463 Y156.883 E0.03221
G1 X155.554 Y156.967 E0.02863
G1 X94.650 Y156.971 E1.90960
G1 X93.631 Y156.887 E0.03205
G1 X92.620 Y156.635 E0.03268
G1 X91.656 Y156.218 E0.03292
G1 X90.681 Y155.570 E0.03671
G1 X77.763 Y143.495 E0.55441
G1 X77.324 Y142.972 E0.02143
G1 X77.039 Y142.488 E0.01762
G1 X76.707 Y141.512 E0.03230
G1 X75.744 Y130.760 E0.33849
G1 X73.692 Y91.923 E1.21939
G1 X77.445 Y72.044 E0.63431
G1 X77.604 Y71.488 E0.01814
G1 X77.910 Y70.845 E0.02232
G1 X78.279 Y70.329 E0.01989
G1 X78.767 Y69.846 E0.02154
G1 X79.229 Y69.521 E0.01770
G1 X97.992 Y58.825 E0.67716
G1 E-0.80000 F2100.00000
G1 Z0.800 F10800.000
G1 X106.335 Y147.006
G1 Z0.200
G1 E0.80000 F2100.00000
G1 F1200.000
G1 X106.802 Y147.043 E0.01469
G1 X107.241 Y147.161 E0.01423
G1 X107.650 Y147.351 E0.01415
G1 X108.020 Y147.610 E0.01415
G1 X108.339 Y147.929 E0.01415
G1 X108.586 Y148.283 E0.01353
G1 X108.788 Y148.706 E0.01469
G1 X108.905 Y149.144 E0.01423
G1 X108.945 Y149.594 E0.01415
G1 X108.905 Y150.043 E0.01415
G1 X108.788 Y150.479 E0.01415
G1 X108.598 Y150.888 E0.01415
G1 X108.339 Y151.258 E0.01415
G1 X108.020 Y151.577 E0.01415
G1 X107.650 Y151.836 E0.01415
G1 X107.241 Y152.027 E0.01415
G1 X106.805 Y152.144 E0.01415
G1 X106.355 Y152.183 E0.01415
G1 X105.906 Y152.144 E0.01415
G1 X105.470 Y152.027 E0.01415
G1 X105.061 Y151.836 E0.01415
G1 X104.691 Y151.577 E0.01415
G1 X104.372 Y151.258 E0.01415
G1 X104.113 Y150.888 E0.01415
G1 X103.922 Y150.479 E0.01415
G1 X103.805 Y150.043 E0.01415
G1 X103.766 Y149.594 E0.01415
G1 X103.805 Y149.144 E0.01415
G1 X103.922 Y148.708 E0.01415
G1 X104.113 Y148.299 E0.01415
G1 X104.372 Y147.929 E0.01415
G1 X104.691 Y147.610 E0.01415
G1 X105.061 Y147.351 E0.01415
G1 X105.470 Y147.161 E0.01415
G1 X105.906 Y147.044 E0.01415
G1 X106.276 Y147.011 E0.01165
G1 E-0.80000 F2100.00000
G1 Z0.800 F10800.000
G1 X106.355 Y151.805
G1 Z0.200
G1 E0.80000 F2100.00000
G1 F1200.000
G1 X105.971 Y151.771 E0.01208
G1 X105.599 Y151.671 E0.01208
G1 X105.250 Y151.508 E0.01208
G1 X104.934 Y151.287 E0.01208
G1 X104.662 Y151.015 E0.01208
G1 X104.441 Y150.699 E0.01208
G1 X104.278 Y150.350 E0.01208
G1 X104.178 Y149.978 E0.01208
G1 X104.144 Y149.594 E0.01208
G1 X104.178 Y149.210 E0.01208
G1 X104.278 Y148.838 E0.01208
G1 X104.441 Y148.488 E0.01208
G1 X104.662 Y148.173 E0.01208
G1 X104.934 Y147.900 E0.01208
G1 X105.250 Y147.679 E0.01208
G1 X105.599 Y147.516 E0.01208
G1 X105.971 Y147.417 E0.01208
G1 X106.337 Y147.385 E0.01151
G1 X106.738 Y147.416 E0.01262
G1 X107.111 Y147.516 E0.01211
G1 X107.461 Y147.679 E0.01208
G1 X107.776 Y147.900 E0.01208
G1 X108.049 Y148.173 E0.01208
G1 X108.259 Y148.473 E0.01151
G1 X108.432 Y148.837 E0.01262
G1 X108.532 Y149.210 E0.01211
G1 X108.566 Y149.594 E0.01208
G1 X108.532 Y149.978 E0.01208
G1 X108.433 Y150.350 E0.01208
G1 X108.270 Y150.699 E0.01208
G1 X108.049 Y151.015 E0.01208
G1 X107.776 Y151.287 E0.01208
G1 X107.461 Y151.508 E0.01208
G1 X107.111 Y151.671 E0.01208
G1 X106.739 Y151.771 E0.01208
G1 X106.415 Y151.799 E0.01020
G1 X106.163 Y152.138 F10800.000
G1 E-0.80000 F2100.00000
G1 Z0.800 F10800.000
G1 X106.355 Y154.007
G1 Z0.200
G1 E0.80000 F2100.00000
G1 F1200.000
G1 X94.685 Y154.007 E0.36591
G1 X94.114 Y153.961 E0.01797
G1 X93.580 Y153.829 E0.01723
G1 X93.075 Y153.613 E0.01723
G1 X92.611 Y153.319 E0.01723
G1 X92.200 Y152.955 E0.01723
G1 X91.852 Y152.529 E0.01723
G1 X91.578 Y152.053 E0.01723
G1 X91.395 Y151.567 E0.01629
G1 X91.275 Y150.998 E0.01823
G1 X91.253 Y150.451 E0.01716
G1 X91.320 Y149.906 E0.01723
G1 X91.481 Y149.356 E0.01797
G1 X99.445 Y128.469 E0.70089
G1 X99.445 Y111.398 E0.53523
G1 X113.265 Y111.398 E0.43331
G1 X113.265 Y128.469 E0.53523
G1 X121.230 Y149.356 E0.70089
G1 X121.390 Y149.906 E0.01797
G1 X121.457 Y150.451 E0.01723
G1 X121.436 Y151.000 E0.01723
G1 X121.327 Y151.539 E0.01723
G1 X121.132 Y152.053 E0.01723
G1 X120.858 Y152.529 E0.01723
G1 X120.511 Y152.955 E0.01723
G1 X120.100 Y153.319 E0.01723
G1 X119.636 Y153.613 E0.01723
G1 X119.130 Y153.829 E0.01723
G1 X118.597 Y153.961 E0.01723
G1 X118.025 Y154.007 E0.01797
G1 X106.415 Y154.007 E0.36403
G1 X106.355 Y154.384 F10800.000
G1 F1200.000
G1 X94.670 Y154.384 E0.36639
G1 X94.053 Y154.334 E0.01940
G1 X93.460 Y154.188 E0.01914
G1 X92.899 Y153.948 E0.01914
G1 X92.383 Y153.622 E0.01914
G1 X91.927 Y153.217 E0.01914
G1 X91.541 Y152.744 E0.01914
G1 X91.236 Y152.215 E0.01914
G1 X91.032 Y151.673 E0.01815
G1 X90.899 Y151.045 E0.02014
G1 X90.875 Y150.436 E0.01911
G1 X90.950 Y149.830 E0.01914
G1 X91.123 Y149.236 E0.01941
G1 X99.068 Y128.399 E0.69919
G1 X99.068 Y111.021 E0.54487
G1 X113.642 Y111.021 E0.45696
G1 X113.642 Y128.399 E0.54487
G1 X121.587 Y149.236 E0.69919
G1 X121.761 Y149.830 E0.01941
G1 X121.835 Y150.436 E0.01914
G1 X121.811 Y151.045 E0.01914
G1 X121.690 Y151.644 E0.01914
G1 X121.474 Y152.215 E0.01914
G1 X121.170 Y152.744 E0.01914
G1 X120.784 Y153.217 E0.01914
G1 X120.327 Y153.622 E0.01914
G1 X119.812 Y153.948 E0.01914
G1 X119.250 Y154.188 E0.01914
G1 X118.657 Y154.334 E0.01914
G1 X118.041 Y154.384 E0.01940
G1 X106.415 Y154.384 E0.36450
G1 X106.155 Y154.038 F10800.000
G1 X105.893 Y153.894
G1 F1200.000
G1 X94.426 Y142.426 E0.51210
G1 X94.278 Y142.815 E0.01314
G1 X105.186 Y153.724 E0.48716
G1 X104.649 Y153.724 E0.01696
G1 X94.129 Y143.204 E0.46979
G1 X93.981 Y143.593 E0.01314
G1 X104.112 Y153.724 E0.45243
G1 X103.575 Y153.724 E0.01696
G1 X93.833 Y143.982 E0.43507
G1 X93.684 Y144.370 E0.01314
G1 X103.038 Y153.724 E0.41771
G1 X102.501 Y153.724 E0.01696
G1 X93.536 Y144.759 E0.40034
G1 X93.388 Y145.148 E0.01314
G1 X101.964 Y153.724 E0.38298
G1 X101.427 Y153.724 E0.01696
G1 X93.240 Y145.537 E0.36562
G1 X93.091 Y145.926 E0.01314
G1 X100.890 Y153.724 E0.34825
G1 X100.353 Y153.724 E0.01696
G1 X92.943 Y146.314 E0.33089
G1 X92.795 Y146.703 E0.01314
G1 X99.816 Y153.724 E0.31353
G1 X99.279 Y153.724 E0.01696
G1 X92.647 Y147.092 E0.29616
G1 X92.498 Y147.481 E0.01314
G1 X98.742 Y153.724 E0.27880
G1 X98.204 Y153.724 E0.01696
G1 X92.350 Y147.870 E0.26144
G1 X92.202 Y148.258 E0.01314
G1 X97.667 Y153.724 E0.24407
G1 X97.130 Y153.724 E0.01696
G1 X92.054 Y148.647 E0.22671
G1 X91.905 Y149.036 E0.01314
G1 X96.593 Y153.724 E0.20935
G1 X96.056 Y153.724 E0.01696
G1 X91.757 Y149.425 E0.19198
G1 X91.634 Y149.839 E0.01365
G1 X95.519 Y153.724 E0.17348
G1 X94.982 Y153.724 E0.01696
G1 X91.557 Y150.299 E0.15295
G1 X91.537 Y150.463 E0.00523
G1 X91.551 Y150.830 E0.01159
G1 X94.423 Y153.702 E0.12825
G1 X94.159 Y153.681 E0.00835
G1 X93.768 Y153.584 E0.01273
G1 X91.666 Y151.482 E0.09389
G1 X91.835 Y151.931 E0.01518
G1 X92.086 Y152.368 E0.01591
G1 X92.400 Y152.753 E0.01568
G1 X93.184 Y153.537 E0.03501
G1 E-0.80000 F2100.00000
G1 Z0.800 F10800.000
G1 X96.518 Y136.463
G1 Z0.200
G1 E0.80000 F2100.00000
G1 F1200.000
G1 X106.816 Y146.761 E0.45988
G1 X106.248 Y146.730 E0.01795
G1 X96.501 Y136.983 E0.43527
G1 X96.353 Y137.372 E0.01314
G1 X105.769 Y146.788 E0.42049
M73 P1 R61
G1 X105.349 Y146.905 E0.01377
G1 X96.205 Y137.761 E0.40836
G1 X96.057 Y138.149 E0.01314
G1 X104.983 Y147.076 E0.39862
G1 X104.658 Y147.288 E0.01225
G1 X95.908 Y138.538 E0.39074
G1 X95.760 Y138.927 E0.01314
G1 X104.367 Y147.534 E0.38437
G1 X104.108 Y147.812 E0.01200
G1 X95.612 Y139.316 E0.37943
G1 X95.464 Y139.705 E0.01314
G1 X103.887 Y148.128 E0.37618
G1 X103.712 Y148.490 E0.01269
G1 X95.315 Y140.093 E0.37496
G1 X95.167 Y140.482 E0.01314
G1 X103.579 Y148.895 E0.37567
G1 X103.526 Y149.095 E0.00655
G1 X103.503 Y149.355 E0.00825
G1 X95.019 Y140.871 E0.37888
G1 X94.871 Y141.260 E0.01314
G1 X103.509 Y149.898 E0.38575
G1 X103.526 Y150.093 E0.00617
G1 X103.660 Y150.586 E0.01615
G1 X94.722 Y141.649 E0.39913
G1 X94.574 Y142.037 E0.01314
G1 X106.260 Y153.724 E0.52188
G1 X106.798 Y153.724 E0.01696
G1 X105.363 Y152.289 E0.06407
G1 X105.856 Y152.423 E0.01615
G1 X106.051 Y152.440 E0.00617
G1 X107.335 Y153.724 E0.05732
G1 X107.872 Y153.724 E0.01696
G1 X106.594 Y152.446 E0.05706
G1 X106.854 Y152.423 E0.00825
G1 X107.054 Y152.370 E0.00655
G1 X108.409 Y153.724 E0.06048
G1 X108.946 Y153.724 E0.01696
G1 X107.459 Y152.237 E0.06639
G1 X107.821 Y152.062 E0.01269
G1 X109.483 Y153.724 E0.07423
G1 X110.020 Y153.724 E0.01696
G1 X108.137 Y151.841 E0.08410
G1 X108.415 Y151.582 E0.01200
G1 X110.557 Y153.724 E0.09566
G1 X111.094 Y153.724 E0.01696
G1 X108.661 Y151.291 E0.10865
G1 X108.873 Y150.966 E0.01225
G1 X111.631 Y153.724 E0.12315
G1 X112.168 Y153.724 E0.01696
G1 X109.044 Y150.600 E0.13951
G1 X109.161 Y150.180 E0.01377
G1 X112.705 Y153.724 E0.15826
G1 X113.242 Y153.724 E0.01696
G1 X109.219 Y149.701 E0.17967
G1 X109.228 Y149.594 E0.00339
G1 X109.188 Y149.133 E0.01462
G1 X113.779 Y153.724 E0.20504
G1 X114.316 Y153.724 E0.01696
G1 X96.798 Y136.205 E0.78233
G1 X96.946 Y135.817 E0.01314
G1 X114.854 Y153.724 E0.79970
G1 X115.391 Y153.724 E0.01696
G1 X97.094 Y135.428 E0.81706
G1 X97.243 Y135.039 E0.01314
G1 X115.928 Y153.724 E0.83442
G1 X116.465 Y153.724 E0.01696
G1 X97.391 Y134.650 E0.85179
G1 X97.539 Y134.261 E0.01314
G1 X117.002 Y153.724 E0.86915
G1 X117.539 Y153.724 E0.01696
G1 X97.687 Y133.872 E0.88651
G1 X97.836 Y133.484 E0.01314
G1 X118.071 Y153.719 E0.90367
G1 X118.566 Y153.677 E0.01568
G1 X97.984 Y133.095 E0.91914
G1 X98.132 Y132.706 E0.01314
G1 X118.997 Y153.571 E0.93175
G1 X119.379 Y153.415 E0.01302
G1 X98.280 Y132.317 E0.94219
G1 X98.429 Y131.928 E0.01314
G1 X119.723 Y153.223 E0.95096
G1 X119.929 Y153.093 E0.00769
G1 X120.036 Y152.998 E0.00449
G1 X98.577 Y131.540 E0.95829
G1 X98.725 Y131.151 E0.01314
G1 X120.318 Y152.744 E0.96428
G1 X120.559 Y152.448 E0.01205
G1 X98.873 Y130.762 E0.96843
G1 X99.022 Y130.373 E0.01314
G1 X120.768 Y152.119 E0.97112
G1 X120.876 Y151.931 E0.00684
G1 X120.942 Y151.756 E0.00591
G1 X99.170 Y129.984 E0.97228
G1 X99.318 Y129.596 E0.01314
G1 X121.076 Y151.353 E0.97163
G1 X121.157 Y150.897 E0.01462
G1 X99.467 Y129.207 E0.96863
G1 X99.615 Y128.818 E0.01314
G1 X121.161 Y150.365 E0.96222
G1 X121.112 Y149.963 E0.01277
G1 X121.036 Y149.702 E0.00859
G1 X99.728 Y128.394 E0.95155
G1 X99.728 Y127.857 E0.01696
G1 X120.742 Y148.871 E0.93843
G1 X120.411 Y148.003 E0.02934
G1 X99.728 Y127.320 E0.92365
G1 X99.728 Y126.783 E0.01696
G1 X120.080 Y147.135 E0.90887
G1 X119.749 Y146.267 E0.02934
G1 X99.728 Y126.246 E0.89409
G1 X99.728 Y125.709 E0.01696
G1 X119.418 Y145.399 E0.87931
G1 X119.087 Y144.531 E0.02934
G1 X99.728 Y125.172 E0.86452
G1 X99.728 Y124.635 E0.01696
G1 X118.756 Y143.663 E0.84974
G1 X118.425 Y142.795 E0.02934
G1 X99.728 Y124.098 E0.83496
G1 X99.728 Y123.561 E0.01696
G1 X118.094 Y141.927 E0.82018
G1 X117.763 Y141.059 E0.02934
G1 X99.728 Y123.024 E0.80540
G1 X99.728 Y122.486 E0.01696
G1 X117.432 Y140.190 E0.79061
G1 X117.101 Y139.322 E0.02934
G1 X99.728 Y121.949 E0.77583
G1 X99.728 Y121.412 E0.01696
G1 X116.770 Y138.454 E0.76105
G1 X116.439 Y137.586 E0.02934
G1 X99.728 Y120.875 E0.74627
M73 P3 R60
G1 X99.728 Y120.338 E0.01696
G1 X116.108 Y136.718 E0.73149
G1 X115.777 Y135.850 E0.02934
G1 X99.728 Y119.801 E0.71671
G1 X99.728 Y119.264 E0.01696
G1 X115.446 Y134.982 E0.70192
G1 X115.115 Y134.114 E0.02934
G1 X99.728 Y118.727 E0.68714
G1 X99.728 Y118.190 E0.01696
G1 X114.784 Y133.246 E0.67236
G1 X114.453 Y132.378 E0.02934
G1 X99.728 Y117.653 E0.65758
G1 X99.728 Y117.116 E0.01696
G1 X114.122 Y131.510 E0.64280
G1 X113.791 Y130.642 E0.02934
G1 X99.728 Y116.579 E0.62802
G1 X99.728 Y116.042 E0.01696
G1 X113.460 Y129.774 E0.61323
G1 X113.129 Y128.906 E0.02934
G1 X99.728 Y115.505 E0.59845
G1 X99.728 Y114.968 E0.01696
G1 X112.982 Y128.222 E0.59190
G1 X112.982 Y127.685 E0.01696
G1 X99.728 Y114.430 E0.59190
G1 X99.728 Y113.893 E0.01696
G1 X112.982 Y127.148 E0.59190
G1 X112.982 Y126.611 E0.01696
G1 X99.728 Y113.356 E0.59190
G1 X99.728 Y112.819 E0.01696
G1 X112.982 Y126.073 E0.59190
G1 X112.982 Y125.536 E0.01696
G1 X99.728 Y112.282 E0.59190
G1 X99.728 Y111.745 E0.01696
G1 X112.982 Y124.999 E0.59190
G1 X112.982 Y124.462 E0.01696
G1 X100.201 Y111.681 E0.57077
G1 X100.738 Y111.681 E0.01696
G1 X112.982 Y123.925 E0.54679
G1 X112.982 Y123.388 E0.01696
G1 X101.275 Y111.681 E0.52280
G1 X101.812 Y111.681 E0.01696
G1 X112.982 Y122.851 E0.49882
G1 X112.982 Y122.314 E0.01696
G1 X102.349 Y111.681 E0.47484
G1 X102.887 Y111.681 E0.01696
G1 X112.982 Y121.777 E0.45085
G1 X112.982 Y121.240 E0.01696
G1 X103.424 Y111.681 E0.42687
G1 X103.961 Y111.681 E0.01696
G1 X112.982 Y120.703 E0.40288
G1 X112.982 Y120.166 E0.01696
G1 X104.498 Y111.681 E0.37890
G1 X105.035 Y111.681 E0.01696
G1 X112.982 Y119.629 E0.35492
G1 X112.982 Y119.092 E0.01696
G1 X105.572 Y111.681 E0.33093
G1 X106.109 Y111.681 E0.01696
G1 X112.982 Y118.555 E0.30695
G1 X112.982 Y118.017 E0.01696
G1 X106.646 Y111.681 E0.28296
G1 X107.183 Y111.681 E0.01696
G1 X112.982 Y117.480 E0.25898
G1 X112.982 Y116.943 E0.01696
G1 X107.720 Y111.681 E0.23500
G1 X108.257 Y111.681 E0.01696
G1 X112.982 Y116.406 E0.21101
G1 X112.982 Y115.869 E0.01696
G1 X108.794 Y111.681 E0.18703
G1 X109.331 Y111.681 E0.01696
G1 X112.982 Y115.332 E0.16304
G1 X112.982 Y114.795 E0.01696
G1 X109.868 Y111.681 E0.13906
G1 X110.405 Y111.681 E0.01696
G1 X112.982 Y114.258 E0.11508
G1 X112.982 Y113.721 E0.01696
G1 X110.943 Y111.681 E0.09109
G1 X111.480 Y111.681 E0.01696
G1 X112.982 Y113.184 E0.06711
G1 X112.982 Y112.647 E0.01696
G1 X112.017 Y111.681 E0.04312
G1 X112.554 Y111.681 E0.01696
G1 X113.152 Y112.279 E0.02672
G1 E-0.80000 F2100.00000
G1 Z0.800 F10800.000
G1 X79.250 Y136.832
G1 Z0.200
G1 E0.80000 F2100.00000
G1 F1200.000
G1 X78.703 Y130.587 E0.19654
G1 X78.703 Y130.411 E0.00552
G1 X78.726 Y130.273 E0.00441
G1 X78.773 Y130.134 E0.00458
G1 X78.928 Y129.894 E0.00898
G1 X79.039 Y129.791 E0.00474
G1 X79.290 Y129.654 E0.00897
G1 X79.437 Y129.616 E0.00475
G1 X79.605 Y129.602 E0.00529
G1 X85.906 Y129.603 E0.19756
G1 X86.076 Y129.617 E0.00536
G1 X86.214 Y129.652 E0.00447
G1 X86.470 Y129.792 E0.00914
G1 X86.577 Y129.890 E0.00455
