; generated by PrusaSlicer 2.2.0+win64 on 2020-08-11 at 23:07:31 UTC

; 

; external perimeters extrusion width = 0.45mm
; perimeters extrusion width = 0.45mm
; infill extrusion width = 0.45mm
; solid infill extrusion width = 0.45mm
; top infill extrusion width = 0.40mm
; first layer extrusion width = 0.42mm

M73 P0 R170
M201 X9000 Y9000 Z500 E10000 ; sets maximum accelerations, mm/sec^2
M203 X500 Y500 Z12 E120 ; sets maximum feedrates, mm/sec
M204 P2000 R1500 T2000 ; sets acceleration (P, T) and retract acceleration (R), mm/sec^2
M205 X10.00 Y10.00 Z0.20 E2.50 ; sets the jerk limits, mm/sec
M205 S0 T0 ; sets the minimum extruding and travel feed rate, mm/sec
M107
M862.3 P "MK2.5SMMU2S" ; printer model check
M862.1 P0.4 ; nozzle diameter check
M115 U3.8.0 ; tell printer latest fw version
G90 ; use absolute coordinates
M83 ; extruder relative mode
M104 S215 ; set extruder temp
M140 S60 ; set bed temp
Tx
M190 S60 ; wait for bed temp
M109 S215 ; wait for extruder temp
G28 W ; home all without mesh bed level
G80 ; mesh bed leveling

G21 ; set units to millimeters

;go outside print area
G1 Y-3.0 F1000.0
G1 Z0.4 F1000.0
; select extruder
Tc
; purge line
G1 X55.0 F2000.0
G1 Z0.3 F1000.0
G92 E0.0
G1 X240.0 E25.0 F2200.0
M73 P0 R170
G1 Y-2.0 F1000.0
G1 X55.0 E25 F1400.0
G1 Z0.20 F1000.0
G1 X5.0 E4.0 F1000.0
G92 E0.0
G21 ; set units to millimeters
G90 ; use absolute coordinates
M83 ; use relative distances for extrusion
M900 K0.06 ; Filament gcode LA 1.5
M900 K30 ; Filament gcode LA 1.0
;BEFORE_LAYER_CHANGE
G92 E0.0
;0.2


G1 E-0.80000 F2100.00000
G1 Z0.600 F10800.000
;AFTER_LAYER_CHANGE
;0.2
G1 X71.951 Y27.124
G1 Z0.200
G1 E0.80000 F2100.00000
M204 S1000
G1 F1200.000
G1 X72.236 Y26.507 E0.02130
G1 X72.612 Y26.059 E0.01835
G1 X73.083 Y25.718 E0.01823
G1 X73.626 Y25.501 E0.01835
G1 X74.206 Y25.423 E0.01835
G1 X175.774 Y25.423 E3.18459
G1 X176.676 Y25.602 E0.02884
G1 X177.440 Y26.108 E0.02872
G1 X177.957 Y26.869 E0.02884
G1 X178.147 Y27.768 E0.02884
G1 X178.147 Y182.208 E4.84233
G1 X178.049 Y182.876 E0.02119
G1 X177.764 Y183.493 E0.02130
G1 X177.388 Y183.941 E0.01835
G1 X176.910 Y184.286 E0.01846
G1 X176.366 Y184.501 E0.01835
G1 X175.786 Y184.577 E0.01835
G1 X74.222 Y184.577 E3.18447
G1 X73.554 Y184.479 E0.02119
G1 X72.937 Y184.194 E0.02130
G1 X72.489 Y183.818 E0.01835
G1 X72.144 Y183.340 E0.01846
G1 X71.928 Y182.793 E0.01846
G1 X71.853 Y182.209 E0.01846
G1 X71.853 Y27.792 E4.84161
G1 X71.942 Y27.183 E0.01931
G1 E-0.80000 F2100.00000
G1 Z0.800 F10800.000
G1 X98.115 Y148.687
G1 Z0.200
G1 E0.80000 F2100.00000
G1 F1200.000
G1 X121.413 Y148.687 E0.73049
G1 X121.413 Y181.613 E1.03237
G1 X74.817 Y181.613 E1.46098
G1 X74.817 Y148.687 E1.03237
G1 X98.055 Y148.687 E0.72861
G1 E-0.80000 F2100.00000
G1 Z0.800 F10800.000
G1 X98.115 Y181.990
G1 Z0.200
G1 E0.80000 F2100.00000
G1 F1200.000
G1 X74.440 Y181.990 E0.74231
G1 X74.440 Y148.310 E1.05601
G1 X121.790 Y148.310 E1.48463
G1 X121.790 Y181.990 E1.05601
G1 X98.175 Y181.990 E0.74043
G1 X97.816 Y181.724 F10800.000
G1 E-0.80000 F2100.00000
G1 Z0.800 F10800.000
G1 X121.300 Y149.565
G1 Z0.200
G1 E0.80000 F2100.00000
G1 F1200.000
G1 X120.705 Y148.970 E0.02645
G1 X120.170 Y148.970 E0.01681
G1 X121.130 Y149.930 E0.04268
G1 X121.130 Y150.465 E0.01681
G1 X119.635 Y148.970 E0.06646
G1 X119.101 Y148.970 E0.01681
G1 X121.130 Y150.999 E0.09024
G1 X121.130 Y151.534 E0.01681
G1 X118.566 Y148.970 E0.11402
G1 X118.031 Y148.970 E0.01681
G1 X121.130 Y152.069 E0.13780
G1 X121.130 Y152.604 E0.01681
G1 X117.496 Y148.970 E0.16157
G1 X116.962 Y148.970 E0.01681
G1 X121.130 Y153.138 E0.18535
G1 X121.130 Y153.673 E0.01681
G1 X116.427 Y148.970 E0.20913
G1 X115.892 Y148.970 E0.01681
G1 X121.130 Y154.208 E0.23291
G1 X121.130 Y154.743 E0.01681
G1 X115.357 Y148.970 E0.25669
G1 X114.823 Y148.970 E0.01681
G1 X121.130 Y155.277 E0.28047
G1 X121.130 Y155.812 E0.01681
G1 X114.288 Y148.970 E0.30425
M73 P0 R169
G1 X113.753 Y148.970 E0.01681
G1 X121.130 Y156.347 E0.32802
G1 X121.130 Y156.882 E0.01681
G1 X113.218 Y148.970 E0.35180
G1 X112.684 Y148.970 E0.01681
G1 X121.130 Y157.416 E0.37558
G1 X121.130 Y157.951 E0.01681
G1 X112.149 Y148.970 E0.39936
G1 X111.614 Y148.970 E0.01681
G1 X121.130 Y158.486 E0.42314
G1 X121.130 Y159.021 E0.01681
G1 X111.079 Y148.970 E0.44692
G1 X110.545 Y148.970 E0.01681
G1 X121.130 Y159.555 E0.47069
G1 X121.130 Y160.090 E0.01681
G1 X110.010 Y148.970 E0.49447
G1 X109.475 Y148.970 E0.01681
G1 X121.130 Y160.625 E0.51825
G1 X121.130 Y161.160 E0.01681
G1 X108.940 Y148.970 E0.54203
G1 X108.405 Y148.970 E0.01681
G1 X121.130 Y161.695 E0.56581
G1 X121.130 Y162.229 E0.01681
G1 X107.871 Y148.970 E0.58959
G1 X107.336 Y148.970 E0.01681
G1 X121.130 Y162.764 E0.61336
G1 X121.130 Y163.299 E0.01681
G1 X106.801 Y148.970 E0.63714
G1 X106.266 Y148.970 E0.01681
G1 X121.130 Y163.834 E0.66092
G1 X121.130 Y164.368 E0.01681
G1 X105.732 Y148.970 E0.68470
G1 X105.197 Y148.970 E0.01681
G1 X121.130 Y164.903 E0.70848
G1 X121.130 Y165.438 E0.01681
G1 X104.662 Y148.970 E0.73226
G1 X104.127 Y148.970 E0.01681
G1 X121.130 Y165.973 E0.75604
G1 X121.130 Y166.507 E0.01681
G1 X103.593 Y148.970 E0.77981
G1 X103.058 Y148.970 E0.01681
G1 X121.130 Y167.042 E0.80359
G1 X121.130 Y167.577 E0.01681
G1 X102.523 Y148.970 E0.82737
G1 X101.988 Y148.970 E0.01681
G1 X121.130 Y168.112 E0.85115
G1 X121.130 Y168.646 E0.01681
G1 X101.454 Y148.970 E0.87493
G1 X100.919 Y148.970 E0.01681
G1 X121.130 Y169.181 E0.89871
G1 X121.130 Y169.716 E0.01681
G1 X100.384 Y148.970 E0.92248
G1 X99.849 Y148.970 E0.01681
G1 X121.130 Y170.251 E0.94626
G1 X121.130 Y170.785 E0.01681
G1 X99.315 Y148.970 E0.97004
G1 X98.780 Y148.970 E0.01681
G1 X121.130 Y171.320 E0.99382
G1 X121.130 Y171.855 E0.01681
G1 X98.245 Y148.970 E1.01760
G1 X97.710 Y148.970 E0.01681
G1 X121.130 Y172.390 E1.04138
G1 X121.130 Y172.924 E0.01681
G1 X97.176 Y148.970 E1.06515
G1 X96.641 Y148.970 E0.01681
G1 X121.130 Y173.459 E1.08893
G1 X121.130 Y173.994 E0.01681
G1 X96.106 Y148.970 E1.11271
G1 X95.571 Y148.970 E0.01681
G1 X121.130 Y174.529 E1.13649
G1 X121.130 Y175.064 E0.01681
G1 X95.036 Y148.970 E1.16027
G1 X94.502 Y148.970 E0.01681
G1 X121.130 Y175.598 E1.18405
G1 X121.130 Y176.133 E0.01681
G1 X93.967 Y148.970 E1.20783
G1 X93.432 Y148.970 E0.01681
G1 X121.130 Y176.668 E1.23160
G1 X121.130 Y177.203 E0.01681
G1 X92.897 Y148.970 E1.25538
G1 X92.363 Y148.970 E0.01681
G1 X121.130 Y177.737 E1.27916
G1 X121.130 Y178.272 E0.01681
G1 X91.828 Y148.970 E1.30294
G1 X91.293 Y148.970 E0.01681
G1 X121.130 Y178.807 E1.32672
G1 X121.130 Y179.342 E0.01681
G1 X90.758 Y148.970 E1.35050
M73 P1 R168
G1 X90.224 Y148.970 E0.01681
G1 X121.130 Y179.876 E1.37427
G1 X121.130 Y180.411 E0.01681
G1 X89.689 Y148.970 E1.39805
G1 X89.154 Y148.970 E0.01681
G1 X121.130 Y180.946 E1.42183
G1 X121.130 Y181.330 E0.01208
G1 X120.980 Y181.330 E0.00473
G1 X88.619 Y148.970 E1.43892
G1 X88.085 Y148.970 E0.01681
G1 X120.445 Y181.330 E1.43892
G1 X119.910 Y181.330 E0.01681
G1 X87.550 Y148.970 E1.43892
G1 X87.015 Y148.970 E0.01681
G1 X119.375 Y181.330 E1.43892
G1 X118.841 Y181.330 E0.01681
G1 X86.480 Y148.970 E1.43892
G1 X85.946 Y148.970 E0.01681
G1 X118.306 Y181.330 E1.43892
G1 X117.771 Y181.330 E0.01681
G1 X85.411 Y148.970 E1.43892
G1 X84.876 Y148.970 E0.01681
G1 X117.236 Y181.330 E1.43892
G1 X116.701 Y181.330 E0.01681
G1 X84.341 Y148.970 E1.43892
G1 X83.806 Y148.970 E0.01681
G1 X116.167 Y181.330 E1.43892
G1 X115.632 Y181.330 E0.01681
G1 X83.272 Y148.970 E1.43892
G1 X82.737 Y148.970 E0.01681
G1 X115.097 Y181.330 E1.43892
G1 X114.562 Y181.330 E0.01681
G1 X82.202 Y148.970 E1.43892
G1 X81.667 Y148.970 E0.01681
G1 X114.028 Y181.330 E1.43892
G1 X113.493 Y181.330 E0.01681
G1 X81.133 Y148.970 E1.43892
G1 X80.598 Y148.970 E0.01681
G1 X112.958 Y181.330 E1.43892
G1 X112.423 Y181.330 E0.01681
G1 X80.063 Y148.970 E1.43892
G1 X79.528 Y148.970 E0.01681
G1 X111.889 Y181.330 E1.43892
G1 X111.354 Y181.330 E0.01681
G1 X78.994 Y148.970 E1.43892
G1 X78.459 Y148.970 E0.01681
G1 X110.819 Y181.330 E1.43892
G1 X110.284 Y181.330 E0.01681
G1 X77.924 Y148.970 E1.43892
G1 X77.389 Y148.970 E0.01681
G1 X109.750 Y181.330 E1.43892
G1 X109.215 Y181.330 E0.01681
G1 X76.855 Y148.970 E1.43892
M73 P1 R167
G1 X76.320 Y148.970 E0.01681
G1 X108.680 Y181.330 E1.43892
G1 X108.145 Y181.330 E0.01681
G1 X75.785 Y148.970 E1.43892
G1 X75.250 Y148.970 E0.01681
G1 X107.611 Y181.330 E1.43892
G1 X107.076 Y181.330 E0.01681
G1 X75.100 Y149.354 E1.42183
G1 X75.100 Y149.889 E0.01681
G1 X106.541 Y181.330 E1.39805
G1 X106.006 Y181.330 E0.01681
G1 X75.100 Y150.424 E1.37427
G1 X75.100 Y150.958 E0.01681
G1 X105.472 Y181.330 E1.35049
G1 X104.937 Y181.330 E0.01681
G1 X75.100 Y151.493 E1.32671
G1 X75.100 Y152.028 E0.01681
G1 X104.402 Y181.330 E1.30293
G1 X103.867 Y181.330 E0.01681
G1 X75.100 Y152.563 E1.27916
G1 X75.100 Y153.098 E0.01681
G1 X103.332 Y181.330 E1.25538
G1 X102.798 Y181.330 E0.01681
G1 X75.100 Y153.632 E1.23160
G1 X75.100 Y154.167 E0.01681
G1 X102.263 Y181.330 E1.20782
G1 X101.728 Y181.330 E0.01681
G1 X75.100 Y154.702 E1.18404
G1 X75.100 Y155.237 E0.01681
G1 X101.193 Y181.330 E1.16026
G1 X100.659 Y181.330 E0.01681
G1 X75.100 Y155.771 E1.13649
G1 X75.100 Y156.306 E0.01681
G1 X100.124 Y181.330 E1.11271
G1 X99.589 Y181.330 E0.01681
G1 X75.100 Y156.841 E1.08893
G1 X75.100 Y157.376 E0.01681
G1 X99.054 Y181.330 E1.06515
G1 X98.520 Y181.330 E0.01681
G1 X75.100 Y157.910 E1.04137
G1 X75.100 Y158.445 E0.01681
G1 X97.985 Y181.330 E1.01759
G1 X97.450 Y181.330 E0.01681
G1 X75.100 Y158.980 E0.99382
G1 X75.100 Y159.515 E0.01681
G1 X96.915 Y181.330 E0.97004
G1 X96.381 Y181.330 E0.01681
G1 X75.100 Y160.049 E0.94626
G1 X75.100 Y160.584 E0.01681
G1 X95.846 Y181.330 E0.92248
G1 X95.311 Y181.330 E0.01681
G1 X75.100 Y161.119 E0.89870
G1 X75.100 Y161.654 E0.01681
G1 X94.776 Y181.330 E0.87492
G1 X94.242 Y181.330 E0.01681
G1 X75.100 Y162.188 E0.85114
G1 X75.100 Y162.723 E0.01681
G1 X93.707 Y181.330 E0.82737
G1 X93.172 Y181.330 E0.01681
G1 X75.100 Y163.258 E0.80359
G1 X75.100 Y163.793 E0.01681
G1 X92.637 Y181.330 E0.77981
G1 X92.102 Y181.330 E0.01681
G1 X75.100 Y164.327 E0.75603
G1 X75.100 Y164.862 E0.01681
G1 X91.568 Y181.330 E0.73225
G1 X91.033 Y181.330 E0.01681
G1 X75.100 Y165.397 E0.70847
M73 P2 R166
G1 X75.100 Y165.932 E0.01681
G1 X90.498 Y181.330 E0.68470
G1 X89.963 Y181.330 E0.01681
G1 X75.100 Y166.467 E0.66092
G1 X75.100 Y167.001 E0.01681
G1 X89.429 Y181.330 E0.63714
G1 X88.894 Y181.330 E0.01681
G1 X75.100 Y167.536 E0.61336
G1 X75.100 Y168.071 E0.01681
G1 X88.359 Y181.330 E0.58958
G1 X87.824 Y181.330 E0.01681
G1 X75.100 Y168.606 E0.56580
G1 X75.100 Y169.140 E0.01681
G1 X87.290 Y181.330 E0.54202
G1 X86.755 Y181.330 E0.01681
G1 X75.100 Y169.675 E0.51825
G1 X75.100 Y170.210 E0.01681
G1 X86.220 Y181.330 E0.49447
G1 X85.685 Y181.330 E0.01681
G1 X75.100 Y170.745 E0.47069
G1 X75.100 Y171.279 E0.01681
G1 X85.151 Y181.330 E0.44691
G1 X84.616 Y181.330 E0.01681
G1 X75.100 Y171.814 E0.42313
G1 X75.100 Y172.349 E0.01681
G1 X84.081 Y181.330 E0.39935
G1 X83.546 Y181.330 E0.01681
G1 X75.100 Y172.884 E0.37558
G1 X75.100 Y173.418 E0.01681
G1 X83.012 Y181.330 E0.35180
G1 X82.477 Y181.330 E0.01681
G1 X75.100 Y173.953 E0.32802
G1 X75.100 Y174.488 E0.01681
G1 X81.942 Y181.330 E0.30424
G1 X81.407 Y181.330 E0.01681
G1 X75.100 Y175.023 E0.28046
G1 X75.100 Y175.557 E0.01681
G1 X80.873 Y181.330 E0.25668
G1 X80.338 Y181.330 E0.01681
G1 X75.100 Y176.092 E0.23291
G1 X75.100 Y176.627 E0.01681
G1 X79.803 Y181.330 E0.20913
G1 X79.268 Y181.330 E0.01681
G1 X75.100 Y177.162 E0.18535
G1 X75.100 Y177.697 E0.01681
G1 X78.733 Y181.330 E0.16157
G1 X78.199 Y181.330 E0.01681
G1 X75.100 Y178.231 E0.13779
G1 X75.100 Y178.766 E0.01681
G1 X77.664 Y181.330 E0.11401
G1 X77.129 Y181.330 E0.01681
G1 X75.100 Y179.301 E0.09023
G1 X75.100 Y179.836 E0.01681
G1 X76.594 Y181.330 E0.06646
G1 X76.060 Y181.330 E0.01681
G1 X75.100 Y180.370 E0.04268
G1 X75.100 Y180.905 E0.01681
G1 X75.695 Y181.500 E0.02644
G1 E-0.80000 F2100.00000
G1 Z0.800 F10800.000
G1 X98.115 Y141.513
G1 Z0.200
G1 E0.80000 F2100.00000
G1 F1200.000
G1 X74.817 Y141.513 E0.73049
G1 X74.817 Y108.587 E1.03237
G1 X121.413 Y108.587 E1.46098
G1 X121.413 Y141.513 E1.03237
G1 X98.175 Y141.513 E0.72861
G1 X98.115 Y141.890 F10800.000
G1 F1200.000
G1 X74.440 Y141.890 E0.74231
G1 X74.440 Y108.210 E1.05601
G1 X121.790 Y108.210 E1.48463
G1 X121.790 Y141.890 E1.05601
G1 X98.175 Y141.890 E0.74043
G1 X97.816 Y141.624 F10800.000
G1 E-0.80000 F2100.00000
G1 Z0.800 F10800.000
G1 X121.300 Y109.465
G1 Z0.200
G1 E0.80000 F2100.00000
G1 F1200.000
G1 X120.705 Y108.870 E0.02645
G1 X120.170 Y108.870 E0.01681
G1 X121.130 Y109.830 E0.04268
G1 X121.130 Y110.365 E0.01681
G1 X119.635 Y108.870 E0.06646
G1 X119.101 Y108.870 E0.01681
G1 X121.130 Y110.899 E0.09024
G1 X121.130 Y111.434 E0.01681
G1 X118.566 Y108.870 E0.11402
G1 X118.031 Y108.870 E0.01681
G1 X121.130 Y111.969 E0.13780
G1 X121.130 Y112.504 E0.01681
G1 X117.496 Y108.870 E0.16157
G1 X116.962 Y108.870 E0.01681
G1 X121.130 Y113.038 E0.18535
G1 X121.130 Y113.573 E0.01681
G1 X116.427 Y108.870 E0.20913
G1 X115.892 Y108.870 E0.01681
G1 X121.130 Y114.108 E0.23291
G1 X121.130 Y114.643 E0.01681
G1 X115.357 Y108.870 E0.25669
G1 X114.823 Y108.870 E0.01681
G1 X121.130 Y115.177 E0.28047
G1 X121.130 Y115.712 E0.01681
G1 X114.288 Y108.870 E0.30425
G1 X113.753 Y108.870 E0.01681
G1 X121.130 Y116.247 E0.32802
G1 X121.130 Y116.782 E0.01681
G1 X113.218 Y108.870 E0.35180
G1 X112.684 Y108.870 E0.01681
G1 X121.130 Y117.316 E0.37558
G1 X121.130 Y117.851 E0.01681
G1 X112.149 Y108.870 E0.39936
G1 X111.614 Y108.870 E0.01681
G1 X121.130 Y118.386 E0.42314
G1 X121.130 Y118.921 E0.01681
G1 X111.079 Y108.870 E0.44692
G1 X110.545 Y108.870 E0.01681
G1 X121.130 Y119.455 E0.47069
G1 X121.130 Y119.990 E0.01681
G1 X110.010 Y108.870 E0.49447
G1 X109.475 Y108.870 E0.01681
G1 X121.130 Y120.525 E0.51825
G1 X121.130 Y121.060 E0.01681
G1 X108.940 Y108.870 E0.54203
G1 X108.405 Y108.870 E0.01681
G1 X121.130 Y121.595 E0.56581
G1 X121.130 Y122.129 E0.01681
G1 X107.871 Y108.870 E0.58959
G1 X107.336 Y108.870 E0.01681
G1 X121.130 Y122.664 E0.61336
G1 X121.130 Y123.199 E0.01681
G1 X106.801 Y108.870 E0.63714
G1 X106.266 Y108.870 E0.01681
G1 X121.130 Y123.734 E0.66092
G1 X121.130 Y124.268 E0.01681
G1 X105.732 Y108.870 E0.68470
G1 X105.197 Y108.870 E0.01681
G1 X121.130 Y124.803 E0.70848
G1 X121.130 Y125.338 E0.01681
G1 X104.662 Y108.870 E0.73226
G1 X104.127 Y108.870 E0.01681
G1 X121.130 Y125.873 E0.75604
G1 X121.130 Y126.407 E0.01681
G1 X103.593 Y108.870 E0.77981
G1 X103.058 Y108.870 E0.01681
G1 X121.130 Y126.942 E0.80359
G1 X121.130 Y127.477 E0.01681
G1 X102.523 Y108.870 E0.82737
G1 X101.988 Y108.870 E0.01681
G1 X121.130 Y128.012 E0.85115
M73 P3 R165
G1 X121.130 Y128.546 E0.01681
G1 X101.454 Y108.870 E0.87493
G1 X100.919 Y108.870 E0.01681
G1 X121.130 Y129.081 E0.89871
G1 X121.130 Y129.616 E0.01681
G1 X100.384 Y108.870 E0.92248
G1 X99.849 Y108.870 E0.01681
G1 X121.130 Y130.151 E0.94626
G1 X121.130 Y130.685 E0.01681
G1 X99.315 Y108.870 E0.97004
G1 X98.780 Y108.870 E0.01681
G1 X121.130 Y131.220 E0.99382
G1 X121.130 Y131.755 E0.01681
G1 X98.245 Y108.870 E1.01760
G1 X97.710 Y108.870 E0.01681
G1 X121.130 Y132.290 E1.04138
G1 X121.130 Y132.824 E0.01681
G1 X97.176 Y108.870 E1.06515
G1 X96.641 Y108.870 E0.01681
G1 X121.130 Y133.359 E1.08893
G1 X121.130 Y133.894 E0.01681
G1 X96.106 Y108.870 E1.11271
G1 X95.571 Y108.870 E0.01681
G1 X121.130 Y134.429 E1.13649
G1 X121.130 Y134.964 E0.01681
G1 X95.036 Y108.870 E1.16027
G1 X94.502 Y108.870 E0.01681
G1 X121.130 Y135.498 E1.18405
G1 X121.130 Y136.033 E0.01681
G1 X93.967 Y108.870 E1.20783
G1 X93.432 Y108.870 E0.01681
G1 X121.130 Y136.568 E1.23160
G1 X121.130 Y137.103 E0.01681
G1 X92.897 Y108.870 E1.25538
G1 X92.363 Y108.870 E0.01681
G1 X121.130 Y137.637 E1.27916
G1 X121.130 Y138.172 E0.01681
G1 X91.828 Y108.870 E1.30294
G1 X91.293 Y108.870 E0.01681
G1 X121.130 Y138.707 E1.32672
G1 X121.130 Y139.242 E0.01681
G1 X90.758 Y108.870 E1.35050
G1 X90.224 Y108.870 E0.01681
G1 X121.130 Y139.776 E1.37427
G1 X121.130 Y140.311 E0.01681
G1 X89.689 Y108.870 E1.39805
G1 X89.154 Y108.870 E0.01681
G1 X121.130 Y140.846 E1.42183
G1 X121.130 Y141.230 E0.01208
G1 X120.980 Y141.230 E0.00473
