; generated by PrusaSlicer 2.2.0+win64 on 2020-08-11 at 23:07:12 UTC

; 

; external perimeters extrusion width = 0.45mm
; perimeters extrusion width = 0.45mm
; infill extrusion width = 0.45mm
; solid infill extrusion width = 0.45mm
; top infill extrusion width = 0.40mm
; first layer extrusion width = 0.42mm

M73 P0 R85
M201 X9000 Y9000 Z500 E10000 ; sets maximum accelerations, mm/sec^2
M203 X500 Y500 Z12 E120 ; sets maximum feedrates, mm/sec
M204 P2000 R1500 T2000 ; sets acceleration (P, T) and retract acceleration (R), mm/sec^2
M205 X10.00 Y10.00 Z0.20 E2.50 ; sets the jerk limits, mm/sec
M205 S0 T0 ; sets the minimum extruding and travel feed rate, mm/sec
M107
M862.3 P "MK2.5SMMU2S" ; printer model check
M862.1 P0.4 ; nozzle diameter check
M115 U3.8.0 ; tell printer latest fw version
G90 ; use absolute coordinates
M83 ; extruder relative mode
M104 S215 ; set extruder temp
M140 S60 ; set bed temp
Tx
M190 S60 ; wait for bed temp
M109 S215 ; wait for extruder temp
G28 W ; home all without mesh bed level
G80 ; mesh bed leveling

G21 ; set units to millimeters

;go outside print area
G1 Y-3.0 F1000.0
G1 Z0.4 F1000.0
; select extruder
Tc
; purge line
G1 X55.0 F2000.0
G1 Z0.3 F1000.0
G92 E0.0
G1 X240.0 E25.0 F2200.0
M73 P0 R85
G1 Y-2.0 F1000.0
G1 X55.0 E25 F1400.0
G1 Z0.20 F1000.0
G1 X5.0 E4.0 F1000.0
G92 E0.0
G21 ; set units to millimeters
G90 ; use absolute coordinates
M83 ; use relative distances for extrusion
M900 K0.06 ; Filament gcode LA 1.5
M900 K30 ; Filament gcode LA 1.0
;BEFORE_LAYER_CHANGE
G92 E0.0
;0.2


G1 E-0.80000 F2100.00000
G1 Z0.600 F10800.000
;AFTER_LAYER_CHANGE
;0.2
G1 X73.469 Y65.648
G1 Z0.200
G1 E0.80000 F2100.00000
M204 S1000
G1 F1200.000
G1 X74.217 Y65.523 E0.02378
G1 X175.774 Y65.523 E3.18423
G1 X176.672 Y65.701 E0.02872
G1 X177.437 Y66.205 E0.02872
G1 X177.954 Y66.962 E0.02872
G1 X178.147 Y67.857 E0.02872
G1 X178.147 Y142.130 E2.32879
G1 X178.079 Y142.666 E0.01692
G1 X177.892 Y143.172 E0.01692
G1 X177.593 Y143.626 E0.01704
G1 X177.201 Y143.998 E0.01692
G1 X176.531 Y144.352 E0.02378
G1 X175.783 Y144.477 E0.02378
G1 X74.219 Y144.477 E3.18447
G1 X73.675 Y144.411 E0.01716
G1 X73.165 Y144.225 E0.01704
G1 X72.710 Y143.927 E0.01704
G1 X72.332 Y143.531 E0.01716
G1 X71.978 Y142.861 E0.02378
G1 X71.853 Y142.116 E0.02367
G1 X71.853 Y67.885 E2.32748
G1 X71.919 Y67.345 E0.01704
G1 X72.105 Y66.835 E0.01704
G1 X72.403 Y66.380 E0.01704
G1 X72.799 Y66.002 E0.01716
G1 X73.416 Y65.676 E0.02190
G1 E-0.80000 F2100.00000
G1 Z0.800 F10800.000
G1 X98.115 Y141.513
G1 Z0.200
G1 E0.80000 F2100.00000
G1 F1200.000
G1 X74.817 Y141.513 E0.73049
G1 X74.817 Y108.587 E1.03237
G1 X121.413 Y108.587 E1.46098
G1 X121.413 Y141.513 E1.03237
G1 X98.175 Y141.513 E0.72861
G1 X98.115 Y141.890 F10800.000
G1 F1200.000
G1 X74.440 Y141.890 E0.74231
G1 X74.440 Y108.210 E1.05601
G1 X121.790 Y108.210 E1.48463
G1 X121.790 Y141.890 E1.05601
G1 X98.175 Y141.890 E0.74043
G1 X97.816 Y141.624 F10800.000
G1 E-0.80000 F2100.00000
G1 Z0.800 F10800.000
G1 X121.300 Y109.465
G1 Z0.200
G1 E0.80000 F2100.00000
G1 F1200.000
G1 X120.705 Y108.870 E0.02645
G1 X120.170 Y108.870 E0.01681
G1 X121.130 Y109.830 E0.04268
G1 X121.130 Y110.365 E0.01681
G1 X119.635 Y108.870 E0.06646
G1 X119.101 Y108.870 E0.01681
G1 X121.130 Y110.899 E0.09024
G1 X121.130 Y111.434 E0.01681
G1 X118.566 Y108.870 E0.11402
G1 X118.031 Y108.870 E0.01681
G1 X121.130 Y111.969 E0.13780
G1 X121.130 Y112.504 E0.01681
G1 X117.496 Y108.870 E0.16157
G1 X116.962 Y108.870 E0.01681
G1 X121.130 Y113.038 E0.18535
G1 X121.130 Y113.573 E0.01681
G1 X116.427 Y108.870 E0.20913
G1 X115.892 Y108.870 E0.01681
G1 X121.130 Y114.108 E0.23291
G1 X121.130 Y114.643 E0.01681
G1 X115.357 Y108.870 E0.25669
G1 X114.823 Y108.870 E0.01681
G1 X121.130 Y115.177 E0.28047
G1 X121.130 Y115.712 E0.01681
G1 X114.288 Y108.870 E0.30425
G1 X113.753 Y108.870 E0.01681
G1 X121.130 Y116.247 E0.32802
G1 X121.130 Y116.782 E0.01681
G1 X113.218 Y108.870 E0.35180
G1 X112.684 Y108.870 E0.01681
G1 X121.130 Y117.316 E0.37558
G1 X121.130 Y117.851 E0.01681
G1 X112.149 Y108.870 E0.39936
G1 X111.614 Y108.870 E0.01681
G1 X121.130 Y118.386 E0.42314
G1 X121.130 Y118.921 E0.01681
G1 X111.079 Y108.870 E0.44692
G1 X110.545 Y108.870 E0.01681
G1 X121.130 Y119.455 E0.47069
G1 X121.130 Y119.990 E0.01681
G1 X110.010 Y108.870 E0.49447
G1 X109.475 Y108.870 E0.01681
G1 X121.130 Y120.525 E0.51825
G1 X121.130 Y121.060 E0.01681
G1 X108.940 Y108.870 E0.54203
G1 X108.405 Y108.870 E0.01681
G1 X121.130 Y121.595 E0.56581
G1 X121.130 Y122.129 E0.01681
G1 X107.871 Y108.870 E0.58959
M73 P1 R84
G1 X107.336 Y108.870 E0.01681
G1 X121.130 Y122.664 E0.61336
G1 X121.130 Y123.199 E0.01681
G1 X106.801 Y108.870 E0.63714
G1 X106.266 Y108.870 E0.01681
G1 X121.130 Y123.734 E0.66092
G1 X121.130 Y124.268 E0.01681
G1 X105.732 Y108.870 E0.68470
G1 X105.197 Y108.870 E0.01681
G1 X121.130 Y124.803 E0.70848
G1 X121.130 Y125.338 E0.01681
G1 X104.662 Y108.870 E0.73226
G1 X104.127 Y108.870 E0.01681
G1 X121.130 Y125.873 E0.75604
G1 X121.130 Y126.407 E0.01681
G1 X103.593 Y108.870 E0.77981
G1 X103.058 Y108.870 E0.01681
G1 X121.130 Y126.942 E0.80359
G1 X121.130 Y127.477 E0.01681
G1 X102.523 Y108.870 E0.82737
G1 X101.988 Y108.870 E0.01681
G1 X121.130 Y128.012 E0.85115
G1 X121.130 Y128.546 E0.01681
G1 X101.454 Y108.870 E0.87493
G1 X100.919 Y108.870 E0.01681
G1 X121.130 Y129.081 E0.89871
G1 X121.130 Y129.616 E0.01681
G1 X100.384 Y108.870 E0.92248
G1 X99.849 Y108.870 E0.01681
G1 X121.130 Y130.151 E0.94626
G1 X121.130 Y130.685 E0.01681
G1 X99.315 Y108.870 E0.97004
G1 X98.780 Y108.870 E0.01681
G1 X121.130 Y131.220 E0.99382
G1 X121.130 Y131.755 E0.01681
G1 X98.245 Y108.870 E1.01760
G1 X97.710 Y108.870 E0.01681
G1 X121.130 Y132.290 E1.04138
G1 X121.130 Y132.824 E0.01681
G1 X97.176 Y108.870 E1.06515
G1 X96.641 Y108.870 E0.01681
G1 X121.130 Y133.359 E1.08893
G1 X121.130 Y133.894 E0.01681
G1 X96.106 Y108.870 E1.11271
G1 X95.571 Y108.870 E0.01681
G1 X121.130 Y134.429 E1.13649
G1 X121.130 Y134.964 E0.01681
G1 X95.036 Y108.870 E1.16027
G1 X94.502 Y108.870 E0.01681
G1 X121.130 Y135.498 E1.18405
G1 X121.130 Y136.033 E0.01681
G1 X93.967 Y108.870 E1.20783
G1 X93.432 Y108.870 E0.01681
G1 X121.130 Y136.568 E1.23160
G1 X121.130 Y137.103 E0.01681
G1 X92.897 Y108.870 E1.25538
G1 X92.363 Y108.870 E0.01681
G1 X121.130 Y137.637 E1.27916
G1 X121.130 Y138.172 E0.01681
G1 X91.828 Y108.870 E1.30294
G1 X91.293 Y108.870 E0.01681
G1 X121.130 Y138.707 E1.32672
G1 X121.130 Y139.242 E0.01681
G1 X90.758 Y108.870 E1.35050
G1 X90.224 Y108.870 E0.01681
G1 X121.130 Y139.776 E1.37427
G1 X121.130 Y140.311 E0.01681
G1 X89.689 Y108.870 E1.39805
G1 X89.154 Y108.870 E0.01681
G1 X121.130 Y140.846 E1.42183
G1 X121.130 Y141.230 E0.01208
G1 X120.980 Y141.230 E0.00473
G1 X88.619 Y108.870 E1.43892
M73 P2 R83
G1 X88.085 Y108.870 E0.01681
G1 X120.445 Y141.230 E1.43892
G1 X119.910 Y141.230 E0.01681
G1 X87.550 Y108.870 E1.43892
G1 X87.015 Y108.870 E0.01681
G1 X119.375 Y141.230 E1.43892
G1 X118.841 Y141.230 E0.01681
G1 X86.480 Y108.870 E1.43892
G1 X85.946 Y108.870 E0.01681
G1 X118.306 Y141.230 E1.43892
G1 X117.771 Y141.230 E0.01681
G1 X85.411 Y108.870 E1.43892
G1 X84.876 Y108.870 E0.01681
G1 X117.236 Y141.230 E1.43892
G1 X116.701 Y141.230 E0.01681
G1 X84.341 Y108.870 E1.43892
G1 X83.806 Y108.870 E0.01681
G1 X116.167 Y141.230 E1.43892
G1 X115.632 Y141.230 E0.01681
G1 X83.272 Y108.870 E1.43892
G1 X82.737 Y108.870 E0.01681
G1 X115.097 Y141.230 E1.43892
G1 X114.562 Y141.230 E0.01681
G1 X82.202 Y108.870 E1.43892
G1 X81.667 Y108.870 E0.01681
G1 X114.028 Y141.230 E1.43892
G1 X113.493 Y141.230 E0.01681
G1 X81.133 Y108.870 E1.43892
G1 X80.598 Y108.870 E0.01681
G1 X112.958 Y141.230 E1.43892
G1 X112.423 Y141.230 E0.01681
G1 X80.063 Y108.870 E1.43892
G1 X79.528 Y108.870 E0.01681
G1 X111.889 Y141.230 E1.43892
G1 X111.354 Y141.230 E0.01681
G1 X78.994 Y108.870 E1.43892
G1 X78.459 Y108.870 E0.01681
G1 X110.819 Y141.230 E1.43892
G1 X110.284 Y141.230 E0.01681
G1 X77.924 Y108.870 E1.43892
G1 X77.389 Y108.870 E0.01681
G1 X109.750 Y141.230 E1.43892
G1 X109.215 Y141.230 E0.01681
G1 X76.855 Y108.870 E1.43892
G1 X76.320 Y108.870 E0.01681
G1 X108.680 Y141.230 E1.43892
G1 X108.145 Y141.230 E0.01681
G1 X75.785 Y108.870 E1.43892
G1 X75.250 Y108.870 E0.01681
G1 X107.611 Y141.230 E1.43892
G1 X107.076 Y141.230 E0.01681
G1 X75.100 Y109.254 E1.42183
M73 P3 R82
G1 X75.100 Y109.789 E0.01681
G1 X106.541 Y141.230 E1.39805
G1 X106.006 Y141.230 E0.01681
G1 X75.100 Y110.324 E1.37427
G1 X75.100 Y110.858 E0.01681
G1 X105.472 Y141.230 E1.35049
G1 X104.937 Y141.230 E0.01681
G1 X75.100 Y111.393 E1.32671
G1 X75.100 Y111.928 E0.01681
G1 X104.402 Y141.230 E1.30293
G1 X103.867 Y141.230 E0.01681
G1 X75.100 Y112.463 E1.27916
G1 X75.100 Y112.998 E0.01681
G1 X103.332 Y141.230 E1.25538
G1 X102.798 Y141.230 E0.01681
G1 X75.100 Y113.532 E1.23160
G1 X75.100 Y114.067 E0.01681
G1 X102.263 Y141.230 E1.20782
G1 X101.728 Y141.230 E0.01681
G1 X75.100 Y114.602 E1.18404
G1 X75.100 Y115.137 E0.01681
G1 X101.193 Y141.230 E1.16026
G1 X100.659 Y141.230 E0.01681
G1 X75.100 Y115.671 E1.13649
G1 X75.100 Y116.206 E0.01681
G1 X100.124 Y141.230 E1.11271
G1 X99.589 Y141.230 E0.01681
G1 X75.100 Y116.741 E1.08893
G1 X75.100 Y117.276 E0.01681
G1 X99.054 Y141.230 E1.06515
G1 X98.520 Y141.230 E0.01681
G1 X75.100 Y117.810 E1.04137
G1 X75.100 Y118.345 E0.01681
G1 X97.985 Y141.230 E1.01759
G1 X97.450 Y141.230 E0.01681
G1 X75.100 Y118.880 E0.99382
G1 X75.100 Y119.415 E0.01681
G1 X96.915 Y141.230 E0.97004
G1 X96.381 Y141.230 E0.01681
G1 X75.100 Y119.949 E0.94626
G1 X75.100 Y120.484 E0.01681
G1 X95.846 Y141.230 E0.92248
G1 X95.311 Y141.230 E0.01681
G1 X75.100 Y121.019 E0.89870
G1 X75.100 Y121.554 E0.01681
G1 X94.776 Y141.230 E0.87492
G1 X94.242 Y141.230 E0.01681
G1 X75.100 Y122.088 E0.85114
G1 X75.100 Y122.623 E0.01681
G1 X93.707 Y141.230 E0.82737
G1 X93.172 Y141.230 E0.01681
G1 X75.100 Y123.158 E0.80359
G1 X75.100 Y123.693 E0.01681
G1 X92.637 Y141.230 E0.77981
G1 X92.102 Y141.230 E0.01681
G1 X75.100 Y124.227 E0.75603
G1 X75.100 Y124.762 E0.01681
G1 X91.568 Y141.230 E0.73225
G1 X91.033 Y141.230 E0.01681
G1 X75.100 Y125.297 E0.70847
G1 X75.100 Y125.832 E0.01681
G1 X90.498 Y141.230 E0.68470
G1 X89.963 Y141.230 E0.01681
G1 X75.100 Y126.367 E0.66092
G1 X75.100 Y126.901 E0.01681
G1 X89.429 Y141.230 E0.63714
G1 X88.894 Y141.230 E0.01681
G1 X75.100 Y127.436 E0.61336
G1 X75.100 Y127.971 E0.01681
G1 X88.359 Y141.230 E0.58958
G1 X87.824 Y141.230 E0.01681
G1 X75.100 Y128.506 E0.56580
G1 X75.100 Y129.040 E0.01681
G1 X87.290 Y141.230 E0.54202
G1 X86.755 Y141.230 E0.01681
G1 X75.100 Y129.575 E0.51825
G1 X75.100 Y130.110 E0.01681
G1 X86.220 Y141.230 E0.49447
G1 X85.685 Y141.230 E0.01681
M73 P4 R81
G1 X75.100 Y130.645 E0.47069
G1 X75.100 Y131.179 E0.01681
G1 X85.151 Y141.230 E0.44691
G1 X84.616 Y141.230 E0.01681
G1 X75.100 Y131.714 E0.42313
G1 X75.100 Y132.249 E0.01681
G1 X84.081 Y141.230 E0.39935
G1 X83.546 Y141.230 E0.01681
G1 X75.100 Y132.784 E0.37558
G1 X75.100 Y133.318 E0.01681
G1 X83.012 Y141.230 E0.35180
G1 X82.477 Y141.230 E0.01681
G1 X75.100 Y133.853 E0.32802
G1 X75.100 Y134.388 E0.01681
G1 X81.942 Y141.230 E0.30424
G1 X81.407 Y141.230 E0.01681
G1 X75.100 Y134.923 E0.28046
G1 X75.100 Y135.457 E0.01681
G1 X80.873 Y141.230 E0.25668
G1 X80.338 Y141.230 E0.01681
G1 X75.100 Y135.992 E0.23291
G1 X75.100 Y136.527 E0.01681
G1 X79.803 Y141.230 E0.20913
G1 X79.268 Y141.230 E0.01681
G1 X75.100 Y137.062 E0.18535
G1 X75.100 Y137.597 E0.01681
G1 X78.733 Y141.230 E0.16157
G1 X78.199 Y141.230 E0.01681
G1 X75.100 Y138.131 E0.13779
G1 X75.100 Y138.666 E0.01681
G1 X77.664 Y141.230 E0.11401
G1 X77.129 Y141.230 E0.01681
G1 X75.100 Y139.201 E0.09023
G1 X75.100 Y139.736 E0.01681
G1 X76.594 Y141.230 E0.06646
G1 X76.060 Y141.230 E0.01681
G1 X75.100 Y140.270 E0.04268
G1 X75.100 Y140.805 E0.01681
G1 X75.695 Y141.400 E0.02644
G1 E-0.80000 F2100.00000
G1 Z0.800 F10800.000
G1 X98.115 Y101.413
G1 Z0.200
G1 E0.80000 F2100.00000
G1 F1200.000
G1 X74.817 Y101.413 E0.73049
G1 X74.817 Y68.487 E1.03237
G1 X121.413 Y68.487 E1.46098
G1 X121.413 Y101.413 E1.03237
G1 X98.175 Y101.413 E0.72861
G1 X98.115 Y101.790 F10800.000
G1 F1200.000
G1 X74.440 Y101.790 E0.74231
G1 X74.440 Y68.110 E1.05601
G1 X121.790 Y68.110 E1.48463
G1 X121.790 Y101.790 E1.05601
G1 X98.175 Y101.790 E0.74043
G1 X97.816 Y101.524 F10800.000
G1 E-0.80000 F2100.00000
G1 Z0.800 F10800.000
G1 X121.300 Y69.365
G1 Z0.200
G1 E0.80000 F2100.00000
G1 F1200.000
G1 X120.705 Y68.770 E0.02645
G1 X120.170 Y68.770 E0.01681
G1 X121.130 Y69.730 E0.04268
G1 X121.130 Y70.265 E0.01681
G1 X119.635 Y68.770 E0.06646
G1 X119.101 Y68.770 E0.01681
G1 X121.130 Y70.799 E0.09024
G1 X121.130 Y71.334 E0.01681
G1 X118.566 Y68.770 E0.11402
G1 X118.031 Y68.770 E0.01681
G1 X121.130 Y71.869 E0.13780
G1 X121.130 Y72.404 E0.01681
G1 X117.496 Y68.770 E0.16157
G1 X116.962 Y68.770 E0.01681
G1 X121.130 Y72.938 E0.18535
G1 X121.130 Y73.473 E0.01681
G1 X116.427 Y68.770 E0.20913
G1 X115.892 Y68.770 E0.01681
G1 X121.130 Y74.008 E0.23291
G1 X121.130 Y74.543 E0.01681
G1 X115.357 Y68.770 E0.25669
G1 X114.823 Y68.770 E0.01681
G1 X121.130 Y75.077 E0.28047
G1 X121.130 Y75.612 E0.01681
G1 X114.288 Y68.770 E0.30425
G1 X113.753 Y68.770 E0.01681
G1 X121.130 Y76.147 E0.32802
G1 X121.130 Y76.682 E0.01681
G1 X113.218 Y68.770 E0.35180
G1 X112.684 Y68.770 E0.01681
G1 X121.130 Y77.216 E0.37558
G1 X121.130 Y77.751 E0.01681
G1 X112.149 Y68.770 E0.39936
G1 X111.614 Y68.770 E0.01681
G1 X121.130 Y78.286 E0.42314
G1 X121.130 Y78.821 E0.01681
G1 X111.079 Y68.770 E0.44692
G1 X110.545 Y68.770 E0.01681
G1 X121.130 Y79.355 E0.47069
G1 X121.130 Y79.890 E0.01681
G1 X110.010 Y68.770 E0.49447
G1 X109.475 Y68.770 E0.01681
G1 X121.130 Y80.425 E0.51825
G1 X121.130 Y80.960 E0.01681
G1 X108.940 Y68.770 E0.54203
G1 X108.405 Y68.770 E0.01681
G1 X121.130 Y81.495 E0.56581
G1 X121.130 Y82.029 E0.01681
G1 X107.871 Y68.770 E0.58959
G1 X107.336 Y68.770 E0.01681
G1 X121.130 Y82.564 E0.61336
G1 X121.130 Y83.099 E0.01681
G1 X106.801 Y68.770 E0.63714
G1 X106.266 Y68.770 E0.01681
G1 X121.130 Y83.634 E0.66092
G1 X121.130 Y84.168 E0.01681
G1 X105.732 Y68.770 E0.68470
G1 X105.197 Y68.770 E0.01681
G1 X121.130 Y84.703 E0.70848
G1 X121.130 Y85.238 E0.01681
G1 X104.662 Y68.770 E0.73226
G1 X104.127 Y68.770 E0.01681
G1 X121.130 Y85.773 E0.75604
G1 X121.130 Y86.307 E0.01681
G1 X103.593 Y68.770 E0.77981
G1 X103.058 Y68.770 E0.01681
G1 X121.130 Y86.842 E0.80359
G1 X121.130 Y87.377 E0.01681
G1 X102.523 Y68.770 E0.82737
G1 X101.988 Y68.770 E0.01681
G1 X121.130 Y87.912 E0.85115
G1 X121.130 Y88.446 E0.01681
G1 X101.454 Y68.770 E0.87493
G1 X100.919 Y68.770 E0.01681
G1 X121.130 Y88.981 E0.89871
G1 X121.130 Y89.516 E0.01681
G1 X100.384 Y68.770 E0.92248
G1 X99.849 Y68.770 E0.01681
G1 X121.130 Y90.051 E0.94626
G1 X121.130 Y90.585 E0.01681
G1 X99.315 Y68.770 E0.97004
G1 X98.780 Y68.770 E0.01681
G1 X121.130 Y91.120 E0.99382
M73 P6 R80
G1 X121.130 Y91.655 E0.01681
G1 X98.245 Y68.770 E1.01760
G1 X97.710 Y68.770 E0.01681
G1 X121.130 Y92.190 E1.04138
G1 X121.130 Y92.724 E0.01681
G1 X97.176 Y68.770 E1.06515
G1 X96.641 Y68.770 E0.01681
G1 X121.130 Y93.259 E1.08893
G1 X121.130 Y93.794 E0.01681
G1 X96.106 Y68.770 E1.11271
G1 X95.571 Y68.770 E0.01681
G1 X121.130 Y94.329 E1.13649
G1 X121.130 Y94.864 E0.01681
G1 X95.036 Y68.770 E1.16027
G1 X94.502 Y68.770 E0.01681
G1 X121.130 Y95.398 E1.18405
G1 X121.130 Y95.933 E0.01681
G1 X93.967 Y68.770 E1.20783
G1 X93.432 Y68.770 E0.01681
G1 X121.130 Y96.468 E1.23160
G1 X121.130 Y97.003 E0.01681
G1 X92.897 Y68.770 E1.25538
G1 X92.363 Y68.770 E0.01681
G1 X121.130 Y97.537 E1.27916
G1 X121.130 Y98.072 E0.01681
G1 X91.828 Y68.770 E1.30294
G1 X91.293 Y68.770 E0.01681
G1 X121.130 Y98.607 E1.32672
G1 X121.130 Y99.142 E0.01681
G1 X90.758 Y68.770 E1.35050
G1 X90.224 Y68.770 E0.01681
G1 X121.130 Y99.676 E1.37427
G1 X121.130 Y100.211 E0.01681
G1 X89.689 Y68.770 E1.39805
G1 X89.154 Y68.770 E0.01681
G1 X121.130 Y100.746 E1.42183
G1 X121.130 Y101.130 E0.01208
G1 X120.980 Y101.130 E0.00473
G1 X88.619 Y68.770 E1.43892
G1 X88.085 Y68.770 E0.01681
G1 X120.445 Y101.130 E1.43892
G1 X119.910 Y101.130 E0.01681
G1 X87.550 Y68.770 E1.43892
G1 X87.015 Y68.770 E0.01681
G1 X119.375 Y101.130 E1.43892
