; generated by PrusaSlicer 2.2.0+win64 on 2020-08-11 at 23:07:43 UTC

; 

; external perimeters extrusion width = 0.45mm
; perimeters extrusion width = 0.45mm
; infill extrusion width = 0.45mm
; solid infill extrusion width = 0.45mm
; top infill extrusion width = 0.40mm
; first layer extrusion width = 0.42mm

M73 P0 R340
M201 X9000 Y9000 Z500 E10000 ; sets maximum accelerations, mm/sec^2
M203 X500 Y500 Z12 E120 ; sets maximum feedrates, mm/sec
M204 P2000 R1500 T2000 ; sets acceleration (P, T) and retract acceleration (R), mm/sec^2
M205 X10.00 Y10.00 Z0.20 E2.50 ; sets the jerk limits, mm/sec
M205 S0 T0 ; sets the minimum extruding and travel feed rate, mm/sec
M107
M862.3 P "MK2.5SMMU2S" ; printer model check
M862.1 P0.4 ; nozzle diameter check
M115 U3.8.0 ; tell printer latest fw version
G90 ; use absolute coordinates
M83 ; extruder relative mode
M104 S215 ; set extruder temp
M140 S60 ; set bed temp
Tx
M190 S60 ; wait for bed temp
M109 S215 ; wait for extruder temp
G28 W ; home all without mesh bed level
G80 ; mesh bed leveling

G21 ; set units to millimeters

;go outside print area
G1 Y-3.0 F1000.0
G1 Z0.4 F1000.0
; select extruder
Tc
; purge line
G1 X55.0 F2000.0
G1 Z0.3 F1000.0
G92 E0.0
G1 X240.0 E25.0 F2200.0
M73 P0 R340
G1 Y-2.0 F1000.0
G1 X55.0 E25 F1400.0
G1 Z0.20 F1000.0
G1 X5.0 E4.0 F1000.0
G92 E0.0
G21 ; set units to millimeters
G90 ; use absolute coordinates
M83 ; use relative distances for extrusion
M900 K0.06 ; Filament gcode LA 1.5
M900 K30 ; Filament gcode LA 1.0
;BEFORE_LAYER_CHANGE
G92 E0.0
;0.2


G1 E-0.80000 F2100.00000
G1 Z0.600 F10800.000
;AFTER_LAYER_CHANGE
;0.2
G1 X18.215 Y6.969
G1 Z0.200
G1 E0.80000 F2100.00000
M204 S1000
G1 F1200.000
G1 X18.594 Y6.277 E0.02473
G1 X18.969 Y5.899 E0.01668
G1 X19.418 Y5.614 E0.01668
G1 X19.919 Y5.435 E0.01669
G1 X20.447 Y5.373 E0.01668
G1 X175.774 Y5.373 E4.87015
G1 X176.347 Y5.444 E0.01811
G1 X176.883 Y5.649 E0.01799
G1 X177.356 Y5.980 E0.01811
G1 X177.734 Y6.411 E0.01799
G1 X231.521 Y86.636 E3.02840
G1 X231.813 Y87.253 E0.02142
G1 X231.917 Y87.929 E0.02142
G1 X231.917 Y122.065 E1.07033
G1 X231.858 Y122.575 E0.01609
G1 X231.693 Y123.057 E0.01597
G1 X177.637 Y203.722 E3.04457
G1 X177.260 Y204.102 E0.01680
G1 X176.810 Y204.387 E0.01668
G1 X176.309 Y204.565 E0.01668
G1 X175.776 Y204.627 E0.01680
G1 X20.452 Y204.627 E4.87008
G1 X19.679 Y204.495 E0.02461
G1 X18.987 Y204.116 E0.02473
G1 X18.607 Y203.739 E0.01680
G1 X18.322 Y203.289 E0.01668
G1 X18.144 Y202.784 E0.01680
G1 X18.083 Y202.255 E0.01668
G1 X18.083 Y7.742 E6.09880
G1 X18.205 Y7.028 E0.02273
G1 E-0.80000 F2100.00000
G1 Z0.800 F10800.000
G1 X205.655 Y88.537
G1 Z0.200
G1 E0.80000 F2100.00000
G1 F1200.000
G1 X228.953 Y88.537 E0.73049
G1 X228.953 Y121.463 E1.03237
G1 X182.357 Y121.463 E1.46098
G1 X182.357 Y88.537 E1.03237
G1 X205.595 Y88.537 E0.72861
G1 E-0.80000 F2100.00000
G1 Z0.800 F10800.000
G1 X205.655 Y121.840
G1 Z0.200
G1 E0.80000 F2100.00000
G1 F1200.000
G1 X181.980 Y121.840 E0.74231
M73 P0 R339
G1 X181.980 Y88.160 E1.05601
G1 X229.330 Y88.160 E1.48463
G1 X229.330 Y121.840 E1.05601
G1 X205.715 Y121.840 E0.74043
G1 X205.356 Y121.574 F10800.000
G1 E-0.80000 F2100.00000
G1 Z0.800 F10800.000
G1 X228.840 Y89.415
G1 Z0.200
G1 E0.80000 F2100.00000
G1 F1200.000
G1 X228.245 Y88.820 E0.02645
G1 X227.710 Y88.820 E0.01681
G1 X228.670 Y89.780 E0.04268
G1 X228.670 Y90.315 E0.01681
G1 X227.175 Y88.820 E0.06646
G1 X226.641 Y88.820 E0.01681
G1 X228.670 Y90.849 E0.09024
G1 X228.670 Y91.384 E0.01681
G1 X226.106 Y88.820 E0.11402
G1 X225.571 Y88.820 E0.01681
G1 X228.670 Y91.919 E0.13780
G1 X228.670 Y92.454 E0.01681
G1 X225.036 Y88.820 E0.16157
G1 X224.502 Y88.820 E0.01681
G1 X228.670 Y92.988 E0.18535
G1 X228.670 Y93.523 E0.01681
G1 X223.967 Y88.820 E0.20913
G1 X223.432 Y88.820 E0.01681
G1 X228.670 Y94.058 E0.23291
G1 X228.670 Y94.593 E0.01681
G1 X222.897 Y88.820 E0.25669
G1 X222.363 Y88.820 E0.01681
G1 X228.670 Y95.127 E0.28047
G1 X228.670 Y95.662 E0.01681
G1 X221.828 Y88.820 E0.30425
G1 X221.293 Y88.820 E0.01681
G1 X228.670 Y96.197 E0.32802
G1 X228.670 Y96.732 E0.01681
G1 X220.758 Y88.820 E0.35180
G1 X220.224 Y88.820 E0.01681
G1 X228.670 Y97.266 E0.37558
G1 X228.670 Y97.801 E0.01681
G1 X219.689 Y88.820 E0.39936
G1 X219.154 Y88.820 E0.01681
G1 X228.670 Y98.336 E0.42314
G1 X228.670 Y98.871 E0.01681
G1 X218.619 Y88.820 E0.44692
G1 X218.085 Y88.820 E0.01681
G1 X228.670 Y99.405 E0.47069
G1 X228.670 Y99.940 E0.01681
G1 X217.550 Y88.820 E0.49447
G1 X217.015 Y88.820 E0.01681
G1 X228.670 Y100.475 E0.51825
G1 X228.670 Y101.010 E0.01681
G1 X216.480 Y88.820 E0.54203
G1 X215.945 Y88.820 E0.01681
G1 X228.670 Y101.545 E0.56581
G1 X228.670 Y102.079 E0.01681
G1 X215.411 Y88.820 E0.58959
G1 X214.876 Y88.820 E0.01681
G1 X228.670 Y102.614 E0.61336
G1 X228.670 Y103.149 E0.01681
G1 X214.341 Y88.820 E0.63714
G1 X213.806 Y88.820 E0.01681
G1 X228.670 Y103.684 E0.66092
G1 X228.670 Y104.218 E0.01681
G1 X213.272 Y88.820 E0.68470
G1 X212.737 Y88.820 E0.01681
G1 X228.670 Y104.753 E0.70848
G1 X228.670 Y105.288 E0.01681
G1 X212.202 Y88.820 E0.73226
G1 X211.667 Y88.820 E0.01681
G1 X228.670 Y105.823 E0.75604
G1 X228.670 Y106.357 E0.01681
G1 X211.133 Y88.820 E0.77981
G1 X210.598 Y88.820 E0.01681
G1 X228.670 Y106.892 E0.80359
G1 X228.670 Y107.427 E0.01681
G1 X210.063 Y88.820 E0.82737
G1 X209.528 Y88.820 E0.01681
G1 X228.670 Y107.962 E0.85115
G1 X228.670 Y108.496 E0.01681
G1 X208.994 Y88.820 E0.87493
G1 X208.459 Y88.820 E0.01681
G1 X228.670 Y109.031 E0.89871
G1 X228.670 Y109.566 E0.01681
G1 X207.924 Y88.820 E0.92248
G1 X207.389 Y88.820 E0.01681
G1 X228.670 Y110.101 E0.94626
G1 X228.670 Y110.635 E0.01681
G1 X206.855 Y88.820 E0.97004
G1 X206.320 Y88.820 E0.01681
G1 X228.670 Y111.170 E0.99382
G1 X228.670 Y111.705 E0.01681
G1 X205.785 Y88.820 E1.01760
G1 X205.250 Y88.820 E0.01681
G1 X228.670 Y112.240 E1.04138
G1 X228.670 Y112.774 E0.01681
G1 X204.716 Y88.820 E1.06515
G1 X204.181 Y88.820 E0.01681
G1 X228.670 Y113.309 E1.08893
G1 X228.670 Y113.844 E0.01681
G1 X203.646 Y88.820 E1.11271
G1 X203.111 Y88.820 E0.01681
G1 X228.670 Y114.379 E1.13649
G1 X228.670 Y114.914 E0.01681
G1 X202.576 Y88.820 E1.16027
G1 X202.042 Y88.820 E0.01681
G1 X228.670 Y115.448 E1.18405
G1 X228.670 Y115.983 E0.01681
G1 X201.507 Y88.820 E1.20783
G1 X200.972 Y88.820 E0.01681
G1 X228.670 Y116.518 E1.23160
M73 P0 R338
G1 X228.670 Y117.053 E0.01681
G1 X200.437 Y88.820 E1.25538
G1 X199.903 Y88.820 E0.01681
G1 X228.670 Y117.587 E1.27916
G1 X228.670 Y118.122 E0.01681
G1 X199.368 Y88.820 E1.30294
G1 X198.833 Y88.820 E0.01681
G1 X228.670 Y118.657 E1.32672
G1 X228.670 Y119.192 E0.01681
G1 X198.298 Y88.820 E1.35050
G1 X197.764 Y88.820 E0.01681
G1 X228.670 Y119.726 E1.37427
G1 X228.670 Y120.261 E0.01681
G1 X197.229 Y88.820 E1.39805
G1 X196.694 Y88.820 E0.01681
G1 X228.670 Y120.796 E1.42183
G1 X228.670 Y121.180 E0.01208
G1 X228.520 Y121.180 E0.00473
G1 X196.159 Y88.820 E1.43892
G1 X195.625 Y88.820 E0.01681
G1 X227.985 Y121.180 E1.43892
G1 X227.450 Y121.180 E0.01681
G1 X195.090 Y88.820 E1.43892
G1 X194.555 Y88.820 E0.01681
G1 X226.915 Y121.180 E1.43892
G1 X226.381 Y121.180 E0.01681
G1 X194.020 Y88.820 E1.43892
G1 X193.486 Y88.820 E0.01681
G1 X225.846 Y121.180 E1.43892
G1 X225.311 Y121.180 E0.01681
G1 X192.951 Y88.820 E1.43892
G1 X192.416 Y88.820 E0.01681
G1 X224.776 Y121.180 E1.43892
G1 X224.241 Y121.180 E0.01681
G1 X191.881 Y88.820 E1.43892
G1 X191.346 Y88.820 E0.01681
G1 X223.707 Y121.180 E1.43892
G1 X223.172 Y121.180 E0.01681
G1 X190.812 Y88.820 E1.43892
G1 X190.277 Y88.820 E0.01681
G1 X222.637 Y121.180 E1.43892
G1 X222.102 Y121.180 E0.01681
G1 X189.742 Y88.820 E1.43892
G1 X189.207 Y88.820 E0.01681
G1 X221.568 Y121.180 E1.43892
G1 X221.033 Y121.180 E0.01681
G1 X188.673 Y88.820 E1.43892
G1 X188.138 Y88.820 E0.01681
G1 X220.498 Y121.180 E1.43892
G1 X219.963 Y121.180 E0.01681
G1 X187.603 Y88.820 E1.43892
G1 X187.068 Y88.820 E0.01681
G1 X219.429 Y121.180 E1.43892
G1 X218.894 Y121.180 E0.01681
G1 X186.534 Y88.820 E1.43892
M73 P0 R337
G1 X185.999 Y88.820 E0.01681
G1 X218.359 Y121.180 E1.43892
G1 X217.824 Y121.180 E0.01681
G1 X185.464 Y88.820 E1.43892
G1 X184.929 Y88.820 E0.01681
G1 X217.290 Y121.180 E1.43892
G1 X216.755 Y121.180 E0.01681
G1 X184.395 Y88.820 E1.43892
G1 X183.860 Y88.820 E0.01681
G1 X216.220 Y121.180 E1.43892
G1 X215.685 Y121.180 E0.01681
G1 X183.325 Y88.820 E1.43892
G1 X182.790 Y88.820 E0.01681
G1 X215.151 Y121.180 E1.43892
G1 X214.616 Y121.180 E0.01681
G1 X182.640 Y89.204 E1.42183
G1 X182.640 Y89.739 E0.01681
G1 X214.081 Y121.180 E1.39805
G1 X213.546 Y121.180 E0.01681
G1 X182.640 Y90.274 E1.37427
G1 X182.640 Y90.808 E0.01681
G1 X213.012 Y121.180 E1.35049
G1 X212.477 Y121.180 E0.01681
G1 X182.640 Y91.343 E1.32671
G1 X182.640 Y91.878 E0.01681
G1 X211.942 Y121.180 E1.30293
G1 X211.407 Y121.180 E0.01681
G1 X182.640 Y92.413 E1.27916
G1 X182.640 Y92.948 E0.01681
G1 X210.872 Y121.180 E1.25538
G1 X210.338 Y121.180 E0.01681
G1 X182.640 Y93.482 E1.23160
G1 X182.640 Y94.017 E0.01681
G1 X209.803 Y121.180 E1.20782
G1 X209.268 Y121.180 E0.01681
G1 X182.640 Y94.552 E1.18404
G1 X182.640 Y95.087 E0.01681
G1 X208.733 Y121.180 E1.16026
G1 X208.199 Y121.180 E0.01681
G1 X182.640 Y95.621 E1.13649
G1 X182.640 Y96.156 E0.01681
G1 X207.664 Y121.180 E1.11271
G1 X207.129 Y121.180 E0.01681
G1 X182.640 Y96.691 E1.08893
G1 X182.640 Y97.226 E0.01681
G1 X206.594 Y121.180 E1.06515
G1 X206.060 Y121.180 E0.01681
G1 X182.640 Y97.760 E1.04137
G1 X182.640 Y98.295 E0.01681
G1 X205.525 Y121.180 E1.01759
G1 X204.990 Y121.180 E0.01681
G1 X182.640 Y98.830 E0.99382
G1 X182.640 Y99.365 E0.01681
G1 X204.455 Y121.180 E0.97004
G1 X203.921 Y121.180 E0.01681
G1 X182.640 Y99.899 E0.94626
G1 X182.640 Y100.434 E0.01681
G1 X203.386 Y121.180 E0.92248
G1 X202.851 Y121.180 E0.01681
G1 X182.640 Y100.969 E0.89870
G1 X182.640 Y101.504 E0.01681
G1 X202.316 Y121.180 E0.87492
M73 P1 R336
G1 X201.782 Y121.180 E0.01681
G1 X182.640 Y102.038 E0.85114
G1 X182.640 Y102.573 E0.01681
G1 X201.247 Y121.180 E0.82737
G1 X200.712 Y121.180 E0.01681
G1 X182.640 Y103.108 E0.80359
G1 X182.640 Y103.643 E0.01681
G1 X200.177 Y121.180 E0.77981
G1 X199.642 Y121.180 E0.01681
G1 X182.640 Y104.177 E0.75603
G1 X182.640 Y104.712 E0.01681
G1 X199.108 Y121.180 E0.73225
G1 X198.573 Y121.180 E0.01681
G1 X182.640 Y105.247 E0.70847
G1 X182.640 Y105.782 E0.01681
G1 X198.038 Y121.180 E0.68470
G1 X197.503 Y121.180 E0.01681
G1 X182.640 Y106.317 E0.66092
G1 X182.640 Y106.851 E0.01681
G1 X196.969 Y121.180 E0.63714
G1 X196.434 Y121.180 E0.01681
G1 X182.640 Y107.386 E0.61336
G1 X182.640 Y107.921 E0.01681
G1 X195.899 Y121.180 E0.58958
G1 X195.364 Y121.180 E0.01681
G1 X182.640 Y108.456 E0.56580
G1 X182.640 Y108.990 E0.01681
G1 X194.830 Y121.180 E0.54202
G1 X194.295 Y121.180 E0.01681
G1 X182.640 Y109.525 E0.51825
G1 X182.640 Y110.060 E0.01681
G1 X193.760 Y121.180 E0.49447
G1 X193.225 Y121.180 E0.01681
G1 X182.640 Y110.595 E0.47069
G1 X182.640 Y111.129 E0.01681
G1 X192.691 Y121.180 E0.44691
G1 X192.156 Y121.180 E0.01681
G1 X182.640 Y111.664 E0.42313
G1 X182.640 Y112.199 E0.01681
G1 X191.621 Y121.180 E0.39935
G1 X191.086 Y121.180 E0.01681
G1 X182.640 Y112.734 E0.37558
G1 X182.640 Y113.268 E0.01681
G1 X190.552 Y121.180 E0.35180
G1 X190.017 Y121.180 E0.01681
G1 X182.640 Y113.803 E0.32802
G1 X182.640 Y114.338 E0.01681
G1 X189.482 Y121.180 E0.30424
G1 X188.947 Y121.180 E0.01681
G1 X182.640 Y114.873 E0.28046
G1 X182.640 Y115.407 E0.01681
G1 X188.413 Y121.180 E0.25668
G1 X187.878 Y121.180 E0.01681
G1 X182.640 Y115.942 E0.23291
G1 X182.640 Y116.477 E0.01681
G1 X187.343 Y121.180 E0.20913
G1 X186.808 Y121.180 E0.01681
G1 X182.640 Y117.012 E0.18535
G1 X182.640 Y117.547 E0.01681
G1 X186.273 Y121.180 E0.16157
G1 X185.739 Y121.180 E0.01681
G1 X182.640 Y118.081 E0.13779
G1 X182.640 Y118.616 E0.01681
G1 X185.204 Y121.180 E0.11401
G1 X184.669 Y121.180 E0.01681
G1 X182.640 Y119.151 E0.09023
G1 X182.640 Y119.686 E0.01681
G1 X184.134 Y121.180 E0.06646
G1 X183.600 Y121.180 E0.01681
G1 X182.640 Y120.220 E0.04268
G1 X182.640 Y120.755 E0.01681
G1 X183.235 Y121.350 E0.02644
G1 E-0.80000 F2100.00000
G1 Z0.800 F10800.000
G1 X151.885 Y201.663
G1 Z0.200
G1 E0.80000 F2100.00000
G1 F1200.000
G1 X128.587 Y201.663 E0.73049
G1 X128.587 Y168.737 E1.03237
G1 X175.183 Y168.737 E1.46098
G1 X175.183 Y201.663 E1.03237
G1 X151.945 Y201.663 E0.72861
G1 X151.885 Y202.040 F10800.000
G1 F1200.000
G1 X128.210 Y202.040 E0.74231
G1 X128.210 Y168.360 E1.05601
G1 X175.560 Y168.360 E1.48463
G1 X175.560 Y202.040 E1.05601
G1 X151.945 Y202.040 E0.74043
G1 X151.586 Y201.774 F10800.000
G1 E-0.80000 F2100.00000
G1 Z0.800 F10800.000
G1 X175.070 Y169.615
G1 Z0.200
G1 E0.80000 F2100.00000
G1 F1200.000
G1 X174.475 Y169.020 E0.02645
G1 X173.940 Y169.020 E0.01681
G1 X174.900 Y169.980 E0.04268
G1 X174.900 Y170.515 E0.01681
G1 X173.405 Y169.020 E0.06646
G1 X172.871 Y169.020 E0.01681
G1 X174.900 Y171.049 E0.09024
G1 X174.900 Y171.584 E0.01681
G1 X172.336 Y169.020 E0.11402
G1 X171.801 Y169.020 E0.01681
G1 X174.900 Y172.119 E0.13780
G1 X174.900 Y172.654 E0.01681
G1 X171.266 Y169.020 E0.16157
G1 X170.732 Y169.020 E0.01681
G1 X174.900 Y173.188 E0.18535
G1 X174.900 Y173.723 E0.01681
G1 X170.197 Y169.020 E0.20913
G1 X169.662 Y169.020 E0.01681
G1 X174.900 Y174.258 E0.23291
G1 X174.900 Y174.793 E0.01681
G1 X169.127 Y169.020 E0.25669
G1 X168.593 Y169.020 E0.01681
G1 X174.900 Y175.327 E0.28047
G1 X174.900 Y175.862 E0.01681
G1 X168.058 Y169.020 E0.30425
G1 X167.523 Y169.020 E0.01681
G1 X174.900 Y176.397 E0.32802
G1 X174.900 Y176.932 E0.01681
G1 X166.988 Y169.020 E0.35180
G1 X166.454 Y169.020 E0.01681
G1 X174.900 Y177.466 E0.37558
G1 X174.900 Y178.001 E0.01681
G1 X165.919 Y169.020 E0.39936
G1 X165.384 Y169.020 E0.01681
G1 X174.900 Y178.536 E0.42314
G1 X174.900 Y179.071 E0.01681
G1 X164.849 Y169.020 E0.44692
G1 X164.315 Y169.020 E0.01681
G1 X174.900 Y179.605 E0.47069
G1 X174.900 Y180.140 E0.01681
G1 X163.780 Y169.020 E0.49447
G1 X163.245 Y169.020 E0.01681
G1 X174.900 Y180.675 E0.51825
G1 X174.900 Y181.210 E0.01681
G1 X162.710 Y169.020 E0.54203
G1 X162.175 Y169.020 E0.01681
G1 X174.900 Y181.745 E0.56581
G1 X174.900 Y182.279 E0.01681
G1 X161.641 Y169.020 E0.58959
G1 X161.106 Y169.020 E0.01681
G1 X174.900 Y182.814 E0.61336
G1 X174.900 Y183.349 E0.01681
G1 X160.571 Y169.020 E0.63714
G1 X160.036 Y169.020 E0.01681
G1 X174.900 Y183.884 E0.66092
G1 X174.900 Y184.418 E0.01681
G1 X159.502 Y169.020 E0.68470
M73 P1 R335
G1 X158.967 Y169.020 E0.01681
G1 X174.900 Y184.953 E0.70848
G1 X174.900 Y185.488 E0.01681
G1 X158.432 Y169.020 E0.73226
G1 X157.897 Y169.020 E0.01681
G1 X174.900 Y186.023 E0.75604
G1 X174.900 Y186.557 E0.01681
G1 X157.363 Y169.020 E0.77981
G1 X156.828 Y169.020 E0.01681
G1 X174.900 Y187.092 E0.80359
G1 X174.900 Y187.627 E0.01681
G1 X156.293 Y169.020 E0.82737
G1 X155.758 Y169.020 E0.01681
G1 X174.900 Y188.162 E0.85115
G1 X174.900 Y188.696 E0.01681
G1 X155.224 Y169.020 E0.87493
G1 X154.689 Y169.020 E0.01681
G1 X174.900 Y189.231 E0.89871
G1 X174.900 Y189.766 E0.01681
G1 X154.154 Y169.020 E0.92248
G1 X153.619 Y169.020 E0.01681
G1 X174.900 Y190.301 E0.94626
G1 X174.900 Y190.835 E0.01681
G1 X153.085 Y169.020 E0.97004
G1 X152.550 Y169.020 E0.01681
G1 X174.900 Y191.370 E0.99382
G1 X174.900 Y191.905 E0.01681
G1 X152.015 Y169.020 E1.01760
G1 X151.480 Y169.020 E0.01681
G1 X174.900 Y192.440 E1.04138
G1 X174.900 Y192.974 E0.01681
G1 X150.946 Y169.020 E1.06515
G1 X150.411 Y169.020 E0.01681
G1 X174.900 Y193.509 E1.08893
G1 X174.900 Y194.044 E0.01681
G1 X149.876 Y169.020 E1.11271
G1 X149.341 Y169.020 E0.01681
G1 X174.900 Y194.579 E1.13649
G1 X174.900 Y195.114 E0.01681
G1 X148.806 Y169.020 E1.16027
G1 X148.272 Y169.020 E0.01681
G1 X174.900 Y195.648 E1.18405
G1 X174.900 Y196.183 E0.01681
G1 X147.737 Y169.020 E1.20783
G1 X147.202 Y169.020 E0.01681
G1 X174.900 Y196.718 E1.23160
G1 X174.900 Y197.253 E0.01681
G1 X146.667 Y169.020 E1.25538
G1 X146.133 Y169.020 E0.01681
G1 X174.900 Y197.787 E1.27916
G1 X174.900 Y198.322 E0.01681
G1 X145.598 Y169.020 E1.30294
G1 X145.063 Y169.020 E0.01681
G1 X174.900 Y198.857 E1.32672
G1 X174.900 Y199.392 E0.01681
G1 X144.528 Y169.020 E1.35050
G1 X143.994 Y169.020 E0.01681
G1 X174.900 Y199.926 E1.37427
G1 X174.900 Y200.461 E0.01681
