; generated by PrusaSlicer 2.2.0+win64 on 2021-01-18 at 18:00:18 UTC

; 

; external perimeters extrusion width = 0.45mm
; perimeters extrusion width = 0.45mm
; infill extrusion width = 0.45mm
; solid infill extrusion width = 0.45mm
; top infill extrusion width = 0.40mm
; first layer extrusion width = 0.42mm

M73 P0 R88
M201 X9000 Y9000 Z500 E10000 ; sets maximum accelerations, mm/sec^2
M203 X500 Y500 Z12 E120 ; sets maximum feedrates, mm/sec
M204 P2000 R1500 T2000 ; sets acceleration (P, T) and retract acceleration (R), mm/sec^2
M205 X10.00 Y10.00 Z0.20 E2.50 ; sets the jerk limits, mm/sec
M205 S0 T0 ; sets the minimum extruding and travel feed rate, mm/sec
M107
M862.3 P "MK2.5SMMU2S" ; printer model check
M862.1 P0.4 ; nozzle diameter check
M115 U3.8.0 ; tell printer latest fw version
G90 ; use absolute coordinates
M83 ; extruder relative mode
M104 S215 ; set extruder temp
M140 S60 ; set bed temp
Tx
M190 S60 ; wait for bed temp
M109 S215 ; wait for extruder temp
G28 W ; home all without mesh bed level
G80 ; mesh bed leveling

G21 ; set units to millimeters

;go outside print area
G1 Y-3.0 F1000.0
G1 Z0.4 F1000.0
; select extruder
Tc
; purge line
G1 X55.0 F2000.0
G1 Z0.3 F1000.0
G92 E0.0
G1 X240.0 E25.0 F2200.0
M73 P0 R88
G1 Y-2.0 F1000.0
G1 X55.0 E25 F1400.0
G1 Z0.20 F1000.0
G1 X5.0 E4.0 F1000.0
G92 E0.0
G21 ; set units to millimeters
G90 ; use absolute coordinates
M83 ; use relative distances for extrusion
M900 K0.05 ; Filament gcode LA 1.5
M900 K30 ; Filament gcode LA 1.0
;BEFORE_LAYER_CHANGE
G92 E0.0
;0.2


G1 E-0.80000 F2100.00000
G1 Z0.600 F10800.000
;AFTER_LAYER_CHANGE
;0.2
G1 X205.078 Y43.356
G1 Z0.200
G1 E0.80000 F2100.00000
M204 S1000
G1 F1200.000
G1 X205.799 Y43.958 E0.02946
G1 X206.863 Y45.645 E0.06253
G1 X207.162 Y46.438 E0.02658
G1 X215.597 Y113.053 E2.10537
G1 X215.580 Y113.915 E0.02703
G1 X215.296 Y114.752 E0.02770
G1 X214.944 Y115.275 E0.01977
G1 X180.225 Y155.639 E1.66935
G1 X176.929 Y159.083 E0.14946
G1 X156.951 Y173.969 E0.78118
G1 X135.159 Y186.331 E0.78554
G1 X134.503 Y186.580 E0.02201
G1 X133.935 Y186.634 E0.01787
G1 X70.389 Y184.949 E1.99316
G1 X69.576 Y184.781 E0.02602
G1 X69.094 Y184.522 E0.01716
G1 X68.685 Y184.159 E0.01716
G1 X37.191 Y148.600 E1.48933
G1 X36.852 Y148.101 E0.01894
G1 X36.651 Y147.535 E0.01882
G1 X36.490 Y145.967 E0.04943
G1 X34.292 Y87.650 E1.82977
G1 X34.337 Y86.466 E0.03716
G1 X34.483 Y85.502 E0.03058
G1 X34.730 Y84.572 E0.03016
G1 X35.101 Y83.644 E0.03134
G1 X36.010 Y82.173 E0.05420
G1 X72.074 Y36.051 E1.83572
G1 X73.678 Y34.211 E0.07655
G1 X74.586 Y33.433 E0.03749
G1 X75.623 Y32.759 E0.03876
G1 X90.937 Y24.139 E0.55100
G1 X97.520 Y21.617 E0.22105
G1 X98.486 Y21.447 E0.03076
G1 X113.882 Y22.585 E0.48405
G1 X204.237 Y43.028 E2.90463
G1 X205.022 Y43.334 E0.02639
G1 E-0.80000 F2100.00000
G1 Z0.800 F10800.000
G1 X164.912 Y129.442
G1 Z0.200
G1 E0.80000 F2100.00000
G1 F1200.000
G1 X166.998 Y129.556 E0.06548
G1 X168.478 Y129.800 E0.04705
G1 X169.923 Y130.204 E0.04705
G1 X171.861 Y130.983 E0.06548
G1 X171.708 Y131.311 E0.01135
G1 X172.400 Y131.677 E0.02453
G1 X173.539 Y132.438 E0.04296
G1 X174.595 Y133.311 E0.04296
G1 X175.556 Y134.287 E0.04296
G1 X176.414 Y135.355 E0.04296
G1 X176.839 Y136.012 E0.02453
G1 X177.153 Y135.831 E0.01135
G1 X178.097 Y137.694 E0.06548
G1 X178.625 Y139.098 E0.04705
G1 X178.998 Y140.552 E0.04705
G1 X179.293 Y142.620 E0.06548
G1 X178.932 Y142.651 E0.01135
G1 X178.961 Y143.433 E0.02453
G1 X178.871 Y144.800 E0.04296
G1 X178.643 Y146.151 E0.04296
G1 X178.279 Y147.472 E0.04296
G1 X177.782 Y148.749 E0.04296
G1 X177.426 Y149.445 E0.02453
G1 X177.740 Y149.626 E0.01135
G1 X176.598 Y151.375 E0.06548
G1 X175.646 Y152.535 E0.04705
G1 X174.574 Y153.585 E0.04705
G1 X172.931 Y154.874 E0.06548
G1 X172.723 Y154.577 E0.01135
G1 X172.060 Y154.993 E0.02453
G1 X170.832 Y155.599 E0.04296
G1 X169.548 Y156.077 E0.04296
G1 X168.222 Y156.422 E0.04296
G1 X166.868 Y156.630 E0.04296
G1 X166.086 Y156.670 E0.02453
G1 X166.086 Y157.032 E0.01135
G1 X164.001 Y156.918 E0.06548
G1 X162.520 Y156.674 E0.04705
G1 X161.075 Y156.270 E0.04705
G1 X159.137 Y155.491 E0.06548
G1 X159.290 Y155.163 E0.01135
G1 X158.599 Y154.797 E0.02453
G1 X157.488 Y154.054 E0.04191
G1 X156.404 Y153.163 E0.04398
G1 X155.442 Y152.187 E0.04298
G1 X154.585 Y151.119 E0.04296
G1 X154.160 Y150.462 E0.02453
G1 X153.846 Y150.643 E0.01135
G1 X152.902 Y148.780 E0.06548
G1 X152.373 Y147.376 E0.04705
G1 X152.001 Y145.922 E0.04705
G1 X151.706 Y143.855 E0.06548
G1 X152.066 Y143.823 E0.01135
G1 X152.038 Y143.041 E0.02453
G1 X152.127 Y141.674 E0.04296
G1 X152.356 Y140.323 E0.04296
G1 X152.720 Y139.002 E0.04296
G1 X153.216 Y137.725 E0.04296
G1 X153.572 Y137.029 E0.02453
G1 X153.259 Y136.848 E0.01135
G1 X154.400 Y135.099 E0.06548
G1 X155.352 Y133.939 E0.04705
G1 X156.425 Y132.889 E0.04705
G1 X158.068 Y131.600 E0.06548
G1 X158.275 Y131.897 E0.01135
G1 X158.938 Y131.481 E0.02453
G1 X160.167 Y130.875 E0.04296
G1 X161.451 Y130.397 E0.04296
G1 X162.777 Y130.052 E0.04296
G1 X164.131 Y129.844 E0.04296
G1 X164.912 Y129.804 E0.02453
G1 X164.912 Y129.502 E0.00947
G1 E-0.80000 F2100.00000
G1 Z0.800 F10800.000
G1 X165.709 Y156.634
G1 Z0.200
G1 E0.80000 F2100.00000
G1 F1200.000
G1 X164.042 Y156.543 E0.05235
G1 X162.602 Y156.305 E0.04576
G1 X161.197 Y155.912 E0.04576
G1 X159.647 Y155.290 E0.05235
G1 X159.783 Y154.998 E0.01010
G1 X158.793 Y154.473 E0.03516
G1 X157.713 Y153.751 E0.04072
G1 X156.659 Y152.885 E0.04277
G1 X155.724 Y151.936 E0.04176
G1 X154.891 Y150.898 E0.04175
G1 X154.281 Y149.956 E0.03516
G1 X154.002 Y150.117 E0.01010
G1 X153.248 Y148.628 E0.05235
G1 X152.733 Y147.262 E0.04576
G1 X152.371 Y145.848 E0.04576
G1 X152.135 Y144.195 E0.05235
G1 X152.456 Y144.167 E0.01010
G1 X152.415 Y143.047 E0.03516
G1 X152.502 Y141.718 E0.04175
G1 X152.724 Y140.405 E0.04175
G1 X153.078 Y139.121 E0.04175
G1 X153.561 Y137.880 E0.04175
G1 X154.071 Y136.882 E0.03516
G1 X153.792 Y136.721 E0.01010
G1 X154.705 Y135.322 E0.05235
G1 X155.631 Y134.194 E0.04576
G1 X156.674 Y133.173 E0.04576
G1 X157.987 Y132.143 E0.05235
G1 X158.172 Y132.407 E0.01010
G1 X159.122 Y131.811 E0.03516
G1 X160.316 Y131.222 E0.04175
G1 X161.564 Y130.757 E0.04175
G1 X162.853 Y130.422 E0.04175
G1 X164.169 Y130.220 E0.04175
G1 X165.289 Y130.162 E0.03516
G1 X165.289 Y129.840 E0.01010
G1 X166.956 Y129.931 E0.05235
G1 X168.396 Y130.169 E0.04576
G1 X169.802 Y130.562 E0.04576
G1 X171.351 Y131.184 E0.05235
G1 X171.215 Y131.476 E0.01010
G1 X172.206 Y132.001 E0.03516
G1 X173.313 Y132.741 E0.04175
G1 X174.340 Y133.590 E0.04175
G1 X175.274 Y134.538 E0.04175
G1 X176.108 Y135.577 E0.04175
G1 X176.717 Y136.518 E0.03516
G1 X176.996 Y136.357 E0.01010
G1 X177.751 Y137.846 E0.05235
G1 X178.265 Y139.212 E0.04576
G1 X178.627 Y140.626 E0.04576
G1 X178.863 Y142.279 E0.05235
G1 X178.542 Y142.307 E0.01010
G1 X178.583 Y143.427 E0.03516
G1 X178.496 Y144.756 E0.04175
G1 X178.274 Y146.069 E0.04175
G1 X177.920 Y147.353 E0.04175
G1 X177.438 Y148.594 E0.04175
G1 X176.927 Y149.592 E0.03516
G1 X177.206 Y149.754 E0.01010
G1 X176.294 Y151.152 E0.05235
G1 X175.368 Y152.280 E0.04576
G1 X174.325 Y153.301 E0.04576
G1 X173.011 Y154.331 E0.05235
G1 X172.827 Y154.068 E0.01010
G1 X171.876 Y154.663 E0.03516
G1 X170.682 Y155.252 E0.04175
G1 X169.434 Y155.717 E0.04175
G1 X168.145 Y156.052 E0.04175
G1 X166.829 Y156.255 E0.04175
G1 X165.709 Y156.312 E0.03516
G1 X165.709 Y156.574 E0.00822
G1 X165.535 Y156.994 F10800.000
G1 E-0.80000 F2100.00000
G1 Z0.800 F10800.000
G1 X166.086 Y159.794
G1 Z0.200
G1 E0.80000 F2100.00000
G1 F1200.000
G1 X166.086 Y159.550 E0.00766
G1 X164.080 Y159.462 E0.06298
G1 X162.671 Y159.277 E0.04455
G1 X161.284 Y158.969 E0.04455
G1 X159.929 Y158.542 E0.04455
G1 X158.073 Y157.774 E0.06298
G1 X157.970 Y157.995 E0.00766
G1 X156.998 Y157.480 E0.03450
G1 X155.594 Y156.542 E0.05293
G1 X154.293 Y155.466 E0.05293
G1 X153.138 Y154.295 E0.05158
G1 X152.051 Y152.947 E0.05429
G1 X151.454 Y152.024 E0.03447
G1 X151.665 Y151.902 E0.00766
G1 X150.738 Y150.120 E0.06298
G1 X150.194 Y148.808 E0.04455
G1 X149.767 Y147.453 E0.04455
G1 X149.459 Y146.065 E0.04455
G1 X149.197 Y144.074 E0.06298
G1 X148.954 Y144.095 E0.00766
G1 X148.914 Y142.996 E0.03450
G1 X149.024 Y141.311 E0.05293
G1 X149.305 Y139.647 E0.05293
G1 X149.754 Y138.020 E0.05293
G1 X150.366 Y136.446 E0.05293
G1 X150.867 Y135.467 E0.03450
G1 X151.078 Y135.589 E0.00766
G1 X152.157 Y133.895 E0.06298
G1 X153.022 Y132.768 E0.04455
G1 X153.982 Y131.720 E0.04455
G1 X155.030 Y130.760 E0.04455
G1 X156.623 Y129.537 E0.06298
G1 X156.483 Y129.337 E0.00766
G1 X157.415 Y128.753 E0.03450
G1 X158.929 Y128.006 E0.05293
G1 X160.511 Y127.418 E0.05293
G1 X162.145 Y126.993 E0.05293
G1 X163.813 Y126.736 E0.05293
G1 X164.912 Y126.680 E0.03450
G1 X164.912 Y126.924 E0.00766
G1 X166.919 Y127.012 E0.06298
G1 X168.328 Y127.197 E0.04455
G1 X169.715 Y127.505 E0.04455
G1 X171.070 Y127.932 E0.04455
G1 X172.926 Y128.701 E0.06298
G1 X173.029 Y128.479 E0.00766
G1 X174.001 Y128.994 E0.03450
G1 X175.404 Y129.932 E0.05293
G1 X176.705 Y131.008 E0.05293
G1 X177.890 Y132.210 E0.05293
G1 X178.920 Y133.493 E0.05158
G1 X179.543 Y134.451 E0.03583
G1 X179.333 Y134.572 E0.00761
G1 X180.261 Y136.354 E0.06298
G1 X180.804 Y137.666 E0.04455
G1 X181.217 Y138.976 E0.04304
G1 X181.539 Y140.410 E0.04608
G1 X181.801 Y142.400 E0.06295
G1 X182.045 Y142.379 E0.00766
G1 X182.085 Y143.478 E0.03450
G1 X181.974 Y145.163 E0.05293
G1 X181.700 Y146.785 E0.05158
G1 X181.244 Y148.455 E0.05429
G1 X180.633 Y150.028 E0.05290
G1 X180.132 Y151.007 E0.03450
G1 X179.920 Y150.885 E0.00766
G1 X178.841 Y152.579 E0.06298
G1 X178.005 Y153.668 E0.04304
G1 X177.016 Y154.754 E0.04608
G1 X175.969 Y155.714 E0.04453
G1 X174.375 Y156.937 E0.06298
G1 X174.515 Y157.137 E0.00766
G1 X173.583 Y157.721 E0.03450
G1 X172.069 Y158.468 E0.05293
G1 X170.487 Y159.056 E0.05293
G1 X168.853 Y159.482 E0.05293
G1 X167.185 Y159.738 E0.05293
G1 X166.146 Y159.791 E0.03261
G1 X165.709 Y160.191 F10800.000
G1 F1200.000
G1 X165.709 Y159.911 E0.00878
G1 X164.047 Y159.838 E0.05217
G1 X162.605 Y159.649 E0.04558
G1 X161.186 Y159.334 E0.04558
G1 X159.800 Y158.897 E0.04558
G1 X158.262 Y158.260 E0.05217
G1 X158.144 Y158.514 E0.00878
G1 X156.804 Y157.804 E0.04754
G1 X155.369 Y156.845 E0.05413
G1 X154.038 Y155.745 E0.05413
G1 X152.857 Y154.546 E0.05277
G1 X151.745 Y153.168 E0.05549
G1 X150.922 Y151.896 E0.04753
G1 X151.164 Y151.756 E0.00878
G1 X150.396 Y150.280 E0.05217
G1 X149.839 Y148.937 E0.04558
G1 X149.402 Y147.550 E0.04558
G1 X149.088 Y146.131 E0.04558
G1 X148.870 Y144.481 E0.05217
G1 X148.591 Y144.505 E0.00878
G1 X148.536 Y142.990 E0.04754
G1 X148.649 Y141.268 E0.05413
G1 X148.937 Y139.565 E0.05413
G1 X149.396 Y137.901 E0.05413
G1 X150.021 Y136.292 E0.05413
G1 X150.712 Y134.942 E0.04754
G1 X150.954 Y135.082 E0.00878
G1 X151.848 Y133.678 E0.05217
G1 X152.733 Y132.525 E0.04558
G1 X153.715 Y131.453 E0.04558
G1 X154.787 Y130.471 E0.04558
G1 X156.107 Y129.458 E0.05217
G1 X155.947 Y129.229 E0.00878
G1 X157.231 Y128.423 E0.04754
G1 X158.780 Y127.660 E0.05413
G1 X160.398 Y127.057 E0.05413
G1 X162.069 Y126.623 E0.05413
G1 X163.775 Y126.360 E0.05413
G1 X165.289 Y126.283 E0.04754
G1 X165.289 Y126.563 E0.00878
G1 X166.952 Y126.636 E0.05217
G1 X168.393 Y126.825 E0.04558
G1 X169.812 Y127.140 E0.04558
G1 X171.199 Y127.577 E0.04558
G1 X172.736 Y128.214 E0.05217
G1 X172.855 Y127.960 E0.00878
M73 P1 R87
G1 X174.194 Y128.670 E0.04754
G1 X175.630 Y129.629 E0.05413
G1 X176.960 Y130.729 E0.05413
G1 X178.172 Y131.959 E0.05413
G1 X179.226 Y133.272 E0.05277
G1 X180.076 Y134.578 E0.04889
G1 X179.834 Y134.718 E0.00876
G1 X180.603 Y136.194 E0.05217
G1 X181.159 Y137.537 E0.04558
G1 X181.582 Y138.877 E0.04405
G1 X181.911 Y140.344 E0.04712
G1 X182.128 Y141.993 E0.05216
G1 X182.407 Y141.969 E0.00878
G1 X182.462 Y143.484 E0.04754
G1 X182.349 Y145.207 E0.05413
G1 X182.069 Y146.866 E0.05277
G1 X181.603 Y148.573 E0.05549
G1 X180.977 Y150.182 E0.05412
G1 X180.287 Y151.532 E0.04754
G1 X180.044 Y151.392 E0.00878
G1 X179.150 Y152.796 E0.05217
G1 X178.295 Y153.910 E0.04405
G1 X177.283 Y155.021 E0.04712
G1 X176.211 Y156.003 E0.04557
G1 X174.891 Y157.016 E0.05217
G1 X175.052 Y157.245 E0.00878
G1 X173.767 Y158.051 E0.04754
G1 X172.219 Y158.814 E0.05413
G1 X170.601 Y159.417 E0.05413
G1 X168.930 Y159.851 E0.05413
G1 X167.223 Y160.114 E0.05413
G1 X165.769 Y160.188 E0.04566
G1 X165.841 Y159.944 F10800.000
G1 E-0.80000 F2100.00000
G1 Z0.800 F10800.000
G1 X161.987 Y159.010
G1 Z0.200
G1 E0.80000 F2100.00000
G1 F1200.000
G1 X149.950 Y146.972 E0.53616
G1 X150.040 Y147.379 E0.01313
G1 X150.141 Y147.699 E0.01056
G1 X161.037 Y158.595 E0.48533
G1 X160.255 Y158.348 E0.02584
G1 X150.388 Y148.481 E0.43949
G1 X150.460 Y148.711 E0.00757
G1 X150.728 Y149.357 E0.02204
G1 X159.379 Y158.008 E0.38534
G1 X158.465 Y157.630 E0.03117
G1 X151.167 Y150.332 E0.32506
G1 X151.748 Y151.449 E0.03967
G1 X157.860 Y157.561 E0.27223
G1 X157.839 Y157.606 E0.00156
G1 X157.143 Y157.237 E0.02483
G1 X156.713 Y156.950 E0.01627
G1 X151.873 Y152.109 E0.21562
G1 X151.853 Y152.120 E0.00071
G1 X152.281 Y152.781 E0.02479
G1 X153.350 Y154.106 E0.05363
G1 X155.714 Y156.486 E0.10566
G1 E-0.80000 F2100.00000
G1 Z0.800 F10800.000
G1 X158.139 Y154.626
G1 Z0.200
G1 E0.80000 F2100.00000
G1 F1200.000
G1 X158.882 Y155.369 E0.03309
G1 X158.755 Y155.643 E0.00951
G1 X159.425 Y155.912 E0.02276
G1 X162.452 Y158.939 E0.13483
G1 X162.720 Y158.998 E0.00865
G1 X163.097 Y159.048 E0.01197
G1 X160.320 Y156.271 E0.12368
G1 X160.984 Y156.538 E0.02254
G1 X161.176 Y156.591 E0.00628
G1 X163.714 Y159.129 E0.11303
G1 X164.310 Y159.189 E0.01887
G1 X161.920 Y156.799 E0.10645
G1 X162.459 Y156.950 E0.01764
G1 X162.635 Y156.979 E0.00563
G1 X164.870 Y159.214 E0.09953
G1 X165.430 Y159.238 E0.01766
G1 X163.277 Y157.085 E0.09590
G1 X163.919 Y157.191 E0.02048
G1 X165.990 Y159.263 E0.09227
G1 X166.369 Y159.279 E0.01195
G1 X166.369 Y159.497 E0.00685
G1 X166.741 Y159.478 E0.01172
G1 X164.491 Y157.228 E0.10020
G1 X165.058 Y157.259 E0.01787
G1 X167.242 Y159.443 E0.09729
G1 X167.706 Y159.372 E0.01479
G1 X165.625 Y157.290 E0.09273
G1 X166.191 Y157.321 E0.01787
G1 X168.171 Y159.300 E0.08817
G1 X168.635 Y159.229 E0.01479
G1 X166.369 Y156.963 E0.10092
G1 X166.369 Y156.939 E0.00077
G1 X166.855 Y156.914 E0.01534
G1 X169.074 Y159.132 E0.09880
G1 X169.499 Y159.021 E0.01383
G1 X167.323 Y156.846 E0.09689
G1 X167.788 Y156.775 E0.01479
G1 X169.924 Y158.911 E0.09515
G1 X170.349 Y158.800 E0.01383
G1 X168.252 Y156.703 E0.09341
G1 X168.679 Y156.595 E0.01389
G1 X170.744 Y158.659 E0.09195
G1 X171.134 Y158.514 E0.01312
G1 X169.104 Y156.484 E0.09040
G1 X169.529 Y156.374 E0.01383
G1 X171.524 Y158.369 E0.08886
G1 X171.915 Y158.223 E0.01312
G1 X169.928 Y156.237 E0.08848
G1 X170.319 Y156.092 E0.01312
G1 X172.277 Y158.050 E0.08723
G1 X172.636 Y157.873 E0.01260
G1 X170.709 Y155.946 E0.08582
G1 X171.087 Y155.788 E0.01290
G1 X172.994 Y157.696 E0.08497
G1 X173.353 Y157.519 E0.01260
G1 X171.445 Y155.611 E0.08497
G1 X171.804 Y155.435 E0.01260
G1 X173.690 Y157.320 E0.08399
G1 X174.019 Y157.114 E0.01224
G1 X172.163 Y155.258 E0.08268
G1 X172.495 Y155.054 E0.01227
G1 X174.175 Y156.734 E0.07482
G1 X174.478 Y156.501 E0.01203
G1 X173.087 Y155.111 E0.06194
G1 X173.388 Y154.875 E0.01202
G1 X174.781 Y156.269 E0.06207
G1 X175.084 Y156.036 E0.01203
G1 X173.688 Y154.640 E0.06220
G1 X173.988 Y154.404 E0.01202
G1 X175.387 Y155.803 E0.06234
G1 X175.690 Y155.571 E0.01203
G1 X174.288 Y154.168 E0.06247
G1 X174.588 Y153.933 E0.01202
G1 X175.977 Y155.322 E0.06188
G1 X176.257 Y155.066 E0.01194
G1 X174.876 Y153.685 E0.06152
G1 X175.146 Y153.420 E0.01193
G1 X176.536 Y154.810 E0.06191
G1 X176.815 Y154.555 E0.01190
G1 X175.417 Y153.155 E0.06230
G1 X175.688 Y152.890 E0.01193
G1 X177.071 Y154.273 E0.06162
G1 X177.327 Y153.993 E0.01194
G1 X175.948 Y152.614 E0.06143
G1 X176.189 Y152.320 E0.01199
G1 X177.582 Y153.713 E0.06205
G1 X177.833 Y153.428 E0.01195
G1 X176.430 Y152.026 E0.06248
G1 X176.672 Y151.731 E0.01199
G1 X178.066 Y153.125 E0.06208
G1 X178.298 Y152.822 E0.01203
G1 X176.903 Y151.426 E0.06216
G1 X177.114 Y151.102 E0.01219
G1 X178.531 Y152.519 E0.06310
G1 X178.747 Y152.200 E0.01215
G1 X177.326 Y150.778 E0.06333
G1 X177.537 Y150.454 E0.01219
