; generated by PrusaSlicer 2.2.0+win64 on 2021-01-18 at 18:00:07 UTC

; 

; external perimeters extrusion width = 0.45mm
; perimeters extrusion width = 0.45mm
; infill extrusion width = 0.45mm
; solid infill extrusion width = 0.45mm
; top infill extrusion width = 0.40mm
; first layer extrusion width = 0.42mm

M73 P0 R44
M201 X9000 Y9000 Z500 E10000 ; sets maximum accelerations, mm/sec^2
M203 X500 Y500 Z12 E120 ; sets maximum feedrates, mm/sec
M204 P2000 R1500 T2000 ; sets acceleration (P, T) and retract acceleration (R), mm/sec^2
M205 X10.00 Y10.00 Z0.20 E2.50 ; sets the jerk limits, mm/sec
M205 S0 T0 ; sets the minimum extruding and travel feed rate, mm/sec
M107
M862.3 P "MK2.5SMMU2S" ; printer model check
M862.1 P0.4 ; nozzle diameter check
M115 U3.8.0 ; tell printer latest fw version
G90 ; use absolute coordinates
M83 ; extruder relative mode
M104 S215 ; set extruder temp
M140 S60 ; set bed temp
Tx
M190 S60 ; wait for bed temp
M109 S215 ; wait for extruder temp
G28 W ; home all without mesh bed level
G80 ; mesh bed leveling

G21 ; set units to millimeters

;go outside print area
G1 Y-3.0 F1000.0
G1 Z0.4 F1000.0
; select extruder
Tc
; purge line
G1 X55.0 F2000.0
G1 Z0.3 F1000.0
G92 E0.0
G1 X240.0 E25.0 F2200.0
M73 P0 R44
G1 Y-2.0 F1000.0
G1 X55.0 E25 F1400.0
G1 Z0.20 F1000.0
G1 X5.0 E4.0 F1000.0
G92 E0.0
G21 ; set units to millimeters
G90 ; use absolute coordinates
M83 ; use relative distances for extrusion
M900 K0.05 ; Filament gcode LA 1.5
M900 K30 ; Filament gcode LA 1.0
;BEFORE_LAYER_CHANGE
G92 E0.0
;0.2


G1 E-0.80000 F2100.00000
G1 Z0.600 F10800.000
;AFTER_LAYER_CHANGE
;0.2
G1 X59.978 Y127.841
G1 Z0.200
G1 E0.80000 F2100.00000
M204 S1000
G1 F1200.000
G1 X59.763 Y126.652 E0.03788
G1 X59.746 Y124.995 E0.05198
G1 X62.627 Y86.053 E1.22432
G1 X62.751 Y85.400 E0.02085
G1 X62.984 Y84.855 E0.01858
G1 X72.228 Y70.014 E0.54822
G1 X72.945 Y69.020 E0.03843
G1 X74.144 Y67.642 E0.05727
G1 X74.998 Y66.862 E0.03626
G1 X100.634 Y47.000 E1.01683
G1 X101.293 Y46.616 E0.02390
G1 X102.261 Y46.400 E0.03110
G1 X159.710 Y43.143 E1.80415
G1 X160.706 Y43.320 E0.03173
G1 X161.600 Y43.852 E0.03264
G1 X162.120 Y44.456 E0.02498
G1 X163.119 Y46.189 E0.06271
G1 X189.859 Y116.037 E2.34505
G1 X190.249 Y117.608 E0.05074
G1 X190.354 Y118.730 E0.03535
G1 X190.258 Y120.513 E0.05598
G1 X190.152 Y121.055 E0.01730
G1 X189.955 Y121.524 E0.01597
G1 X189.560 Y122.050 E0.02060
G1 X152.958 Y158.652 E1.62300
G1 X152.243 Y159.142 E0.02720
G1 X151.517 Y159.334 E0.02355
G1 X93.908 Y164.929 E1.81478
G1 X93.199 Y164.888 E0.02225
G1 X92.538 Y164.641 E0.02213
G1 X91.913 Y164.141 E0.02508
G1 X60.427 Y128.592 E1.48897
G1 X60.008 Y127.893 E0.02555
G1 E-0.80000 F2100.00000
G1 Z0.800 F10800.000
G1 X187.390 Y118.848
G1 Z0.200
G1 E0.80000 F2100.00000
G1 F1200.000
G1 X186.776 Y118.270 E0.02644
G1 X186.030 Y117.687 E0.02968
G1 X185.251 Y117.169 E0.02934
G1 X182.049 Y115.264 E0.11681
G1 X174.306 Y110.580 E0.28373
G1 X167.503 Y106.372 E0.25081
G1 X167.355 Y106.617 E0.00897
G1 X167.390 Y106.020 E0.01876
G1 X167.903 Y105.712 E0.01876
G1 X167.749 Y105.965 E0.00928
G1 X169.198 Y106.789 E0.05226
G1 X170.409 Y107.379 E0.04224
G1 X173.247 Y108.634 E0.09731
G1 X174.974 Y109.354 E0.05866
G1 X178.650 Y110.739 E0.12318
G1 X180.300 Y111.446 E0.05626
G1 X182.216 Y112.362 E0.06660
G1 X183.181 Y112.850 E0.03390
G1 X183.876 Y113.243 E0.02502
G1 X184.400 Y113.599 E0.01987
G1 X184.860 Y113.989 E0.01892
G1 X185.316 Y114.458 E0.02052
G1 X186.116 Y115.396 E0.03864
G1 X186.494 Y115.904 E0.01986
G1 X186.769 Y116.355 E0.01657
G1 X187.012 Y116.888 E0.01836
G1 X187.207 Y117.498 E0.02010
G1 X187.329 Y118.122 E0.01994
G1 X187.390 Y118.788 E0.02094
G1 E-0.80000 F2100.00000
G1 Z0.800 F10800.000
G1 X166.541 Y106.032
G1 Z0.200
G1 E0.80000 F2100.00000
G1 F1200.000
G1 X166.577 Y105.529 E0.01584
G1 X167.007 Y105.263 E0.01584
G1 X166.943 Y105.750 E0.01540
G1 X166.590 Y105.998 E0.01352
G1 X165.719 Y105.536 F10800.000
G1 F1200.000
G1 X165.755 Y105.031 E0.01585
G1 X166.185 Y104.765 E0.01585
G1 X166.121 Y105.253 E0.01541
G1 X165.769 Y105.501 E0.01353
G1 X164.899 Y105.044 F10800.000
G1 F1200.000
G1 X164.953 Y104.546 E0.01571
G1 X165.369 Y104.267 E0.01571
G1 X165.316 Y104.765 E0.01571
G1 X164.949 Y105.011 E0.01383
G1 X164.077 Y104.542 F10800.000
G1 F1200.000
G1 X164.112 Y104.038 E0.01585
G1 X164.542 Y103.772 E0.01585
G1 X164.478 Y104.259 E0.01541
G1 X164.126 Y104.508 E0.01353
G1 X163.250 Y104.055 F10800.000
G1 F1200.000
G1 X163.274 Y103.531 E0.01647
G1 X163.727 Y103.266 E0.01647
G1 X163.673 Y103.772 E0.01596
G1 X163.300 Y104.022 E0.01408
G1 X162.428 Y103.558 F10800.000
G1 F1200.000
G1 X162.452 Y103.034 E0.01647
G1 X162.906 Y102.769 E0.01647
G1 X162.851 Y103.275 E0.01596
G1 X162.478 Y103.525 E0.01408
G1 X161.809 Y102.951 F10800.000
G1 F1200.000
G1 X162.080 Y102.497 E0.01658
G1 X162.066 Y102.800 E0.00952
G1 X161.860 Y102.920 E0.00747
G1 E-0.80000 F2100.00000
G1 Z0.800 F10800.000
G1 X187.726 Y119.827
G1 Z0.200
G1 E0.80000 F2100.00000
G1 F1200.000
G1 X187.564 Y119.607 E0.00858
G1 X187.083 Y119.070 E0.02259
G1 X186.531 Y118.557 E0.02364
G1 X185.809 Y117.993 E0.02872
G1 X185.050 Y117.488 E0.02859
G1 X181.855 Y115.588 E0.11656
G1 X174.109 Y110.902 E0.28384
G1 X167.629 Y106.893 E0.23892
G1 X166.823 Y108.226 E0.04883
G1 X166.497 Y108.029 E0.01191
G1 X167.088 Y107.053 E0.03579
G1 X166.966 Y106.803 E0.00870
G1 X167.004 Y106.168 E0.01996
G1 X166.552 Y106.486 E0.01730
G1 X166.462 Y106.520 E0.00303
G1 X166.374 Y106.523 E0.00276
G1 X166.290 Y106.498 E0.00276
G1 X166.219 Y106.446 E0.00276
G1 X166.168 Y106.374 E0.00276
G1 X166.144 Y106.292 E0.00268
G1 X166.190 Y105.666 E0.01969
G1 X165.731 Y105.989 E0.01758
G1 X165.641 Y106.023 E0.00303
G1 X165.553 Y106.026 E0.00276
G1 X165.469 Y106.001 E0.00276
G1 X165.397 Y105.949 E0.00276
G1 X165.347 Y105.877 E0.00276
G1 X165.323 Y105.795 E0.00268
G1 X165.366 Y105.185 E0.01918
G1 X164.904 Y105.496 E0.01747
G1 X164.807 Y105.528 E0.00320
G1 X164.714 Y105.527 E0.00290
G1 X164.628 Y105.493 E0.00290
G1 X164.558 Y105.432 E0.00290
G1 X164.514 Y105.351 E0.00290
G1 X164.498 Y105.250 E0.00320
G1 X164.561 Y104.662 E0.01855
G1 X164.088 Y104.995 E0.01815
G1 X163.998 Y105.030 E0.00303
G1 X163.910 Y105.033 E0.00276
G1 X163.826 Y105.007 E0.00276
G1 X163.755 Y104.956 E0.00276
G1 X163.704 Y104.884 E0.00276
G1 X163.680 Y104.802 E0.00268
G1 X163.723 Y104.192 E0.01918
G1 X163.261 Y104.502 E0.01747
G1 X163.155 Y104.538 E0.00349
G1 X163.027 Y104.520 E0.00406
G1 X162.948 Y104.472 E0.00290
G1 X162.889 Y104.400 E0.00290
G1 X162.860 Y104.315 E0.00282
G1 X162.888 Y103.704 E0.01917
G1 X162.439 Y104.005 E0.01695
G1 X162.305 Y104.043 E0.00436
G1 X162.205 Y104.023 E0.00320
G1 X162.126 Y103.975 E0.00290
G1 X162.068 Y103.903 E0.00290
G1 X162.039 Y103.818 E0.00282
G1 X162.066 Y103.237 E0.01823
G1 X161.564 Y103.531 E0.01823
G1 X161.437 Y103.543 E0.00398
G1 X161.339 Y103.505 E0.00329
G1 X161.287 Y103.461 E0.00213
G1 X161.228 Y103.371 E0.00338
G1 X161.215 Y103.296 E0.00238
G1 X161.234 Y103.177 E0.00379
G1 X161.981 Y101.927 E0.04566
G1 X162.088 Y101.826 E0.00462
G1 X162.237 Y101.795 E0.00476
G1 X162.362 Y101.836 E0.00413
G1 X162.450 Y101.928 E0.00398
G1 X162.480 Y102.016 E0.00292
G1 X162.453 Y102.597 E0.01823
G1 X162.955 Y102.304 E0.01823
G1 X163.044 Y102.290 E0.00282
G1 X163.135 Y102.308 E0.00290
G1 X163.222 Y102.360 E0.00320
G1 X163.291 Y102.470 E0.00406
G1 X163.306 Y102.571 E0.00320
G1 X163.248 Y103.109 E0.01695
G1 X163.776 Y102.800 E0.01917
G1 X163.865 Y102.787 E0.00282
G1 X163.956 Y102.804 E0.00290
G1 X164.035 Y102.852 E0.00290
G1 X164.111 Y102.958 E0.00406
G1 X164.128 Y103.068 E0.00349
G1 X164.068 Y103.622 E0.01747
G1 X164.588 Y103.300 E0.01918
G1 X164.672 Y103.283 E0.00268
G1 X164.759 Y103.295 E0.00276
G1 X164.838 Y103.334 E0.00276
G1 X164.900 Y103.396 E0.00276
G1 X164.938 Y103.476 E0.00276
G1 X164.949 Y103.572 E0.00303
G1 X164.874 Y104.146 E0.01815
G1 X165.365 Y103.816 E0.01855
G1 X165.462 Y103.783 E0.00320
G1 X165.554 Y103.785 E0.00290
G1 X165.641 Y103.819 E0.00290
G1 X165.710 Y103.880 E0.00290
G1 X165.755 Y103.961 E0.00290
G1 X165.771 Y104.062 E0.00320
G1 X165.711 Y104.615 E0.01747
G1 X166.231 Y104.294 E0.01918
G1 X166.315 Y104.277 E0.00268
G1 X166.402 Y104.288 E0.00276
G1 X166.481 Y104.327 E0.00276
G1 X166.543 Y104.390 E0.00276
G1 X166.581 Y104.469 E0.00276
G1 X166.592 Y104.565 E0.00303
G1 X166.519 Y105.121 E0.01758
G1 X167.053 Y104.791 E0.01969
G1 X167.136 Y104.774 E0.00268
G1 X167.223 Y104.785 E0.00276
G1 X167.302 Y104.824 E0.00276
G1 X167.364 Y104.887 E0.00276
G1 X167.402 Y104.966 E0.00276
G1 X167.413 Y105.062 E0.00303
G1 X167.342 Y105.609 E0.01730
G1 X167.879 Y105.286 E0.01967
G1 X167.974 Y105.269 E0.00304
G1 X168.158 Y105.283 E0.00578
G1 X168.755 Y104.296 E0.03616
G1 X169.080 Y104.493 E0.01191
G1 X168.272 Y105.829 E0.04894
G1 X169.374 Y106.455 E0.03973
G1 X170.568 Y107.037 E0.04164
G1 X173.396 Y108.288 E0.09696
G1 X175.113 Y109.003 E0.05833
G1 X178.791 Y110.389 E0.12324
G1 X180.455 Y111.102 E0.05676
G1 X182.382 Y112.024 E0.06697
G1 X183.359 Y112.517 E0.03430
G1 X184.074 Y112.922 E0.02578
G1 X184.628 Y113.298 E0.02099
G1 X185.118 Y113.713 E0.02012
G1 X185.595 Y114.204 E0.02148
G1 X186.411 Y115.161 E0.03942
G1 X186.807 Y115.693 E0.02081
G1 X187.102 Y116.178 E0.01781
G1 X187.364 Y116.752 E0.01976
G1 X187.573 Y117.405 E0.02149
G1 X187.703 Y118.069 E0.02123
G1 X187.768 Y118.781 E0.02242
G1 X187.760 Y119.526 E0.02336
G1 X187.732 Y119.768 E0.00762
G1 X187.617 Y119.576 F10800.000
G1 E-0.80000 F2100.00000
G1 Z0.800 F10800.000
G1 X186.319 Y115.859
G1 Z0.200
G1 E0.80000 F2100.00000
G1 F1200.000
G1 X184.595 Y114.135 E0.07959
G1 X184.229 Y113.824 E0.01570
G1 X183.726 Y113.483 E0.01982
G1 X182.961 Y113.056 E0.02860
G1 X186.624 Y116.718 E0.16908
G1 X186.748 Y116.990 E0.00975
G1 X186.936 Y117.586 E0.02040
G1 X181.852 Y112.502 E0.23474
G1 X180.788 Y111.993 E0.03851
G1 X186.455 Y117.660 E0.26166
G1 X186.196 Y117.457 E0.01075
G1 X185.401 Y116.929 E0.03114
G1 X184.828 Y116.588 E0.02178
G1 X179.763 Y111.524 E0.23383
G1 X178.792 Y111.107 E0.03452
G1 X183.458 Y115.773 E0.21543
G1 X182.085 Y114.956 E0.05217
G1 X177.880 Y110.751 E0.19413
G1 X176.989 Y110.415 E0.03109
G1 X180.679 Y114.105 E0.17037
G1 X179.274 Y113.255 E0.05363
G1 X176.098 Y110.079 E0.14662
G1 X175.207 Y109.744 E0.03109
G1 X177.868 Y112.405 E0.12286
G1 X176.462 Y111.554 E0.05363
G1 X174.278 Y109.370 E0.10084
G1 X173.327 Y108.974 E0.03365
G1 X175.057 Y110.704 E0.07987
G1 X173.622 Y109.825 E0.05491
G1 X172.340 Y108.542 E0.05922
G1 X171.344 Y108.102 E0.03554
G1 X172.690 Y109.448 E0.06213
G1 E-0.80000 F2100.00000
G1 Z0.800 F10800.000
G1 X170.611 Y107.866
G1 Z0.200
G1 E0.80000 F2100.00000
G1 F1200.000
G1 X170.269 Y107.686 E0.01055
G1 X169.868 Y107.465 E0.01136
G1 X169.471 Y107.247 E0.00948
G1 X169.075 Y107.028 E0.00777
G1 X168.345 Y106.595 E0.01135
G1 X167.620 Y106.165 E0.00908
G1 X167.594 Y106.117 E0.00044
G1 E-0.80000 F2100.00000
G1 Z0.800 F10800.000
G1 X161.478 Y103.282
G1 Z0.200
G1 E0.80000 F2100.00000
G1 F1200.000
G1 X161.466 Y103.289 E0.00016
G1 E-0.80000 F2100.00000
G1 Z0.800 F10800.000
G1 X148.988 Y137.021
G1 Z0.200
G1 E0.80000 F2100.00000
G1 F1200.000
G1 X146.903 Y136.907 E0.06548
G1 X145.422 Y136.662 E0.04705
G1 X143.977 Y136.258 E0.04705
G1 X142.039 Y135.480 E0.06548
G1 X142.192 Y135.152 E0.01135
G1 X141.501 Y134.786 E0.02453
G1 X140.389 Y134.043 E0.04191
G1 X139.306 Y133.152 E0.04398
G1 X138.344 Y132.176 E0.04298
G1 X137.486 Y131.107 E0.04296
G1 X137.061 Y130.450 E0.02453
G1 X136.748 Y130.631 E0.01135
G1 X135.804 Y128.768 E0.06548
G1 X135.275 Y127.364 E0.04705
G1 X134.902 Y125.911 E0.04705
G1 X134.607 Y123.843 E0.06548
G1 X134.968 Y123.811 E0.01135
G1 X134.939 Y123.030 E0.02453
G1 X135.029 Y121.663 E0.04296
G1 X135.257 Y120.312 E0.04296
G1 X135.621 Y118.991 E0.04296
G1 X136.118 Y117.714 E0.04296
G1 X136.474 Y117.017 E0.02453
G1 X136.161 Y116.836 E0.01135
G1 X137.302 Y115.087 E0.06548
G1 X138.254 Y113.927 E0.04705
G1 X139.326 Y112.878 E0.04705
G1 X140.969 Y111.589 E0.06548
G1 X141.177 Y111.885 E0.01135
G1 X141.840 Y111.470 E0.02453
G1 X143.069 Y110.864 E0.04296
G1 X144.353 Y110.386 E0.04296
G1 X145.678 Y110.041 E0.04296
G1 X147.033 Y109.832 E0.04296
G1 X147.814 Y109.793 E0.02453
G1 X147.814 Y109.431 E0.01135
G1 X149.899 Y109.544 E0.06548
G1 X151.380 Y109.789 E0.04705
G1 X152.825 Y110.193 E0.04705
G1 X154.763 Y110.971 E0.06548
G1 X154.610 Y111.299 E0.01135
G1 X155.301 Y111.665 E0.02453
G1 X156.440 Y112.427 E0.04296
G1 X157.496 Y113.300 E0.04296
G1 X158.458 Y114.275 E0.04296
G1 X159.316 Y115.344 E0.04296
G1 X159.741 Y116.001 E0.02453
G1 X160.054 Y115.820 E0.01135
G1 X160.998 Y117.683 E0.06548
G1 X161.527 Y119.087 E0.04705
G1 X161.899 Y120.540 E0.04705
G1 X162.195 Y122.608 E0.06548
G1 X161.834 Y122.640 E0.01135
G1 X161.862 Y123.421 E0.02453
G1 X161.773 Y124.788 E0.04296
G1 X161.545 Y126.139 E0.04296
G1 X161.180 Y127.460 E0.04296
G1 X160.684 Y128.737 E0.04296
G1 X160.328 Y129.434 E0.02453
G1 X160.641 Y129.615 E0.01135
G1 X159.500 Y131.364 E0.06548
G1 X158.548 Y132.524 E0.04705
G1 X157.475 Y133.573 E0.04705
G1 X155.832 Y134.862 E0.06548
G1 X155.625 Y134.566 E0.01135
G1 X154.962 Y134.981 E0.02453
G1 X153.733 Y135.587 E0.04296
G1 X152.449 Y136.065 E0.04296
G1 X151.123 Y136.410 E0.04296
G1 X149.769 Y136.619 E0.04296
G1 X148.988 Y136.658 E0.02453
G1 X148.988 Y136.961 E0.00947
G1 X148.611 Y136.622 F10800.000
G1 F1200.000
G1 X146.944 Y136.531 E0.05235
G1 X145.504 Y136.294 E0.04576
G1 X144.098 Y135.900 E0.04576
G1 X142.549 Y135.278 E0.05235
G1 X142.685 Y134.986 E0.01010
G1 X141.694 Y134.461 E0.03516
G1 X140.614 Y133.740 E0.04072
G1 X139.561 Y132.873 E0.04277
G1 X138.626 Y131.925 E0.04176
G1 X137.792 Y130.886 E0.04175
G1 X137.183 Y129.945 E0.03516
G1 X136.904 Y130.106 E0.01010
G1 X136.149 Y128.616 E0.05235
G1 X135.635 Y127.251 E0.04576
G1 X135.273 Y125.837 E0.04576
G1 X135.037 Y124.184 E0.05235
G1 X135.358 Y124.156 E0.01010
G1 X135.317 Y123.035 E0.03516
G1 X135.404 Y121.706 E0.04175
G1 X135.626 Y120.393 E0.04175
G1 X135.980 Y119.110 E0.04175
G1 X136.462 Y117.869 E0.04175
G1 X136.973 Y116.870 E0.03516
G1 X136.694 Y116.709 E0.01010
G1 X137.606 Y115.311 E0.05235
G1 X138.532 Y114.183 E0.04576
G1 X139.575 Y113.162 E0.04576
G1 X140.889 Y112.131 E0.05235
G1 X141.074 Y112.395 E0.01010
G1 X142.024 Y111.799 E0.03516
G1 X143.218 Y111.210 E0.04175
G1 X144.466 Y110.746 E0.04175
G1 X145.755 Y110.411 E0.04175
G1 X147.071 Y110.208 E0.04175
G1 X148.191 Y110.151 E0.03516
G1 X148.191 Y109.829 E0.01010
G1 X149.858 Y109.920 E0.05235
G1 X151.298 Y110.157 E0.04576
G1 X152.703 Y110.551 E0.04576
G1 X154.253 Y111.173 E0.05235
G1 X154.117 Y111.465 E0.01010
G1 X155.108 Y111.990 E0.03516
G1 X156.215 Y112.730 E0.04175
G1 X157.241 Y113.578 E0.04175
G1 X158.176 Y114.526 E0.04175
G1 X159.009 Y115.565 E0.04175
G1 X159.619 Y116.506 E0.03516
G1 X159.898 Y116.345 E0.01010
G1 X160.653 Y117.835 E0.05235
G1 X161.167 Y119.200 E0.04576
G1 X161.529 Y120.614 E0.04576
G1 X161.765 Y122.267 E0.05235
G1 X161.444 Y122.295 E0.01010
G1 X161.485 Y123.416 E0.03516
G1 X161.398 Y124.745 E0.04175
G1 X161.176 Y126.058 E0.04175
G1 X160.822 Y127.341 E0.04175
G1 X160.339 Y128.583 E0.04175
G1 X159.829 Y129.581 E0.03516
G1 X160.108 Y129.742 E0.01010
G1 X159.195 Y131.140 E0.05235
G1 X158.270 Y132.268 E0.04576
G1 X157.226 Y133.289 E0.04576
G1 X155.913 Y134.320 E0.05235
G1 X155.728 Y134.056 E0.01010
G1 X154.778 Y134.652 E0.03516
G1 X153.584 Y135.241 E0.04175
G1 X152.336 Y135.705 E0.04175
G1 X151.047 Y136.040 E0.04175
G1 X149.731 Y136.243 E0.04175
G1 X148.611 Y136.300 E0.03516
G1 X148.611 Y136.562 E0.00822
G1 X148.437 Y136.982 F10800.000
G1 E-0.80000 F2100.00000
G1 Z0.800 F10800.000
G1 X148.988 Y139.783
G1 Z0.200
G1 E0.80000 F2100.00000
G1 F1200.000
G1 X148.988 Y139.539 E0.00766
G1 X146.981 Y139.451 E0.06298
G1 X145.573 Y139.265 E0.04455
G1 X144.185 Y138.958 E0.04455
G1 X142.830 Y138.531 E0.04455
G1 X140.975 Y137.762 E0.06298
G1 X140.871 Y137.983 E0.00766
G1 X139.899 Y137.468 E0.03450
G1 X138.496 Y136.530 E0.05293
G1 X137.195 Y135.455 E0.05293
G1 X136.040 Y134.283 E0.05158
G1 X134.953 Y132.936 E0.05429
G1 X134.355 Y132.013 E0.03447
G1 X134.567 Y131.890 E0.00766
G1 X133.640 Y130.109 E0.06298
G1 X133.096 Y128.796 E0.04455
