; generated by PrusaSlicer 2.1.1+win64 on 2020-04-09 at 22:22:28 UTC

; 

; external perimeters extrusion width = 0.60mm
; perimeters extrusion width = 0.43mm
; infill extrusion width = 0.45mm
; solid infill extrusion width = 0.70mm
; top infill extrusion width = 0.43mm
; support material extrusion width = 0.37mm
; first layer extrusion width = 0.42mm

M73 P0 R120
M201 X9000 Y9000 Z500 E10000 ; sets maximum accelerations, mm/sec^2
M203 X500 Y500 Z12 E120 ; sets maximum feedrates, mm/sec
M204 P2000 R1500 T2000 ; sets acceleration (P, T) and retract acceleration (R), mm/sec^2
M205 X10.00 Y10.00 Z0.20 E2.50 ; sets the jerk limits, mm/sec
M205 S0 T0 ; sets the minimum extruding and travel feed rate, mm/sec
M107
M862.3 P "MK2.5SMMU2S" ; printer model check
M862.1 P0.4 ; nozzle diameter check
M115 U3.8.0 ; tell printer latest fw version
G90 ; use absolute coordinates
M83 ; extruder relative mode
M104 S215 ; set extruder temp
M140 S60 ; set bed temp
Tx
M190 S60 ; wait for bed temp
M109 S215 ; wait for extruder temp
G28 W ; home all without mesh bed level
G80 ; mesh bed leveling

G21 ; set units to millimeters

;go outside print area
G1 Y-3.0 F1000.0
G1 Z0.4 F1000.0
; select extruder
Tc
; purge line
G1 X55.0 F2000.0
G1 Z0.3 F1000.0
G92 E0.0
G1 X240.0 E25.0 F2200.0
M73 P0 R120
G1 Y-2.0 F1000.0
G1 X55.0 E25 F1400.0
G1 Z0.20 F1000.0
G1 X5.0 E4.0 F1000.0
G92 E0.0
G21 ; set units to millimeters
G90 ; use absolute coordinates
M83 ; use relative distances for extrusion
M900 K30 ; Filament gcode
;BEFORE_LAYER_CHANGE
G92 E0.0
;0.2


G1 E-0.80000 F2100.00000
G1 Z0.600 F10800.000
;AFTER_LAYER_CHANGE
;0.2
G1 X242.896 Y60.752
G1 Z0.200
G1 E0.80000 F2100.00000
M204 S1000
G1 F1200
G1 X242.352 Y61.257 E0.02326
G1 X63.322 Y168.440 E6.54246
G1 X49.900 Y175.986 E0.48278
G1 X36.292 Y183.160 E0.48232
G1 X34.671 Y183.794 E0.05459
G1 X33.306 Y184.084 E0.04374
G1 X31.778 Y184.155 E0.04798
G1 X30.049 Y183.920 E0.05470
G1 X28.713 Y183.506 E0.04386
G1 X27.472 Y182.893 E0.04340
G1 X24.858 Y181.080 E0.09977
G1 X22.628 Y179.061 E0.09430
G1 X20.761 Y176.897 E0.08960
G1 X19.143 Y174.495 E0.09081
G1 X17.593 Y171.417 E0.10806
G1 X16.652 Y168.728 E0.08931
G1 X16.011 Y165.767 E0.09502
G1 X15.743 Y162.758 E0.09471
G1 X15.838 Y161.175 E0.04972
G1 X16.253 Y159.507 E0.05389
G1 X16.797 Y158.238 E0.04328
G1 X17.540 Y157.062 E0.04363
G1 X18.672 Y155.787 E0.05344
G1 X115.963 Y82.491 E3.81929
G1 X116.962 Y81.805 E0.03800
G1 X171.512 Y50.307 E1.97502
G1 X172.791 Y49.709 E0.04428
G1 X174.188 Y49.324 E0.04542
G1 X228.031 Y38.143 E1.72424
G1 X229.083 Y38.049 E0.03311
G1 X230.229 Y38.174 E0.03615
G1 X231.023 Y38.398 E0.02588
G1 X231.764 Y38.737 E0.02554
G1 X232.708 Y39.373 E0.03569
G1 X233.474 Y40.151 E0.03422
G1 X233.981 Y40.884 E0.02794
G1 X241.982 Y54.741 E0.50172
G1 X243.195 Y57.529 E0.09534
G1 X243.343 Y58.205 E0.02168
G1 X243.343 Y59.543 E0.04196
G1 X243.239 Y60.099 E0.01771
G1 X242.924 Y60.699 E0.02127
G1 E-0.80000 F2100.00000
G1 Z0.800 F10800.000
G1 X241.158 Y59.423
G1 Z0.200
G1 E0.80000 F2100.00000
G1 F1200
G1 X241.158 Y58.329 E0.03430
G1 E-0.80000 F2100.00000
G1 Z0.800 F10800.000
G1 X236.633 Y57.216
G1 Z0.200
G1 E0.80000 F2100.00000
G1 F1200
G1 X236.633 Y56.831 E0.01208
G1 X235.879 Y55.524 E0.04729
G1 X235.879 Y55.570 E0.00144
G1 X234.370 Y52.912 E0.09583
G1 X234.370 Y53.047 E0.00424
G1 X234.036 Y52.960 E0.01082
G1 X233.616 Y53.209 E0.01532
G1 X233.616 Y51.606 E0.05027
G1 X232.862 Y50.299 E0.04729
G1 X232.862 Y53.656 E0.10524
G1 X232.108 Y54.103 E0.02749
G1 X232.108 Y48.993 E0.16021
G1 X230.599 Y46.426 E0.09334
G1 X230.599 Y46.381 E0.00144
G1 X229.845 Y45.074 E0.04729
G1 X229.845 Y45.120 E0.00144
G1 X229.091 Y43.814 E0.04729
G1 X229.091 Y43.560 E0.00795
G1 E-0.80000 F2100.00000
G1 Z0.800 F10800.000
G1 X225.320 Y42.977
G1 Z0.200
G1 E0.80000 F2100.00000
G1 F1200
G1 X225.320 Y41.861 E0.03498
G1 X224.566 Y41.861 E0.02365
G1 X224.566 Y42.316 E0.01426
G1 E-0.80000 F2100.00000
G1 Z0.800 F10800.000
G1 X231.354 Y54.747
G1 Z0.200
G1 E0.80000 F2100.00000
G1 F1200
G1 X231.354 Y48.770 E0.18740
G1 X230.599 Y49.194 E0.02713
G1 X230.599 Y54.997 E0.18193
G1 X229.845 Y55.444 E0.02749
G1 X229.845 Y49.618 E0.18265
G1 X229.091 Y50.042 E0.02713
G1 X229.091 Y55.891 E0.18337
G1 X228.337 Y56.338 E0.02749
G1 X228.337 Y50.466 E0.18409
G1 X227.583 Y50.890 E0.02713
G1 X227.583 Y56.785 E0.18481
G1 X226.829 Y57.231 E0.02749
G1 X226.829 Y51.314 E0.18552
G1 X226.074 Y51.738 E0.02713
G1 X226.074 Y57.678 E0.18624
G1 X225.320 Y58.125 E0.02749
G1 X225.320 Y52.163 E0.18696
G1 X224.566 Y52.587 E0.02713
G1 X224.566 Y58.572 E0.18768
G1 X223.812 Y59.019 E0.02749
G1 X223.812 Y53.011 E0.18840
G1 X223.058 Y53.435 E0.02713
G1 X223.058 Y59.466 E0.18912
G1 X222.304 Y59.913 E0.02749
G1 X222.304 Y53.859 E0.18984
G1 X221.549 Y54.283 E0.02713
G1 X221.549 Y60.360 E0.19056
G1 X220.795 Y60.807 E0.02749
G1 X220.795 Y54.707 E0.19128
G1 X220.041 Y55.131 E0.02713
G1 X220.041 Y61.254 E0.19200
G1 X219.287 Y61.701 E0.02749
G1 X219.287 Y55.555 E0.19271
G1 X218.533 Y55.979 E0.02713
G1 X218.533 Y62.148 E0.19343
G1 X217.779 Y62.595 E0.02749
G1 X217.779 Y56.403 E0.19415
G1 X217.025 Y56.827 E0.02713
G1 X217.025 Y63.042 E0.19487
G1 X216.270 Y63.489 E0.02749
G1 X216.270 Y57.251 E0.19559
G1 X215.516 Y57.675 E0.02713
G1 X215.516 Y63.936 E0.19631
G1 X214.762 Y64.383 E0.02749
G1 X214.762 Y58.099 E0.19703
G1 X214.008 Y58.523 E0.02713
G1 X214.008 Y64.830 E0.19775
G1 X213.254 Y65.277 E0.02749
G1 X213.254 Y58.947 E0.19847
G1 X212.500 Y59.371 E0.02713
G1 X212.500 Y65.724 E0.19919
G1 X211.745 Y66.171 E0.02749
G1 X211.745 Y59.795 E0.19990
G1 X210.991 Y60.219 E0.02713
G1 X210.991 Y66.618 E0.20062
G1 X210.237 Y67.077 E0.02768
G1 X210.237 Y60.643 E0.20173
G1 X209.483 Y61.067 E0.02713
G1 X209.483 Y67.537 E0.20286
G1 X208.729 Y67.997 E0.02770
G1 X208.729 Y61.491 E0.20400
G1 X207.975 Y61.912 E0.02709
G1 X207.975 Y68.458 E0.20523
G1 X207.220 Y68.918 E0.02770
G1 X207.220 Y62.323 E0.20677
G1 X206.466 Y62.735 E0.02693
G1 X206.466 Y69.378 E0.20831
G1 X205.712 Y69.839 E0.02770
G1 X205.712 Y63.146 E0.20985
G1 X204.958 Y63.557 E0.02693
G1 X204.958 Y70.299 E0.21139
G1 X204.204 Y70.759 E0.02770
G1 X204.204 Y63.968 E0.21293
G1 X203.450 Y64.379 E0.02693
G1 X203.450 Y71.220 E0.21447
G1 X202.696 Y71.680 E0.02770
G1 X202.696 Y64.791 E0.21601
G1 X201.941 Y65.202 E0.02693
G1 X201.941 Y72.140 E0.21755
G1 X201.187 Y72.601 E0.02770
G1 X201.187 Y65.613 E0.21909
G1 X200.433 Y66.024 E0.02693
G1 X200.433 Y73.061 E0.22063
G1 X199.679 Y73.521 E0.02770
G1 X199.679 Y66.435 E0.22218
G1 X198.925 Y66.847 E0.02693
G1 X198.925 Y73.982 E0.22372
G1 X198.171 Y74.442 E0.02770
G1 X198.171 Y67.258 E0.22526
M73 P0 R119
G1 X197.416 Y67.669 E0.02693
G1 X197.416 Y74.902 E0.22680
G1 X196.662 Y75.363 E0.02770
G1 X196.662 Y68.080 E0.22834
G1 X195.908 Y68.491 E0.02693
G1 X195.908 Y75.823 E0.22988
G1 X195.154 Y76.283 E0.02770
G1 X195.154 Y68.903 E0.23142
G1 X194.400 Y69.314 E0.02693
G1 X194.400 Y76.744 E0.23296
G1 X193.646 Y77.204 E0.02770
G1 X193.646 Y69.725 E0.23450
G1 X192.891 Y70.136 E0.02693
G1 X192.891 Y77.664 E0.23604
G1 X192.137 Y78.125 E0.02770
G1 X192.137 Y70.547 E0.23758
G1 X191.383 Y70.958 E0.02693
G1 X191.383 Y78.585 E0.23912
G1 X190.629 Y79.045 E0.02770
G1 X190.629 Y71.370 E0.24066
G1 X189.875 Y71.781 E0.02693
G1 X189.875 Y79.506 E0.24221
G1 X189.121 Y79.966 E0.02770
G1 X189.121 Y72.192 E0.24375
G1 X188.366 Y72.603 E0.02693
G1 X188.366 Y80.426 E0.24529
G1 X187.612 Y80.897 E0.02787
G1 X187.612 Y73.014 E0.24714
G1 X186.858 Y73.426 E0.02693
G1 X186.858 Y81.371 E0.24911
G1 X186.104 Y81.844 E0.02793
G1 X186.104 Y73.837 E0.25108
G1 X185.350 Y74.248 E0.02693
G1 X185.350 Y82.318 E0.25304
G1 X184.596 Y82.792 E0.02793
G1 X184.596 Y74.657 E0.25508
G1 X183.842 Y75.056 E0.02674
G1 X183.842 Y83.266 E0.25744
G1 X183.087 Y83.740 E0.02793
G1 X183.087 Y75.454 E0.25980
G1 X182.333 Y75.853 E0.02674
G1 X182.333 Y84.214 E0.26217
G1 X181.579 Y84.688 E0.02793
G1 X181.579 Y76.251 E0.26453
G1 X180.825 Y76.650 E0.02674
G1 X180.825 Y85.162 E0.26690
G1 X180.071 Y85.636 E0.02793
G1 X180.071 Y77.048 E0.26926
G1 X179.317 Y77.447 E0.02674
G1 X179.317 Y86.110 E0.27162
G1 X178.562 Y86.584 E0.02793
G1 X178.562 Y77.845 E0.27399
G1 X177.808 Y78.244 E0.02674
G1 X177.808 Y87.058 E0.27635
G1 X177.054 Y87.532 E0.02793
G1 X177.054 Y78.642 E0.27871
G1 X176.300 Y79.041 E0.02674
G1 X176.300 Y88.005 E0.28108
G1 X175.546 Y88.479 E0.02793
G1 X175.546 Y79.439 E0.28344
G1 X174.792 Y79.838 E0.02674
G1 X174.792 Y88.953 E0.28580
G1 X174.037 Y89.427 E0.02793
G1 X174.037 Y80.237 E0.28817
G1 X173.283 Y80.635 E0.02674
G1 X173.283 Y89.901 E0.29053
G1 X172.529 Y90.375 E0.02793
G1 X172.529 Y81.034 E0.29290
G1 X171.775 Y81.432 E0.02674
G1 X171.775 Y90.849 E0.29526
G1 X171.021 Y91.323 E0.02793
G1 X171.021 Y81.831 E0.29762
G1 X170.267 Y82.229 E0.02674
G1 X170.267 Y91.797 E0.29999
G1 X169.513 Y92.271 E0.02793
G1 X169.513 Y82.628 E0.30235
G1 X168.758 Y83.026 E0.02674
G1 X168.758 Y92.745 E0.30471
G1 X168.004 Y93.219 E0.02793
G1 X168.004 Y83.425 E0.30708
G1 X167.250 Y83.823 E0.02674
G1 X167.250 Y93.693 E0.30944
G1 X166.496 Y94.166 E0.02793
G1 X166.496 Y84.222 E0.31180
G1 X165.742 Y84.620 E0.02674
G1 X165.742 Y94.640 E0.31417
G1 X164.988 Y95.125 E0.02811
G1 X164.988 Y85.019 E0.31688
G1 X164.233 Y85.418 E0.02674
G1 X164.233 Y95.613 E0.31968
G1 X163.479 Y96.101 E0.02816
G1 X163.479 Y85.816 E0.32247
G1 X162.725 Y86.215 E0.02674
G1 X162.725 Y96.589 E0.32527
G1 X161.971 Y97.076 E0.02816
G1 X161.971 Y86.613 E0.32807
G1 X161.217 Y87.012 E0.02674
G1 X161.217 Y97.564 E0.33086
G1 X160.463 Y98.052 E0.02816
G1 X160.463 Y87.399 E0.33402
G1 X159.708 Y87.785 E0.02656
G1 X159.708 Y98.540 E0.33720
G1 X158.954 Y99.027 E0.02816
G1 X158.954 Y88.171 E0.34039
G1 X158.200 Y88.557 E0.02656
G1 X158.200 Y99.515 E0.34358
G1 X157.446 Y100.003 E0.02816
G1 X157.446 Y88.943 E0.34677
G1 X156.692 Y89.329 E0.02656
G1 X156.692 Y100.490 E0.34996
G1 X155.938 Y100.978 E0.02816
G1 X155.938 Y89.715 E0.35315
G1 X155.183 Y90.101 E0.02656
G1 X155.183 Y101.466 E0.35633
G1 X154.429 Y101.954 E0.02816
G1 X154.429 Y90.487 E0.35952
G1 X153.675 Y90.873 E0.02656
G1 X153.675 Y102.441 E0.36271
G1 X152.921 Y102.929 E0.02816
G1 X152.921 Y91.259 E0.36590
G1 X152.167 Y91.645 E0.02656
G1 X152.167 Y103.417 E0.36909
G1 X151.413 Y103.905 E0.02816
G1 X151.413 Y92.031 E0.37227
G1 X150.659 Y92.418 E0.02656
G1 X150.659 Y104.392 E0.37546
G1 X149.904 Y104.880 E0.02816
G1 X149.904 Y92.804 E0.37865
G1 X149.150 Y93.190 E0.02656
G1 X149.150 Y105.368 E0.38184
G1 X148.396 Y105.856 E0.02816
G1 X148.396 Y93.576 E0.38503
G1 X147.642 Y93.962 E0.02656
G1 X147.642 Y106.343 E0.38821
G1 X146.888 Y106.831 E0.02816
G1 X146.888 Y94.348 E0.39140
G1 X146.134 Y94.734 E0.02656
G1 X146.134 Y107.319 E0.39459
G1 X145.379 Y107.806 E0.02816
G1 X145.379 Y95.120 E0.39778
G1 X144.625 Y95.506 E0.02656
G1 X144.625 Y108.294 E0.40097
G1 X143.871 Y108.782 E0.02816
G1 X143.871 Y95.892 E0.40415
G1 X143.117 Y96.278 E0.02656
G1 X143.117 Y109.271 E0.40739
G1 X142.363 Y109.773 E0.02840
G1 X142.363 Y96.664 E0.41102
G1 X141.609 Y97.050 E0.02656
G1 X141.609 Y110.275 E0.41465
G1 X140.854 Y110.777 E0.02840
G1 X140.854 Y97.436 E0.41828
G1 X140.100 Y97.822 E0.02656
G1 X140.100 Y111.278 E0.42191
G1 X139.346 Y111.780 E0.02840
G1 X139.346 Y98.208 E0.42553
G1 X138.592 Y98.594 E0.02656
G1 X138.592 Y112.282 E0.42916
G1 X137.838 Y112.784 E0.02840
G1 X137.838 Y98.981 E0.43279
G1 X137.084 Y99.361 E0.02649
G1 X137.084 Y113.286 E0.43659
G1 X136.330 Y113.787 E0.02840
G1 X136.330 Y99.735 E0.44061
G1 X135.575 Y100.109 E0.02639
G1 X135.575 Y114.289 E0.44462
G1 X134.821 Y114.791 E0.02840
G1 X134.821 Y100.482 E0.44864
G1 X134.067 Y100.856 E0.02639
G1 X134.067 Y115.293 E0.45265
G1 X133.313 Y115.794 E0.02840
G1 X133.313 Y101.230 E0.45666
G1 X132.559 Y101.604 E0.02639
G1 X132.559 Y116.296 E0.46068
G1 X131.805 Y116.798 E0.02840
G1 X131.805 Y101.977 E0.46469
G1 X131.050 Y102.351 E0.02639
G1 X131.050 Y117.300 E0.46871
G1 X130.296 Y117.802 E0.02840
G1 X130.296 Y102.725 E0.47272
G1 X129.542 Y103.099 E0.02639
G1 X129.542 Y118.303 E0.47674
G1 X128.788 Y118.805 E0.02840
G1 X128.788 Y103.472 E0.48075
G1 X128.034 Y103.846 E0.02639
G1 X128.034 Y119.307 E0.48477
G1 X127.280 Y119.809 E0.02840
G1 X127.280 Y104.220 E0.48878
G1 X126.525 Y104.594 E0.02639
G1 X126.525 Y120.311 E0.49280
G1 X125.771 Y120.812 E0.02840
G1 X125.771 Y104.967 E0.49681
G1 X125.017 Y105.341 E0.02639
G1 X125.017 Y121.314 E0.50083
G1 X124.263 Y121.816 E0.02840
G1 X124.263 Y105.715 E0.50484
G1 X123.509 Y106.088 E0.02639
G1 X123.509 Y122.318 E0.50886
G1 X122.755 Y122.819 E0.02840
G1 X122.755 Y106.462 E0.51287
M73 P1 R118
G1 X122.001 Y106.836 E0.02639
G1 X122.000 Y123.321 E0.51688
G1 X121.246 Y123.823 E0.02840
G1 X121.246 Y107.210 E0.52090
G1 X120.492 Y107.583 E0.02639
G1 X120.492 Y124.335 E0.52522
G1 X119.738 Y124.851 E0.02866
G1 X119.738 Y107.957 E0.52970
G1 X118.984 Y108.331 E0.02639
G1 X118.984 Y125.367 E0.53416
G1 X118.230 Y125.883 E0.02865
G1 X118.230 Y108.705 E0.53862
G1 X117.476 Y109.078 E0.02639
G1 X117.476 Y126.399 E0.54309
G1 X116.721 Y126.915 E0.02865
G1 X116.721 Y109.452 E0.54755
G1 X115.967 Y109.826 E0.02639
G1 X115.967 Y127.432 E0.55201
G1 X115.213 Y127.948 E0.02865
G1 X115.213 Y110.200 E0.55648
G1 X114.459 Y110.573 E0.02639
G1 X114.459 Y128.464 E0.56094
G1 X113.705 Y128.980 E0.02865
G1 X113.705 Y110.947 E0.56540
G1 X112.951 Y111.311 E0.02626
G1 X112.951 Y129.496 E0.57016
G1 X112.196 Y130.012 E0.02865
G1 X112.196 Y111.673 E0.57501
G1 X111.442 Y112.034 E0.02622
G1 X111.442 Y130.528 E0.57986
G1 X110.688 Y131.044 E0.02865
G1 X110.688 Y112.396 E0.58470
G1 X109.934 Y112.757 E0.02622
G1 X109.934 Y131.560 E0.58955
G1 X109.180 Y132.076 E0.02865
G1 X109.180 Y113.119 E0.59439
G1 X108.426 Y113.481 E0.02622
G1 X108.426 Y132.592 E0.59924
G1 X107.671 Y133.108 E0.02865
G1 X107.671 Y113.842 E0.60408
G1 X106.917 Y114.204 E0.02622
G1 X106.917 Y133.625 E0.60892
G1 X106.163 Y134.141 E0.02865
G1 X106.163 Y114.565 E0.61377
G1 X105.409 Y114.927 E0.02622
G1 X105.409 Y134.657 E0.61861
G1 X104.655 Y135.173 E0.02865
G1 X104.655 Y115.289 E0.62346
G1 X103.901 Y115.650 E0.02622
G1 X103.901 Y135.689 E0.62830
G1 X103.147 Y136.205 E0.02865
G1 X103.147 Y116.012 E0.63314
G1 X102.392 Y116.373 E0.02622
G1 X102.392 Y136.721 E0.63799
G1 X101.638 Y137.237 E0.02865
G1 X101.638 Y116.735 E0.64283
G1 X100.884 Y117.096 E0.02622
G1 X100.884 Y137.753 E0.64768
G1 X100.130 Y138.269 E0.02865
G1 X100.130 Y117.458 E0.65252
G1 X99.376 Y117.820 E0.02622
G1 X99.376 Y138.785 E0.65736
G1 X98.622 Y139.297 E0.02858
G1 X98.622 Y118.181 E0.66208
G1 X97.867 Y118.543 E0.02622
G1 X97.867 Y139.805 E0.66667
G1 X97.113 Y140.313 E0.02851
G1 X97.113 Y118.904 E0.67126
G1 X96.359 Y119.266 E0.02622
G1 X96.359 Y140.821 E0.67585
G1 X95.605 Y141.329 E0.02851
G1 X95.605 Y119.628 E0.68044
G1 X94.851 Y119.989 E0.02622
G1 X94.851 Y141.837 E0.68503
G1 X94.097 Y142.345 E0.02851
G1 X94.097 Y120.351 E0.68962
G1 X93.342 Y120.712 E0.02622
G1 X93.342 Y142.853 E0.69421
G1 X92.588 Y143.361 E0.02851
G1 X92.588 Y121.074 E0.69880
G1 X91.834 Y121.436 E0.02622
G1 X91.834 Y143.869 E0.70339
G1 X91.080 Y144.377 E0.02851
G1 X91.080 Y121.797 E0.70798
G1 X90.326 Y122.159 E0.02622
G1 X90.326 Y144.885 E0.71257
G1 X89.572 Y145.393 E0.02851
G1 X89.572 Y122.520 E0.71716
G1 X88.818 Y122.888 E0.02631
G1 X88.818 Y145.901 E0.72156
G1 X88.063 Y146.409 E0.02851
G1 X88.063 Y123.256 E0.72594
G1 X87.309 Y123.625 E0.02632
G1 X87.309 Y146.917 E0.73031
G1 X86.555 Y147.425 E0.02851
G1 X86.555 Y123.993 E0.73469
G1 X85.801 Y124.362 E0.02632
G1 X85.801 Y147.924 E0.73878
G1 X85.047 Y148.402 E0.02800
G1 X85.047 Y124.730 E0.74222
G1 X84.293 Y125.099 E0.02632
G1 X84.293 Y148.880 E0.74566
G1 X83.538 Y149.358 E0.02800
G1 X83.538 Y125.467 E0.74910
G1 X82.784 Y125.835 E0.02632
G1 X82.784 Y149.837 E0.75254
G1 X82.030 Y150.315 E0.02800
G1 X82.030 Y126.204 E0.75598
G1 X81.276 Y126.572 E0.02632
G1 X81.276 Y150.793 E0.75942
G1 X80.522 Y151.271 E0.02800
G1 X80.522 Y126.941 E0.76286
M73 P2 R117
G1 X79.768 Y127.309 E0.02632
G1 X79.768 Y151.749 E0.76630
G1 X79.013 Y152.227 E0.02800
G1 X79.013 Y127.678 E0.76974
G1 X78.259 Y128.046 E0.02632
G1 X78.259 Y152.705 E0.77318
G1 X77.505 Y153.184 E0.02800
