; generated by PrusaSlicer 2.1.1+win64 on 2020-06-30 at 20:55:03 UTC

; 

; external perimeters extrusion width = 0.45mm
; perimeters extrusion width = 0.45mm
; infill extrusion width = 0.45mm
; solid infill extrusion width = 0.45mm
; top infill extrusion width = 0.40mm
; support material extrusion width = 0.35mm
; first layer extrusion width = 0.42mm

M73 P0 R40
M201 X9000 Y9000 Z500 E10000 ; sets maximum accelerations, mm/sec^2
M203 X500 Y500 Z12 E120 ; sets maximum feedrates, mm/sec
M204 P2000 R1500 T2000 ; sets acceleration (P, T) and retract acceleration (R), mm/sec^2
M205 X10.00 Y10.00 Z0.20 E4.50 ; sets the jerk limits, mm/sec
M205 S0 T0 ; sets the minimum extruding and travel feed rate, mm/sec
M107
M862.3 P "MK2.5SMMU2S" ; printer model check
M862.1 P0.4 ; nozzle diameter check
M115 U3.8.1 ; tell printer latest fw version
G90 ; use absolute coordinates
M83 ; extruder relative mode
M104 S215 ; set extruder temp
M140 S60 ; set bed temp
Tx
M190 S60 ; wait for bed temp
M109 S215 ; wait for extruder temp
G28 W ; home all without mesh bed level
G80 ; mesh bed leveling

;go outside print area
G1 Y-3.0 F1000.0
G1 Z0.4 F1000.0
; select extruder
Tc
; purge line
G1 X55.0 F2000.0
G1 Z0.3 F1000.0
G92 E0.0
G1 X240.0 E25.0 F2200.0
M73 P0 R40
G1 Y-2.0 F1000.0
G1 X55.0 E25 F1400.0
G1 Z0.20 F1000.0
G1 X5.0 E4.0 F1000.0
G92 E0.0
G21 ; set units to millimeters
G90 ; use absolute coordinates
M83 ; use relative distances for extrusion
M900 K30 ; Filament gcode
;BEFORE_LAYER_CHANGE
G92 E0.0
;0.2


G1 E-0.80000 F2100.00000
G1 Z0.600 F10800.000
;AFTER_LAYER_CHANGE
;0.2
G1 X91.938 Y57.865
G1 Z0.200
G1 E0.80000 F2100.00000
M204 S1000
G1 F1200
G1 X92.331 Y57.310 E0.02134
G1 X97.288 Y52.356 E0.21974
G1 X98.284 Y51.736 E0.03679
G1 X99.001 Y51.532 E0.02338
G1 X152.245 Y51.520 E1.66940
G1 X153.075 Y51.684 E0.02653
G1 X153.781 Y52.150 E0.02653
G1 X157.847 Y56.227 E0.18053
G1 X158.218 Y56.848 E0.02270
G1 X158.365 Y57.557 E0.02270
G1 X158.366 Y105.697 E1.50939
G1 X156.563 Y148.140 E1.33198
G1 X156.454 Y148.717 E0.01839
G1 X156.103 Y149.524 E0.02759
G1 X155.707 Y150.082 E0.02146
G1 X149.166 Y156.621 E0.29000
G1 X148.611 Y157.002 E0.02112
G1 X147.962 Y157.197 E0.02123
G1 X145.597 Y157.433 E0.07453
G1 X100.954 Y157.433 E1.39977
G1 X100.461 Y157.375 E0.01555
G1 X99.995 Y157.207 E0.01555
G1 X99.439 Y156.814 E0.02134
G1 X93.920 Y151.292 E0.24477
G1 X93.525 Y150.686 E0.02270
G1 X93.349 Y149.987 E0.02259
G1 X91.711 Y112.461 E1.17774
G1 X91.711 Y58.828 E1.68161
G1 X91.769 Y58.336 E0.01555
G1 X91.917 Y57.922 E0.01378
G1 F8640
G1 X92.331 Y57.310 E-0.17056
G1 X94.136 Y55.505 E-0.58944
G1 E-0.04000 F2100.00000
G1 Z0.800 F10800.000
G1 X133.862 Y105.642
G1 Z0.200
G1 E0.80000 F2100.00000
G1 F1200
G1 X129.928 Y101.709 E0.17443
G1 X129.167 Y101.709 E0.02389
G1 X133.692 Y106.234 E0.20068
G1 X133.692 Y106.996 E0.02389
G1 X128.405 Y101.709 E0.23446
G1 X127.868 Y101.709 E0.01683
G1 X127.755 Y101.821 E0.00499
G1 X133.580 Y107.646 E0.25827
G1 X133.226 Y108.000 E0.01571
G1 X133.692 Y108.467 E0.02070
G1 X133.692 Y108.520 E0.00167
G1 X126.881 Y101.709 E0.30202
G1 X126.119 Y101.709 E0.02389
G1 X133.692 Y109.282 E0.33580
G1 X133.692 Y110.044 E0.02389
G1 X125.357 Y101.709 E0.36958
G1 X124.600 Y101.713 E0.02374
G1 X133.688 Y110.801 E0.40294
G1 X133.307 Y111.182 E0.01689
G1 X124.219 Y102.094 E0.40294
G1 X124.138 Y102.175 E0.00360
G1 X123.672 Y101.709 E0.02070
G1 X123.072 Y101.709 E0.01880
G1 X132.926 Y111.562 E0.43693
G1 X132.545 Y111.943 E0.01689
G1 X122.310 Y101.709 E0.45382
G1 X121.548 Y101.709 E0.02389
G1 X132.164 Y112.324 E0.47071
G1 X131.783 Y112.705 E0.01689
G1 X121.064 Y101.987 E0.47528
G1 X120.684 Y102.368 E0.01689
G1 X132.061 Y113.745 E0.50449
G1 X132.061 Y114.507 E0.02389
G1 X120.303 Y102.748 E0.52138
G1 X119.922 Y103.129 E0.01689
G1 X132.061 Y115.269 E0.53827
G1 X132.061 Y115.690 E0.01321
G1 X131.891 Y115.860 E0.00755
G1 X119.541 Y103.510 E0.54762
G1 X119.160 Y103.891 E0.01689
G1 X132.061 Y116.792 E0.57205
G1 X132.061 Y117.554 E0.02389
G1 X118.779 Y104.272 E0.58894
G1 X118.398 Y104.653 E0.01689
G1 X132.061 Y118.316 E0.60583
G1 X132.061 Y118.953 E0.01997
G1 X131.998 Y119.015 E0.00277
G1 X118.017 Y105.034 E0.61995
G1 X117.636 Y105.415 E0.01689
G1 X131.618 Y119.396 E0.61995
G1 X131.594 Y119.419 E0.00104
G1 X132.061 Y119.886 E0.02070
G1 X132.061 Y120.601 E0.02242
G1 X117.255 Y105.796 E0.65650
G1 X116.875 Y106.177 E0.01689
G1 X132.061 Y121.363 E0.67339
G1 X132.061 Y122.125 E0.02389
G1 X116.494 Y106.558 E0.69028
G1 X116.216 Y106.835 E0.01232
G1 X116.216 Y107.041 E0.00646
G1 X131.725 Y122.551 E0.68772
G1 X131.594 Y122.682 E0.00581
G1 X132.061 Y123.149 E0.02070
G1 X132.061 Y123.649 E0.01566
G1 X116.216 Y107.803 E0.70261
G1 X116.216 Y108.565 E0.02389
G1 X132.061 Y124.410 E0.70261
G1 X132.061 Y125.172 E0.02389
G1 X116.601 Y109.712 E0.68551
G1 X116.220 Y110.093 E0.01689
G1 X131.833 Y125.706 E0.69229
G1 X131.594 Y125.945 E0.01059
G1 X132.061 Y126.412 E0.02070
G1 X132.061 Y126.696 E0.00891
G1 X116.216 Y110.850 E0.70261
G1 X116.216 Y111.612 E0.02389
G1 X132.061 Y127.458 E0.70261
G1 X132.061 Y128.219 E0.02389
G1 X116.216 Y112.374 E0.70261
G1 X116.216 Y112.427 E0.00167
G1 X118.314 Y114.525 E0.09304
G1 X117.959 Y114.880 E0.01571
G1 X131.941 Y128.861 E0.61995
G1 X131.594 Y129.208 E0.01537
G1 X132.061 Y129.674 E0.02070
G1 X132.061 Y129.743 E0.00215
G1 X117.847 Y115.529 E0.63027
M73 P2 R39
G1 X117.847 Y116.291 E0.02389
G1 X132.061 Y130.505 E0.63027
G1 X132.061 Y131.267 E0.02389
G1 X117.847 Y117.053 E0.63027
G1 X117.847 Y117.321 E0.00842
G1 X118.314 Y117.788 E0.02070
G1 X118.067 Y118.035 E0.01094
G1 X132.048 Y132.016 E0.61995
G1 X131.668 Y132.397 E0.01689
G1 X117.847 Y118.576 E0.61283
G1 X117.847 Y119.338 E0.02389
G1 X132.061 Y133.552 E0.63027
G1 X132.061 Y134.314 E0.02389
G1 X117.847 Y120.100 E0.63027
G1 X117.847 Y120.584 E0.01518
G1 X118.314 Y121.051 E0.02070
G1 X118.175 Y121.190 E0.00616
G1 X132.061 Y135.076 E0.61573
G1 X132.061 Y135.266 E0.00597
G1 X131.775 Y135.552 E0.01267
G1 X117.847 Y121.624 E0.61760
G1 X117.847 Y122.385 E0.02389
G1 X132.061 Y136.599 E0.63027
G1 X132.061 Y137.361 E0.02389
G1 X117.847 Y123.147 E0.63027
G1 X117.847 Y123.847 E0.02193
G1 X118.314 Y124.313 E0.02070
G1 X118.283 Y124.345 E0.00138
G1 X132.061 Y138.123 E0.61096
G1 X132.061 Y138.529 E0.01272
G1 X131.883 Y138.707 E0.00789
G1 X117.902 Y124.726 E0.61995
G1 X117.847 Y124.780 E0.00243
G1 X117.847 Y125.433 E0.02046
G1 X132.061 Y139.647 E0.63027
G1 X132.061 Y140.408 E0.02389
G1 X117.847 Y126.195 E0.63027
G1 X117.847 Y126.956 E0.02389
G1 X132.061 Y141.170 E0.63027
G1 X132.061 Y141.792 E0.01948
G1 X131.991 Y141.862 E0.00312
G1 X118.009 Y127.881 E0.61995
G1 X117.847 Y128.043 E0.00720
G1 X117.847 Y128.480 E0.01370
G1 X131.610 Y142.243 E0.61026
G1 X131.594 Y142.258 E0.00069
G1 X132.061 Y142.725 E0.02070
G1 X132.061 Y143.456 E0.02291
G1 X117.847 Y129.242 E0.63027
G1 X117.847 Y130.004 E0.02389
G1 X132.061 Y144.218 E0.63027
G1 X132.061 Y144.979 E0.02389
G1 X118.117 Y131.036 E0.61829
G1 X117.847 Y131.306 E0.01198
G1 X117.847 Y131.527 E0.00695
G1 X131.718 Y145.398 E0.61504
G1 X131.594 Y145.521 E0.00547
G1 X132.061 Y145.988 E0.02070
G1 X132.061 Y146.503 E0.01615
G1 X117.847 Y132.289 E0.63027
G1 X117.847 Y133.051 E0.02389
G1 X132.061 Y147.265 E0.63027
G1 X132.061 Y148.027 E0.02389
G1 X118.225 Y134.191 E0.61352
G1 X117.847 Y134.574 E0.01689
G1 X131.825 Y148.553 E0.61982
G1 X131.444 Y148.934 E0.01689
G1 X117.847 Y135.336 E0.60293
G1 X117.847 Y136.098 E0.02389
G1 X131.063 Y149.315 E0.58604
G1 X130.683 Y149.695 E0.01689
G1 X117.847 Y136.860 E0.56915
G1 X117.847 Y136.897 E0.00118
G1 X118.314 Y137.364 E0.02070
G1 X117.952 Y137.726 E0.01606
G1 X130.302 Y150.076 E0.54762
G1 X129.921 Y150.457 E0.01689
G1 X117.847 Y138.384 E0.53537
G1 X117.847 Y139.145 E0.02389
G1 X129.540 Y150.838 E0.51848
G1 X129.159 Y151.219 E0.01689
G1 X117.847 Y139.907 E0.50159
G1 X117.847 Y140.160 E0.00793
G1 X118.314 Y140.627 E0.02070
G1 X118.059 Y140.881 E0.01128
G1 X128.778 Y151.600 E0.47528
G1 X128.397 Y151.981 E0.01689
G1 X117.847 Y141.431 E0.46781
G1 X117.847 Y142.193 E0.02389
G1 X128.016 Y152.362 E0.45092
G1 X127.635 Y152.743 E0.01689
G1 X117.847 Y142.954 E0.43403
G1 X117.847 Y143.423 E0.01469
G1 X118.314 Y143.890 E0.02070
G1 X118.167 Y144.036 E0.00650
G1 X127.254 Y153.124 E0.40294
G1 X126.873 Y153.505 E0.01689
G1 X117.847 Y144.478 E0.40025
G1 X117.847 Y145.240 E0.02389
G1 X126.493 Y153.885 E0.38336
G1 X126.112 Y154.266 E0.01689
G1 X117.847 Y146.002 E0.36647
G1 X117.847 Y146.686 E0.02144
G1 X118.314 Y147.152 E0.02070
G1 X118.275 Y147.191 E0.00173
G1 X125.731 Y154.647 E0.33060
G1 X125.350 Y155.028 E0.01689
G1 X117.894 Y147.572 E0.33060
G1 X117.847 Y147.619 E0.00208
G1 X117.847 Y148.287 E0.02094
G1 X124.635 Y155.075 E0.30099
G1 X123.873 Y155.075 E0.02389
G1 X117.847 Y149.049 E0.26721
G1 X117.847 Y149.811 E0.02389
G1 X123.281 Y155.245 E0.24095
G1 F8640
G1 X120.954 Y152.917 E-0.76000
G1 E-0.04000 F2100.00000
G1 Z0.800 F10800.000
G1 X134.439 Y155.245
G1 Z0.200
G1 E0.80000 F2100.00000
G1 F1200
G1 X129.005 Y149.811 E0.24095
G1 X129.005 Y149.049 E0.02389
G1 X135.031 Y155.075 E0.26721
G1 X135.793 Y155.075 E0.02389
G1 X129.005 Y148.287 E0.30099
G1 X129.005 Y147.619 E0.02094
G1 X129.052 Y147.572 E0.00208
G1 X136.508 Y155.028 E0.33060
G1 X136.889 Y154.647 E0.01689
G1 X129.433 Y147.191 E0.33060
G1 X129.472 Y147.152 E0.00173
G1 X129.005 Y146.686 E0.02070
G1 X129.005 Y146.002 E0.02144
G1 X137.270 Y154.266 E0.36647
G1 X137.651 Y153.885 E0.01689
G1 X129.005 Y145.240 E0.38336
G1 X129.005 Y144.478 E0.02389
G1 X138.032 Y153.505 E0.40025
G1 X138.413 Y153.124 E0.01689
G1 X129.325 Y144.036 E0.40294
G1 X129.472 Y143.890 E0.00650
G1 X129.005 Y143.423 E0.02070
G1 X129.005 Y142.954 E0.01469
G1 X138.793 Y152.743 E0.43403
G1 X139.174 Y152.362 E0.01689
G1 X129.005 Y142.193 E0.45092
G1 X129.005 Y141.431 E0.02389
G1 X139.555 Y151.981 E0.46781
G1 X139.936 Y151.600 E0.01689
G1 X129.218 Y140.881 E0.47528
G1 X129.472 Y140.627 E0.01128
G1 X129.005 Y140.160 E0.02070
G1 X129.005 Y139.907 E0.00793
G1 X140.317 Y151.219 E0.50159
G1 X140.698 Y150.838 E0.01689
G1 X129.005 Y139.145 E0.51848
G1 X129.005 Y138.384 E0.02389
G1 X141.079 Y150.457 E0.53537
G1 X141.460 Y150.076 E0.01689
G1 X129.110 Y137.726 E0.54762
G1 X129.472 Y137.364 E0.01606
G1 X129.005 Y136.897 E0.02070
G1 X129.005 Y136.860 E0.00118
G1 X141.841 Y149.695 E0.56915
G1 X142.222 Y149.315 E0.01689
G1 X129.005 Y136.098 E0.58604
G1 X129.005 Y135.336 E0.02389
G1 X142.602 Y148.934 E0.60293
G1 X142.983 Y148.553 E0.01689
G1 X129.005 Y134.574 E0.61982
G1 X129.383 Y134.191 E0.01689
G1 X143.219 Y148.027 E0.61352
G1 X143.219 Y147.265 E0.02389
G1 X129.005 Y133.051 E0.63027
G1 X129.005 Y132.289 E0.02389
G1 X143.219 Y146.503 E0.63027
M73 P5 R38
G1 X143.219 Y145.988 E0.01615
G1 X142.752 Y145.521 E0.02070
G1 X142.876 Y145.398 E0.00547
G1 X129.005 Y131.527 E0.61504
G1 X129.005 Y131.306 E0.00695
G1 X129.275 Y131.036 E0.01198
G1 X143.219 Y144.979 E0.61829
G1 X143.219 Y144.218 E0.02389
G1 X129.005 Y130.004 E0.63027
G1 X129.005 Y129.242 E0.02389
G1 X143.219 Y143.456 E0.63027
G1 X143.219 Y142.725 E0.02291
G1 X142.752 Y142.258 E0.02070
G1 X142.768 Y142.243 E0.00069
G1 X129.005 Y128.480 E0.61026
G1 X129.005 Y128.043 E0.01370
G1 X129.168 Y127.881 E0.00720
G1 X143.149 Y141.862 E0.61995
G1 X143.219 Y141.792 E0.00312
G1 X143.219 Y141.170 E0.01948
G1 X129.005 Y126.956 E0.63027
G1 X129.005 Y126.195 E0.02389
G1 X143.219 Y140.408 E0.63027
G1 X143.219 Y139.647 E0.02389
G1 X129.005 Y125.433 E0.63027
G1 X129.005 Y124.780 E0.02046
G1 X129.060 Y124.726 E0.00243
G1 X143.041 Y138.707 E0.61995
G1 X143.219 Y138.529 E0.00789
G1 X143.219 Y138.123 E0.01272
G1 X129.441 Y124.345 E0.61096
G1 X129.472 Y124.313 E0.00138
G1 X129.005 Y123.847 E0.02070
G1 X129.005 Y123.147 E0.02193
G1 X143.219 Y137.361 E0.63027
G1 X143.219 Y136.599 E0.02389
G1 X129.005 Y122.385 E0.63027
G1 X129.005 Y121.624 E0.02389
G1 X142.933 Y135.552 E0.61760
G1 X143.219 Y135.266 E0.01267
G1 X143.219 Y135.076 E0.00597
G1 X129.333 Y121.190 E0.61573
G1 X129.472 Y121.051 E0.00616
G1 X129.005 Y120.584 E0.02070
G1 X129.005 Y120.100 E0.01518
G1 X143.219 Y134.314 E0.63027
G1 X143.219 Y133.552 E0.02389
G1 X129.005 Y119.338 E0.63027
G1 X129.005 Y118.576 E0.02389
G1 X142.826 Y132.397 E0.61283
G1 X143.207 Y132.016 E0.01689
G1 X129.225 Y118.035 E0.61995
G1 X129.472 Y117.788 E0.01094
G1 X129.005 Y117.321 E0.02070
G1 X129.005 Y117.053 E0.00842
G1 X143.219 Y131.267 E0.63027
G1 X143.219 Y130.505 E0.02389
G1 X129.005 Y116.291 E0.63027
G1 X129.005 Y115.529 E0.02389
G1 X143.219 Y129.743 E0.63027
G1 X143.219 Y129.674 E0.00215
G1 X142.752 Y129.208 E0.02070
G1 X143.099 Y128.861 E0.01537
G1 X129.118 Y114.880 E0.61995
G1 X129.472 Y114.525 E0.01571
G1 X127.374 Y112.427 E0.09304
G1 X127.374 Y112.374 E0.00167
G1 X143.219 Y128.219 E0.70261
G1 X143.219 Y127.458 E0.02389
G1 X127.374 Y111.612 E0.70261
G1 X127.374 Y110.850 E0.02389
G1 X143.219 Y126.696 E0.70261
G1 X143.219 Y126.412 E0.00891
G1 X142.752 Y125.945 E0.02070
G1 X142.991 Y125.706 E0.01059
G1 X127.379 Y110.093 E0.69229
G1 X127.759 Y109.712 E0.01689
G1 X143.219 Y125.172 E0.68551
G1 X143.219 Y124.410 E0.02389
G1 X127.374 Y108.565 E0.70261
G1 X127.374 Y107.803 E0.02389
G1 X143.219 Y123.649 E0.70261
G1 X143.219 Y123.149 E0.01566
G1 X142.752 Y122.682 E0.02070
G1 X142.883 Y122.551 E0.00581
G1 X127.374 Y107.041 E0.68772
G1 X127.374 Y106.835 E0.00646
G1 X127.652 Y106.558 E0.01232
G1 X143.219 Y122.125 E0.69028
G1 X143.219 Y121.363 E0.02389
G1 X128.033 Y106.177 E0.67339
G1 X128.414 Y105.796 E0.01689
G1 X143.219 Y120.601 E0.65650
G1 X143.219 Y119.886 E0.02242
G1 X142.752 Y119.419 E0.02070
G1 X142.776 Y119.396 E0.00104
G1 X128.794 Y105.415 E0.61995
G1 X129.175 Y105.034 E0.01689
G1 X143.157 Y119.015 E0.61995
G1 X143.219 Y118.953 E0.00277
G1 X143.219 Y118.316 E0.01997
G1 X129.556 Y104.653 E0.60583
G1 X129.937 Y104.272 E0.01689
G1 X143.219 Y117.554 E0.58894
G1 X143.219 Y116.792 E0.02389
G1 X130.318 Y103.891 E0.57205
G1 X130.699 Y103.510 E0.01689
G1 X143.049 Y115.860 E0.54762
G1 X143.219 Y115.690 E0.00755
G1 X143.219 Y115.269 E0.01321
G1 X131.080 Y103.129 E0.53827
G1 X131.461 Y102.748 E0.01689
G1 X143.219 Y114.507 E0.52138
G1 X143.219 Y113.745 E0.02389
G1 X131.842 Y102.368 E0.50449
G1 X132.223 Y101.987 E0.01689
G1 X142.941 Y112.705 E0.47528
G1 X143.322 Y112.324 E0.01689
G1 X132.707 Y101.709 E0.47071
G1 X133.468 Y101.709 E0.02389
G1 X143.703 Y111.943 E0.45382
G1 X144.084 Y111.562 E0.01689
G1 X134.230 Y101.709 E0.43693
G1 X134.830 Y101.709 E0.01880
G1 X135.296 Y102.175 E0.02070
G1 X135.378 Y102.094 E0.00360
G1 X144.465 Y111.182 E0.40294
G1 X144.846 Y110.801 E0.01689
G1 X135.759 Y101.713 E0.40294
G1 X136.516 Y101.709 E0.02374
G1 X144.851 Y110.044 E0.36958
G1 X144.851 Y109.282 E0.02389
G1 X137.277 Y101.709 E0.33580
G1 X138.039 Y101.709 E0.02389
G1 X144.851 Y108.520 E0.30202
G1 X144.851 Y108.467 E0.00167
G1 X144.384 Y108.000 E0.02070
G1 X144.738 Y107.646 E0.01571
G1 X138.914 Y101.821 E0.25827
G1 X139.026 Y101.709 E0.00499
G1 X139.563 Y101.709 E0.01683
G1 X144.851 Y106.996 E0.23446
G1 X144.851 Y106.234 E0.02389
G1 X140.325 Y101.709 E0.20068
G1 X141.086 Y101.709 E0.02389
G1 X145.020 Y105.642 E0.17443
G1 F8640
G1 X142.693 Y103.315 E-0.76000
G1 E-0.04000 F2100.00000
G1 Z0.800 F10800.000
G1 X156.178 Y105.642
G1 Z0.200
G1 E0.80000 F2100.00000
G1 F1200
G1 X152.245 Y101.709 E0.17443
G1 X151.483 Y101.709 E0.02389
G1 X156.009 Y106.234 E0.20068
G1 X156.009 Y106.996 E0.02389
G1 X150.721 Y101.709 E0.23446
G1 X150.184 Y101.709 E0.01683
G1 X150.072 Y101.821 E0.00499
G1 X155.896 Y107.646 E0.25827
G1 X155.542 Y108.000 E0.01571
G1 X156.009 Y108.467 E0.02070
G1 X156.009 Y108.520 E0.00167
G1 X149.197 Y101.709 E0.30202
G1 X148.436 Y101.709 E0.02389
G1 X156.009 Y109.282 E0.33580
G1 X156.009 Y110.044 E0.02389
G1 X147.674 Y101.709 E0.36958
G1 X146.917 Y101.713 E0.02374
G1 X156.004 Y110.801 E0.40294
G1 X155.623 Y111.182 E0.01689
G1 X146.536 Y102.094 E0.40294
G1 X146.455 Y102.175 E0.00360
G1 X145.988 Y101.709 E0.02070
G1 X145.388 Y101.709 E0.01880
G1 X155.242 Y111.562 E0.43693
G1 X154.861 Y111.943 E0.01689
G1 X144.627 Y101.709 E0.45382
G1 X143.865 Y101.709 E0.02389
G1 X154.480 Y112.324 E0.47071
M73 P7 R37
