; generated by PrusaSlicer 2.1.1+win64 on 2020-04-20 at 19:59:21 UTC

; 

; external perimeters extrusion width = 0.45mm
; perimeters extrusion width = 0.45mm
; infill extrusion width = 0.45mm
; solid infill extrusion width = 0.45mm
; top infill extrusion width = 0.40mm
; first layer extrusion width = 0.42mm

M73 P0 R46
M201 X9000 Y9000 Z500 E10000 ; sets maximum accelerations, mm/sec^2
M203 X500 Y500 Z12 E120 ; sets maximum feedrates, mm/sec
M204 P2000 R1500 T2000 ; sets acceleration (P, T) and retract acceleration (R), mm/sec^2
M205 X10.00 Y10.00 Z0.20 E2.50 ; sets the jerk limits, mm/sec
M205 S0 T0 ; sets the minimum extruding and travel feed rate, mm/sec
M107
M862.3 P "MK2.5SMMU2S" ; printer model check
M862.1 P0.4 ; nozzle diameter check
M115 U3.8.0 ; tell printer latest fw version
G90 ; use absolute coordinates
M83 ; extruder relative mode
M104 S215 ; set extruder temp
M140 S60 ; set bed temp
Tx
M190 S60 ; wait for bed temp
M109 S215 ; wait for extruder temp
G28 W ; home all without mesh bed level
G80 ; mesh bed leveling

G21 ; set units to millimeters

;go outside print area
G1 Y-3.0 F1000.0
G1 Z0.4 F1000.0
; select extruder
Tc
; purge line
G1 X55.0 F2000.0
G1 Z0.3 F1000.0
G92 E0.0
G1 X240.0 E25.0 F2200.0
M73 P0 R45
G1 Y-2.0 F1000.0
G1 X55.0 E25 F1400.0
G1 Z0.20 F1000.0
G1 X5.0 E4.0 F1000.0
G92 E0.0
G21 ; set units to millimeters
G90 ; use absolute coordinates
M83 ; use relative distances for extrusion
M900 K30 ; Filament gcode
;BEFORE_LAYER_CHANGE
G92 E0.0
;0.2


G1 E-0.80000 F2100.00000
G1 Z0.600 F10800.000
;AFTER_LAYER_CHANGE
;0.2
G1 X93.920 Y65.246
G1 Z0.200
G1 E0.80000 F2100.00000
M204 S1000
G1 F1200
G1 X94.227 Y64.642 E0.02123
G1 X94.569 Y64.269 E0.01589
G1 X94.989 Y63.984 E0.01589
G1 X95.466 Y63.803 E0.01601
G1 X95.969 Y63.737 E0.01589
G1 X154.004 Y63.737 E1.81965
G1 X154.830 Y63.900 E0.02642
G1 X155.531 Y64.361 E0.02631
G1 X156.008 Y65.056 E0.02642
G1 X156.188 Y65.879 E0.02642
G1 X156.189 Y144.086 E2.45212
G1 X156.080 Y144.754 E0.02123
G1 X155.773 Y145.358 E0.02123
G1 X155.425 Y145.736 E0.01612
G1 X155.001 Y146.021 E0.01601
G1 X154.523 Y146.200 E0.01601
G1 X154.017 Y146.263 E0.01601
G1 X95.985 Y146.263 E1.81954
G1 X95.321 Y146.155 E0.02112
G1 X94.717 Y145.848 E0.02123
G1 X94.339 Y145.500 E0.01612
G1 X94.054 Y145.076 E0.01601
G1 X93.874 Y144.595 E0.01612
G1 X93.811 Y144.088 E0.01601
G1 X93.811 Y65.914 E2.45109
G1 X93.910 Y65.305 E0.01935
G1 E-0.80000 F2100.00000
G1 Z0.800 F10800.000
G1 X119.538 Y137.816
G1 Z0.200
G1 E0.80000 F2100.00000
G1 F1200
G1 X125.132 Y117.049 E0.67435
G1 X140.320 Y132.277 E0.67434
G1 X119.596 Y137.801 E0.67247
G1 X120.072 Y137.283 F10800.000
G1 F1200
G1 X125.326 Y117.778 E0.63339
G1 X139.592 Y132.081 E0.63339
G1 X120.130 Y137.268 E0.63152
G1 X119.685 Y137.386 F10800.000
G1 E-0.80000 F2100.00000
G1 Z0.800 F10800.000
G1 X134.248 Y108.911
G1 Z0.200
G1 E0.80000 F2100.00000
G1 F1200
G1 X133.694 Y108.857 E0.01746
G1 X133.161 Y108.695 E0.01746
G1 X132.670 Y108.433 E0.01746
G1 X132.240 Y108.079 E0.01746
G1 X131.887 Y107.649 E0.01746
G1 X131.624 Y107.158 E0.01746
G1 X131.463 Y106.625 E0.01746
G1 X131.408 Y106.071 E0.01746
G1 X131.463 Y105.517 E0.01746
G1 X131.624 Y104.984 E0.01746
G1 X131.887 Y104.493 E0.01746
G1 X132.240 Y104.063 E0.01746
G1 X132.670 Y103.710 E0.01746
G1 X133.164 Y103.446 E0.01756
G1 X133.723 Y103.283 E0.01825
G1 X134.248 Y103.231 E0.01655
G1 X134.802 Y103.286 E0.01746
G1 X135.335 Y103.447 E0.01746
G1 X135.826 Y103.710 E0.01746
G1 X136.256 Y104.063 E0.01746
G1 X136.609 Y104.493 E0.01746
G1 X136.872 Y104.984 E0.01746
G1 X137.033 Y105.517 E0.01746
G1 X137.088 Y106.071 E0.01746
G1 X137.033 Y106.625 E0.01746
G1 X136.872 Y107.158 E0.01746
G1 X136.609 Y107.649 E0.01746
G1 X136.256 Y108.079 E0.01746
G1 X135.826 Y108.433 E0.01746
G1 X135.335 Y108.695 E0.01746
G1 X134.802 Y108.857 E0.01746
G1 X134.308 Y108.905 E0.01557
G1 X134.248 Y108.532 F10800.000
G1 F1200
G1 X133.768 Y108.485 E0.01513
G1 X133.306 Y108.345 E0.01513
G1 X132.881 Y108.117 E0.01513
G1 X132.508 Y107.811 E0.01513
G1 X132.202 Y107.438 E0.01513
G1 X131.974 Y107.013 E0.01513
G1 X131.834 Y106.551 E0.01513
G1 X131.787 Y106.071 E0.01513
G1 X131.834 Y105.591 E0.01513
G1 X131.974 Y105.129 E0.01513
G1 X132.202 Y104.704 E0.01513
G1 X132.508 Y104.331 E0.01513
G1 X132.881 Y104.025 E0.01513
G1 X133.307 Y103.797 E0.01516
G1 X133.795 Y103.655 E0.01592
G1 X134.248 Y103.610 E0.01429
G1 X134.728 Y103.657 E0.01513
G1 X135.190 Y103.798 E0.01513
G1 X135.615 Y104.025 E0.01513
G1 X135.988 Y104.331 E0.01513
G1 X136.294 Y104.704 E0.01513
G1 X136.522 Y105.129 E0.01513
G1 X136.662 Y105.591 E0.01513
G1 X136.709 Y106.071 E0.01513
G1 X136.662 Y106.551 E0.01513
G1 X136.522 Y107.013 E0.01513
G1 X136.294 Y107.438 E0.01513
G1 X135.988 Y107.811 E0.01513
G1 X135.615 Y108.117 E0.01513
G1 X135.190 Y108.345 E0.01513
G1 X134.728 Y108.485 E0.01513
G1 X134.308 Y108.526 E0.01325
G1 X134.048 Y108.879 F10800.000
G1 E-0.80000 F2100.00000
G1 Z0.800 F10800.000
G1 X102.313 Y97.118
G1 Z0.200
G1 E0.80000 F2100.00000
G1 F1200
G1 X101.759 Y97.173 E0.01746
G1 X101.205 Y97.118 E0.01746
G1 X100.672 Y96.956 E0.01746
G1 X100.181 Y96.694 E0.01746
G1 X99.751 Y96.341 E0.01746
G1 X99.397 Y95.910 E0.01746
G1 X99.135 Y95.419 E0.01746
G1 X98.973 Y94.887 E0.01746
G1 X98.919 Y94.333 E0.01746
G1 X98.973 Y93.779 E0.01746
G1 X99.135 Y93.246 E0.01746
G1 X99.397 Y92.755 E0.01746
G1 X99.751 Y92.325 E0.01746
G1 X100.181 Y91.971 E0.01746
G1 X100.675 Y91.707 E0.01756
G1 X101.233 Y91.544 E0.01825
G1 X101.759 Y91.493 E0.01655
G1 X102.313 Y91.547 E0.01746
G1 X102.845 Y91.709 E0.01746
G1 X103.336 Y91.971 E0.01746
G1 X103.767 Y92.325 E0.01746
G1 X104.120 Y92.755 E0.01746
G1 X104.382 Y93.246 E0.01746
G1 X104.544 Y93.779 E0.01746
G1 X104.599 Y94.333 E0.01746
G1 X104.544 Y94.887 E0.01746
G1 X104.382 Y95.419 E0.01746
G1 X104.120 Y95.910 E0.01746
G1 X103.767 Y96.341 E0.01746
G1 X103.336 Y96.694 E0.01746
G1 X102.845 Y96.956 E0.01746
G1 X102.370 Y97.101 E0.01557
G1 X102.239 Y96.746 F10800.000
G1 F1200
G1 X101.759 Y96.794 E0.01513
G1 X101.279 Y96.746 E0.01513
G1 X100.817 Y96.606 E0.01513
G1 X100.391 Y96.379 E0.01513
G1 X100.018 Y96.073 E0.01513
G1 X99.712 Y95.700 E0.01513
G1 X99.485 Y95.274 E0.01513
G1 X99.345 Y94.813 E0.01513
G1 X99.298 Y94.333 E0.01513
G1 X99.345 Y93.853 E0.01513
G1 X99.485 Y93.391 E0.01513
G1 X99.712 Y92.965 E0.01513
G1 X100.018 Y92.592 E0.01513
G1 X100.391 Y92.286 E0.01513
G1 X100.818 Y92.058 E0.01516
G1 X101.305 Y91.916 E0.01592
G1 X101.759 Y91.872 E0.01429
G1 X102.239 Y91.919 E0.01513
G1 X102.700 Y92.059 E0.01513
G1 X103.126 Y92.286 E0.01513
G1 X103.499 Y92.592 E0.01513
G1 X103.805 Y92.965 E0.01513
G1 X104.032 Y93.391 E0.01513
G1 X104.172 Y93.853 E0.01513
G1 X104.220 Y94.333 E0.01513
G1 X104.172 Y94.813 E0.01513
G1 X104.032 Y95.274 E0.01513
G1 X103.805 Y95.700 E0.01513
G1 X103.499 Y96.073 E0.01513
G1 X103.126 Y96.379 E0.01513
G1 X102.700 Y96.606 E0.01513
G1 X102.296 Y96.729 E0.01325
G1 X102.110 Y97.125 F10800.000
G1 E-0.80000 F2100.00000
G1 Z0.800 F10800.000
G1 X102.313 Y132.113
G1 Z0.200
G1 E0.80000 F2100.00000
G1 F1200
G1 X101.759 Y132.168 E0.01746
G1 X101.205 Y132.113 E0.01746
G1 X100.672 Y131.952 E0.01746
G1 X100.181 Y131.689 E0.01746
G1 X99.751 Y131.336 E0.01746
G1 X99.397 Y130.906 E0.01746
G1 X99.135 Y130.415 E0.01746
G1 X98.973 Y129.882 E0.01746
G1 X98.919 Y129.328 E0.01746
G1 X98.973 Y128.774 E0.01746
G1 X99.135 Y128.241 E0.01746
G1 X99.397 Y127.750 E0.01746
G1 X99.751 Y127.320 E0.01746
G1 X100.181 Y126.967 E0.01746
G1 X100.675 Y126.703 E0.01756
G1 X101.233 Y126.540 E0.01825
G1 X101.759 Y126.488 E0.01655
G1 X102.313 Y126.542 E0.01746
G1 X102.845 Y126.704 E0.01746
G1 X103.336 Y126.967 E0.01746
G1 X103.767 Y127.320 E0.01746
G1 X104.120 Y127.750 E0.01746
G1 X104.382 Y128.241 E0.01746
G1 X104.544 Y128.774 E0.01746
G1 X104.599 Y129.328 E0.01746
G1 X104.544 Y129.882 E0.01746
G1 X104.382 Y130.415 E0.01746
G1 X104.120 Y130.906 E0.01746
G1 X103.767 Y131.336 E0.01746
G1 X103.336 Y131.689 E0.01746
G1 X102.845 Y131.952 E0.01746
G1 X102.370 Y132.096 E0.01557
G1 X102.239 Y131.742 F10800.000
G1 F1200
G1 X101.759 Y131.789 E0.01513
G1 X101.279 Y131.742 E0.01513
G1 X100.817 Y131.602 E0.01513
G1 X100.391 Y131.374 E0.01513
G1 X100.018 Y131.068 E0.01513
G1 X99.712 Y130.695 E0.01513
G1 X99.485 Y130.270 E0.01513
G1 X99.345 Y129.808 E0.01513
G1 X99.298 Y129.328 E0.01513
G1 X99.345 Y128.848 E0.01513
G1 X99.485 Y128.386 E0.01513
G1 X99.712 Y127.961 E0.01513
G1 X100.018 Y127.588 E0.01513
G1 X100.391 Y127.282 E0.01513
G1 X100.818 Y127.054 E0.01516
G1 X101.305 Y126.911 E0.01592
G1 X101.759 Y126.867 E0.01429
G1 X102.239 Y126.914 E0.01513
G1 X102.700 Y127.054 E0.01513
G1 X103.126 Y127.282 E0.01513
G1 X103.499 Y127.588 E0.01513
G1 X103.805 Y127.961 E0.01513
G1 X104.032 Y128.386 E0.01513
G1 X104.172 Y128.848 E0.01513
G1 X104.220 Y129.328 E0.01513
G1 X104.172 Y129.808 E0.01513
G1 X104.032 Y130.270 E0.01513
G1 X103.805 Y130.695 E0.01513
G1 X103.499 Y131.068 E0.01513
G1 X103.126 Y131.374 E0.01513
G1 X102.700 Y131.602 E0.01513
G1 X102.296 Y131.724 E0.01325
G1 X102.110 Y132.120 F10800.000
G1 E-0.80000 F2100.00000
G1 Z0.800 F10800.000
G1 X125.000 Y143.488
G1 Z0.200
G1 E0.80000 F2100.00000
G1 F1200
G1 X96.587 Y143.488 E0.89087
G1 X96.587 Y66.512 E2.41352
G1 X153.413 Y66.512 E1.78173
G1 X153.413 Y143.488 E2.41352
G1 X125.060 Y143.488 E0.88899
G1 X125.000 Y143.865 F10800.000
G1 F1200
G1 X96.210 Y143.865 E0.90269
G1 X96.210 Y66.135 E2.43717
G1 X153.790 Y66.135 E1.80538
M73 P2 R44
G1 X153.790 Y143.865 E2.43717
G1 X125.060 Y143.865 E0.90081
G1 X124.680 Y143.625 F10800.000
G1 X124.148 Y143.375
G1 F1200
G1 X96.870 Y116.097 E1.21053
G1 X96.870 Y116.630 E0.01675
G1 X123.445 Y143.205 E1.17931
G1 X122.911 Y143.205 E0.01675
G1 X96.870 Y117.164 E1.15563
G1 X96.870 Y117.698 E0.01675
G1 X122.377 Y143.205 E1.13195
G1 X121.844 Y143.205 E0.01675
G1 X96.870 Y118.231 E1.10826
G1 X96.870 Y118.765 E0.01675
G1 X121.310 Y143.205 E1.08458
G1 X120.776 Y143.205 E0.01675
G1 X96.870 Y119.299 E1.06089
G1 X96.870 Y119.832 E0.01675
G1 X120.243 Y143.205 E1.03721
G1 X119.709 Y143.205 E0.01675
G1 X104.649 Y128.145 E0.66832
G1 X104.823 Y128.718 E0.01880
G1 X104.837 Y128.867 E0.00470
G1 X119.175 Y143.205 E0.63627
G1 X118.641 Y143.205 E0.01675
G1 X104.872 Y129.436 E0.61104
G1 X104.824 Y129.922 E0.01532
G1 X118.108 Y143.205 E0.58948
G1 X117.574 Y143.205 E0.01675
G1 X104.702 Y130.334 E0.57120
G1 X104.645 Y130.523 E0.00622
G1 X104.545 Y130.710 E0.00664
G1 X117.040 Y143.205 E0.55450
G1 X116.507 Y143.205 E0.01675
G1 X104.359 Y131.058 E0.53906
G1 X104.120 Y131.352 E0.01190
G1 X115.973 Y143.205 E0.52602
G1 X115.439 Y143.205 E0.01675
G1 X103.860 Y131.626 E0.51387
G1 X103.567 Y131.866 E0.01190
G1 X114.906 Y143.205 E0.50319
G1 X114.372 Y143.205 E0.01675
G1 X103.232 Y132.065 E0.49434
G1 X102.954 Y132.214 E0.00989
G1 X102.872 Y132.239 E0.00269
G1 X113.838 Y143.205 E0.48664
G1 X113.304 Y143.205 E0.01675
G1 X102.463 Y132.363 E0.48113
G1 X102.368 Y132.392 E0.00310
G1 X101.994 Y132.429 E0.01179
G1 X112.771 Y143.205 E0.47823
G1 X112.237 Y143.205 E0.01675
G1 X101.454 Y132.422 E0.47853
G1 X101.149 Y132.392 E0.00961
G1 X100.777 Y132.279 E0.01219
G1 X111.703 Y143.205 E0.48486
G1 X111.170 Y143.205 E0.01675
G1 X96.870 Y128.905 E0.63458
G1 X96.870 Y128.372 E0.01675
G1 X98.807 Y130.309 E0.08598
G1 X98.695 Y129.937 E0.01219
G1 X98.665 Y129.633 E0.00961
G1 X96.870 Y127.838 E0.07964
G1 X96.870 Y127.304 E0.01675
G1 X98.658 Y129.092 E0.07934
G1 X98.695 Y128.718 E0.01179
G1 X98.723 Y128.624 E0.00310
G1 X96.870 Y126.771 E0.08225
G1 X96.870 Y126.237 E0.01675
G1 X98.847 Y128.214 E0.08776
G1 X98.872 Y128.132 E0.00269
G1 X99.021 Y127.854 E0.00989
G1 X96.870 Y125.703 E0.09546
G1 X96.870 Y125.169 E0.01675
G1 X99.220 Y127.520 E0.10431
G1 X99.461 Y127.227 E0.01190
G1 X96.870 Y124.636 E0.11498
G1 X96.870 Y124.102 E0.01675
G1 X99.735 Y126.967 E0.12713
G1 X100.029 Y126.727 E0.01190
G1 X96.870 Y123.568 E0.14018
G1 X96.870 Y123.035 E0.01675
G1 X100.377 Y126.541 E0.15562
G1 X100.567 Y126.439 E0.00679
G1 X100.754 Y126.385 E0.00610
G1 X96.870 Y122.501 E0.17236
G1 X96.870 Y121.967 E0.01675
G1 X101.167 Y126.264 E0.19070
G1 X101.651 Y126.214 E0.01526
G1 X96.870 Y121.434 E0.21216
G1 X96.870 Y120.900 E0.01675
G1 X102.219 Y126.249 E0.23739
G1 X102.368 Y126.264 E0.00470
G1 X102.941 Y126.438 E0.01880
G1 X96.700 Y120.196 E0.27697
G1 E-0.80000 F2100.00000
G1 Z0.800 F10800.000
G1 X97.463 Y143.375
G1 Z0.200
G1 E0.80000 F2100.00000
G1 F1200
G1 X96.870 Y142.781 E0.02633
G1 X96.870 Y142.248 E0.01675
G1 X97.827 Y143.205 E0.04248
G1 X98.361 Y143.205 E0.01675
G1 X96.870 Y141.714 E0.06617
G1 X96.870 Y141.180 E0.01675
G1 X98.895 Y143.205 E0.08985
G1 X99.428 Y143.205 E0.01675
G1 X96.870 Y140.647 E0.11354
G1 X96.870 Y140.113 E0.01675
G1 X99.962 Y143.205 E0.13722
G1 X100.496 Y143.205 E0.01675
G1 X96.870 Y139.579 E0.16090
G1 X96.870 Y139.046 E0.01675
G1 X101.029 Y143.205 E0.18459
G1 X101.563 Y143.205 E0.01675
G1 X96.870 Y138.512 E0.20827
G1 X96.870 Y137.978 E0.01675
G1 X102.097 Y143.205 E0.23196
G1 X102.630 Y143.205 E0.01675
G1 X96.870 Y137.444 E0.25564
G1 X96.870 Y136.911 E0.01675
G1 X103.164 Y143.205 E0.27932
G1 X103.698 Y143.205 E0.01675
G1 X96.870 Y136.377 E0.30301
G1 X96.870 Y135.843 E0.01675
G1 X104.232 Y143.205 E0.32669
G1 X104.765 Y143.205 E0.01675
G1 X96.870 Y135.310 E0.35038
G1 X96.870 Y134.776 E0.01675
G1 X105.299 Y143.205 E0.37406
G1 X105.833 Y143.205 E0.01675
G1 X96.870 Y134.242 E0.39774
G1 X96.870 Y133.709 E0.01675
G1 X106.366 Y143.205 E0.42143
G1 X106.900 Y143.205 E0.01675
G1 X96.870 Y133.175 E0.44511
G1 X96.870 Y132.641 E0.01675
G1 X107.434 Y143.205 E0.46880
G1 X107.967 Y143.205 E0.01675
G1 X96.870 Y132.107 E0.49248
G1 X96.870 Y131.574 E0.01675
G1 X108.501 Y143.205 E0.51616
G1 X109.035 Y143.205 E0.01675
G1 X96.870 Y131.040 E0.53985
G1 X96.870 Y130.506 E0.01675
G1 X109.569 Y143.205 E0.56353
G1 X110.102 Y143.205 E0.01675
G1 X96.870 Y129.973 E0.58722
G1 X96.870 Y129.439 E0.01675
G1 X110.806 Y143.375 E0.61843
G1 E-0.80000 F2100.00000
G1 Z0.800 F10800.000
G1 X153.300 Y130.364
G1 Z0.200
G1 E0.80000 F2100.00000
G1 F1200
G1 X96.870 Y73.934 E2.50420
G1 X96.870 Y74.468 E0.01675
G1 X153.130 Y130.728 E2.49667
M73 P4 R43
G1 X153.130 Y131.262 E0.01675
G1 X96.870 Y75.002 E2.49667
G1 X96.870 Y75.536 E0.01675
G1 X153.130 Y131.796 E2.49667
G1 X153.130 Y132.330 E0.01675
G1 X96.870 Y76.069 E2.49667
G1 X96.870 Y76.603 E0.01675
G1 X153.130 Y132.863 E2.49667
G1 X153.130 Y133.397 E0.01675
G1 X96.870 Y77.137 E2.49667
G1 X96.870 Y77.670 E0.01675
G1 X153.130 Y133.931 E2.49667
G1 X153.130 Y134.464 E0.01675
G1 X96.870 Y78.204 E2.49667
G1 X96.870 Y78.738 E0.01675
G1 X153.130 Y134.998 E2.49667
G1 X153.130 Y135.532 E0.01675
G1 X96.870 Y79.271 E2.49667
G1 X96.870 Y79.805 E0.01675
G1 X153.130 Y136.065 E2.49667
G1 X153.130 Y136.599 E0.01675
G1 X96.870 Y80.339 E2.49667
G1 X96.870 Y80.873 E0.01675
G1 X153.130 Y137.133 E2.49667
G1 X153.130 Y137.667 E0.01675
G1 X96.870 Y81.406 E2.49667
G1 X96.870 Y81.940 E0.01675
G1 X153.130 Y138.200 E2.49667
G1 X153.130 Y138.734 E0.01675
G1 X96.870 Y82.474 E2.49667
M73 P7 R42
G1 X96.870 Y83.007 E0.01675
G1 X153.130 Y139.268 E2.49667
G1 X153.130 Y139.801 E0.01675
G1 X96.870 Y83.541 E2.49667
G1 X96.870 Y84.075 E0.01675
G1 X153.130 Y140.335 E2.49667
G1 X153.130 Y140.869 E0.01675
G1 X96.870 Y84.608 E2.49667
G1 X96.870 Y85.142 E0.01675
G1 X153.130 Y141.402 E2.49667
G1 X153.130 Y141.936 E0.01675
G1 X104.782 Y93.587 E2.14557
G1 X104.823 Y93.723 E0.00445
G1 X104.871 Y94.210 E0.01536
G1 X153.130 Y142.470 E2.14162
G1 X153.130 Y143.003 E0.01675
G1 X104.845 Y94.718 E2.14277
G1 X104.823 Y94.942 E0.00706
G1 X104.756 Y95.163 E0.00724
G1 X152.798 Y143.205 E2.13198
G1 X152.264 Y143.205 E0.01675
G1 X104.625 Y95.566 E2.11410
G1 X104.439 Y95.913 E0.01237
G1 X151.731 Y143.205 E2.09867
G1 X151.197 Y143.205 E0.01675
G1 X140.511 Y132.519 E0.47422
G1 X140.089 Y132.631 E0.01368
G1 X150.663 Y143.205 E0.46923
G1 X150.130 Y143.205 E0.01675
G1 X139.668 Y132.744 E0.46425
G1 X139.247 Y132.856 E0.01368
G1 X149.596 Y143.205 E0.45927
G1 X149.062 Y143.205 E0.01675
G1 X138.825 Y132.968 E0.45428
G1 X138.404 Y133.081 E0.01368
G1 X148.528 Y143.205 E0.44930
G1 X147.995 Y143.205 E0.01675
G1 X137.982 Y133.193 E0.44432
