; generated by PrusaSlicer 2.1.1+win64 on 2020-06-02 at 22:54:05 UTC

; 

; external perimeters extrusion width = 0.45mm
; perimeters extrusion width = 0.45mm
; infill extrusion width = 0.45mm
; solid infill extrusion width = 0.45mm
; top infill extrusion width = 0.40mm
; support material extrusion width = 0.35mm
; first layer extrusion width = 0.42mm

M73 P0 R64
M201 X9000 Y9000 Z500 E10000 ; sets maximum accelerations, mm/sec^2
M203 X500 Y500 Z12 E120 ; sets maximum feedrates, mm/sec
M204 P2000 R1500 T2000 ; sets acceleration (P, T) and retract acceleration (R), mm/sec^2
M205 X10.00 Y10.00 Z0.20 E2.50 ; sets the jerk limits, mm/sec
M205 S0 T0 ; sets the minimum extruding and travel feed rate, mm/sec
M107
M862.3 P "MK2.5SMMU2S" ; printer model check
M862.1 P0.4 ; nozzle diameter check
M115 U3.8.0 ; tell printer latest fw version
G90 ; use absolute coordinates
M83 ; extruder relative mode
M104 S215 ; set extruder temp
M140 S60 ; set bed temp
Tx
M190 S60 ; wait for bed temp
M109 S215 ; wait for extruder temp
G28 W ; home all without mesh bed level
G80 ; mesh bed leveling

G21 ; set units to millimeters

;go outside print area
G1 Y-3.0 F1000.0
G1 Z0.4 F1000.0
; select extruder
Tc
; purge line
G1 X55.0 F2000.0
G1 Z0.3 F1000.0
G92 E0.0
G1 X240.0 E25.0 F2200.0
M73 P0 R64
G1 Y-2.0 F1000.0
G1 X55.0 E25 F1400.0
G1 Z0.20 F1000.0
G1 X5.0 E4.0 F1000.0
G92 E0.0
G21 ; set units to millimeters
G90 ; use absolute coordinates
M83 ; use relative distances for extrusion
M900 K30 ; Filament gcode
;BEFORE_LAYER_CHANGE
G92 E0.0
;0.2


G1 E-0.80000 F2100.00000
G1 Z0.600 F10800.000
;AFTER_LAYER_CHANGE
;0.2
G1 X65.263 Y114.330
G1 Z0.200
G1 E0.80000 F2100.00000
M204 S1000
G1 F1200
G1 X69.497 Y110.037 E0.18906
G1 X122.241 Y74.423 E1.99546
G1 X122.949 Y74.127 E0.02405
G1 X126.169 Y73.549 E0.10255
G1 X126.806 Y73.645 E0.02021
G1 X127.384 Y73.921 E0.02010
G1 X181.349 Y110.553 E2.04501
G1 X182.120 Y111.188 E0.03132
G1 X182.899 Y111.929 E0.03372
G1 X184.062 Y113.423 E0.05937
G1 X184.881 Y114.959 E0.05459
G1 X185.465 Y116.725 E0.05831
G1 X185.726 Y118.375 E0.05237
G1 X185.713 Y119.863 E0.04668
G1 X185.409 Y121.940 E0.06581
G1 X184.978 Y123.177 E0.04108
G1 X184.630 Y123.733 E0.02055
G1 X179.311 Y129.060 E0.23605
G1 X178.908 Y129.374 E0.01601
G1 X178.055 Y129.673 E0.02833
G1 X175.559 Y129.939 E0.07871
G1 X174.343 Y129.969 E0.03813
G1 X75.031 Y129.968 E3.11387
G1 X73.148 Y129.814 E0.05925
G1 X71.569 Y129.415 E0.05107
G1 X70.667 Y129.035 E0.03067
G1 X69.721 Y128.584 E0.03287
G1 X68.284 Y127.602 E0.05458
G1 X66.872 Y126.236 E0.06160
G1 X66.211 Y125.386 E0.03373
G1 X65.317 Y123.873 E0.05511
G1 X64.605 Y121.988 E0.06318
G1 X64.277 Y120.099 E0.06013
G1 X64.342 Y117.904 E0.06885
G1 X64.542 Y116.692 E0.03851
G1 X64.973 Y114.986 E0.05517
G1 X65.239 Y114.385 E0.02059
G1 E-0.80000 F2100.00000
G1 Z0.800 F10800.000
G1 X67.093 Y115.531
G1 Z0.200
G1 E0.80000 F2100.00000
G1 F1200
G1 X70.952 Y111.672 E0.17110
G1 X73.323 Y110.368 E0.08485
G1 X72.186 Y111.504 E0.05038
G1 X71.060 Y112.125 E0.04031
G1 X69.957 Y112.860 E0.04157
G1 X68.982 Y113.774 E0.04191
G1 X68.193 Y114.800 E0.04056
G1 X67.561 Y115.977 E0.04191
G1 X67.477 Y116.214 E0.00787
G1 X66.755 Y116.936 E0.03201
G1 X66.681 Y117.154 E0.00721
G1 X66.503 Y118.254 E0.03496
G1 X67.050 Y117.707 E0.02428
G1 X66.912 Y118.561 E0.02715
G1 X66.910 Y118.914 E0.01106
G1 X66.459 Y119.365 E0.02000
G1 X66.461 Y119.959 E0.01863
G1 X66.530 Y120.361 E0.01277
G1 X66.922 Y119.968 E0.01740
G1 X67.078 Y120.879 E0.02898
G1 X66.685 Y121.272 E0.01740
G1 X66.699 Y121.351 E0.00252
G1 X66.949 Y122.074 E0.02399
G1 X67.305 Y121.718 E0.01578
G1 X67.582 Y122.508 E0.02624
G1 X67.247 Y122.843 E0.01484
G1 X67.623 Y123.533 E0.02465
G1 X67.957 Y123.199 E0.01480
G1 X68.206 Y123.656 E0.01631
G1 X68.362 Y123.861 E0.00807
G1 X68.039 Y124.184 E0.01431
G1 X68.507 Y124.782 E0.02382
G1 X68.830 Y124.459 E0.01431
G1 X69.056 Y124.743 E0.01137
G1 X69.347 Y125.009 E0.01235
G1 X69.026 Y125.330 E0.01421
G1 X69.583 Y125.840 E0.02367
G1 X69.903 Y125.519 E0.01421
G1 X70.044 Y125.644 E0.00589
G1 X70.529 Y125.960 E0.01816
G1 X70.202 Y126.287 E0.01451
G1 X70.848 Y126.708 E0.02417
G1 X71.180 Y126.376 E0.01471
G1 X71.922 Y126.701 E0.02539
G1 X71.578 Y127.044 E0.01525
G1 X72.224 Y127.327 E0.02212
G1 X72.334 Y127.355 E0.00355
G1 X72.707 Y126.982 E0.01654
G1 X73.558 Y127.197 E0.02754
G1 X73.186 Y127.569 E0.01649
G1 X73.606 Y127.674 E0.01357
G1 X74.107 Y127.715 E0.01574
G1 X74.526 Y127.295 E0.01861
G1 X74.989 Y127.333 E0.01456
G1 X75.556 Y127.333 E0.01776
G1 X75.108 Y127.781 E0.01986
G1 X76.174 Y127.781 E0.03344
G1 X76.622 Y127.333 E0.01986
G1 X77.689 Y127.333 E0.03344
G1 X77.241 Y127.781 E0.01986
G1 X78.307 Y127.781 E0.03344
G1 X78.755 Y127.333 E0.01986
G1 X79.822 Y127.333 E0.03344
G1 X79.374 Y127.781 E0.01986
G1 X80.440 Y127.781 E0.03344
G1 X80.888 Y127.333 E0.01986
G1 X81.955 Y127.333 E0.03344
G1 X81.507 Y127.781 E0.01986
G1 X82.574 Y127.781 E0.03344
G1 X83.021 Y127.333 E0.01986
G1 X84.088 Y127.333 E0.03344
G1 X83.640 Y127.781 E0.01986
G1 X84.707 Y127.781 E0.03344
G1 X85.154 Y127.333 E0.01986
G1 X86.221 Y127.333 E0.03344
G1 X85.773 Y127.781 E0.01986
G1 X86.840 Y127.781 E0.03344
G1 X87.287 Y127.333 E0.01986
G1 X88.354 Y127.333 E0.03344
G1 X87.906 Y127.781 E0.01986
G1 X88.973 Y127.781 E0.03344
G1 X89.421 Y127.333 E0.01986
G1 X90.487 Y127.333 E0.03344
G1 X90.039 Y127.781 E0.01986
G1 X91.106 Y127.781 E0.03344
G1 X91.554 Y127.333 E0.01986
G1 X92.620 Y127.333 E0.03344
G1 X92.172 Y127.781 E0.01986
G1 X93.239 Y127.781 E0.03344
G1 X93.687 Y127.333 E0.01986
G1 X94.753 Y127.333 E0.03344
G1 X94.305 Y127.781 E0.01986
G1 X95.372 Y127.781 E0.03344
G1 X95.820 Y127.333 E0.01986
G1 X96.886 Y127.333 E0.03344
G1 X96.439 Y127.781 E0.01986
G1 X97.505 Y127.781 E0.03344
G1 X97.953 Y127.333 E0.01986
G1 X99.019 Y127.333 E0.03344
G1 X98.572 Y127.781 E0.01986
G1 X99.638 Y127.781 E0.03344
G1 X100.086 Y127.333 E0.01986
G1 X101.153 Y127.333 E0.03344
G1 X100.705 Y127.781 E0.01986
G1 X101.771 Y127.781 E0.03344
G1 X102.219 Y127.333 E0.01986
G1 X103.286 Y127.333 E0.03344
G1 X102.838 Y127.781 E0.01986
G1 X103.904 Y127.781 E0.03344
G1 X104.352 Y127.333 E0.01986
G1 X105.419 Y127.333 E0.03344
G1 X104.971 Y127.781 E0.01986
G1 X106.037 Y127.781 E0.03344
G1 X106.485 Y127.333 E0.01986
G1 X107.552 Y127.333 E0.03344
G1 X107.104 Y127.781 E0.01986
G1 X108.171 Y127.781 E0.03344
G1 X108.618 Y127.333 E0.01986
G1 X109.685 Y127.333 E0.03344
G1 X109.237 Y127.781 E0.01986
G1 X110.304 Y127.781 E0.03344
G1 X110.751 Y127.333 E0.01986
G1 X111.818 Y127.333 E0.03344
G1 X111.370 Y127.781 E0.01986
G1 X112.437 Y127.781 E0.03344
G1 X112.885 Y127.333 E0.01986
G1 X113.951 Y127.333 E0.03344
G1 X113.503 Y127.781 E0.01986
G1 X114.570 Y127.781 E0.03344
G1 X115.018 Y127.333 E0.01986
G1 X116.084 Y127.333 E0.03344
G1 X115.636 Y127.781 E0.01986
G1 X116.703 Y127.781 E0.03344
G1 X117.151 Y127.333 E0.01986
G1 X118.217 Y127.333 E0.03344
G1 X117.769 Y127.781 E0.01986
G1 X118.836 Y127.781 E0.03344
G1 X119.284 Y127.333 E0.01986
G1 X120.350 Y127.333 E0.03344
G1 X119.902 Y127.781 E0.01986
G1 X120.969 Y127.781 E0.03344
G1 X121.417 Y127.333 E0.01986
G1 X122.483 Y127.333 E0.03344
G1 X122.036 Y127.781 E0.01986
G1 X123.102 Y127.781 E0.03344
G1 X123.550 Y127.333 E0.01986
G1 X124.616 Y127.333 E0.03344
G1 X124.169 Y127.781 E0.01986
G1 X125.235 Y127.781 E0.03344
G1 X125.683 Y127.333 E0.01986
G1 X126.750 Y127.333 E0.03344
G1 X126.302 Y127.781 E0.01986
G1 X127.368 Y127.781 E0.03344
G1 X127.816 Y127.333 E0.01986
G1 X128.883 Y127.333 E0.03344
G1 X128.435 Y127.781 E0.01986
G1 X129.501 Y127.781 E0.03344
G1 X129.949 Y127.333 E0.01986
G1 X131.016 Y127.333 E0.03344
G1 X130.568 Y127.781 E0.01986
G1 X131.634 Y127.781 E0.03344
G1 X132.082 Y127.333 E0.01986
G1 X133.149 Y127.333 E0.03344
G1 X132.701 Y127.781 E0.01986
G1 X133.768 Y127.781 E0.03344
G1 X134.215 Y127.333 E0.01986
G1 X135.282 Y127.333 E0.03344
G1 X134.834 Y127.781 E0.01986
G1 X135.901 Y127.781 E0.03344
G1 X136.348 Y127.333 E0.01986
G1 X137.415 Y127.333 E0.03344
G1 X136.967 Y127.781 E0.01986
G1 X138.034 Y127.781 E0.03344
G1 X138.482 Y127.333 E0.01986
G1 X139.548 Y127.333 E0.03344
G1 X139.100 Y127.781 E0.01986
G1 X140.167 Y127.781 E0.03344
G1 X140.615 Y127.333 E0.01986
G1 X141.681 Y127.333 E0.03344
G1 X141.233 Y127.781 E0.01986
G1 X142.300 Y127.781 E0.03344
G1 X142.748 Y127.333 E0.01986
G1 X143.814 Y127.333 E0.03344
G1 X143.366 Y127.781 E0.01986
G1 X144.433 Y127.781 E0.03344
G1 X144.881 Y127.333 E0.01986
G1 X145.947 Y127.333 E0.03344
G1 X145.499 Y127.781 E0.01986
G1 X146.566 Y127.781 E0.03344
G1 X147.014 Y127.333 E0.01986
G1 X148.080 Y127.333 E0.03344
G1 X147.633 Y127.781 E0.01986
G1 X148.699 Y127.781 E0.03344
G1 X149.147 Y127.333 E0.01986
G1 X150.213 Y127.333 E0.03344
G1 X149.766 Y127.781 E0.01986
G1 X150.832 Y127.781 E0.03344
G1 X151.280 Y127.333 E0.01986
G1 X152.347 Y127.333 E0.03344
G1 X151.899 Y127.781 E0.01986
G1 X152.965 Y127.781 E0.03344
G1 X153.413 Y127.333 E0.01986
G1 X154.480 Y127.333 E0.03344
G1 X154.032 Y127.781 E0.01986
G1 X155.098 Y127.781 E0.03344
G1 X155.546 Y127.333 E0.01986
G1 X156.613 Y127.333 E0.03344
G1 X156.165 Y127.781 E0.01986
G1 X157.231 Y127.781 E0.03344
G1 X157.679 Y127.333 E0.01986
G1 X158.746 Y127.333 E0.03344
G1 X158.298 Y127.781 E0.01986
G1 X159.365 Y127.781 E0.03344
G1 X159.812 Y127.333 E0.01986
G1 X160.879 Y127.333 E0.03344
G1 X160.431 Y127.781 E0.01986
G1 X161.498 Y127.781 E0.03344
G1 X161.945 Y127.333 E0.01986
G1 X163.012 Y127.333 E0.03344
G1 X162.564 Y127.781 E0.01986
G1 X163.631 Y127.781 E0.03344
G1 X164.079 Y127.333 E0.01986
G1 X165.145 Y127.333 E0.03344
G1 X164.697 Y127.781 E0.01986
G1 X165.764 Y127.781 E0.03344
G1 X166.212 Y127.333 E0.01986
G1 X167.278 Y127.333 E0.03344
G1 X166.830 Y127.781 E0.01986
G1 X167.897 Y127.781 E0.03344
G1 X168.345 Y127.333 E0.01986
G1 X169.411 Y127.333 E0.03344
G1 X168.963 Y127.781 E0.01986
G1 X170.030 Y127.781 E0.03344
G1 X170.478 Y127.333 E0.01986
G1 X171.544 Y127.333 E0.03344
G1 X171.096 Y127.781 E0.01986
G1 X172.163 Y127.781 E0.03344
G1 X172.611 Y127.333 E0.01986
G1 X173.677 Y127.333 E0.03344
G1 X173.230 Y127.781 E0.01986
G1 X174.296 Y127.781 E0.03344
G1 X174.744 Y127.333 E0.01986
G1 X175.033 Y127.332 E0.00905
G1 X175.882 Y127.262 E0.02671
G1 X175.386 Y127.757 E0.02197
G1 X176.407 Y127.673 E0.03212
G1 X176.581 Y127.629 E0.00562
G1 X177.206 Y127.004 E0.02771
G1 X177.649 Y126.888 E0.01435
G1 X178.834 Y126.370 E0.04056
G1 X179.029 Y126.247 E0.00724
G1 X177.774 Y127.503 E0.05568
G1 E-0.80000 F2100.00000
G1 Z0.800 F10800.000
G1 X176.206 Y124.805
G1 Z0.200
G1 E0.80000 F2100.00000
G1 F1200
G1 X180.374 Y120.636 E0.18483
G1 X180.540 Y119.699 E0.02985
G1 X180.541 Y119.402 E0.00930
G1 X175.180 Y124.764 E0.23775
G1 X174.978 Y124.781 E0.00633
G1 X174.096 Y124.781 E0.02765
G1 X180.481 Y118.396 E0.28311
G1 X180.397 Y117.879 E0.01644
G1 X180.280 Y117.531 E0.01151
G1 X173.030 Y124.781 E0.32147
G1 X171.963 Y124.781 E0.03344
G1 X179.975 Y116.769 E0.35525
G1 X179.672 Y116.203 E0.02013
G1 X179.586 Y116.091 E0.00442
G1 X170.897 Y124.781 E0.38532
G1 X169.830 Y124.781 E0.03344
G1 X179.123 Y115.488 E0.41205
G1 X178.573 Y114.972 E0.02366
G1 X168.764 Y124.781 E0.43494
G1 X167.697 Y124.781 E0.03344
G1 X177.952 Y114.526 E0.45472
G1 X177.662 Y114.334 E0.01090
G1 X177.285 Y114.126 E0.01350
G1 X166.631 Y124.781 E0.47244
G1 X165.564 Y124.781 E0.03344
G1 X176.597 Y113.748 E0.48922
G1 X175.909 Y113.369 E0.02462
G1 X172.184 Y117.094 E0.16516
G1 X172.542 Y117.452 E0.01586
G1 X171.841 Y118.153 E0.03108
G1 X171.483 Y117.795 E0.01586
G1 X164.498 Y124.781 E0.30976
G1 X163.431 Y124.781 E0.03344
G1 X175.221 Y112.991 E0.52279
G1 X174.533 Y112.612 E0.02462
G1 X162.364 Y124.781 E0.53957
G1 X161.298 Y124.781 E0.03344
G1 X168.252 Y117.826 E0.30837
G1 X167.719 Y117.293 E0.02365
G1 X160.231 Y124.781 E0.33201
G1 X159.165 Y124.781 E0.03344
G1 X167.186 Y116.760 E0.35566
G1 X166.947 Y116.521 E0.01058
G1 X165.316 Y118.153 E0.07234
G1 X165.021 Y117.858 E0.01306
G1 X158.098 Y124.781 E0.30697
G1 X157.032 Y124.781 E0.03344
G1 X164.488 Y117.325 E0.33061
G1 X163.954 Y116.791 E0.02365
G1 X155.965 Y124.781 E0.35426
G1 X154.899 Y124.781 E0.03344
G1 X161.790 Y117.890 E0.30557
G1 X161.257 Y117.356 E0.02365
G1 X153.832 Y124.781 E0.32921
G1 X152.766 Y124.781 E0.03344
G1 X160.723 Y116.823 E0.35286
G1 X160.422 Y116.521 E0.01338
G1 X158.790 Y118.153 E0.07234
G1 X158.559 Y117.921 E0.01027
G1 X151.699 Y124.781 E0.30417
G1 X150.632 Y124.781 E0.03344
G1 X158.025 Y117.388 E0.32782
G1 X157.492 Y116.855 E0.02365
G1 X149.566 Y124.781 E0.35146
G1 X148.499 Y124.781 E0.03344
G1 X155.328 Y117.953 E0.30277
G1 X154.794 Y117.419 E0.02365
G1 X147.433 Y124.781 E0.32642
G1 X146.366 Y124.781 E0.03344
G1 X154.261 Y116.886 E0.35006
G1 X153.896 Y116.521 E0.01618
G1 X152.265 Y118.153 E0.07234
G1 X152.096 Y117.984 E0.00747
G1 X145.300 Y124.781 E0.30137
G1 X144.233 Y124.781 E0.03344
G1 X151.563 Y117.451 E0.32502
G1 X151.030 Y116.918 E0.02365
G1 X143.167 Y124.781 E0.34866
G1 X142.100 Y124.781 E0.03344
G1 X148.865 Y118.016 E0.29997
G1 X148.332 Y117.482 E0.02365
G1 X141.034 Y124.781 E0.32362
G1 X139.967 Y124.781 E0.03344
G1 X147.799 Y116.949 E0.34727
M73 P1 R63
G1 X147.371 Y116.521 E0.01897
G1 X145.739 Y118.153 E0.07234
G1 X145.634 Y118.047 E0.00467
G1 X138.901 Y124.781 E0.29858
G1 X137.834 Y124.781 E0.03344
G1 X145.101 Y117.514 E0.32222
G1 X144.567 Y116.981 E0.02365
G1 X136.767 Y124.781 E0.34587
G1 X135.701 Y124.781 E0.03344
G1 X142.403 Y118.079 E0.29718
G1 X141.870 Y117.545 E0.02365
G1 X134.634 Y124.781 E0.32082
G1 X133.568 Y124.781 E0.03344
G1 X141.336 Y117.012 E0.34447
G1 X140.845 Y116.521 E0.02177
G1 X139.214 Y118.153 E0.07234
G1 X139.172 Y118.110 E0.00188
G1 X132.501 Y124.781 E0.29578
G1 X131.435 Y124.781 E0.03344
G1 X138.638 Y117.577 E0.31943
G1 X138.105 Y117.044 E0.02365
G1 X130.368 Y124.781 E0.34307
G1 X129.302 Y124.781 E0.03344
G1 X135.941 Y118.142 E0.29438
G1 X135.407 Y117.609 E0.02365
G1 X128.235 Y124.781 E0.31803
G1 X127.169 Y124.781 E0.03344
G1 X134.874 Y117.075 E0.34167
G1 X134.341 Y116.542 E0.02365
G1 X126.102 Y124.781 E0.36532
G1 X125.035 Y124.781 E0.03344
G1 X132.176 Y117.640 E0.31663
G1 X131.643 Y117.107 E0.02365
G1 X123.969 Y124.781 E0.34027
G1 X122.902 Y124.781 E0.03344
G1 X131.110 Y116.574 E0.36392
G1 X131.057 Y116.521 E0.00232
G1 X129.426 Y118.153 E0.07234
G1 X128.945 Y117.672 E0.02133
G1 X121.836 Y124.781 E0.31523
G1 X120.769 Y124.781 E0.03344
G1 X128.412 Y117.138 E0.33888
G1 X127.878 Y116.605 E0.02365
G1 X119.703 Y124.781 E0.36252
G1 X118.636 Y124.781 E0.03344
G1 X125.714 Y117.703 E0.31383
G1 X125.181 Y117.170 E0.02365
G1 X117.570 Y124.781 E0.33748
G1 X116.503 Y124.781 E0.03344
G1 X124.647 Y116.637 E0.36112
G1 X124.532 Y116.521 E0.00512
G1 X122.901 Y118.153 E0.07234
G1 X122.483 Y117.735 E0.01853
G1 X115.437 Y124.781 E0.31243
G1 X114.370 Y124.781 E0.03344
G1 X121.949 Y117.201 E0.33608
G1 X121.416 Y116.668 E0.02365
G1 X113.303 Y124.781 E0.35973
G1 X112.237 Y124.781 E0.03344
G1 X119.251 Y117.766 E0.31103
G1 X118.718 Y117.233 E0.02365
G1 X111.170 Y124.781 E0.33468
G1 X110.104 Y124.781 E0.03344
G1 X118.185 Y116.700 E0.35833
G1 X118.006 Y116.521 E0.00791
G1 X116.375 Y118.153 E0.07234
G1 X116.020 Y117.798 E0.01573
G1 X109.037 Y124.781 E0.30964
G1 X107.971 Y124.781 E0.03344
G1 X115.487 Y117.265 E0.33328
G1 X114.954 Y116.731 E0.02365
G1 X106.904 Y124.781 E0.35693
G1 X105.838 Y124.781 E0.03344
G1 X112.789 Y117.829 E0.30824
G1 X112.256 Y117.296 E0.02365
G1 X104.771 Y124.781 E0.33188
G1 X103.705 Y124.781 E0.03344
G1 X111.723 Y116.763 E0.35553
G1 X111.481 Y116.521 E0.01071
G1 X109.850 Y118.153 E0.07234
G1 X109.558 Y117.861 E0.01294
G1 X102.638 Y124.781 E0.30684
G1 X101.572 Y124.781 E0.03344
G1 X109.025 Y117.328 E0.33049
G1 X108.491 Y116.794 E0.02365
G1 X100.505 Y124.781 E0.35413
G1 X99.438 Y124.781 E0.03344
G1 X106.327 Y117.892 E0.30544
G1 X105.794 Y117.359 E0.02365
G1 X98.372 Y124.781 E0.32909
G1 X97.305 Y124.781 E0.03344
G1 X105.260 Y116.826 E0.35273
G1 X104.956 Y116.521 E0.01351
G1 X103.324 Y118.153 E0.07234
G1 X103.096 Y117.924 E0.01014
G1 X96.239 Y124.781 E0.30404
G1 X95.172 Y124.781 E0.03344
G1 X102.562 Y117.391 E0.32769
G1 X102.029 Y116.857 E0.02365
G1 X94.106 Y124.781 E0.35133
