; generated by PrusaSlicer 2.1.1+win64 on 2020-04-20 at 23:04:32 UTC

; 

; external perimeters extrusion width = 0.45mm
; perimeters extrusion width = 0.45mm
; infill extrusion width = 0.45mm
; solid infill extrusion width = 0.45mm
; top infill extrusion width = 0.40mm
; first layer extrusion width = 0.42mm

M73 P0 R50
M201 X9000 Y9000 Z500 E10000 ; sets maximum accelerations, mm/sec^2
M203 X500 Y500 Z12 E120 ; sets maximum feedrates, mm/sec
M204 P2000 R1500 T2000 ; sets acceleration (P, T) and retract acceleration (R), mm/sec^2
M205 X10.00 Y10.00 Z0.20 E2.50 ; sets the jerk limits, mm/sec
M205 S0 T0 ; sets the minimum extruding and travel feed rate, mm/sec
M107
M862.3 P "MK2.5SMMU2S" ; printer model check
M862.1 P0.4 ; nozzle diameter check
M115 U3.8.0 ; tell printer latest fw version
G90 ; use absolute coordinates
M83 ; extruder relative mode
M104 S215 ; set extruder temp
M140 S60 ; set bed temp
Tx
M190 S60 ; wait for bed temp
M109 S215 ; wait for extruder temp
G28 W ; home all without mesh bed level
G80 ; mesh bed leveling

G21 ; set units to millimeters

;go outside print area
G1 Y-3.0 F1000.0
G1 Z0.4 F1000.0
; select extruder
Tc
; purge line
G1 X55.0 F2000.0
G1 Z0.3 F1000.0
G92 E0.0
G1 X240.0 E25.0 F2200.0
M73 P0 R50
G1 Y-2.0 F1000.0
G1 X55.0 E25 F1400.0
G1 Z0.20 F1000.0
G1 X5.0 E4.0 F1000.0
G92 E0.0
G21 ; set units to millimeters
G90 ; use absolute coordinates
M83 ; use relative distances for extrusion
M900 K30 ; Filament gcode
;BEFORE_LAYER_CHANGE
G92 E0.0
;0.2


G1 E-0.80000 F2100.00000
G1 Z0.600 F10800.000
;AFTER_LAYER_CHANGE
;0.2
G1 X76.839 Y83.623
G1 Z0.200
G1 E0.80000 F2100.00000
M204 S1000
G1 F1200
G1 X77.500 Y83.285 E0.02326
G1 X108.171 Y74.232 E1.00270
G1 X109.819 Y73.868 E0.05291
G1 X111.491 Y73.739 E0.05259
G1 X117.777 Y73.736 E0.19710
G1 X119.613 Y73.877 E0.05773
G1 X172.243 Y83.222 E1.67600
G1 X172.921 Y83.466 E0.02259
G1 X173.480 Y83.915 E0.02247
G1 X173.889 Y84.581 E0.02451
G1 X174.038 Y85.352 E0.02462
G1 X174.039 Y134.082 E1.52791
G1 X173.846 Y134.972 E0.02855
G1 X173.311 Y135.705 E0.02844
G1 X172.638 Y136.117 E0.02473
G1 X171.863 Y136.263 E0.02473
G1 X78.146 Y136.264 E2.93843
G1 X77.256 Y136.073 E0.02855
G1 X76.520 Y135.536 E0.02855
G1 X76.108 Y134.863 E0.02473
G1 X75.961 Y134.085 E0.02484
G1 X75.962 Y85.360 E1.52771
G1 X76.057 Y84.734 E0.01987
G1 X76.329 Y84.161 E0.01987
G1 X76.798 Y83.666 E0.02138
G1 E-0.80000 F2100.00000
G1 Z0.800 F10800.000
G1 X86.267 Y127.329
G1 Z0.200
G1 E0.80000 F2100.00000
G1 F1200
G1 X82.593 Y127.329 E0.11520
G1 X82.593 Y121.655 E0.17791
G1 X86.267 Y121.655 E0.11520
G1 X86.267 Y127.269 E0.17603
G1 X85.890 Y126.952 F10800.000
G1 F1200
G1 X82.970 Y126.952 E0.09155
G1 X82.970 Y122.032 E0.15426
G1 X85.890 Y122.032 E0.09155
G1 X85.890 Y126.892 E0.15238
G1 X85.961 Y127.346 F10800.000
G1 E-0.80000 F2100.00000
G1 Z0.800 F10800.000
G1 X93.267 Y127.329
G1 Z0.200
G1 E0.80000 F2100.00000
G1 F1200
G1 X89.593 Y127.329 E0.11520
G1 X89.593 Y121.655 E0.17791
G1 X93.267 Y121.655 E0.11520
G1 X93.267 Y127.269 E0.17603
G1 X92.890 Y126.952 F10800.000
G1 F1200
G1 X89.970 Y126.952 E0.09155
G1 X89.970 Y122.032 E0.15426
G1 X92.890 Y122.032 E0.09155
G1 X92.890 Y126.892 E0.15238
G1 X92.961 Y127.346 F10800.000
G1 E-0.80000 F2100.00000
G1 Z0.800 F10800.000
G1 X114.689 Y84.714
G1 Z0.200
G1 E0.80000 F2100.00000
G1 F1200
G1 X114.239 Y84.675 E0.01415
G1 X113.803 Y84.558 E0.01415
G1 X113.394 Y84.367 E0.01415
G1 X113.025 Y84.109 E0.01415
G1 X112.706 Y83.789 E0.01415
G1 X112.447 Y83.420 E0.01415
G1 X112.256 Y83.011 E0.01415
G1 X112.139 Y82.575 E0.01415
G1 X112.100 Y82.125 E0.01415
G1 X112.139 Y81.675 E0.01415
G1 X112.256 Y81.239 E0.01415
G1 X112.447 Y80.830 E0.01415
G1 X112.706 Y80.461 E0.01415
G1 X113.025 Y80.141 E0.01415
G1 X113.394 Y79.883 E0.01415
G1 X113.803 Y79.692 E0.01415
G1 X114.239 Y79.575 E0.01415
G1 X114.669 Y79.537 E0.01353
G1 X115.136 Y79.574 E0.01469
G1 X115.575 Y79.692 E0.01423
G1 X115.984 Y79.883 E0.01415
G1 X116.353 Y80.141 E0.01415
G1 X116.673 Y80.461 E0.01415
G1 X116.932 Y80.830 E0.01415
G1 X117.122 Y81.239 E0.01415
G1 X117.239 Y81.675 E0.01415
G1 X117.278 Y82.125 E0.01415
G1 X117.239 Y82.575 E0.01415
G1 X117.122 Y83.011 E0.01415
G1 X116.932 Y83.420 E0.01415
G1 X116.673 Y83.789 E0.01415
G1 X116.353 Y84.109 E0.01415
G1 X116.000 Y84.356 E0.01353
G1 X115.577 Y84.558 E0.01469
G1 X115.139 Y84.675 E0.01423
G1 X114.749 Y84.709 E0.01227
G1 X114.689 Y84.336 F10800.000
G1 F1200
G1 X114.305 Y84.302 E0.01208
G1 X113.933 Y84.202 E0.01208
G1 X113.584 Y84.040 E0.01208
G1 X113.268 Y83.819 E0.01208
G1 X112.996 Y83.546 E0.01208
G1 X112.774 Y83.230 E0.01208
G1 X112.612 Y82.881 E0.01208
G1 X112.512 Y82.509 E0.01208
G1 X112.478 Y82.125 E0.01208
G1 X112.512 Y81.741 E0.01208
G1 X112.612 Y81.369 E0.01208
G1 X112.774 Y81.020 E0.01208
G1 X112.996 Y80.704 E0.01208
G1 X113.268 Y80.431 E0.01208
G1 X113.584 Y80.210 E0.01208
G1 X113.933 Y80.048 E0.01208
G1 X114.305 Y79.948 E0.01208
G1 X114.671 Y79.916 E0.01151
G1 X115.072 Y79.948 E0.01262
G1 X115.445 Y80.048 E0.01211
G1 X115.794 Y80.210 E0.01208
G1 X116.110 Y80.431 E0.01208
G1 X116.383 Y80.704 E0.01208
G1 X116.604 Y81.020 E0.01208
G1 X116.767 Y81.369 E0.01208
G1 X116.866 Y81.741 E0.01208
G1 X116.900 Y82.125 E0.01208
G1 X116.866 Y82.509 E0.01208
G1 X116.767 Y82.881 E0.01208
G1 X116.604 Y83.230 E0.01208
G1 X116.383 Y83.546 E0.01208
G1 X116.110 Y83.819 E0.01208
G1 X115.809 Y84.029 E0.01151
G1 X115.446 Y84.202 E0.01262
G1 X115.073 Y84.302 E0.01211
G1 X114.749 Y84.331 E0.01020
G1 X114.496 Y84.670 F10800.000
G1 E-0.80000 F2100.00000
G1 Z0.800 F10800.000
G1 X156.313 Y97.962
G1 Z0.200
G1 E0.80000 F2100.00000
G1 F1200
G1 X156.313 Y92.288 E0.17791
G1 X159.987 Y92.288 E0.11520
G1 X159.987 Y97.962 E0.17791
G1 X156.373 Y97.962 E0.11332
G1 X156.690 Y97.585 F10800.000
G1 F1200
G1 X156.690 Y92.665 E0.15426
G1 X159.610 Y92.665 E0.09155
G1 X159.610 Y97.585 E0.15426
G1 X156.750 Y97.585 E0.08967
G1 X156.314 Y97.720 F10800.000
G1 E-0.80000 F2100.00000
G1 Z0.800 F10800.000
G1 X163.313 Y97.962
G1 Z0.200
G1 E0.80000 F2100.00000
G1 F1200
G1 X163.313 Y92.288 E0.17791
G1 X166.987 Y92.288 E0.11520
G1 X166.987 Y97.962 E0.17791
G1 X163.373 Y97.962 E0.11332
G1 X163.690 Y97.585 F10800.000
G1 F1200
G1 X163.690 Y92.665 E0.15426
G1 X166.610 Y92.665 E0.09155
G1 X166.610 Y97.585 E0.15426
G1 X163.750 Y97.585 E0.08967
G1 X163.314 Y97.720 F10800.000
G1 E-0.80000 F2100.00000
G1 Z0.800 F10800.000
G1 X125.000 Y133.488
G1 Z0.200
G1 E0.80000 F2100.00000
G1 F1200
G1 X78.737 Y133.488 E1.45054
G1 X78.737 Y85.962 E1.49014
G1 X97.528 Y85.962 E0.58918
G1 X105.276 Y78.957 E0.32749
G1 X106.383 Y78.095 E0.04402
G1 X107.587 Y77.414 E0.04334
G1 X108.877 Y76.918 E0.04334
G1 X110.156 Y76.631 E0.04111
G1 X111.628 Y76.512 E0.04630
G1 X117.752 Y76.512 E0.19201
G1 X119.081 Y76.610 E0.04178
G1 X120.503 Y76.918 E0.04562
G1 X121.791 Y77.414 E0.04328
G1 X122.995 Y78.095 E0.04334
G1 X124.102 Y78.957 E0.04402
G1 X131.850 Y85.962 E0.32749
G1 X171.263 Y85.962 E1.23576
G1 X171.263 Y133.488 E1.49014
G1 X125.060 Y133.488 E1.44866
G1 X125.000 Y133.865 F10800.000
G1 F1200
G1 X78.360 Y133.865 E1.46236
G1 X78.360 Y85.585 E1.51379
G1 X97.383 Y85.585 E0.59645
G1 X105.033 Y78.668 E0.32337
G1 X106.174 Y77.780 E0.04533
G1 X107.425 Y77.072 E0.04509
M73 P2 R49
G1 X108.767 Y76.556 E0.04509
G1 X110.100 Y76.257 E0.04281
G1 X111.613 Y76.135 E0.04761
G1 X117.766 Y76.135 E0.19292
G1 X119.135 Y76.236 E0.04305
G1 X120.612 Y76.556 E0.04736
G1 X121.953 Y77.072 E0.04506
G1 X123.204 Y77.780 E0.04509
G1 X124.345 Y78.668 E0.04533
G1 X131.995 Y85.585 E0.32337
G1 X171.640 Y85.585 E1.24303
G1 X171.640 Y133.865 E1.51379
G1 X125.060 Y133.865 E1.46048
G1 X124.716 Y133.584 F10800.000
G1 E-0.80000 F2100.00000
G1 Z0.800 F10800.000
G1 X94.600 Y133.375
G1 Z0.200
G1 E0.80000 F2100.00000
G1 F1200
G1 X86.550 Y125.325 E0.35819
G1 X86.550 Y125.860 E0.01684
G1 X93.895 Y133.205 E0.32682
G1 X93.360 Y133.205 E0.01684
G1 X86.550 Y126.396 E0.30301
G1 X86.550 Y126.931 E0.01684
G1 X92.824 Y133.205 E0.27920
G1 X92.289 Y133.205 E0.01684
G1 X86.550 Y127.466 E0.25538
G1 X86.550 Y127.612 E0.00460
G1 X86.161 Y127.612 E0.01224
G1 X91.754 Y133.205 E0.24888
G1 X91.219 Y133.205 E0.01684
G1 X85.626 Y127.612 E0.24888
G1 X85.091 Y127.612 E0.01684
G1 X90.684 Y133.205 E0.24888
G1 X90.149 Y133.205 E0.01684
G1 X84.556 Y127.612 E0.24888
G1 X84.021 Y127.612 E0.01684
G1 X89.614 Y133.205 E0.24888
G1 X89.078 Y133.205 E0.01684
G1 X83.485 Y127.612 E0.24888
G1 X82.950 Y127.612 E0.01684
G1 X88.543 Y133.205 E0.24888
G1 X88.008 Y133.205 E0.01684
G1 X79.020 Y124.217 E0.39996
G1 X79.020 Y124.752 E0.01684
G1 X87.473 Y133.205 E0.37615
G1 X86.938 Y133.205 E0.01684
G1 X79.020 Y125.287 E0.35233
G1 X79.020 Y125.822 E0.01684
G1 X86.403 Y133.205 E0.32852
G1 X85.868 Y133.205 E0.01684
G1 X79.020 Y126.357 E0.30471
G1 X79.020 Y126.893 E0.01684
G1 X85.332 Y133.205 E0.28089
G1 X84.797 Y133.205 E0.01684
G1 X79.020 Y127.428 E0.25708
G1 X79.020 Y127.963 E0.01684
G1 X84.262 Y133.205 E0.23327
G1 X83.727 Y133.205 E0.01684
G1 X79.020 Y128.498 E0.20945
G1 X79.020 Y129.033 E0.01684
G1 X83.192 Y133.205 E0.18564
G1 X82.657 Y133.205 E0.01684
G1 X79.020 Y129.568 E0.16183
G1 X79.020 Y130.104 E0.01684
G1 X82.121 Y133.205 E0.13801
G1 X81.586 Y133.205 E0.01684
G1 X79.020 Y130.639 E0.11420
G1 X79.020 Y131.174 E0.01684
G1 X81.051 Y133.205 E0.09039
G1 X80.516 Y133.205 E0.01684
G1 X79.020 Y131.709 E0.06657
G1 X79.020 Y132.244 E0.01684
G1 X79.981 Y133.205 E0.04276
G1 X79.446 Y133.205 E0.01684
G1 X78.850 Y132.610 E0.02650
G1 E-0.80000 F2100.00000
G1 Z0.800 F10800.000
G1 X82.480 Y127.142
G1 Z0.200
G1 E0.80000 F2100.00000
G1 F1200
G1 X79.020 Y123.682 E0.15397
G1 X79.020 Y123.147 E0.01684
G1 X82.310 Y126.437 E0.14642
G1 X82.310 Y125.902 E0.01684
G1 X79.020 Y122.611 E0.14642
G1 X79.020 Y122.076 E0.01684
G1 X82.310 Y125.367 E0.14642
G1 X82.310 Y124.832 E0.01684
G1 X79.020 Y121.541 E0.14642
G1 X79.020 Y121.006 E0.01684
G1 X82.310 Y124.296 E0.14642
G1 X82.310 Y123.761 E0.01684
G1 X79.020 Y120.471 E0.14642
G1 X79.020 Y119.936 E0.01684
G1 X82.310 Y123.226 E0.14642
G1 X82.310 Y122.691 E0.01684
G1 X79.020 Y119.401 E0.14642
G1 X79.020 Y118.865 E0.01684
G1 X82.310 Y122.156 E0.14642
G1 X82.310 Y121.621 E0.01684
G1 X79.020 Y118.330 E0.14642
G1 X79.020 Y117.795 E0.01684
G1 X82.597 Y121.372 E0.15918
G1 X83.132 Y121.372 E0.01684
G1 X79.020 Y117.260 E0.18300
G1 X79.020 Y116.725 E0.01684
G1 X83.667 Y121.372 E0.20681
G1 X84.203 Y121.372 E0.01684
G1 X79.020 Y116.190 E0.23062
G1 X79.020 Y115.654 E0.01684
G1 X84.738 Y121.372 E0.25443
G1 X85.273 Y121.372 E0.01684
G1 X79.020 Y115.119 E0.27825
G1 X79.020 Y114.584 E0.01684
G1 X85.978 Y121.542 E0.30961
G1 E-0.80000 F2100.00000
G1 Z0.800 F10800.000
G1 X78.850 Y107.458
G1 Z0.200
G1 E0.80000 F2100.00000
G1 F1200
G1 X92.765 Y121.372 E0.61918
G1 X92.230 Y121.372 E0.01684
G1 X79.020 Y108.162 E0.58782
G1 X79.020 Y108.698 E0.01684
G1 X91.695 Y121.372 E0.56401
G1 X91.160 Y121.372 E0.01684
G1 X79.020 Y109.233 E0.54019
G1 X79.020 Y109.768 E0.01684
G1 X90.624 Y121.372 E0.51638
G1 X90.089 Y121.372 E0.01684
G1 X79.020 Y110.303 E0.49257
G1 X79.020 Y110.838 E0.01684
G1 X89.554 Y121.372 E0.46875
G1 X89.310 Y121.372 E0.00767
G1 X89.310 Y121.664 E0.00917
G1 X79.020 Y111.373 E0.45791
G1 X79.020 Y111.908 E0.01684
G1 X89.310 Y122.199 E0.45791
G1 X89.310 Y122.734 E0.01684
G1 X79.020 Y112.444 E0.45791
G1 X79.020 Y112.979 E0.01684
G1 X89.310 Y123.269 E0.45791
G1 X89.310 Y123.804 E0.01684
G1 X79.020 Y113.514 E0.45791
G1 X79.020 Y114.049 E0.01684
G1 X89.310 Y124.339 E0.45791
G1 X89.310 Y124.875 E0.01684
G1 X86.550 Y122.114 E0.12283
G1 X86.550 Y122.650 E0.01684
G1 X89.310 Y125.410 E0.12283
G1 X89.310 Y125.945 E0.01684
G1 X86.550 Y123.185 E0.12283
G1 X86.550 Y123.720 E0.01684
G1 X89.310 Y126.480 E0.12283
G1 X89.310 Y127.015 E0.01684
G1 X86.550 Y124.255 E0.12283
G1 X86.550 Y124.790 E0.01684
G1 X94.965 Y133.205 E0.37445
G1 X95.500 Y133.205 E0.01684
G1 X89.907 Y127.612 E0.24888
G1 X90.442 Y127.612 E0.01684
G1 X96.035 Y133.205 E0.24888
G1 X96.571 Y133.205 E0.01684
G1 X90.977 Y127.612 E0.24888
G1 X91.513 Y127.612 E0.01684
G1 X97.106 Y133.205 E0.24888
G1 X97.641 Y133.205 E0.01684
G1 X92.048 Y127.612 E0.24888
G1 X92.583 Y127.612 E0.01684
G1 X98.176 Y133.205 E0.24888
G1 X98.711 Y133.205 E0.01684
G1 X93.118 Y127.612 E0.24888
G1 X93.550 Y127.612 E0.01359
G1 X93.550 Y127.509 E0.00325
G1 X99.246 Y133.205 E0.25347
G1 X99.781 Y133.205 E0.01684
G1 X93.550 Y126.974 E0.27728
G1 X93.550 Y126.439 E0.01684
G1 X100.317 Y133.205 E0.30110
G1 X100.852 Y133.205 E0.01684
G1 X93.550 Y125.903 E0.32491
G1 X93.550 Y125.368 E0.01684
G1 X101.387 Y133.205 E0.34872
G1 X101.922 Y133.205 E0.01684
G1 X93.550 Y124.833 E0.37254
G1 X93.550 Y124.298 E0.01684
G1 X102.457 Y133.205 E0.39635
G1 X102.992 Y133.205 E0.01684
G1 X93.550 Y123.763 E0.42016
G1 X93.550 Y123.228 E0.01684
G1 X103.527 Y133.205 E0.44398
G1 X104.063 Y133.205 E0.01684
G1 X93.550 Y122.693 E0.46779
G1 X93.550 Y122.157 E0.01684
G1 X104.598 Y133.205 E0.49160
G1 X105.133 Y133.205 E0.01684
G1 X79.020 Y107.092 E1.16198
G1 X79.020 Y106.557 E0.01684
G1 X105.668 Y133.205 E1.18579
G1 X106.203 Y133.205 E0.01684
G1 X79.020 Y106.022 E1.20961
G1 X79.020 Y105.487 E0.01684
G1 X106.738 Y133.205 E1.23342
G1 X107.274 Y133.205 E0.01684
G1 X79.020 Y104.951 E1.25723
G1 X79.020 Y104.416 E0.01684
G1 X107.809 Y133.205 E1.28105
M73 P4 R48
G1 X108.344 Y133.205 E0.01684
G1 X79.020 Y103.881 E1.30486
G1 X79.020 Y103.346 E0.01684
G1 X108.879 Y133.205 E1.32867
G1 X109.414 Y133.205 E0.01684
G1 X79.020 Y102.811 E1.35248
G1 X79.020 Y102.276 E0.01684
G1 X109.949 Y133.205 E1.37630
G1 X110.484 Y133.205 E0.01684
G1 X79.020 Y101.741 E1.40011
G1 X79.020 Y101.205 E0.01684
G1 X111.020 Y133.205 E1.42392
G1 X111.555 Y133.205 E0.01684
G1 X79.020 Y100.670 E1.44774
G1 X79.020 Y100.135 E0.01684
G1 X112.090 Y133.205 E1.47155
G1 X112.625 Y133.205 E0.01684
G1 X79.020 Y99.600 E1.49536
G1 X79.020 Y99.065 E0.01684
G1 X113.160 Y133.205 E1.51918
G1 X113.695 Y133.205 E0.01684
G1 X79.020 Y98.530 E1.54299
G1 X79.020 Y97.994 E0.01684
G1 X114.231 Y133.205 E1.56680
G1 X114.766 Y133.205 E0.01684
G1 X79.020 Y97.459 E1.59062
G1 X79.020 Y96.924 E0.01684
G1 X115.301 Y133.205 E1.61443
G1 X115.836 Y133.205 E0.01684
G1 X79.020 Y96.389 E1.63824
G1 X79.020 Y95.854 E0.01684
G1 X116.371 Y133.205 E1.66206
G1 X116.906 Y133.205 E0.01684
G1 X79.020 Y95.319 E1.68587
G1 X79.020 Y94.784 E0.01684
G1 X117.441 Y133.205 E1.70968
G1 X117.977 Y133.205 E0.01684
G1 X79.020 Y94.248 E1.73350
G1 X79.020 Y93.713 E0.01684
G1 X118.512 Y133.205 E1.75731
G1 X119.047 Y133.205 E0.01684
G1 X79.020 Y93.178 E1.78112
G1 X79.020 Y92.643 E0.01684
G1 X119.582 Y133.205 E1.80493
G1 X120.117 Y133.205 E0.01684
G1 X79.020 Y92.108 E1.82875
G1 X79.020 Y91.573 E0.01684
G1 X120.652 Y133.205 E1.85256
M73 P6 R47
G1 X121.187 Y133.205 E0.01684
G1 X79.020 Y91.038 E1.87637
G1 X79.020 Y90.502 E0.01684
G1 X121.723 Y133.205 E1.90019
G1 X122.258 Y133.205 E0.01684
G1 X79.020 Y89.967 E1.92400
G1 X79.020 Y89.432 E0.01684
G1 X122.793 Y133.205 E1.94781
G1 X123.328 Y133.205 E0.01684
G1 X79.020 Y88.897 E1.97163
G1 X79.020 Y88.362 E0.01684
G1 X123.863 Y133.205 E1.99544
G1 X124.398 Y133.205 E0.01684
G1 X79.020 Y87.827 E2.01925
G1 X79.020 Y87.291 E0.01684
G1 X124.934 Y133.205 E2.04307
G1 X125.469 Y133.205 E0.01684
G1 X79.020 Y86.756 E2.06688
G1 X79.020 Y86.245 E0.01609
G1 X79.044 Y86.245 E0.00075
G1 X126.004 Y133.205 E2.08964
G1 X126.539 Y133.205 E0.01684
G1 X79.579 Y86.245 E2.08964
G1 X80.114 Y86.245 E0.01684
G1 X127.074 Y133.205 E2.08964
G1 X127.609 Y133.205 E0.01684
G1 X80.649 Y86.245 E2.08964
G1 X81.184 Y86.245 E0.01684
G1 X128.144 Y133.205 E2.08964
G1 X128.680 Y133.205 E0.01684
G1 X81.719 Y86.245 E2.08964
G1 X82.254 Y86.245 E0.01684
G1 X129.215 Y133.205 E2.08964
G1 X129.750 Y133.205 E0.01684
G1 X82.790 Y86.245 E2.08964
G1 X83.325 Y86.245 E0.01684
G1 X130.285 Y133.205 E2.08964
G1 X130.820 Y133.205 E0.01684
G1 X83.860 Y86.245 E2.08964
M73 P8 R46
G1 X84.395 Y86.245 E0.01684
G1 X131.355 Y133.205 E2.08964
G1 X131.891 Y133.205 E0.01684
G1 X84.930 Y86.245 E2.08964
G1 X85.465 Y86.245 E0.01684
G1 X132.426 Y133.205 E2.08964
G1 X132.961 Y133.205 E0.01684
G1 X86.001 Y86.245 E2.08964
G1 X86.536 Y86.245 E0.01684
G1 X133.496 Y133.205 E2.08964
