; generated by PrusaSlicer 2.2.0+win64 on 2021-01-18 at 23:31:26 UTC

; 

; external perimeters extrusion width = 0.45mm
; perimeters extrusion width = 0.45mm
; infill extrusion width = 0.45mm
; solid infill extrusion width = 0.45mm
; top infill extrusion width = 0.40mm
; support material extrusion width = 0.35mm
; first layer extrusion width = 0.42mm

M73 P0 R170
M201 X9000 Y9000 Z500 E10000 ; sets maximum accelerations, mm/sec^2
M203 X500 Y500 Z12 E120 ; sets maximum feedrates, mm/sec
M204 P2000 R1500 T2000 ; sets acceleration (P, T) and retract acceleration (R), mm/sec^2
M205 X10.00 Y10.00 Z0.20 E2.50 ; sets the jerk limits, mm/sec
M205 S0 T0 ; sets the minimum extruding and travel feed rate, mm/sec
M107
M862.3 P "MK2.5SMMU2S" ; printer model check
M862.1 P0.4 ; nozzle diameter check
M115 U3.8.0 ; tell printer latest fw version
G90 ; use absolute coordinates
M83 ; extruder relative mode
M104 S215 ; set extruder temp
M140 S60 ; set bed temp
Tx
M190 S60 ; wait for bed temp
M109 S215 ; wait for extruder temp
G28 W ; home all without mesh bed level
G80 ; mesh bed leveling

G21 ; set units to millimeters

;go outside print area
G1 Y-3.0 F1000.0
G1 Z0.4 F1000.0
; select extruder
Tc
; purge line
G1 X55.0 F2000.0
G1 Z0.3 F1000.0
G92 E0.0
G1 X240.0 E25.0 F2200.0
M73 P0 R170
G1 Y-2.0 F1000.0
G1 X55.0 E25 F1400.0
G1 Z0.20 F1000.0
G1 X5.0 E4.0 F1000.0
G92 E0.0
G21 ; set units to millimeters
G90 ; use absolute coordinates
M83 ; use relative distances for extrusion
M900 K0.05 ; Filament gcode LA 1.5
M900 K30 ; Filament gcode LA 1.0
;BEFORE_LAYER_CHANGE
G92 E0.0
;0.2


G1 E-0.80000 F2100.00000
G1 Z0.600 F10800.000
;AFTER_LAYER_CHANGE
;0.2
G1 X69.318 Y37.719
G1 Z0.200
G1 E0.80000 F2100.00000
M204 S1000
G1 F1200.000
G1 X69.786 Y37.166 E0.02272
G1 X70.404 Y36.777 E0.02288
G1 X71.044 Y36.597 E0.02087
G1 X72.013 Y36.538 E0.03044
G1 X146.648 Y36.528 E2.34013
G1 X178.782 Y36.584 E1.00752
G1 X179.495 Y36.732 E0.02284
G1 X180.130 Y37.089 E0.02284
G1 X180.624 Y37.619 E0.02272
G1 X180.942 Y38.282 E0.02304
G1 X186.970 Y62.277 E0.77572
G1 X187.907 Y66.118 E0.12397
G1 X188.124 Y67.329 E0.03858
G1 X188.127 Y171.021 E3.25118
G1 X188.036 Y171.674 E0.02069
G1 X187.772 Y172.280 E0.02073
G1 X187.158 Y172.950 E0.02849
G1 X186.331 Y173.344 E0.02872
G1 X185.715 Y173.430 E0.01951
G1 X183.209 Y173.465 E0.07858
G1 X66.846 Y173.470 E3.64847
G1 X64.104 Y173.421 E0.08599
G1 X63.543 Y173.308 E0.01794
G1 X63.023 Y173.069 E0.01795
G1 X62.550 Y172.688 E0.01906
G1 X62.189 Y172.199 E0.01904
G1 X61.963 Y171.643 E0.01882
G1 X61.882 Y171.044 E0.01895
G1 X61.884 Y67.338 E3.25163
G1 X62.611 Y64.009 E0.10685
G1 X67.009 Y46.407 E0.56887
G1 X69.030 Y38.411 E0.25857
G1 X69.295 Y37.774 E0.02162
G1 E-0.80000 F2100.00000
G1 Z0.800 F10800.000
G1 X92.717 Y41.695
G1 Z0.200
G1 E0.80000 F2100.00000
G1 F1200.000
G1 X71.254 Y41.695 E0.67294
G1 X71.810 Y39.512 E0.07061
G1 X82.070 Y39.492 E0.32169
G1 X113.630 Y39.544 E0.98956
G1 X114.179 Y41.695 E0.06960
G1 X92.777 Y41.695 E0.67106
G1 X92.717 Y42.072 F10800.000
G1 F1200.000
G1 X70.769 Y42.072 E0.68815
G1 X71.514 Y39.148 E0.09461
G1 X72.055 Y39.124 E0.01697
G1 X82.070 Y39.115 E0.31403
G1 X113.923 Y39.167 E0.99875
G1 X114.664 Y42.072 E0.09397
G1 X92.777 Y42.072 E0.68628
G1 X92.501 Y41.735 F10800.000
G1 E-0.80000 F2100.00000
G1 Z0.800 F10800.000
G1 X113.807 Y40.696
G1 Z0.200
G1 E0.80000 F2100.00000
G1 F1200.000
G1 X112.936 Y39.824 E0.03902
G1 X112.395 Y39.822 E0.01710
G1 X113.757 Y41.183 E0.06093
G1 X113.815 Y41.412 E0.00746
G1 X113.447 Y41.412 E0.01165
G1 X111.855 Y39.820 E0.07125
G1 X111.315 Y39.818 E0.01710
G1 X112.909 Y41.412 E0.07133
G1 X112.370 Y41.412 E0.01704
G1 X110.775 Y39.816 E0.07142
G1 X110.235 Y39.814 E0.01710
G1 X111.832 Y41.412 E0.07150
G1 X111.294 Y41.412 E0.01704
G1 X109.694 Y39.812 E0.07159
G1 X109.154 Y39.811 E0.01710
G1 X110.755 Y41.412 E0.07167
G1 X110.217 Y41.412 E0.01704
G1 X108.614 Y39.809 E0.07176
G1 X108.074 Y39.807 E0.01709
G1 X109.678 Y41.412 E0.07183
G1 X109.140 Y41.412 E0.01704
G1 X107.535 Y39.806 E0.07186
G1 X106.996 Y39.806 E0.01706
G1 X108.602 Y41.412 E0.07189
G1 X108.063 Y41.412 E0.01704
G1 X106.457 Y39.805 E0.07192
G1 X105.918 Y39.804 E0.01706
G1 X107.525 Y41.412 E0.07195
G1 X106.987 Y41.412 E0.01704
G1 X105.379 Y39.804 E0.07198
G1 X104.840 Y39.803 E0.01706
G1 X106.448 Y41.412 E0.07201
G1 X105.910 Y41.412 E0.01704
G1 X104.301 Y39.802 E0.07204
G1 X103.762 Y39.802 E0.01706
G1 X105.372 Y41.412 E0.07207
G1 X104.833 Y41.412 E0.01704
G1 X103.223 Y39.801 E0.07210
G1 X102.684 Y39.800 E0.01706
G1 X104.295 Y41.412 E0.07213
G1 X103.757 Y41.412 E0.01704
G1 X102.145 Y39.800 E0.07216
G1 X101.606 Y39.799 E0.01706
G1 X103.218 Y41.412 E0.07219
G1 X102.680 Y41.412 E0.01704
G1 X101.067 Y39.798 E0.07222
G1 X100.528 Y39.798 E0.01706
G1 X102.142 Y41.412 E0.07225
G1 X101.603 Y41.412 E0.01704
G1 X99.989 Y39.797 E0.07227
G1 X99.450 Y39.796 E0.01706
G1 X101.065 Y41.412 E0.07230
G1 X100.527 Y41.412 E0.01704
G1 X98.911 Y39.796 E0.07233
G1 X98.372 Y39.795 E0.01706
G1 X99.988 Y41.412 E0.07236
G1 X99.450 Y41.412 E0.01704
G1 X97.833 Y39.794 E0.07239
G1 X97.294 Y39.794 E0.01706
G1 X98.912 Y41.412 E0.07242
G1 X98.373 Y41.412 E0.01704
G1 X96.755 Y39.793 E0.07245
G1 X96.216 Y39.793 E0.01706
G1 X97.835 Y41.412 E0.07248
G1 X97.297 Y41.412 E0.01704
G1 X95.677 Y39.792 E0.07251
G1 X95.138 Y39.791 E0.01706
G1 X96.758 Y41.412 E0.07254
G1 X96.220 Y41.412 E0.01704
G1 X94.599 Y39.791 E0.07257
G1 X94.060 Y39.790 E0.01706
G1 X95.682 Y41.412 E0.07260
G1 X95.143 Y41.412 E0.01704
G1 X93.521 Y39.789 E0.07263
G1 X92.982 Y39.789 E0.01706
G1 X94.605 Y41.412 E0.07266
G1 X94.066 Y41.412 E0.01704
G1 X92.443 Y39.788 E0.07269
G1 X91.904 Y39.787 E0.01706
G1 X93.528 Y41.412 E0.07272
G1 X92.990 Y41.412 E0.01704
G1 X91.365 Y39.787 E0.07275
G1 X90.826 Y39.786 E0.01706
G1 X92.451 Y41.412 E0.07278
G1 X91.913 Y41.412 E0.01704
G1 X90.287 Y39.785 E0.07281
G1 X89.748 Y39.785 E0.01706
G1 X91.375 Y41.412 E0.07284
G1 X90.836 Y41.412 E0.01704
G1 X89.209 Y39.784 E0.07286
G1 X88.670 Y39.783 E0.01706
G1 X90.298 Y41.412 E0.07289
G1 X89.760 Y41.412 E0.01704
G1 X88.131 Y39.783 E0.07292
G1 X87.592 Y39.782 E0.01706
G1 X89.221 Y41.412 E0.07295
G1 X88.683 Y41.412 E0.01704
G1 X87.053 Y39.781 E0.07298
G1 X86.514 Y39.781 E0.01706
G1 X88.145 Y41.412 E0.07301
G1 X87.606 Y41.412 E0.01704
G1 X85.975 Y39.780 E0.07304
G1 X85.436 Y39.779 E0.01706
G1 X87.068 Y41.412 E0.07307
G1 X86.530 Y41.412 E0.01704
G1 X84.897 Y39.779 E0.07310
G1 X84.358 Y39.778 E0.01706
G1 X85.991 Y41.412 E0.07313
G1 X85.453 Y41.412 E0.01704
G1 X83.819 Y39.777 E0.07316
G1 X83.280 Y39.777 E0.01706
G1 X84.915 Y41.412 E0.07319
G1 X84.376 Y41.412 E0.01704
G1 X82.741 Y39.776 E0.07322
G1 X82.202 Y39.775 E0.01706
G1 X83.838 Y41.412 E0.07325
G1 X83.300 Y41.412 E0.01704
G1 X81.664 Y39.776 E0.07322
G1 X81.127 Y39.777 E0.01701
G1 X82.761 Y41.412 E0.07317
G1 X82.223 Y41.412 E0.01704
G1 X80.589 Y39.778 E0.07313
G1 X80.052 Y39.779 E0.01701
G1 X81.685 Y41.412 E0.07308
G1 X81.146 Y41.412 E0.01704
G1 X79.515 Y39.780 E0.07303
G1 X78.977 Y39.781 E0.01701
G1 X80.608 Y41.412 E0.07299
G1 X80.070 Y41.412 E0.01704
G1 X78.440 Y39.782 E0.07294
G1 X77.903 Y39.783 E0.01701
G1 X79.531 Y41.412 E0.07289
G1 X78.993 Y41.412 E0.01704
G1 X77.365 Y39.784 E0.07285
G1 X76.828 Y39.785 E0.01701
G1 X78.455 Y41.412 E0.07280
G1 X77.916 Y41.412 E0.01704
G1 X76.291 Y39.786 E0.07276
G1 X75.754 Y39.787 E0.01701
G1 X77.378 Y41.412 E0.07271
G1 X76.839 Y41.412 E0.01704
G1 X75.216 Y39.788 E0.07266
G1 X74.679 Y39.790 E0.01701
G1 X76.301 Y41.412 E0.07262
G1 X75.763 Y41.412 E0.01704
G1 X74.142 Y39.791 E0.07257
G1 X73.604 Y39.792 E0.01701
G1 X75.224 Y41.412 E0.07252
G1 X74.686 Y41.412 E0.01704
G1 X73.067 Y39.793 E0.07248
G1 X72.530 Y39.794 E0.01701
G1 X74.148 Y41.412 E0.07243
G1 X73.609 Y41.412 E0.01704
G1 X72.022 Y39.825 E0.07105
G1 X71.913 Y40.254 E0.01401
G1 X73.071 Y41.412 E0.05184
G1 X72.533 Y41.412 E0.01704
G1 X71.804 Y40.683 E0.03264
G1 X71.694 Y41.112 E0.01401
G1 X72.164 Y41.581 E0.02102
G1 E-0.80000 F2100.00000
G1 Z0.800 F10800.000
G1 X106.334 Y56.201
G1 Z0.200
G1 E0.80000 F2100.00000
G1 F1200.000
G1 X96.672 Y46.269 E0.43446
M73 P0 R169
G1 X115.333 Y46.269 E0.58510
G1 X115.469 Y46.810 E0.01749
G1 X106.376 Y56.158 E0.40892
G1 X106.334 Y56.742 F10800.000
G1 F1200.000
G1 X95.780 Y45.892 E0.47461
G1 X115.627 Y45.892 E0.62231
G1 X115.886 Y46.922 E0.03330
G1 X106.376 Y56.699 E0.42767
G1 X106.224 Y56.358 F10800.000
G1 E-0.80000 F2100.00000
G1 Z0.800 F10800.000
G1 X97.543 Y47.001
G1 Z0.200
G1 E0.80000 F2100.00000
G1 F1200.000
G1 X106.336 Y55.794 E0.40061
G1 X106.606 Y55.516 E0.01248
G1 X97.641 Y46.551 E0.40843
G1 X98.189 Y46.551 E0.01765
G1 X106.876 Y55.239 E0.39578
G1 X107.146 Y54.961 E0.01248
G1 X98.737 Y46.551 E0.38313
G1 X99.285 Y46.551 E0.01765
G1 X107.416 Y54.683 E0.37047
G1 X107.686 Y54.405 E0.01248
G1 X99.833 Y46.551 E0.35782
G1 X100.381 Y46.551 E0.01765
G1 X107.957 Y54.128 E0.34516
G1 X108.227 Y53.850 E0.01248
G1 X100.928 Y46.551 E0.33251
G1 X101.476 Y46.551 E0.01765
G1 X108.497 Y53.572 E0.31985
G1 X108.767 Y53.294 E0.01248
G1 X102.024 Y46.551 E0.30720
G1 X102.572 Y46.551 E0.01765
G1 X109.037 Y53.017 E0.29455
G1 X109.307 Y52.739 E0.01248
G1 X103.120 Y46.551 E0.28189
G1 X103.668 Y46.551 E0.01765
G1 X109.578 Y52.461 E0.26924
G1 X109.848 Y52.183 E0.01248
G1 X104.216 Y46.551 E0.25658
G1 X104.764 Y46.551 E0.01765
G1 X110.118 Y51.906 E0.24393
G1 X110.388 Y51.628 E0.01248
G1 X105.312 Y46.551 E0.23127
G1 X105.860 Y46.551 E0.01765
G1 X110.658 Y51.350 E0.21862
G1 X110.928 Y51.072 E0.01248
G1 X106.408 Y46.551 E0.20597
G1 X106.956 Y46.551 E0.01765
G1 X111.199 Y50.795 E0.19331
G1 X111.469 Y50.517 E0.01248
G1 X107.503 Y46.551 E0.18066
G1 X108.051 Y46.551 E0.01765
G1 X111.739 Y50.239 E0.16800
G1 X112.009 Y49.961 E0.01248
G1 X108.599 Y46.551 E0.15535
G1 X109.147 Y46.551 E0.01765
G1 X112.279 Y49.684 E0.14269
G1 X112.549 Y49.406 E0.01248
G1 X109.695 Y46.551 E0.13004
G1 X110.243 Y46.551 E0.01765
G1 X112.820 Y49.128 E0.11739
G1 X113.090 Y48.850 E0.01248
G1 X110.791 Y46.551 E0.10473
G1 X111.339 Y46.551 E0.01765
G1 X113.360 Y48.573 E0.09208
G1 X113.630 Y48.295 E0.01248
G1 X111.887 Y46.551 E0.07942
G1 X112.435 Y46.551 E0.01765
G1 X113.900 Y48.017 E0.06677
G1 X114.170 Y47.739 E0.01248
G1 X112.983 Y46.551 E0.05411
G1 X113.531 Y46.551 E0.01765
G1 X114.441 Y47.461 E0.04146
G1 X114.711 Y47.184 E0.01248
G1 X114.078 Y46.551 E0.02881
G1 X114.626 Y46.551 E0.01765
G1 X115.101 Y47.026 E0.02162
G1 E-0.80000 F2100.00000
G1 Z0.800 F10800.000
G1 X110.290 Y58.695
G1 Z0.200
G1 E0.80000 F2100.00000
G1 F1200.000
G1 X116.778 Y52.025 E0.29174
G1 X118.447 Y58.695 E0.21558
G1 X110.350 Y58.695 E0.25387
G1 X109.397 Y59.072 F10800.000
G1 F1200.000
G1 X116.979 Y51.277 E0.34094
G1 X118.930 Y59.072 E0.25194
G1 X109.457 Y59.072 E0.29701
G1 X109.506 Y59.456 F10800.000
G1 E-0.80000 F2100.00000
G1 Z0.800 F10800.000
G1 X116.976 Y53.282
G1 Z0.200
G1 E0.80000 F2100.00000
G1 F1200.000
G1 X116.455 Y52.762 E0.02371
G1 X116.185 Y53.039 E0.01248
G1 X116.925 Y53.780 E0.03372
G1 X117.108 Y54.510 E0.02427
G1 X115.915 Y53.317 E0.05436
G1 X115.645 Y53.595 E0.01248
G1 X117.291 Y55.241 E0.07501
G1 X117.474 Y55.972 E0.02427
G1 X115.375 Y53.873 E0.09565
G1 X115.104 Y54.150 E0.01248
G1 X117.657 Y56.703 E0.11629
G1 X117.840 Y57.434 E0.02427
G1 X114.834 Y54.428 E0.13693
G1 X114.564 Y54.706 E0.01248
G1 X118.023 Y58.164 E0.15757
G1 X118.084 Y58.412 E0.00821
G1 X117.722 Y58.412 E0.01168
G1 X114.294 Y54.984 E0.15618
G1 X114.024 Y55.262 E0.01248
G1 X117.174 Y58.412 E0.14353
G1 X116.626 Y58.412 E0.01765
G1 X113.754 Y55.539 E0.13087
G1 X113.483 Y55.817 E0.01248
G1 X116.078 Y58.412 E0.11822
G1 X115.530 Y58.412 E0.01765
G1 X113.213 Y56.095 E0.10556
G1 X112.943 Y56.373 E0.01248
G1 X114.982 Y58.412 E0.09291
G1 X114.434 Y58.412 E0.01765
G1 X112.673 Y56.650 E0.08025
G1 X112.403 Y56.928 E0.01248
G1 X113.886 Y58.412 E0.06760
G1 X113.338 Y58.412 E0.01765
G1 X112.132 Y57.206 E0.05494
G1 X111.862 Y57.484 E0.01248
G1 X112.790 Y58.412 E0.04228
G1 X112.242 Y58.412 E0.01765
G1 X111.592 Y57.761 E0.02963
G1 X111.322 Y58.039 E0.01248
G1 X111.694 Y58.412 E0.01697
G1 X111.147 Y58.412 E0.01765
G1 X110.932 Y58.197 E0.00978
G1 E-0.80000 F2100.00000
G1 Z0.800 F10800.000
G1 X92.683 Y66.959
G1 Z0.200
G1 E0.80000 F2100.00000
G1 F1200.000
G1 X80.748 Y66.963 E0.37420
G1 X65.958 Y66.943 E0.46371
G1 X64.967 Y66.923 E0.03108
G1 X65.850 Y63.269 E0.11787
G1 X119.586 Y63.269 E1.68484
G1 X120.469 Y66.915 E0.11763
G1 X119.705 Y66.934 E0.02397
G1 X116.385 Y66.949 E0.10411
G1 X92.743 Y66.959 E0.74128
G1 X92.679 Y67.336 F10800.000
G1 F1200.000
G1 X65.954 Y67.320 E0.83794
G1 X64.499 Y67.291 E0.04565
G1 X65.553 Y62.892 E0.14184
G1 X119.882 Y62.892 E1.70343
G1 X120.809 Y66.693 E0.12267
G1 X120.929 Y67.280 E0.01882
G1 X119.711 Y67.311 E0.03821
G1 X116.385 Y67.326 E0.10426
G1 X92.739 Y67.336 E0.74141
G1 X92.479 Y66.989 F10800.000
G1 E-0.80000 F2100.00000
G1 Z0.800 F10800.000
G1 X119.745 Y64.401
G1 Z0.200
G1 E0.80000 F2100.00000
G1 F1200.000
G1 X118.896 Y63.551 E0.03786
G1 X118.360 Y63.551 E0.01689
G1 X119.687 Y64.879 E0.05916
G1 X119.860 Y65.588 E0.02300
G1 X117.824 Y63.551 E0.09076
G1 X117.288 Y63.551 E0.01689
G1 X120.033 Y66.297 E0.12236
G1 X120.117 Y66.641 E0.01117
G1 X119.848 Y66.648 E0.00848
G1 X116.752 Y63.551 E0.13801
G1 X116.216 Y63.551 E0.01689
G1 X119.317 Y66.653 E0.13825
G1 X118.784 Y66.656 E0.01682
G1 X115.680 Y63.551 E0.13836
G1 X115.144 Y63.551 E0.01689
G1 X118.250 Y66.658 E0.13847
G1 X117.716 Y66.660 E0.01682
G1 X114.608 Y63.551 E0.13857
G1 X114.072 Y63.551 E0.01689
G1 X117.183 Y66.663 E0.13868
G1 X116.649 Y66.665 E0.01682
G1 X113.535 Y63.551 E0.13879
G1 X112.999 Y63.551 E0.01689
G1 X116.115 Y66.667 E0.13885
G1 X115.579 Y66.667 E0.01689
G1 X112.463 Y63.551 E0.13886
G1 X111.927 Y63.551 E0.01689
G1 X115.043 Y66.667 E0.13887
G1 X114.507 Y66.667 E0.01689
G1 X111.391 Y63.551 E0.13888
G1 X110.855 Y63.551 E0.01689
G1 X113.971 Y66.667 E0.13889
G1 X113.435 Y66.668 E0.01689
G1 X110.319 Y63.551 E0.13890
G1 X109.783 Y63.551 E0.01689
G1 X112.899 Y66.668 E0.13890
G1 X112.364 Y66.668 E0.01689
G1 X109.247 Y63.551 E0.13891
G1 X108.711 Y63.551 E0.01689
G1 X111.828 Y66.668 E0.13892
G1 X111.292 Y66.668 E0.01689
G1 X108.175 Y63.551 E0.13893
G1 X107.639 Y63.551 E0.01689
G1 X110.756 Y66.669 E0.13894
G1 X110.220 Y66.669 E0.01689
G1 X107.103 Y63.551 E0.13895
G1 X106.567 Y63.551 E0.01689
G1 X109.684 Y66.669 E0.13896
G1 X109.149 Y66.669 E0.01689
G1 X106.031 Y63.551 E0.13897
G1 X105.495 Y63.551 E0.01689
G1 X108.613 Y66.670 E0.13898
G1 X108.077 Y66.670 E0.01689
G1 X104.959 Y63.551 E0.13899
G1 X104.423 Y63.551 E0.01689
G1 X107.541 Y66.670 E0.13900
G1 X107.005 Y66.670 E0.01689
G1 X103.887 Y63.551 E0.13901
G1 X103.351 Y63.551 E0.01689
G1 X106.469 Y66.670 E0.13902
G1 X105.934 Y66.671 E0.01689
G1 X102.815 Y63.551 E0.13903
G1 X102.278 Y63.551 E0.01689
G1 X105.398 Y66.671 E0.13904
G1 X104.862 Y66.671 E0.01689
G1 X101.742 Y63.551 E0.13905
G1 X101.206 Y63.551 E0.01689
G1 X104.326 Y66.671 E0.13905
G1 X103.790 Y66.671 E0.01689
G1 X100.670 Y63.551 E0.13906
G1 X100.134 Y63.551 E0.01689
G1 X103.254 Y66.672 E0.13907
G1 X102.719 Y66.672 E0.01689
G1 X99.598 Y63.551 E0.13908
G1 X99.062 Y63.551 E0.01689
G1 X102.183 Y66.672 E0.13909
G1 X101.647 Y66.672 E0.01689
G1 X98.526 Y63.551 E0.13910
G1 X97.990 Y63.551 E0.01689
G1 X101.111 Y66.672 E0.13911
G1 X100.575 Y66.673 E0.01689
G1 X97.454 Y63.551 E0.13912
G1 X96.918 Y63.551 E0.01689
G1 X100.039 Y66.673 E0.13913
G1 X99.504 Y66.673 E0.01689
G1 X96.382 Y63.551 E0.13914
G1 X95.846 Y63.551 E0.01689
G1 X98.968 Y66.673 E0.13915
G1 X98.432 Y66.673 E0.01689
G1 X95.310 Y63.551 E0.13916
G1 X94.774 Y63.551 E0.01689
G1 X97.896 Y66.674 E0.13917
G1 X97.360 Y66.674 E0.01689
G1 X94.238 Y63.551 E0.13918
G1 X93.702 Y63.551 E0.01689
G1 X96.824 Y66.674 E0.13919
G1 X96.289 Y66.674 E0.01689
G1 X93.166 Y63.551 E0.13919
G1 X92.630 Y63.551 E0.01689
G1 X95.753 Y66.675 E0.13920
G1 X95.217 Y66.675 E0.01689
G1 X92.094 Y63.551 E0.13921
G1 X91.558 Y63.551 E0.01689
G1 X94.681 Y66.675 E0.13922
G1 X94.145 Y66.675 E0.01689
G1 X91.021 Y63.551 E0.13923
G1 X90.485 Y63.551 E0.01689
G1 X93.609 Y66.675 E0.13924
G1 X93.074 Y66.676 E0.01689
G1 X89.949 Y63.551 E0.13925
G1 X89.413 Y63.551 E0.01689
