; generated by PrusaSlicer 2.2.0+win64 on 2021-01-20 at 22:50:30 UTC

; 

; external perimeters extrusion width = 0.45mm
; perimeters extrusion width = 0.45mm
; infill extrusion width = 0.45mm
; solid infill extrusion width = 0.45mm
; top infill extrusion width = 0.40mm
; first layer extrusion width = 0.42mm

M73 P0 R71
M201 X9000 Y9000 Z500 E10000 ; sets maximum accelerations, mm/sec^2
M203 X500 Y500 Z12 E120 ; sets maximum feedrates, mm/sec
M204 P2000 R1500 T2000 ; sets acceleration (P, T) and retract acceleration (R), mm/sec^2
M205 X10.00 Y10.00 Z0.20 E2.50 ; sets the jerk limits, mm/sec
M205 S0 T0 ; sets the minimum extruding and travel feed rate, mm/sec
M107
M862.3 P "MK2.5SMMU2S" ; printer model check
M862.1 P0.4 ; nozzle diameter check
M115 U3.8.0 ; tell printer latest fw version
G90 ; use absolute coordinates
M83 ; extruder relative mode
M104 S215 ; set extruder temp
M140 S60 ; set bed temp
Tx
M190 S60 ; wait for bed temp
M109 S215 ; wait for extruder temp
G28 W ; home all without mesh bed level
G80 ; mesh bed leveling

G21 ; set units to millimeters

;go outside print area
G1 Y-3.0 F1000.0
G1 Z0.4 F1000.0
; select extruder
Tc
; purge line
G1 X55.0 F2000.0
G1 Z0.3 F1000.0
G92 E0.0
G1 X240.0 E25.0 F2200.0
M73 P0 R71
G1 Y-2.0 F1000.0
G1 X55.0 E25 F1400.0
G1 Z0.20 F1000.0
G1 X5.0 E4.0 F1000.0
G92 E0.0
G21 ; set units to millimeters
G90 ; use absolute coordinates
M83 ; use relative distances for extrusion
M900 K0.05 ; Filament gcode LA 1.5
M900 K30 ; Filament gcode LA 1.0
;BEFORE_LAYER_CHANGE
G92 E0.0
;0.2


G1 E-0.80000 F2100.00000
G1 Z0.600 F10800.000
;AFTER_LAYER_CHANGE
;0.2
G1 X76.936 Y58.918
G1 Z0.200
G1 E0.80000 F2100.00000
M204 S1000
G1 F1200.000
G1 X77.844 Y58.668 E0.02954
G1 X139.210 Y55.164 E1.92722
G1 X166.193 Y55.245 E0.84604
G1 X166.762 Y55.318 E0.01799
G1 X173.862 Y57.406 E0.23204
G1 X174.508 Y57.719 E0.02249
G1 X182.110 Y65.559 E0.34241
G1 X182.536 Y66.182 E0.02367
G1 X182.757 Y67.036 E0.02767
G1 X184.780 Y99.712 E1.02651
G1 X185.314 Y150.203 E1.58319
G1 X185.167 Y151.024 E0.02614
G1 X184.740 Y151.759 E0.02668
G1 X184.155 Y152.291 E0.02478
G1 X182.987 Y152.998 E0.04283
G1 X179.303 Y154.498 E0.12470
G1 X178.425 Y154.684 E0.02813
G1 X168.953 Y154.836 E0.29704
G1 X137.295 Y154.698 E0.99261
G1 X91.910 Y150.086 E1.43034
G1 X88.625 Y149.716 E0.10366
G1 X85.235 Y149.148 E0.10776
G1 X81.822 Y148.383 E0.10967
G1 X78.542 Y147.458 E0.10687
G1 X73.862 Y145.785 E0.15583
G1 X71.166 Y144.584 E0.09253
G1 X68.945 Y143.420 E0.07863
G1 X67.213 Y142.348 E0.06387
G1 X65.842 Y141.306 E0.05399
G1 X65.200 Y140.629 E0.02926
G1 X64.860 Y139.802 E0.02802
G1 X64.615 Y135.270 E0.14230
G1 X64.633 Y88.534 E1.46539
G1 X64.779 Y87.963 E0.01846
G1 X75.795 Y60.173 E0.93729
G1 X76.199 Y59.499 E0.02466
G1 X76.889 Y58.955 E0.02754
G1 E-0.80000 F2100.00000
G1 Z0.800 F10800.000
G1 X168.365 Y101.420
G1 Z0.200
G1 E0.80000 F2100.00000
G1 F1200.000
G1 X167.981 Y101.328 E0.01239
G1 X167.561 Y101.275 E0.01326
G1 X166.437 Y101.254 E0.03524
G1 X165.848 Y101.315 E0.01858
G1 X165.655 Y101.194 E0.00711
G1 X165.263 Y101.000 E0.01372
G1 X165.067 Y100.512 E0.01649
G1 X164.980 Y100.106 E0.01302
G1 X164.727 Y99.684 E0.01545
G1 X164.337 Y99.311 E0.01691
G1 X163.856 Y99.467 E0.01585
G1 X163.398 Y99.754 E0.01694
G1 X163.038 Y99.893 E0.01212
G1 X160.629 Y100.508 E0.07796
G1 X160.128 Y100.600 E0.01597
G1 X159.520 Y100.641 E0.01909
G1 X159.008 Y100.591 E0.01613
G1 X158.316 Y100.405 E0.02246
G1 X156.861 Y99.924 E0.04804
G1 X156.947 Y99.343 E0.01843
G1 X157.268 Y98.294 E0.03441
G1 X157.654 Y97.290 E0.03373
G1 X158.016 Y96.621 E0.02383
G1 X158.455 Y95.999 E0.02388
G1 X158.535 Y95.915 E0.00363
G1 X158.765 Y95.887 E0.00728
G1 X159.015 Y95.684 E0.01007
G1 X159.296 Y95.535 E0.00999
G1 X159.438 Y95.515 E0.00447
G1 X159.891 Y95.396 E0.01472
G1 X160.397 Y95.200 E0.01701
G1 X160.774 Y95.142 E0.01194
G1 X161.136 Y95.143 E0.01137
G1 X161.306 Y95.170 E0.00539
G1 X161.694 Y95.276 E0.01260
G1 X162.011 Y95.297 E0.00996
G1 X162.242 Y95.286 E0.00727
G1 X162.573 Y95.167 E0.01101
G1 X162.803 Y94.838 E0.01257
G1 X162.975 Y94.443 E0.01351
G1 X163.094 Y93.945 E0.01606
G1 X163.026 Y93.519 E0.01354
G1 X162.809 Y93.204 E0.01199
G1 X163.080 Y92.721 E0.01738
G1 X163.356 Y92.342 E0.01469
G1 X163.652 Y92.237 E0.00985
G1 X163.879 Y91.957 E0.01130
G1 X164.548 Y91.437 E0.02656
G1 X165.167 Y90.873 E0.02628
G1 X165.477 Y90.560 E0.01382
G1 X165.674 Y90.315 E0.00984
G1 X165.805 Y90.084 E0.00832
G1 X165.917 Y89.658 E0.01382
G1 X166.123 Y87.211 E0.07699
G1 X166.091 Y87.234 E0.00122
G1 X166.092 Y86.869 E0.01144
G1 X166.000 Y85.336 E0.04815
G1 X166.041 Y84.885 E0.01422
G1 X166.073 Y84.758 E0.00408
G1 X166.237 Y84.451 E0.01093
G1 X166.395 Y83.856 E0.01931
G1 X166.446 Y83.612 E0.00781
G1 X166.497 Y83.177 E0.01374
G1 X166.683 Y82.447 E0.02361
G1 X166.980 Y81.849 E0.02095
G1 X167.303 Y81.307 E0.01978
G1 X167.420 Y81.039 E0.00916
G1 X167.729 Y80.653 E0.01549
G1 X167.826 Y80.667 E0.00307
G1 X168.543 Y80.393 E0.02407
G1 X169.361 Y80.115 E0.02710
G1 X169.807 Y79.927 E0.01518
G1 X170.806 Y79.796 E0.03159
G1 X171.085 Y79.698 E0.00926
G1 X171.982 Y79.214 E0.03197
G1 X172.502 Y78.902 E0.01902
G1 X172.823 Y78.666 E0.01249
G1 X173.026 Y78.417 E0.01008
G1 X173.187 Y77.919 E0.01641
G1 X173.006 Y77.638 E0.01049
G1 X172.727 Y76.994 E0.02198
G1 X173.626 Y77.996 E0.04220
G1 X174.277 Y76.919 E0.03947
G1 X174.363 Y76.723 E0.00670
G1 X174.683 Y76.192 E0.01943
G1 X175.266 Y75.052 E0.04015
G1 X175.437 Y74.613 E0.01476
G1 X175.482 Y74.562 E0.00216
G1 X175.874 Y73.654 E0.03101
G1 X176.094 Y72.863 E0.02574
G1 X176.125 Y72.635 E0.00720
G1 X176.096 Y72.349 E0.00901
G1 X175.892 Y71.915 E0.01502
G1 X175.606 Y71.491 E0.01604
G1 X174.556 Y70.335 E0.04898
G1 X173.890 Y69.363 E0.03694
G1 X173.585 Y68.968 E0.01567
G1 X173.541 Y68.904 E0.00242
G1 X173.483 Y68.749 E0.00518
G1 X173.133 Y68.276 E0.01844
G1 X172.848 Y67.804 E0.01730
G1 X172.600 Y67.473 E0.01297
G1 X172.217 Y66.834 E0.02336
G1 X172.156 Y66.552 E0.00906
G1 X171.850 Y66.141 E0.01606
G1 X171.517 Y66.136 E0.01044
G1 X171.461 Y65.856 E0.00897
G1 X171.311 Y65.618 E0.00880
G1 X170.492 Y64.730 E0.03789
G1 X170.388 Y64.582 E0.00566
G1 X170.016 Y63.677 E0.03068
G1 X169.849 Y63.120 E0.01824
G1 X169.688 Y62.877 E0.00912
G1 X169.263 Y62.374 E0.02066
G1 X169.174 Y62.236 E0.00516
G1 X168.982 Y61.785 E0.01535
G1 X168.718 Y61.457 E0.01320
G1 X168.438 Y61.239 E0.01112
G1 X166.380 Y60.096 E0.07381
G1 X165.482 Y59.665 E0.03123
G1 X165.627 Y59.601 E0.00496
G1 X165.727 Y59.751 E0.00567
G1 X166.471 Y60.059 E0.02522
G1 X167.028 Y60.358 E0.01984
G1 X167.330 Y60.487 E0.01030
G1 X167.519 Y60.538 E0.00612
G1 X167.829 Y60.710 E0.01113
G1 X168.687 Y61.098 E0.02952
G1 X169.538 Y61.382 E0.02813
G1 X169.866 Y61.441 E0.01044
G1 X169.903 Y61.948 E0.01593
G1 X169.961 Y62.259 E0.00991
G1 X170.202 Y62.889 E0.02117
G1 X170.324 Y63.117 E0.00810
G1 X170.678 Y63.645 E0.01993
G1 X171.316 Y64.454 E0.03232
G1 X172.392 Y65.643 E0.05026
G1 X172.605 Y65.978 E0.01246
G1 X173.073 Y66.520 E0.02245
G1 X174.020 Y67.557 E0.04405
G1 X174.296 Y67.884 E0.01340
G1 X174.487 Y68.176 E0.01096
G1 X174.633 Y68.264 E0.00531
G1 X174.741 Y68.364 E0.00463
G1 X175.777 Y69.426 E0.04652
G1 X176.131 Y69.824 E0.01668
G1 X176.714 Y70.844 E0.03687
G1 X176.909 Y70.675 E0.00811
G1 X177.366 Y71.192 E0.02163
G1 X177.723 Y71.545 E0.01576
G1 X178.986 Y72.622 E0.05204
G1 X179.132 Y72.725 E0.00559
G1 X178.978 Y73.151 E0.01419
G1 X178.384 Y74.524 E0.04691
G1 X178.294 Y74.832 E0.01006
G1 X178.259 Y75.829 E0.03127
G1 X178.141 Y76.781 E0.03010
G1 X177.820 Y77.603 E0.02767
G1 X177.517 Y78.545 E0.03101
G1 X177.366 Y79.583 E0.03289
G1 X177.246 Y80.194 E0.01952
G1 X177.321 Y80.533 E0.01090
G1 X177.435 Y80.652 E0.00517
G1 X177.141 Y81.212 E0.01983
G1 X176.994 Y81.669 E0.01508
G1 X176.742 Y82.211 E0.01874
G1 X176.573 Y82.439 E0.00889
G1 X176.404 Y82.580 E0.00689
G1 X176.221 Y82.691 E0.00673
G1 X175.640 Y82.929 E0.01968
G1 X175.108 Y83.185 E0.01852
G1 X174.748 Y83.335 E0.01223
G1 X174.106 Y83.507 E0.02084
G1 X173.740 Y83.543 E0.01151
G1 X172.740 Y83.740 E0.03197
G1 X172.399 Y83.930 E0.01224
G1 X172.109 Y84.211 E0.01266
G1 X171.979 Y84.450 E0.00853
G1 X171.905 Y84.516 E0.00309
G1 X171.841 Y84.892 E0.01197
G1 X171.867 Y85.233 E0.01072
G1 X172.018 Y85.611 E0.01278
G1 X172.100 Y86.071 E0.01464
G1 X172.478 Y86.304 E0.01392
G1 X172.775 Y86.419 E0.00999
G1 X172.927 Y86.450 E0.00488
G1 X172.952 Y86.477 E0.00114
G1 X173.293 Y86.602 E0.01139
G1 X174.136 Y86.822 E0.02732
G1 X174.974 Y87.084 E0.02751
G1 X174.191 Y87.101 E0.02454
G1 X173.519 Y87.149 E0.02112
G1 X173.363 Y86.942 E0.00814
G1 X172.973 Y87.136 E0.01366
G1 X172.102 Y86.944 E0.02796
G1 X172.405 Y88.112 E0.03783
G1 X172.571 Y88.470 E0.01239
G1 X172.927 Y89.026 E0.02067
G1 X173.281 Y89.402 E0.01618
G1 X173.499 Y89.497 E0.00749
G1 X174.063 Y89.890 E0.02155
G1 X174.387 Y90.168 E0.01340
G1 X174.570 Y90.367 E0.00846
G1 X174.913 Y90.825 E0.01794
G1 X175.144 Y91.263 E0.01551
G1 X175.355 Y91.913 E0.02143
G1 X175.544 Y92.676 E0.02467
G1 X175.706 Y93.168 E0.01623
G1 X175.869 Y93.518 E0.01211
G1 X176.169 Y93.908 E0.01543
G1 X176.329 Y94.186 E0.01005
G1 X176.405 Y94.374 E0.00635
G1 X176.117 Y94.869 E0.01796
G1 X175.878 Y95.559 E0.02292
G1 X176.580 Y95.874 E0.02413
G1 X177.201 Y96.082 E0.02052
G1 X178.349 Y96.392 E0.03729
G1 X178.420 Y96.587 E0.00650
G1 X178.610 Y96.896 E0.01136
G1 X178.831 Y97.107 E0.00958
G1 X178.974 Y97.210 E0.00554
G1 X179.261 Y97.583 E0.01477
G1 X179.671 Y97.746 E0.01382
G1 X179.757 Y97.926 E0.00624
G1 X179.930 Y98.152 E0.00894
G1 X180.272 Y98.370 E0.01273
G1 X180.490 Y98.466 E0.00744
G1 X180.744 Y98.893 E0.01560
G1 X181.025 Y99.219 E0.01350
G1 X181.156 Y99.294 E0.00473
G1 X181.440 Y99.759 E0.01707
G1 X181.212 Y99.880 E0.00809
G1 X180.244 Y100.248 E0.03247
G1 X179.330 Y100.687 E0.03179
G1 X179.008 Y100.821 E0.01091
G1 X178.785 Y100.857 E0.00711
G1 X178.521 Y100.936 E0.00863
G1 X177.747 Y101.288 E0.02667
G1 X177.485 Y101.291 E0.00820
G1 X176.416 Y101.234 E0.03358
G1 X175.901 Y101.186 E0.01621
G1 X175.601 Y101.108 E0.00971
G1 X175.126 Y100.908 E0.01615
G1 X175.003 Y100.877 E0.00398
G1 X173.880 Y100.337 E0.03908
G1 X172.982 Y100.913 E0.03346
G1 X172.841 Y100.979 E0.00486
G1 X172.697 Y101.019 E0.00470
G1 X172.294 Y101.062 E0.01271
G1 X170.780 Y101.059 E0.04745
G1 X170.182 Y101.039 E0.01879
G1 X169.975 Y100.583 E0.01569
G1 X169.025 Y100.953 E0.03196
G1 X168.678 Y101.165 E0.01276
G1 X168.411 Y101.382 E0.01077
G1 E-0.80000 F2100.00000
G1 Z0.800 F10800.000
G1 X162.979 Y59.552
G1 Z0.200
G1 E0.80000 F2100.00000
G1 F1200.000
G1 X163.550 Y58.822 E0.02905
G1 X163.954 Y59.112 E0.01560
G1 X164.193 Y59.223 E0.00824
G1 X163.722 Y59.250 E0.01477
G1 X163.434 Y59.321 E0.00931
G1 X163.174 Y59.431 E0.00886
G1 X163.030 Y59.520 E0.00531
G1 E-0.80000 F2100.00000
G1 Z0.800 F10800.000
G1 X168.415 Y101.820
G1 Z0.200
G1 E0.80000 F2100.00000
G1 F1200.000
G1 X167.913 Y101.699 E0.01619
G1 X167.534 Y101.652 E0.01198
G1 X166.453 Y101.631 E0.03390
G1 X165.779 Y101.701 E0.02124
G1 X165.730 Y101.686 E0.00161
G1 X165.472 Y101.524 E0.00956
G1 X165.088 Y101.336 E0.01339
G1 X164.950 Y101.232 E0.00541
G1 X164.705 Y100.623 E0.02060
G1 X164.624 Y100.246 E0.01207
G1 X164.429 Y99.921 E0.01189
G1 X164.239 Y99.739 E0.00825
G1 X164.017 Y99.811 E0.00732
G1 X163.568 Y100.093 E0.01661
G1 X163.153 Y100.253 E0.01396
G1 X160.709 Y100.877 E0.07906
G1 X160.174 Y100.975 E0.01706
G1 X159.514 Y101.019 E0.02074
G1 X158.940 Y100.964 E0.01808
G1 X158.208 Y100.767 E0.02377
G1 X156.751 Y100.289 E0.04808
G1 X156.483 Y100.160 E0.00932
G1 X156.484 Y99.879 E0.00882
G1 X156.578 Y99.259 E0.01967
G1 X156.912 Y98.171 E0.03569
G1 X157.311 Y97.131 E0.03491
G1 X157.695 Y96.422 E0.02529
G1 X158.163 Y95.760 E0.02542
G1 X158.343 Y95.569 E0.00823
G1 X158.612 Y95.525 E0.00855
G1 X158.802 Y95.371 E0.00768
G1 X159.066 Y95.223 E0.00947
G1 X159.195 Y95.168 E0.00442
G1 X159.363 Y95.145 E0.00531
G1 X159.770 Y95.038 E0.01320
G1 X160.312 Y94.831 E0.01818
G1 X160.746 Y94.765 E0.01375
G1 X161.166 Y94.766 E0.01318
G1 X161.385 Y94.800 E0.00697
G1 X161.757 Y94.902 E0.01208
G1 X162.167 Y94.912 E0.01286
G1 X162.332 Y94.853 E0.00550
G1 X162.472 Y94.653 E0.00765
G1 X162.616 Y94.323 E0.01127
G1 X162.709 Y93.930 E0.01267
G1 X162.667 Y93.662 E0.00851
G1 X162.436 Y93.327 E0.01277
G1 X162.417 Y93.187 E0.00442
G1 X162.485 Y92.984 E0.00671
G1 X162.765 Y92.513 E0.01720
G1 X163.103 Y92.048 E0.01800
G1 X163.145 Y92.016 E0.00167
G1 X163.426 Y91.917 E0.00933
G1 X163.613 Y91.686 E0.00933
G1 X164.305 Y91.149 E0.02746
G1 X164.906 Y90.600 E0.02552
G1 X165.196 Y90.308 E0.01290
G1 X165.361 Y90.103 E0.00825
G1 X165.452 Y89.941 E0.00583
G1 X165.544 Y89.593 E0.01127
G1 X165.677 Y88.008 E0.04989
G1 X165.127 Y88.414 E0.02142
G1 X164.986 Y88.470 E0.00478
G1 X163.678 Y89.174 E0.04659
G1 X165.567 Y87.660 E0.07592
G1 X165.662 Y87.538 E0.00486
G1 X165.714 Y87.270 E0.00854
G1 X165.715 Y86.880 E0.01223
G1 X165.622 Y85.330 E0.04868
G1 X165.669 Y84.822 E0.01601
G1 X165.718 Y84.622 E0.00644
G1 X165.884 Y84.312 E0.01105
G1 X166.028 Y83.768 E0.01763
G1 X166.074 Y83.551 E0.00695
G1 X166.125 Y83.111 E0.01389
G1 X166.282 Y82.448 E0.02136
G1 X166.335 Y82.299 E0.00497
G1 X166.649 Y81.668 E0.02209
G1 X166.963 Y81.140 E0.01926
G1 X167.046 Y80.928 E0.00715
G1 X167.367 Y80.502 E0.01673
G1 X167.370 Y80.220 E0.00882
G1 X167.334 Y80.019 E0.00642
G1 X167.589 Y80.251 E0.01083
G1 X167.783 Y80.280 E0.00615
G1 X168.415 Y80.039 E0.02118
G1 X169.227 Y79.762 E0.02690
G1 X169.710 Y79.558 E0.01645
G1 X170.711 Y79.430 E0.03166
G1 X170.932 Y79.352 E0.00733
G1 X171.796 Y78.886 E0.03076
G1 X172.293 Y78.588 E0.01820
G1 X172.561 Y78.391 E0.01041
G1 X172.689 Y78.234 E0.00637
G1 X172.773 Y77.973 E0.00859
G1 X172.671 Y77.815 E0.00591
G1 X172.453 Y77.298 E0.01760
G1 X171.765 Y75.834 E0.05071
G1 X171.417 Y75.003 E0.02825
G1 X171.989 Y75.607 E0.02609
G1 X173.567 Y77.365 E0.07407
G1 X173.942 Y76.745 E0.02273
G1 X174.027 Y76.549 E0.00670
G1 X174.354 Y76.009 E0.01978
G1 X174.923 Y74.894 E0.03927
G1 X175.064 Y74.554 E0.01152
G1 X175.087 Y74.440 E0.00365
G1 X175.160 Y74.358 E0.00345
G1 X175.518 Y73.528 E0.02834
G1 X175.724 Y72.786 E0.02413
G1 X175.745 Y72.629 E0.00499
G1 X175.727 Y72.451 E0.00559
G1 X175.563 Y72.102 E0.01210
G1 X175.309 Y71.725 E0.01428
G1 X174.260 Y70.569 E0.04893
G1 X173.585 Y69.585 E0.03741
G1 X173.280 Y69.190 E0.01565
G1 X173.204 Y69.079 E0.00421
G1 X173.148 Y68.931 E0.00498
G1 X172.820 Y68.486 E0.01732
G1 X172.535 Y68.015 E0.01727
G1 X172.287 Y67.683 E0.01299
G1 X171.869 Y67.011 E0.02482
G1 X171.805 Y66.711 E0.00961
G1 X171.659 Y66.516 E0.00766
G1 X171.412 Y66.512 E0.00772
G1 X171.228 Y66.613 E0.00660
G1 X169.910 Y67.724 E0.05405
G1 X170.238 Y67.291 E0.01705
G1 X170.757 Y66.687 E0.02496
G1 X170.998 Y66.358 E0.01280
G1 X171.157 Y66.261 E0.00583
G1 X171.104 Y65.998 E0.00841
G1 X171.011 Y65.848 E0.00553
G1 X170.198 Y64.968 E0.03757
G1 X170.055 Y64.765 E0.00777
G1 X169.661 Y63.804 E0.03258
G1 X169.503 Y63.282 E0.01708
G1 X169.386 Y63.104 E0.00669
G1 X168.960 Y62.599 E0.02071
G1 X168.840 Y62.414 E0.00693
G1 X168.655 Y61.981 E0.01474
G1 X168.451 Y61.728 E0.01019
G1 X168.229 Y61.555 E0.00883
G1 X166.208 Y60.432 E0.07250
G1 X165.447 Y60.073 E0.02637
G1 X164.742 Y59.697 E0.02507
G1 X164.467 Y59.613 E0.00901
G1 X164.129 Y59.597 E0.01060
G1 X163.782 Y59.624 E0.01092
G1 X163.553 Y59.680 E0.00739
G1 X163.348 Y59.767 E0.00699
G1 X163.129 Y59.902 E0.00807
G1 X162.233 Y60.706 E0.03775
G1 X162.134 Y60.723 E0.00313
G1 X161.834 Y60.666 E0.00957
G1 X161.970 Y60.468 E0.00755
G1 X162.309 Y59.846 E0.02220
G1 X162.531 Y59.512 E0.01260
G1 X163.430 Y58.346 E0.04614
G1 X163.548 Y58.373 E0.00379
G1 X163.632 Y58.417 E0.00298
G1 X164.145 Y58.785 E0.01980
G1 X165.152 Y59.252 E0.03479
G1 X165.379 Y59.298 E0.00726
G1 X165.569 Y59.214 E0.00652
G1 X165.681 Y59.071 E0.00571
G1 X165.889 Y58.633 E0.01519
G1 X165.853 Y59.142 E0.01599
G1 X165.873 Y59.290 E0.00470
G1 X165.978 Y59.446 E0.00588
G1 X166.632 Y59.718 E0.02222
G1 X167.192 Y60.018 E0.01991
G1 X167.454 Y60.130 E0.00895
G1 X167.662 Y60.186 E0.00673
G1 X167.998 Y60.373 E0.01207
G1 X168.825 Y60.746 E0.02843
G1 X169.632 Y61.016 E0.02668
G1 X170.064 Y61.094 E0.01377
G1 X170.167 Y61.154 E0.00373
