; generated by PrusaSlicer 2.2.0+win64 on 2021-01-18 at 23:31:04 UTC

; 

; external perimeters extrusion width = 0.45mm
; perimeters extrusion width = 0.45mm
; infill extrusion width = 0.45mm
; solid infill extrusion width = 0.45mm
; top infill extrusion width = 0.40mm
; support material extrusion width = 0.35mm
; first layer extrusion width = 0.42mm

M73 P0 R43
M201 X9000 Y9000 Z500 E10000 ; sets maximum accelerations, mm/sec^2
M203 X500 Y500 Z12 E120 ; sets maximum feedrates, mm/sec
M204 P2000 R1500 T2000 ; sets acceleration (P, T) and retract acceleration (R), mm/sec^2
M205 X10.00 Y10.00 Z0.20 E2.50 ; sets the jerk limits, mm/sec
M205 S0 T0 ; sets the minimum extruding and travel feed rate, mm/sec
M107
M862.3 P "MK2.5SMMU2S" ; printer model check
M862.1 P0.4 ; nozzle diameter check
M115 U3.8.0 ; tell printer latest fw version
G90 ; use absolute coordinates
M83 ; extruder relative mode
M104 S215 ; set extruder temp
M140 S60 ; set bed temp
Tx
M190 S60 ; wait for bed temp
M109 S215 ; wait for extruder temp
G28 W ; home all without mesh bed level
G80 ; mesh bed leveling

G21 ; set units to millimeters

;go outside print area
G1 Y-3.0 F1000.0
G1 Z0.4 F1000.0
; select extruder
Tc
; purge line
G1 X55.0 F2000.0
G1 Z0.3 F1000.0
G92 E0.0
G1 X240.0 E25.0 F2200.0
M73 P0 R43
G1 Y-2.0 F1000.0
G1 X55.0 E25 F1400.0
G1 Z0.20 F1000.0
G1 X5.0 E4.0 F1000.0
G92 E0.0
G21 ; set units to millimeters
G90 ; use absolute coordinates
M83 ; use relative distances for extrusion
M900 K0.05 ; Filament gcode LA 1.5
M900 K30 ; Filament gcode LA 1.0
;BEFORE_LAYER_CHANGE
G92 E0.0
;0.2


G1 E-0.80000 F2100.00000
G1 Z0.600 F10800.000
;AFTER_LAYER_CHANGE
;0.2
G1 X101.650 Y72.178
G1 Z0.200
G1 E0.80000 F2100.00000
M204 S1000
G1 F1200.000
G1 X102.109 Y71.661 E0.02166
G1 X102.700 Y71.295 E0.02182
G1 X103.371 Y71.112 E0.02182
G1 X114.366 Y71.048 E0.34473
G1 X146.461 Y71.102 E1.00633
G1 X147.043 Y71.195 E0.01846
G1 X147.587 Y71.431 E0.01858
G1 X148.055 Y71.794 E0.01858
G1 X148.418 Y72.258 E0.01846
G1 X148.699 Y72.942 E0.02319
G1 X150.390 Y79.622 E0.21605
G1 X154.871 Y97.538 E0.57905
G1 X155.833 Y101.723 E0.13464
G1 X155.833 Y136.570 E1.09263
G1 X155.741 Y137.162 E0.01877
G1 X155.504 Y137.718 E0.01896
G1 X155.138 Y138.194 E0.01882
G1 X154.669 Y138.561 E0.01870
G1 X153.755 Y138.881 E0.03034
G1 X152.012 Y138.938 E0.05470
G1 X98.052 Y138.945 E1.69185
G1 X96.462 Y138.908 E0.04987
G1 X95.798 Y138.779 E0.02121
G1 X95.059 Y138.376 E0.02639
G1 X94.507 Y137.741 E0.02637
G1 X94.254 Y137.156 E0.01999
G1 X94.164 Y136.521 E0.02013
G1 X94.188 Y101.720 E1.09114
G1 X95.373 Y96.631 E0.16385
G1 X101.359 Y72.804 E0.77027
G1 X101.625 Y72.232 E0.01978
G1 E-0.80000 F2100.00000
G1 Z0.800 F10800.000
G1 X124.999 Y110.734
G1 Z0.200
G1 E0.80000 F2100.00000
G1 F1200.000
G1 X103.536 Y110.734 E0.67294
G1 X104.092 Y108.552 E0.07061
G1 X114.352 Y108.532 E0.32169
G1 X145.913 Y108.583 E0.98956
G1 X146.461 Y110.734 E0.06960
G1 X125.059 Y110.734 E0.67106
G1 X124.999 Y111.111 F10800.000
G1 F1200.000
G1 X103.051 Y111.111 E0.68815
G1 X103.796 Y108.187 E0.09461
G1 X104.337 Y108.164 E0.01697
G1 X114.352 Y108.155 E0.31403
G1 X146.206 Y108.207 E0.99875
G1 X146.947 Y111.111 E0.09397
G1 X125.059 Y111.111 E0.68628
G1 X124.783 Y110.774 F10800.000
G1 E-0.80000 F2100.00000
G1 Z0.800 F10800.000
G1 X146.090 Y109.735
G1 Z0.200
G1 E0.80000 F2100.00000
G1 F1200.000
G1 X145.218 Y108.863 E0.03902
G1 X144.678 Y108.861 E0.01710
G1 X146.039 Y110.223 E0.06093
G1 X146.097 Y110.451 E0.00746
G1 X145.729 Y110.451 E0.01165
G1 X144.138 Y108.860 E0.07125
G1 X143.597 Y108.858 E0.01710
G1 X145.191 Y110.451 E0.07133
G1 X144.653 Y110.451 E0.01704
G1 X143.057 Y108.856 E0.07142
G1 X142.517 Y108.854 E0.01710
G1 X144.114 Y110.451 E0.07150
G1 X143.576 Y110.451 E0.01704
G1 X141.977 Y108.852 E0.07159
G1 X141.436 Y108.850 E0.01710
G1 X143.037 Y110.451 E0.07167
G1 X142.499 Y110.451 E0.01704
G1 X140.896 Y108.848 E0.07176
G1 X140.356 Y108.846 E0.01709
G1 X141.961 Y110.451 E0.07183
G1 X141.422 Y110.451 E0.01704
G1 X139.817 Y108.846 E0.07186
G1 X139.278 Y108.845 E0.01706
G1 X140.884 Y110.451 E0.07189
G1 X140.346 Y110.451 E0.01704
G1 X138.739 Y108.845 E0.07192
G1 X138.200 Y108.844 E0.01706
G1 X139.807 Y110.451 E0.07195
G1 X139.269 Y110.451 E0.01704
G1 X137.661 Y108.843 E0.07198
G1 X137.122 Y108.843 E0.01706
G1 X138.731 Y110.451 E0.07201
G1 X138.192 Y110.451 E0.01704
G1 X136.583 Y108.842 E0.07204
G1 X136.044 Y108.841 E0.01706
G1 X137.654 Y110.451 E0.07207
G1 X137.116 Y110.451 E0.01704
G1 X135.505 Y108.841 E0.07210
G1 X134.966 Y108.840 E0.01706
G1 X136.577 Y110.451 E0.07213
G1 X136.039 Y110.451 E0.01704
G1 X134.427 Y108.839 E0.07216
G1 X133.888 Y108.839 E0.01706
G1 X135.501 Y110.451 E0.07219
G1 X134.962 Y110.451 E0.01704
G1 X133.349 Y108.838 E0.07222
G1 X132.810 Y108.837 E0.01706
G1 X134.424 Y110.451 E0.07225
G1 X133.886 Y110.451 E0.01704
G1 X132.271 Y108.837 E0.07227
G1 X131.732 Y108.836 E0.01706
G1 X133.347 Y110.451 E0.07230
G1 X132.809 Y110.451 E0.01704
G1 X131.193 Y108.835 E0.07233
G1 X130.654 Y108.835 E0.01706
G1 X132.271 Y110.451 E0.07236
G1 X131.732 Y110.451 E0.01704
G1 X130.115 Y108.834 E0.07239
G1 X129.576 Y108.833 E0.01706
G1 X131.194 Y110.451 E0.07242
G1 X130.656 Y110.451 E0.01704
G1 X129.037 Y108.833 E0.07245
G1 X128.498 Y108.832 E0.01706
G1 X130.117 Y110.451 E0.07248
G1 X129.579 Y110.451 E0.01704
G1 X127.959 Y108.831 E0.07251
G1 X127.420 Y108.831 E0.01706
G1 X129.041 Y110.451 E0.07254
G1 X128.502 Y110.451 E0.01704
G1 X126.881 Y108.830 E0.07257
G1 X126.342 Y108.829 E0.01706
G1 X127.964 Y110.451 E0.07260
G1 X127.426 Y110.451 E0.01704
G1 X125.803 Y108.829 E0.07263
G1 X125.264 Y108.828 E0.01706
G1 X126.887 Y110.451 E0.07266
G1 X126.349 Y110.451 E0.01704
G1 X124.725 Y108.827 E0.07269
G1 X124.186 Y108.827 E0.01706
G1 X125.810 Y110.451 E0.07272
G1 X125.272 Y110.451 E0.01704
G1 X123.647 Y108.826 E0.07275
G1 X123.108 Y108.825 E0.01706
G1 X124.734 Y110.451 E0.07278
G1 X124.195 Y110.451 E0.01704
G1 X122.569 Y108.825 E0.07281
G1 X122.030 Y108.824 E0.01706
G1 X123.657 Y110.451 E0.07284
G1 X123.119 Y110.451 E0.01704
G1 X121.491 Y108.823 E0.07286
G1 X120.952 Y108.823 E0.01706
G1 X122.580 Y110.451 E0.07289
G1 X122.042 Y110.451 E0.01704
G1 X120.413 Y108.822 E0.07292
G1 X119.874 Y108.821 E0.01706
G1 X121.504 Y110.451 E0.07295
G1 X120.965 Y110.451 E0.01704
G1 X119.335 Y108.821 E0.07298
G1 X118.796 Y108.820 E0.01706
G1 X120.427 Y110.451 E0.07301
G1 X119.889 Y110.451 E0.01704
G1 X118.257 Y108.819 E0.07304
G1 X117.718 Y108.819 E0.01706
G1 X119.350 Y110.451 E0.07307
G1 X118.812 Y110.451 E0.01704
G1 X117.179 Y108.818 E0.07310
G1 X116.640 Y108.818 E0.01706
G1 X118.274 Y110.451 E0.07313
G1 X117.735 Y110.451 E0.01704
G1 X116.101 Y108.817 E0.07316
G1 X115.562 Y108.816 E0.01706
G1 X117.197 Y110.451 E0.07319
G1 X116.659 Y110.451 E0.01704
G1 X115.023 Y108.816 E0.07322
G1 X114.484 Y108.815 E0.01706
G1 X116.120 Y110.451 E0.07325
G1 X115.582 Y110.451 E0.01704
G1 X113.946 Y108.815 E0.07322
G1 X113.409 Y108.817 E0.01701
G1 X115.044 Y110.451 E0.07317
G1 X114.505 Y110.451 E0.01704
G1 X112.872 Y108.818 E0.07313
G1 X112.334 Y108.819 E0.01701
G1 X113.967 Y110.451 E0.07308
G1 X113.429 Y110.451 E0.01704
G1 X111.797 Y108.820 E0.07303
G1 X111.260 Y108.821 E0.01701
G1 X112.890 Y110.451 E0.07299
G1 X112.352 Y110.451 E0.01704
G1 X110.722 Y108.822 E0.07294
G1 X110.185 Y108.823 E0.01701
G1 X111.814 Y110.451 E0.07289
G1 X111.275 Y110.451 E0.01704
G1 X109.648 Y108.824 E0.07285
G1 X109.110 Y108.825 E0.01701
G1 X110.737 Y110.451 E0.07280
G1 X110.198 Y110.451 E0.01704
G1 X108.573 Y108.826 E0.07276
G1 X108.036 Y108.827 E0.01701
G1 X109.660 Y110.451 E0.07271
G1 X109.122 Y110.451 E0.01704
G1 X107.499 Y108.828 E0.07266
G1 X106.961 Y108.829 E0.01701
G1 X108.583 Y110.451 E0.07262
G1 X108.045 Y110.451 E0.01704
G1 X106.424 Y108.830 E0.07257
G1 X105.887 Y108.831 E0.01701
G1 X107.507 Y110.451 E0.07252
G1 X106.968 Y110.451 E0.01704
G1 X105.349 Y108.832 E0.07248
G1 X104.812 Y108.833 E0.01701
G1 X106.430 Y110.451 E0.07243
G1 X105.892 Y110.451 E0.01704
G1 X104.305 Y108.864 E0.07105
G1 X104.195 Y109.293 E0.01401
G1 X105.353 Y110.451 E0.05184
G1 X104.815 Y110.451 E0.01704
G1 X104.086 Y109.722 E0.03264
G1 X103.977 Y110.151 E0.01401
G1 X104.446 Y110.621 E0.02102
G1 E-0.80000 F2100.00000
G1 Z0.800 F10800.000
G1 X138.616 Y125.241
G1 Z0.200
G1 E0.80000 F2100.00000
G1 F1200.000
G1 X128.955 Y115.308 E0.43446
G1 X147.616 Y115.308 E0.58510
G1 X147.752 Y115.849 E0.01749
G1 X138.658 Y125.198 E0.40892
G1 X138.616 Y125.782 F10800.000
G1 F1200.000
G1 X128.062 Y114.931 E0.47461
G1 X147.910 Y114.931 E0.62231
G1 X148.168 Y115.961 E0.03330
G1 X138.658 Y125.739 E0.42767
G1 X138.506 Y125.397 F10800.000
G1 E-0.80000 F2100.00000
G1 Z0.800 F10800.000
G1 X129.825 Y116.041
G1 Z0.200
G1 E0.80000 F2100.00000
G1 F1200.000
G1 X138.618 Y124.834 E0.40061
G1 X138.888 Y124.556 E0.01248
G1 X129.923 Y115.591 E0.40843
G1 X130.471 Y115.591 E0.01765
G1 X139.158 Y124.278 E0.39578
G1 X139.428 Y124.000 E0.01248
G1 X131.019 Y115.591 E0.38313
G1 X131.567 Y115.591 E0.01765
G1 X139.699 Y123.723 E0.37047
G1 X139.969 Y123.445 E0.01248
G1 X132.115 Y115.591 E0.35782
G1 X132.663 Y115.591 E0.01765
G1 X140.239 Y123.167 E0.34516
G1 X140.509 Y122.889 E0.01248
G1 X133.211 Y115.591 E0.33251
G1 X133.759 Y115.591 E0.01765
G1 X140.779 Y122.612 E0.31985
G1 X141.049 Y122.334 E0.01248
G1 X134.307 Y115.591 E0.30720
G1 X134.855 Y115.591 E0.01765
G1 X141.320 Y122.056 E0.29455
G1 X141.590 Y121.778 E0.01248
G1 X135.402 Y115.591 E0.28189
G1 X135.950 Y115.591 E0.01765
G1 X141.860 Y121.501 E0.26924
G1 X142.130 Y121.223 E0.01248
G1 X136.498 Y115.591 E0.25658
G1 X137.046 Y115.591 E0.01765
G1 X142.400 Y120.945 E0.24393
M73 P2 R42
G1 X142.670 Y120.667 E0.01248
G1 X137.594 Y115.591 E0.23127
G1 X138.142 Y115.591 E0.01765
G1 X142.941 Y120.390 E0.21862
G1 X143.211 Y120.112 E0.01248
G1 X138.690 Y115.591 E0.20597
G1 X139.238 Y115.591 E0.01765
G1 X143.481 Y119.834 E0.19331
G1 X143.751 Y119.556 E0.01248
G1 X139.786 Y115.591 E0.18066
G1 X140.334 Y115.591 E0.01765
G1 X144.021 Y119.279 E0.16800
G1 X144.291 Y119.001 E0.01248
G1 X140.882 Y115.591 E0.15535
G1 X141.430 Y115.591 E0.01765
G1 X144.562 Y118.723 E0.14269
G1 X144.832 Y118.445 E0.01248
G1 X141.977 Y115.591 E0.13004
G1 X142.525 Y115.591 E0.01765
G1 X145.102 Y118.167 E0.11739
G1 X145.372 Y117.890 E0.01248
G1 X143.073 Y115.591 E0.10473
G1 X143.621 Y115.591 E0.01765
G1 X145.642 Y117.612 E0.09208
G1 X145.912 Y117.334 E0.01248
G1 X144.169 Y115.591 E0.07942
G1 X144.717 Y115.591 E0.01765
G1 X146.183 Y117.056 E0.06677
G1 X146.453 Y116.779 E0.01248
G1 X145.265 Y115.591 E0.05411
G1 X145.813 Y115.591 E0.01765
G1 X146.723 Y116.501 E0.04146
G1 X146.993 Y116.223 E0.01248
G1 X146.361 Y115.591 E0.02881
G1 X146.909 Y115.591 E0.01765
G1 X147.383 Y116.065 E0.02162
G1 E-0.80000 F2100.00000
G1 Z0.800 F10800.000
G1 X142.572 Y127.734
G1 Z0.200
G1 E0.80000 F2100.00000
G1 F1200.000
G1 X149.060 Y121.064 E0.29174
G1 X150.729 Y127.734 E0.21558
G1 X142.632 Y127.734 E0.25387
G1 X141.679 Y128.111 F10800.000
G1 F1200.000
G1 X149.261 Y120.316 E0.34094
G1 X151.212 Y128.111 E0.25194
G1 X141.739 Y128.111 E0.29701
G1 X141.788 Y128.496 F10800.000
G1 E-0.80000 F2100.00000
G1 Z0.800 F10800.000
G1 X149.258 Y122.321
G1 Z0.200
G1 E0.80000 F2100.00000
G1 F1200.000
G1 X148.738 Y121.801 E0.02371
G1 X148.467 Y122.079 E0.01248
G1 X149.208 Y122.819 E0.03372
G1 X149.391 Y123.550 E0.02427
G1 X148.197 Y122.357 E0.05436
G1 X147.927 Y122.634 E0.01248
G1 X149.573 Y124.281 E0.07501
G1 X149.756 Y125.011 E0.02427
G1 X147.657 Y122.912 E0.09565
G1 X147.387 Y123.190 E0.01248
G1 X149.939 Y125.742 E0.11629
G1 X150.122 Y126.473 E0.02427
G1 X147.117 Y123.468 E0.13693
G1 X146.846 Y123.745 E0.01248
G1 X150.305 Y127.204 E0.15757
G1 X150.367 Y127.451 E0.00821
G1 X150.004 Y127.451 E0.01168
G1 X146.576 Y124.023 E0.15618
G1 X146.306 Y124.301 E0.01248
G1 X149.456 Y127.451 E0.14353
G1 X148.908 Y127.451 E0.01765
G1 X146.036 Y124.579 E0.13087
G1 X145.766 Y124.857 E0.01248
G1 X148.360 Y127.451 E0.11822
G1 X147.812 Y127.451 E0.01765
G1 X145.496 Y125.134 E0.10556
G1 X145.225 Y125.412 E0.01248
G1 X147.264 Y127.451 E0.09291
G1 X146.717 Y127.451 E0.01765
G1 X144.955 Y125.690 E0.08025
G1 X144.685 Y125.968 E0.01248
G1 X146.169 Y127.451 E0.06760
G1 X145.621 Y127.451 E0.01765
G1 X144.415 Y126.245 E0.05494
G1 X144.145 Y126.523 E0.01248
G1 X145.073 Y127.451 E0.04228
G1 X144.525 Y127.451 E0.01765
G1 X143.874 Y126.801 E0.02963
G1 X143.604 Y127.079 E0.01248
G1 X143.977 Y127.451 E0.01697
G1 X143.429 Y127.451 E0.01765
G1 X143.214 Y127.236 E0.00978
G1 E-0.80000 F2100.00000
G1 Z0.800 F10800.000
G1 X124.965 Y135.998
G1 Z0.200
G1 E0.80000 F2100.00000
G1 F1200.000
G1 X113.030 Y136.003 E0.37420
G1 X98.241 Y135.982 E0.46371
G1 X97.250 Y135.962 E0.03108
G1 X98.132 Y132.308 E0.11787
G1 X151.868 Y132.308 E1.68484
G1 X152.752 Y135.954 E0.11763
G1 X151.987 Y135.974 E0.02397
G1 X148.667 Y135.989 E0.10411
G1 X125.025 Y135.998 E0.74128
G1 X124.962 Y136.375 F10800.000
G1 F1200.000
G1 X98.237 Y136.359 E0.83794
G1 X96.781 Y136.330 E0.04565
G1 X97.836 Y131.931 E0.14184
G1 X152.164 Y131.931 E1.70343
G1 X153.091 Y135.732 E0.12267
G1 X153.211 Y136.320 E0.01882
G1 X151.993 Y136.351 E0.03821
G1 X148.668 Y136.366 E0.10426
G1 X125.022 Y136.375 E0.74141
G1 X124.762 Y136.029 F10800.000
G1 E-0.80000 F2100.00000
G1 Z0.800 F10800.000
G1 X152.028 Y133.440
G1 Z0.200
G1 E0.80000 F2100.00000
G1 F1200.000
G1 X151.178 Y132.591 E0.03786
G1 X150.642 Y132.591 E0.01689
G1 X151.969 Y133.918 E0.05916
G1 X152.142 Y134.627 E0.02300
G1 X150.106 Y132.591 E0.09076
G1 X149.570 Y132.591 E0.01689
G1 X152.315 Y135.336 E0.12236
G1 X152.399 Y135.680 E0.01117
G1 X152.130 Y135.687 E0.00848
G1 X149.034 Y132.591 E0.13801
G1 X148.498 Y132.591 E0.01689
G1 X151.600 Y135.693 E0.13825
G1 X151.066 Y135.695 E0.01682
G1 X147.962 Y132.591 E0.13836
G1 X147.426 Y132.591 E0.01689
G1 X150.532 Y135.697 E0.13847
G1 X149.999 Y135.700 E0.01682
G1 X146.890 Y132.591 E0.13857
G1 X146.354 Y132.591 E0.01689
G1 X149.465 Y135.702 E0.13868
G1 X148.932 Y135.705 E0.01682
G1 X145.818 Y132.591 E0.13879
G1 X145.282 Y132.591 E0.01689
G1 X148.397 Y135.706 E0.13885
G1 X147.861 Y135.706 E0.01689
G1 X144.746 Y132.591 E0.13886
G1 X144.210 Y132.591 E0.01689
G1 X147.325 Y135.706 E0.13887
G1 X146.789 Y135.707 E0.01689
G1 X143.674 Y132.591 E0.13888
G1 X143.138 Y132.591 E0.01689
G1 X146.253 Y135.707 E0.13889
G1 X145.718 Y135.707 E0.01689
G1 X142.601 Y132.591 E0.13890
G1 X142.065 Y132.591 E0.01689
G1 X145.182 Y135.707 E0.13890
G1 X144.646 Y135.708 E0.01689
G1 X141.529 Y132.591 E0.13891
G1 X140.993 Y132.591 E0.01689
G1 X144.110 Y135.708 E0.13892
G1 X143.574 Y135.708 E0.01689
G1 X140.457 Y132.591 E0.13893
G1 X139.921 Y132.591 E0.01689
G1 X143.038 Y135.708 E0.13894
G1 X142.503 Y135.708 E0.01689
G1 X139.385 Y132.591 E0.13895
G1 X138.849 Y132.591 E0.01689
G1 X141.967 Y135.709 E0.13896
G1 X141.431 Y135.709 E0.01689
G1 X138.313 Y132.591 E0.13897
G1 X137.777 Y132.591 E0.01689
G1 X140.895 Y135.709 E0.13898
G1 X140.359 Y135.709 E0.01689
G1 X137.241 Y132.591 E0.13899
G1 X136.705 Y132.591 E0.01689
G1 X139.823 Y135.709 E0.13900
G1 X139.288 Y135.710 E0.01689
G1 X136.169 Y132.591 E0.13901
G1 X135.633 Y132.591 E0.01689
G1 X138.752 Y135.710 E0.13902
G1 X138.216 Y135.710 E0.01689
G1 X135.097 Y132.591 E0.13903
G1 X134.561 Y132.591 E0.01689
G1 X137.680 Y135.710 E0.13904
G1 X137.144 Y135.710 E0.01689
G1 X134.025 Y132.591 E0.13905
G1 X133.489 Y132.591 E0.01689
G1 X136.608 Y135.711 E0.13905
G1 X136.073 Y135.711 E0.01689
G1 X132.953 Y132.591 E0.13906
G1 X132.417 Y132.591 E0.01689
G1 X135.537 Y135.711 E0.13907
G1 X135.001 Y135.711 E0.01689
G1 X131.881 Y132.591 E0.13908
G1 X131.344 Y132.591 E0.01689
G1 X134.465 Y135.712 E0.13909
G1 X133.929 Y135.712 E0.01689
G1 X130.808 Y132.591 E0.13910
G1 X130.272 Y132.591 E0.01689
G1 X133.393 Y135.712 E0.13911
G1 X132.858 Y135.712 E0.01689
G1 X129.736 Y132.591 E0.13912
G1 X129.200 Y132.591 E0.01689
G1 X132.322 Y135.712 E0.13913
G1 X131.786 Y135.713 E0.01689
G1 X128.664 Y132.591 E0.13914
G1 X128.128 Y132.591 E0.01689
G1 X131.250 Y135.713 E0.13915
G1 X130.714 Y135.713 E0.01689
G1 X127.592 Y132.591 E0.13916
G1 X127.056 Y132.591 E0.01689
G1 X130.178 Y135.713 E0.13917
