; generated by PrusaSlicer 2.2.0+win64 on 2021-01-18 at 23:31:17 UTC

; 

; external perimeters extrusion width = 0.45mm
; perimeters extrusion width = 0.45mm
; infill extrusion width = 0.45mm
; solid infill extrusion width = 0.45mm
; top infill extrusion width = 0.40mm
; support material extrusion width = 0.35mm
; first layer extrusion width = 0.42mm

M73 P0 R86
M201 X9000 Y9000 Z500 E10000 ; sets maximum accelerations, mm/sec^2
M203 X500 Y500 Z12 E120 ; sets maximum feedrates, mm/sec
M204 P2000 R1500 T2000 ; sets acceleration (P, T) and retract acceleration (R), mm/sec^2
M205 X10.00 Y10.00 Z0.20 E2.50 ; sets the jerk limits, mm/sec
M205 S0 T0 ; sets the minimum extruding and travel feed rate, mm/sec
M107
M862.3 P "MK2.5SMMU2S" ; printer model check
M862.1 P0.4 ; nozzle diameter check
M115 U3.8.0 ; tell printer latest fw version
G90 ; use absolute coordinates
M83 ; extruder relative mode
M104 S215 ; set extruder temp
M140 S60 ; set bed temp
Tx
M190 S60 ; wait for bed temp
M109 S215 ; wait for extruder temp
G28 W ; home all without mesh bed level
G80 ; mesh bed leveling

G21 ; set units to millimeters

;go outside print area
G1 Y-3.0 F1000.0
G1 Z0.4 F1000.0
; select extruder
Tc
; purge line
G1 X55.0 F2000.0
G1 Z0.3 F1000.0
G92 E0.0
G1 X240.0 E25.0 F2200.0
M73 P0 R85
G1 Y-2.0 F1000.0
G1 X55.0 E25 F1400.0
G1 Z0.20 F1000.0
G1 X5.0 E4.0 F1000.0
G92 E0.0
G21 ; set units to millimeters
G90 ; use absolute coordinates
M83 ; use relative distances for extrusion
M900 K0.05 ; Filament gcode LA 1.5
M900 K30 ; Filament gcode LA 1.0
;BEFORE_LAYER_CHANGE
G92 E0.0
;0.2


G1 E-0.80000 F2100.00000
G1 Z0.600 F10800.000
;AFTER_LAYER_CHANGE
;0.2
G1 X69.338 Y72.206
G1 Z0.200
G1 E0.80000 F2100.00000
M204 S1000
G1 F1200.000
G1 X69.866 Y71.620 E0.02473
G1 X70.293 Y71.348 E0.01589
G1 X70.760 Y71.173 E0.01562
G1 X72.032 Y71.057 E0.04007
G1 X146.648 Y71.048 E2.33953
G1 X178.744 Y71.102 E1.00633
G1 X179.325 Y71.195 E0.01846
G1 X179.866 Y71.429 E0.01846
G1 X180.332 Y71.788 E0.01846
G1 X180.696 Y72.251 E0.01846
G1 X180.981 Y72.942 E0.02343
G1 X182.672 Y79.621 E0.21602
G1 X187.153 Y97.538 E0.57908
G1 X188.114 Y101.711 E0.13428
G1 X188.126 Y136.551 E1.09236
G1 X188.058 Y137.074 E0.01654
G1 X187.877 Y137.571 E0.01659
G1 X187.594 Y138.013 E0.01645
G1 X187.225 Y138.380 E0.01633
G1 X186.670 Y138.709 E0.02024
G1 X186.030 Y138.883 E0.02080
G1 X183.027 Y138.946 E0.09416
G1 X66.846 Y138.950 E3.64277
G1 X63.786 Y138.853 E0.09600
G1 X63.020 Y138.547 E0.02587
G1 X62.405 Y138.001 E0.02579
G1 X62.020 Y137.309 E0.02484
G1 X61.882 Y136.532 E0.02474
G1 X61.897 Y101.702 E1.09207
G1 X63.080 Y96.631 E0.16328
G1 X69.029 Y72.935 E0.76601
G1 X69.315 Y72.262 E0.02294
G1 E-0.80000 F2100.00000
G1 Z0.800 F10800.000
G1 X92.717 Y76.214
G1 Z0.200
G1 E0.80000 F2100.00000
G1 F1200.000
G1 X71.254 Y76.214 E0.67294
G1 X71.810 Y74.032 E0.07061
G1 X82.070 Y74.012 E0.32169
G1 X113.630 Y74.063 E0.98956
G1 X114.179 Y76.214 E0.06960
G1 X92.777 Y76.214 E0.67106
G1 X92.717 Y76.591 F10800.000
G1 F1200.000
G1 X70.769 Y76.591 E0.68815
G1 X71.514 Y73.667 E0.09461
G1 X72.055 Y73.644 E0.01697
G1 X82.070 Y73.635 E0.31403
G1 X113.923 Y73.687 E0.99875
G1 X114.664 Y76.591 E0.09397
G1 X92.777 Y76.591 E0.68628
G1 X92.501 Y76.254 F10800.000
G1 E-0.80000 F2100.00000
G1 Z0.800 F10800.000
G1 X113.807 Y75.215
G1 Z0.200
G1 E0.80000 F2100.00000
G1 F1200.000
G1 X112.936 Y74.344 E0.03902
G1 X112.395 Y74.342 E0.01710
G1 X113.757 Y75.703 E0.06093
G1 X113.815 Y75.931 E0.00746
G1 X113.447 Y75.931 E0.01165
G1 X111.855 Y74.340 E0.07125
G1 X111.315 Y74.338 E0.01710
G1 X112.909 Y75.931 E0.07133
G1 X112.370 Y75.931 E0.01704
G1 X110.775 Y74.336 E0.07142
G1 X110.235 Y74.334 E0.01710
G1 X111.832 Y75.931 E0.07150
G1 X111.294 Y75.931 E0.01704
G1 X109.694 Y74.332 E0.07159
G1 X109.154 Y74.330 E0.01710
G1 X110.755 Y75.931 E0.07167
G1 X110.217 Y75.931 E0.01704
G1 X108.614 Y74.328 E0.07176
G1 X108.074 Y74.327 E0.01709
G1 X109.678 Y75.931 E0.07183
G1 X109.140 Y75.931 E0.01704
G1 X107.535 Y74.326 E0.07186
G1 X106.996 Y74.325 E0.01706
G1 X108.602 Y75.931 E0.07189
G1 X108.063 Y75.931 E0.01704
G1 X106.457 Y74.325 E0.07192
G1 X105.918 Y74.324 E0.01706
G1 X107.525 Y75.931 E0.07195
G1 X106.987 Y75.931 E0.01704
G1 X105.379 Y74.323 E0.07198
G1 X104.840 Y74.323 E0.01706
G1 X106.448 Y75.931 E0.07201
G1 X105.910 Y75.931 E0.01704
G1 X104.301 Y74.322 E0.07204
G1 X103.762 Y74.321 E0.01706
G1 X105.372 Y75.931 E0.07207
G1 X104.833 Y75.931 E0.01704
G1 X103.223 Y74.321 E0.07210
G1 X102.684 Y74.320 E0.01706
G1 X104.295 Y75.931 E0.07213
G1 X103.757 Y75.931 E0.01704
G1 X102.145 Y74.320 E0.07216
G1 X101.606 Y74.319 E0.01706
G1 X103.218 Y75.931 E0.07219
G1 X102.680 Y75.931 E0.01704
G1 X101.067 Y74.318 E0.07222
G1 X100.528 Y74.318 E0.01706
G1 X102.142 Y75.931 E0.07225
G1 X101.603 Y75.931 E0.01704
G1 X99.989 Y74.317 E0.07227
G1 X99.450 Y74.316 E0.01706
G1 X101.065 Y75.931 E0.07230
G1 X100.527 Y75.931 E0.01704
G1 X98.911 Y74.316 E0.07233
G1 X98.372 Y74.315 E0.01706
G1 X99.988 Y75.931 E0.07236
G1 X99.450 Y75.931 E0.01704
G1 X97.833 Y74.314 E0.07239
G1 X97.294 Y74.314 E0.01706
G1 X98.912 Y75.931 E0.07242
G1 X98.373 Y75.931 E0.01704
G1 X96.755 Y74.313 E0.07245
G1 X96.216 Y74.312 E0.01706
G1 X97.835 Y75.931 E0.07248
G1 X97.297 Y75.931 E0.01704
G1 X95.677 Y74.312 E0.07251
G1 X95.138 Y74.311 E0.01706
G1 X96.758 Y75.931 E0.07254
G1 X96.220 Y75.931 E0.01704
G1 X94.599 Y74.310 E0.07257
G1 X94.060 Y74.310 E0.01706
G1 X95.682 Y75.931 E0.07260
G1 X95.143 Y75.931 E0.01704
G1 X93.521 Y74.309 E0.07263
G1 X92.982 Y74.308 E0.01706
G1 X94.605 Y75.931 E0.07266
G1 X94.066 Y75.931 E0.01704
G1 X92.443 Y74.308 E0.07269
G1 X91.904 Y74.307 E0.01706
G1 X93.528 Y75.931 E0.07272
G1 X92.990 Y75.931 E0.01704
G1 X91.365 Y74.306 E0.07275
G1 X90.826 Y74.306 E0.01706
G1 X92.451 Y75.931 E0.07278
G1 X91.913 Y75.931 E0.01704
G1 X90.287 Y74.305 E0.07281
G1 X89.748 Y74.304 E0.01706
G1 X91.375 Y75.931 E0.07284
G1 X90.836 Y75.931 E0.01704
G1 X89.209 Y74.304 E0.07286
G1 X88.670 Y74.303 E0.01706
G1 X90.298 Y75.931 E0.07289
G1 X89.760 Y75.931 E0.01704
G1 X88.131 Y74.302 E0.07292
G1 X87.592 Y74.302 E0.01706
G1 X89.221 Y75.931 E0.07295
G1 X88.683 Y75.931 E0.01704
G1 X87.053 Y74.301 E0.07298
G1 X86.514 Y74.300 E0.01706
G1 X88.145 Y75.931 E0.07301
G1 X87.606 Y75.931 E0.01704
G1 X85.975 Y74.300 E0.07304
G1 X85.436 Y74.299 E0.01706
G1 X87.068 Y75.931 E0.07307
G1 X86.530 Y75.931 E0.01704
G1 X84.897 Y74.298 E0.07310
G1 X84.358 Y74.298 E0.01706
G1 X85.991 Y75.931 E0.07313
G1 X85.453 Y75.931 E0.01704
G1 X83.819 Y74.297 E0.07316
G1 X83.280 Y74.296 E0.01706
G1 X84.915 Y75.931 E0.07319
G1 X84.376 Y75.931 E0.01704
G1 X82.741 Y74.296 E0.07322
G1 X82.202 Y74.295 E0.01706
G1 X83.838 Y75.931 E0.07325
G1 X83.300 Y75.931 E0.01704
G1 X81.664 Y74.296 E0.07322
G1 X81.127 Y74.297 E0.01701
G1 X82.761 Y75.931 E0.07317
G1 X82.223 Y75.931 E0.01704
G1 X80.589 Y74.298 E0.07313
G1 X80.052 Y74.299 E0.01701
G1 X81.685 Y75.931 E0.07308
G1 X81.146 Y75.931 E0.01704
G1 X79.515 Y74.300 E0.07303
G1 X78.977 Y74.301 E0.01701
G1 X80.608 Y75.931 E0.07299
G1 X80.070 Y75.931 E0.01704
G1 X78.440 Y74.302 E0.07294
G1 X77.903 Y74.303 E0.01701
G1 X79.531 Y75.931 E0.07289
G1 X78.993 Y75.931 E0.01704
G1 X77.365 Y74.304 E0.07285
G1 X76.828 Y74.305 E0.01701
G1 X78.455 Y75.931 E0.07280
G1 X77.916 Y75.931 E0.01704
G1 X76.291 Y74.306 E0.07276
G1 X75.754 Y74.307 E0.01701
G1 X77.378 Y75.931 E0.07271
G1 X76.839 Y75.931 E0.01704
G1 X75.216 Y74.308 E0.07266
G1 X74.679 Y74.309 E0.01701
G1 X76.301 Y75.931 E0.07262
G1 X75.763 Y75.931 E0.01704
G1 X74.142 Y74.310 E0.07257
G1 X73.604 Y74.311 E0.01701
G1 X75.224 Y75.931 E0.07252
G1 X74.686 Y75.931 E0.01704
G1 X73.067 Y74.312 E0.07248
G1 X72.530 Y74.313 E0.01701
G1 X74.148 Y75.931 E0.07243
G1 X73.609 Y75.931 E0.01704
G1 X72.022 Y74.344 E0.07105
G1 X71.913 Y74.773 E0.01401
G1 X73.071 Y75.931 E0.05184
G1 X72.533 Y75.931 E0.01704
G1 X71.804 Y75.202 E0.03264
G1 X71.694 Y75.631 E0.01401
G1 X72.164 Y76.101 E0.02102
G1 E-0.80000 F2100.00000
G1 Z0.800 F10800.000
G1 X106.334 Y90.721
G1 Z0.200
G1 E0.80000 F2100.00000
G1 F1200.000
G1 X96.672 Y80.788 E0.43446
G1 X115.333 Y80.788 E0.58510
G1 X115.469 Y81.329 E0.01749
G1 X106.376 Y90.678 E0.40892
G1 X106.334 Y91.262 F10800.000
G1 F1200.000
G1 X95.780 Y80.411 E0.47461
G1 X115.627 Y80.411 E0.62231
G1 X115.886 Y81.441 E0.03330
G1 X106.376 Y91.219 E0.42767
G1 X106.224 Y90.877 F10800.000
G1 E-0.80000 F2100.00000
G1 Z0.800 F10800.000
G1 X97.543 Y81.521
G1 Z0.200
G1 E0.80000 F2100.00000
G1 F1200.000
G1 X106.336 Y90.314 E0.40061
G1 X106.606 Y90.036 E0.01248
G1 X97.641 Y81.071 E0.40843
G1 X98.189 Y81.071 E0.01765
G1 X106.876 Y89.758 E0.39578
M73 P1 R84
G1 X107.146 Y89.481 E0.01248
G1 X98.737 Y81.071 E0.38313
G1 X99.285 Y81.071 E0.01765
G1 X107.416 Y89.203 E0.37047
G1 X107.686 Y88.925 E0.01248
G1 X99.833 Y81.071 E0.35782
G1 X100.381 Y81.071 E0.01765
G1 X107.957 Y88.647 E0.34516
G1 X108.227 Y88.370 E0.01248
G1 X100.928 Y81.071 E0.33251
G1 X101.476 Y81.071 E0.01765
G1 X108.497 Y88.092 E0.31985
G1 X108.767 Y87.814 E0.01248
G1 X102.024 Y81.071 E0.30720
G1 X102.572 Y81.071 E0.01765
G1 X109.037 Y87.536 E0.29455
G1 X109.307 Y87.259 E0.01248
G1 X103.120 Y81.071 E0.28189
G1 X103.668 Y81.071 E0.01765
G1 X109.578 Y86.981 E0.26924
G1 X109.848 Y86.703 E0.01248
G1 X104.216 Y81.071 E0.25658
G1 X104.764 Y81.071 E0.01765
G1 X110.118 Y86.425 E0.24393
G1 X110.388 Y86.148 E0.01248
G1 X105.312 Y81.071 E0.23127
G1 X105.860 Y81.071 E0.01765
G1 X110.658 Y85.870 E0.21862
G1 X110.928 Y85.592 E0.01248
G1 X106.408 Y81.071 E0.20597
G1 X106.956 Y81.071 E0.01765
G1 X111.199 Y85.314 E0.19331
G1 X111.469 Y85.037 E0.01248
G1 X107.503 Y81.071 E0.18066
G1 X108.051 Y81.071 E0.01765
G1 X111.739 Y84.759 E0.16800
G1 X112.009 Y84.481 E0.01248
G1 X108.599 Y81.071 E0.15535
G1 X109.147 Y81.071 E0.01765
G1 X112.279 Y84.203 E0.14269
G1 X112.549 Y83.926 E0.01248
G1 X109.695 Y81.071 E0.13004
G1 X110.243 Y81.071 E0.01765
G1 X112.820 Y83.648 E0.11739
G1 X113.090 Y83.370 E0.01248
G1 X110.791 Y81.071 E0.10473
G1 X111.339 Y81.071 E0.01765
G1 X113.360 Y83.092 E0.09208
G1 X113.630 Y82.814 E0.01248
G1 X111.887 Y81.071 E0.07942
G1 X112.435 Y81.071 E0.01765
G1 X113.900 Y82.537 E0.06677
G1 X114.170 Y82.259 E0.01248
G1 X112.983 Y81.071 E0.05411
G1 X113.531 Y81.071 E0.01765
G1 X114.441 Y81.981 E0.04146
G1 X114.711 Y81.703 E0.01248
G1 X114.078 Y81.071 E0.02881
G1 X114.626 Y81.071 E0.01765
G1 X115.101 Y81.546 E0.02162
G1 E-0.80000 F2100.00000
G1 Z0.800 F10800.000
G1 X110.290 Y93.214
G1 Z0.200
G1 E0.80000 F2100.00000
G1 F1200.000
G1 X116.778 Y86.544 E0.29174
G1 X118.447 Y93.214 E0.21558
G1 X110.350 Y93.214 E0.25387
G1 X109.397 Y93.591 F10800.000
G1 F1200.000
G1 X116.979 Y85.797 E0.34094
G1 X118.930 Y93.591 E0.25194
G1 X109.457 Y93.591 E0.29701
G1 X109.506 Y93.976 F10800.000
G1 E-0.80000 F2100.00000
G1 Z0.800 F10800.000
G1 X116.976 Y87.802
G1 Z0.200
G1 E0.80000 F2100.00000
G1 F1200.000
G1 X116.455 Y87.281 E0.02371
G1 X116.185 Y87.559 E0.01248
G1 X116.925 Y88.299 E0.03372
G1 X117.108 Y89.030 E0.02427
G1 X115.915 Y87.837 E0.05436
G1 X115.645 Y88.115 E0.01248
G1 X117.291 Y89.761 E0.07501
G1 X117.474 Y90.492 E0.02427
G1 X115.375 Y88.392 E0.09565
G1 X115.104 Y88.670 E0.01248
G1 X117.657 Y91.223 E0.11629
G1 X117.840 Y91.953 E0.02427
G1 X114.834 Y88.948 E0.13693
G1 X114.564 Y89.226 E0.01248
G1 X118.023 Y92.684 E0.15757
G1 X118.084 Y92.931 E0.00821
G1 X117.722 Y92.931 E0.01168
G1 X114.294 Y89.504 E0.15618
G1 X114.024 Y89.781 E0.01248
G1 X117.174 Y92.931 E0.14353
G1 X116.626 Y92.931 E0.01765
G1 X113.754 Y90.059 E0.13087
G1 X113.483 Y90.337 E0.01248
G1 X116.078 Y92.931 E0.11822
G1 X115.530 Y92.931 E0.01765
G1 X113.213 Y90.615 E0.10556
G1 X112.943 Y90.892 E0.01248
G1 X114.982 Y92.931 E0.09291
G1 X114.434 Y92.931 E0.01765
G1 X112.673 Y91.170 E0.08025
G1 X112.403 Y91.448 E0.01248
G1 X113.886 Y92.931 E0.06760
G1 X113.338 Y92.931 E0.01765
G1 X112.132 Y91.726 E0.05494
G1 X111.862 Y92.003 E0.01248
G1 X112.790 Y92.931 E0.04228
G1 X112.242 Y92.931 E0.01765
G1 X111.592 Y92.281 E0.02963
G1 X111.322 Y92.559 E0.01248
G1 X111.694 Y92.931 E0.01697
G1 X111.147 Y92.931 E0.01765
G1 X110.932 Y92.717 E0.00978
G1 E-0.80000 F2100.00000
G1 Z0.800 F10800.000
G1 X92.683 Y101.478
G1 Z0.200
G1 E0.80000 F2100.00000
G1 F1200.000
G1 X80.748 Y101.483 E0.37420
G1 X65.958 Y101.462 E0.46371
G1 X64.967 Y101.443 E0.03108
G1 X65.850 Y97.788 E0.11787
G1 X119.586 Y97.788 E1.68484
G1 X120.469 Y101.435 E0.11763
G1 X119.705 Y101.454 E0.02397
G1 X116.385 Y101.469 E0.10411
G1 X92.743 Y101.478 E0.74128
G1 X92.679 Y101.855 F10800.000
G1 F1200.000
G1 X65.954 Y101.839 E0.83794
G1 X64.499 Y101.811 E0.04565
G1 X65.553 Y97.411 E0.14184
G1 X119.882 Y97.411 E1.70343
G1 X120.809 Y101.212 E0.12267
G1 X120.929 Y101.800 E0.01882
G1 X119.711 Y101.831 E0.03821
G1 X116.385 Y101.846 E0.10426
G1 X92.739 Y101.855 E0.74141
G1 X92.479 Y101.509 F10800.000
G1 E-0.80000 F2100.00000
G1 Z0.800 F10800.000
G1 X119.745 Y98.920
G1 Z0.200
G1 E0.80000 F2100.00000
G1 F1200.000
G1 X118.896 Y98.071 E0.03786
G1 X118.360 Y98.071 E0.01689
G1 X119.687 Y99.398 E0.05916
G1 X119.860 Y100.107 E0.02300
G1 X117.824 Y98.071 E0.09076
G1 X117.288 Y98.071 E0.01689
G1 X120.033 Y100.816 E0.12236
G1 X120.117 Y101.161 E0.01117
G1 X119.848 Y101.167 E0.00848
G1 X116.752 Y98.071 E0.13801
G1 X116.216 Y98.071 E0.01689
G1 X119.317 Y101.173 E0.13825
G1 X118.784 Y101.175 E0.01682
G1 X115.680 Y98.071 E0.13836
G1 X115.144 Y98.071 E0.01689
G1 X118.250 Y101.178 E0.13847
G1 X117.716 Y101.180 E0.01682
G1 X114.608 Y98.071 E0.13857
G1 X114.072 Y98.071 E0.01689
G1 X117.183 Y101.183 E0.13868
G1 X116.649 Y101.185 E0.01682
G1 X113.535 Y98.071 E0.13879
G1 X112.999 Y98.071 E0.01689
G1 X116.115 Y101.186 E0.13885
G1 X115.579 Y101.187 E0.01689
G1 X112.463 Y98.071 E0.13886
G1 X111.927 Y98.071 E0.01689
G1 X115.043 Y101.187 E0.13887
G1 X114.507 Y101.187 E0.01689
G1 X111.391 Y98.071 E0.13888
G1 X110.855 Y98.071 E0.01689
G1 X113.971 Y101.187 E0.13889
G1 X113.435 Y101.187 E0.01689
G1 X110.319 Y98.071 E0.13890
G1 X109.783 Y98.071 E0.01689
G1 X112.899 Y101.188 E0.13890
G1 X112.364 Y101.188 E0.01689
G1 X109.247 Y98.071 E0.13891
G1 X108.711 Y98.071 E0.01689
G1 X111.828 Y101.188 E0.13892
G1 X111.292 Y101.188 E0.01689
G1 X108.175 Y98.071 E0.13893
G1 X107.639 Y98.071 E0.01689
G1 X110.756 Y101.188 E0.13894
G1 X110.220 Y101.189 E0.01689
G1 X107.103 Y98.071 E0.13895
G1 X106.567 Y98.071 E0.01689
G1 X109.684 Y101.189 E0.13896
G1 X109.149 Y101.189 E0.01689
G1 X106.031 Y98.071 E0.13897
G1 X105.495 Y98.071 E0.01689
G1 X108.613 Y101.189 E0.13898
G1 X108.077 Y101.189 E0.01689
G1 X104.959 Y98.071 E0.13899
G1 X104.423 Y98.071 E0.01689
G1 X107.541 Y101.190 E0.13900
G1 X107.005 Y101.190 E0.01689
G1 X103.887 Y98.071 E0.13901
G1 X103.351 Y98.071 E0.01689
G1 X106.469 Y101.190 E0.13902
G1 X105.934 Y101.190 E0.01689
G1 X102.815 Y98.071 E0.13903
G1 X102.278 Y98.071 E0.01689
G1 X105.398 Y101.191 E0.13904
G1 X104.862 Y101.191 E0.01689
G1 X101.742 Y98.071 E0.13905
G1 X101.206 Y98.071 E0.01689
G1 X104.326 Y101.191 E0.13905
G1 X103.790 Y101.191 E0.01689
G1 X100.670 Y98.071 E0.13906
G1 X100.134 Y98.071 E0.01689
G1 X103.254 Y101.191 E0.13907
G1 X102.719 Y101.192 E0.01689
G1 X99.598 Y98.071 E0.13908
G1 X99.062 Y98.071 E0.01689
G1 X102.183 Y101.192 E0.13909
G1 X101.647 Y101.192 E0.01689
G1 X98.526 Y98.071 E0.13910
G1 X97.990 Y98.071 E0.01689
G1 X101.111 Y101.192 E0.13911
G1 X100.575 Y101.192 E0.01689
G1 X97.454 Y98.071 E0.13912
G1 X96.918 Y98.071 E0.01689
G1 X100.039 Y101.193 E0.13913
G1 X99.504 Y101.193 E0.01689
G1 X96.382 Y98.071 E0.13914
G1 X95.846 Y98.071 E0.01689
G1 X98.968 Y101.193 E0.13915
G1 X98.432 Y101.193 E0.01689
G1 X95.310 Y98.071 E0.13916
G1 X94.774 Y98.071 E0.01689
G1 X97.896 Y101.193 E0.13917
G1 X97.360 Y101.194 E0.01689
G1 X94.238 Y98.071 E0.13918
G1 X93.702 Y98.071 E0.01689
G1 X96.824 Y101.194 E0.13919
G1 X96.289 Y101.194 E0.01689
G1 X93.166 Y98.071 E0.13919
G1 X92.630 Y98.071 E0.01689
G1 X95.753 Y101.194 E0.13920
G1 X95.217 Y101.195 E0.01689
G1 X92.094 Y98.071 E0.13921
G1 X91.558 Y98.071 E0.01689
G1 X94.681 Y101.195 E0.13922
G1 X94.145 Y101.195 E0.01689
G1 X91.021 Y98.071 E0.13923
G1 X90.485 Y98.071 E0.01689
G1 X93.609 Y101.195 E0.13924
G1 X93.074 Y101.195 E0.01689
