; generated by PrusaSlicer 2.2.0+win64 on 2021-01-18 at 23:26:30 UTC

; 

; external perimeters extrusion width = 0.45mm
; perimeters extrusion width = 0.45mm
; infill extrusion width = 0.45mm
; solid infill extrusion width = 0.45mm
; top infill extrusion width = 0.40mm
; support material extrusion width = 0.35mm
; first layer extrusion width = 0.42mm

M73 P0 R37
M201 X9000 Y9000 Z500 E10000 ; sets maximum accelerations, mm/sec^2
M203 X500 Y500 Z12 E120 ; sets maximum feedrates, mm/sec
M204 P2000 R1500 T2000 ; sets acceleration (P, T) and retract acceleration (R), mm/sec^2
M205 X10.00 Y10.00 Z0.20 E2.50 ; sets the jerk limits, mm/sec
M205 S0 T0 ; sets the minimum extruding and travel feed rate, mm/sec
M107
M862.3 P "MK2.5SMMU2S" ; printer model check
M862.1 P0.4 ; nozzle diameter check
M115 U3.8.0 ; tell printer latest fw version
G90 ; use absolute coordinates
M83 ; extruder relative mode
M104 S215 ; set extruder temp
M140 S60 ; set bed temp
Tx
M190 S60 ; wait for bed temp
M109 S215 ; wait for extruder temp
G28 W ; home all without mesh bed level
G80 ; mesh bed leveling

G21 ; set units to millimeters

;go outside print area
G1 Y-3.0 F1000.0
G1 Z0.4 F1000.0
; select extruder
Tc
; purge line
G1 X55.0 F2000.0
G1 Z0.3 F1000.0
G92 E0.0
G1 X240.0 E25.0 F2200.0
M73 P0 R37
G1 Y-2.0 F1000.0
G1 X55.0 E25 F1400.0
G1 Z0.20 F1000.0
G1 X5.0 E4.0 F1000.0
G92 E0.0
G21 ; set units to millimeters
G90 ; use absolute coordinates
M83 ; use relative distances for extrusion
M900 K0.05 ; Filament gcode LA 1.5
M900 K30 ; Filament gcode LA 1.0
;BEFORE_LAYER_CHANGE
G92 E0.0
;0.2


G1 E-0.80000 F2100.00000
G1 Z0.600 F10800.000
;AFTER_LAYER_CHANGE
;0.2
G1 X93.143 Y86.309
G1 Z0.200
G1 E0.80000 F2100.00000
M204 S1000
G1 F1200.000
G1 X93.667 Y85.986 E0.01929
G1 X94.140 Y85.831 E0.01562
G1 X94.632 Y85.778 E0.01550
G1 X155.143 Y85.778 E1.89729
G1 X155.675 Y85.839 E0.01680
G1 X156.184 Y86.020 E0.01692
G1 X156.639 Y86.310 E0.01692
G1 X157.016 Y86.696 E0.01692
G1 X176.788 Y113.382 E1.04135
G1 X177.154 Y114.127 E0.02602
G1 X177.248 Y114.766 E0.02024
G1 X177.218 Y121.344 E0.20628
G1 X177.142 Y121.883 E0.01704
G1 X176.944 Y122.393 E0.01716
G1 X176.539 Y122.948 E0.02154
G1 X168.939 Y130.549 E0.33703
G1 X168.239 Y131.029 E0.02661
G1 X167.765 Y131.184 E0.01562
G1 X167.270 Y131.237 E0.01562
G1 X85.845 Y131.146 E2.55303
G1 X82.098 Y130.861 E0.11784
G1 X81.338 Y130.663 E0.02461
G1 X80.684 Y130.229 E0.02461
G1 X73.672 Y123.217 E0.31093
G1 X73.208 Y122.534 E0.02590
G1 X73.001 Y121.645 E0.02860
G1 X72.942 Y115.209 E0.20180
G1 X73.021 Y114.614 E0.01882
G1 X73.245 Y114.058 E0.01882
G1 X92.719 Y86.755 E1.05150
G1 X93.102 Y86.352 E0.01741
G1 E-0.80000 F2100.00000
G1 Z0.800 F10800.000
G1 X99.140 Y110.596
G1 Z0.200
G1 E0.80000 F2100.00000
G1 F1200.000
G1 X98.235 Y111.501 E0.04010
G1 X98.167 Y112.178 E0.02134
G1 X98.167 Y112.636 E0.01436
G1 X99.553 Y111.249 E0.06146
G1 X100.086 Y111.783 E0.02365
G1 X98.167 Y113.702 E0.08511
G1 X98.167 Y114.769 E0.03344
G1 X100.619 Y112.316 E0.10875
G1 X101.153 Y112.849 E0.02365
G1 X97.976 Y116.026 E0.14086
G1 E-0.80000 F2100.00000
G1 Z0.800 F10800.000
G1 X94.022 Y111.447
G1 Z0.200
G1 E0.80000 F2100.00000
G1 F1200.000
G1 X90.237 Y115.232 E0.16783
G1 X90.019 Y115.268 E0.00695
G1 X89.626 Y115.290 E0.01233
G1 X89.113 Y115.290 E0.01609
G1 X94.056 Y110.347 E0.21916
G1 X94.115 Y109.498 E0.02669
G1 X94.115 Y109.222 E0.00866
G1 X88.046 Y115.290 E0.26907
G1 X86.980 Y115.290 E0.03344
G1 X93.655 Y108.615 E0.29599
G1 X93.122 Y108.081 E0.02365
G1 X85.913 Y115.290 E0.31964
G1 X84.847 Y115.290 E0.03344
G1 X92.589 Y107.548 E0.34329
G1 X92.373 Y107.332 E0.00957
G1 X90.742 Y108.964 E0.07234
G1 X90.424 Y108.646 E0.01408
G1 X83.780 Y115.290 E0.29460
G1 X83.571 Y115.290 E0.00658
G1 X83.142 Y114.862 E0.01900
G1 X89.891 Y108.113 E0.29925
G1 X89.358 Y107.580 E0.02365
G1 X75.376 Y121.561 E0.61995
G1 X75.910 Y122.094 E0.02365
G1 X81.027 Y116.977 E0.22691
G1 X81.560 Y117.510 E0.02365
G1 X76.443 Y122.627 E0.22691
G1 X76.976 Y123.161 E0.02365
G1 X82.094 Y118.043 E0.22691
G1 X82.585 Y118.535 E0.02179
G1 X84.570 Y116.549 E0.08804
G1 X84.654 Y116.549 E0.00263
G1 X77.509 Y123.694 E0.31681
G1 X78.043 Y124.227 E0.02365
G1 X85.721 Y116.549 E0.34045
G1 X86.787 Y116.549 E0.03344
G1 X78.576 Y124.760 E0.36410
G1 X79.109 Y125.294 E0.02365
G1 X87.854 Y116.549 E0.38775
G1 X88.920 Y116.549 E0.03344
G1 X79.643 Y125.827 E0.41139
G1 X80.176 Y126.360 E0.02365
G1 X89.987 Y116.549 E0.43504
G1 X91.053 Y116.549 E0.03344
G1 X80.709 Y126.893 E0.45869
G1 X81.242 Y127.427 E0.02365
G1 X92.120 Y116.549 E0.48233
G1 X93.187 Y116.549 E0.03344
G1 X81.776 Y127.960 E0.50598
G1 X82.309 Y128.493 E0.02365
G1 X94.253 Y116.549 E0.52962
G1 X95.320 Y116.549 E0.03344
G1 X84.474 Y127.395 E0.48093
G1 X85.007 Y127.928 E0.02365
G1 X96.386 Y116.549 E0.50458
G1 X97.453 Y116.549 E0.03344
G1 X85.540 Y128.462 E0.52822
G1 X85.848 Y128.769 E0.01363
G1 X87.479 Y127.138 E0.07234
G1 X87.705 Y127.364 E0.01001
G1 X101.686 Y113.383 E0.61995
G1 X102.219 Y113.916 E0.02365
G1 X88.238 Y127.897 E0.61995
G1 X88.771 Y128.430 E0.02365
G1 X102.752 Y114.449 E0.61995
G1 X103.286 Y114.982 E0.02365
G1 X95.830 Y122.438 E0.33060
G1 X96.363 Y122.971 E0.02365
G1 X103.819 Y115.516 E0.33060
G1 X104.352 Y116.049 E0.02365
G1 X96.776 Y123.625 E0.33592
G1 E-0.80000 F2100.00000
G1 Z0.800 F10800.000
G1 X82.861 Y114.869
G1 Z0.200
G1 E0.80000 F2100.00000
G1 F1200.000
G1 X82.420 Y115.310 E0.01593
G1 X81.469 Y116.261 F10800.000
G1 F1200.000
G1 X81.132 Y116.598 E0.01217
G1 X81.490 Y116.956 E0.01295
G1 X81.672 Y116.775 E0.00655
G1 X82.389 Y116.775 E0.01831
G1 X81.849 Y117.315 E0.01949
G1 X82.208 Y117.673 E0.01295
G1 X83.106 Y116.775 E0.03244
G1 X83.823 Y116.775 E0.01831
G1 X82.468 Y118.130 E0.04892
G1 X76.355 Y119.516 F10800.000
G1 F1200.000
G1 X87.193 Y108.678 E0.48059
G1 X86.660 Y108.144 E0.02365
G1 X75.941 Y118.863 E0.47527
G1 X75.408 Y118.330 E0.02365
G1 X86.126 Y107.611 E0.47527
G1 X85.848 Y107.332 E0.01236
G1 X84.216 Y108.964 E0.07234
G1 X83.962 Y108.709 E0.01128
G1 X76.506 Y116.165 E0.33060
G1 X75.973 Y115.632 E0.02365
G1 X83.429 Y108.176 E0.33060
G1 X82.895 Y107.643 E0.02365
G1 X75.320 Y115.218 E0.33592
G1 E-0.80000 F2100.00000
G1 Z0.800 F10800.000
G1 X167.193 Y118.025
G1 Z0.200
G1 E0.80000 F2100.00000
G1 F1200.000
G1 X168.923 Y116.296 E0.06244
G1 X168.679 Y116.052 E0.00879
G1 X168.697 Y116.175 E0.00318
G1 X168.665 Y116.212 E0.00125
G1 X168.697 Y116.436 E0.00578
G1 X168.403 Y116.775 E0.01145
G1 X167.726 Y116.775 E0.01729
G1 X166.933 Y117.568 E0.02864
G1 X166.574 Y117.210 E0.01295
G1 X167.009 Y116.775 E0.01570
G1 X166.292 Y116.775 E0.01831
G1 X166.118 Y116.949 E0.00628
G1 X167.040 Y115.310 F10800.000
G1 F1200.000
G1 X167.586 Y114.764 E0.01973
G1 X169.166 Y116.295 F10800.000
G1 F1200.000
G1 X172.771 Y112.689 E0.15989
G1 X172.238 Y112.155 E0.02365
G1 X168.752 Y115.641 E0.15457
G1 X168.219 Y115.108 E0.02365
G1 X171.705 Y111.622 E0.15457
G1 X171.172 Y111.089 E0.02365
G1 X167.686 Y114.575 E0.15457
G1 X167.415 Y114.304 E0.01200
G1 X166.429 Y115.290 E0.04371
G1 X165.904 Y115.290 E0.01647
G1 X170.638 Y110.556 E0.20993
G1 X170.105 Y110.022 E0.02365
G1 X164.838 Y115.290 E0.23357
G1 X163.771 Y115.290 E0.03344
G1 X169.572 Y109.489 E0.25722
G1 X169.039 Y108.956 E0.02365
G1 X162.704 Y115.290 E0.28087
G1 X161.638 Y115.290 E0.03344
G1 X168.505 Y108.423 E0.30451
G1 X167.972 Y107.889 E0.02365
G1 X160.571 Y115.290 E0.32816
G1 X160.154 Y115.290 E0.01310
G1 X159.761 Y115.268 E0.01233
G1 X159.560 Y115.235 E0.00640
G1 X167.439 Y107.356 E0.34937
G1 X167.415 Y107.332 E0.00105
G1 X165.784 Y108.964 E0.07234
G1 X165.274 Y108.454 E0.02260
G1 X158.736 Y114.992 E0.28990
M73 P3 R36
G1 X158.295 Y114.773 E0.01545
G1 X158.050 Y114.612 E0.00919
G1 X164.741 Y107.921 E0.29669
G1 X164.208 Y107.388 E0.02365
G1 X157.464 Y114.131 E0.29903
G1 X157.316 Y113.988 E0.00646
G1 X156.973 Y113.556 E0.01730
G1 X162.043 Y108.486 E0.22482
G1 X161.510 Y107.952 E0.02365
G1 X156.548 Y112.914 E0.21999
G1 X156.288 Y112.446 E0.01678
G1 X156.197 Y112.199 E0.00827
G1 X160.976 Y107.419 E0.21193
G1 X160.890 Y107.332 E0.00385
G1 X159.258 Y108.964 E0.07234
G1 X158.812 Y108.517 E0.01980
G1 X155.922 Y111.407 E0.12812
G1 X155.737 Y110.526 E0.02822
G1 X158.279 Y107.984 E0.11271
G1 X157.745 Y107.451 E0.02365
G1 X155.508 Y109.688 E0.09919
G1 E-0.80000 F2100.00000
G1 Z0.800 F10800.000
G1 X151.411 Y110.585
G1 Z0.200
G1 E0.80000 F2100.00000
G1 F1200.000
G1 X145.427 Y116.569 E0.26534
G1 X145.960 Y117.103 E0.02365
G1 X151.548 Y111.514 E0.24779
G1 X151.613 Y112.178 E0.02089
G1 X151.613 Y112.516 E0.01061
G1 X146.494 Y117.636 E0.22701
G1 X147.027 Y118.169 E0.02365
G1 X151.613 Y113.583 E0.20337
G1 X151.613 Y114.649 E0.03344
G1 X147.560 Y118.702 E0.17972
G1 X148.093 Y119.236 E0.02365
G1 X151.617 Y115.712 E0.15626
G1 X151.638 Y116.248 E0.01684
G1 X151.895 Y116.500 E0.01128
G1 X148.627 Y119.769 E0.14494
G1 X149.160 Y120.302 E0.02365
G1 X152.913 Y116.549 E0.16641
G1 X153.979 Y116.549 E0.03344
G1 X149.693 Y120.835 E0.19006
G1 X150.226 Y121.369 E0.02365
G1 X155.046 Y116.549 E0.21371
G1 X156.113 Y116.549 E0.03344
G1 X150.760 Y121.902 E0.23735
G1 X151.293 Y122.435 E0.02365
G1 X157.179 Y116.549 E0.26100
G1 X158.246 Y116.549 E0.03344
G1 X151.826 Y122.968 E0.28464
G1 X152.360 Y123.502 E0.02365
G1 X159.312 Y116.549 E0.30829
G1 X160.379 Y116.549 E0.03344
G1 X154.524 Y122.404 E0.25960
G1 X155.057 Y122.937 E0.02365
G1 X161.445 Y116.549 E0.28325
G1 X162.512 Y116.549 E0.03344
G1 X155.591 Y123.470 E0.30689
G1 X156.124 Y124.003 E0.02365
G1 X163.578 Y116.549 E0.33054
G1 X164.645 Y116.549 E0.03344
G1 X156.657 Y124.537 E0.35418
G1 X157.191 Y125.070 E0.02365
G1 X165.571 Y116.690 E0.37158
G1 X166.104 Y117.223 E0.02365
G1 X159.355 Y123.972 E0.29925
G1 X159.888 Y124.505 E0.02365
G1 X166.637 Y117.757 E0.29925
G1 X167.170 Y118.290 E0.02365
G1 X160.422 Y125.038 E0.29925
G1 X160.955 Y125.572 E0.02365
G1 X173.305 Y113.222 E0.54761
G1 X173.838 Y113.755 E0.02365
G1 X161.488 Y126.105 E0.54761
G1 X162.022 Y126.638 E0.02365
G1 X174.371 Y114.289 E0.54761
G1 X174.871 Y114.788 E0.02215
G1 X173.240 Y116.419 E0.07234
G1 X173.273 Y116.453 E0.00149
G1 X162.555 Y127.172 E0.47527
G1 X163.088 Y127.705 E0.02365
G1 X173.806 Y116.986 E0.47527
G1 X174.340 Y117.520 E0.02365
G1 X163.621 Y128.238 E0.47527
G1 X164.152 Y128.769 E0.02355
G1 X173.242 Y119.684 E0.40294
G1 X173.775 Y120.218 E0.02365
G1 X166.319 Y127.673 E0.33060
G1 X166.852 Y128.207 E0.02365
G1 X174.308 Y120.751 E0.33060
G1 X174.841 Y121.284 E0.02365
G1 X167.266 Y128.860 E0.33592
G1 E-0.80000 F2100.00000
G1 Z0.800 F10800.000
G1 X125.592 Y105.742
G1 Z0.200
G1 E0.80000 F2100.00000
G1 F1200.000
G1 X138.515 Y92.464 E0.58093
G1 X151.437 Y105.742 E0.58093
G1 X125.652 Y105.742 E0.80845
G1 X126.486 Y105.365 F10800.000
G1 F1200.000
G1 X138.515 Y93.004 E0.54078
G1 X150.544 Y105.365 E0.54078
G1 X126.546 Y105.365 E0.75244
G1 X126.098 Y105.266 F10800.000
G1 E-0.80000 F2100.00000
G1 Z0.800 F10800.000
G1 X152.726 Y104.449
G1 Z0.200
G1 E0.80000 F2100.00000
G1 F1200.000
G1 X139.217 Y90.568 E0.60733
G1 X152.726 Y90.568 E0.42357
G1 X152.726 Y104.389 E0.43336
G1 X152.349 Y103.521 F10800.000
G1 F1200.000
G1 X140.110 Y90.945 E0.55022
G1 X152.349 Y90.945 E0.38374
G1 X152.349 Y103.461 E0.39244
G1 X152.240 Y103.906 F10800.000
G1 E-0.80000 F2100.00000
G1 Z0.800 F10800.000
G1 X124.890 Y103.846
G1 Z0.200
G1 E0.80000 F2100.00000
G1 F1200.000
G1 X111.968 Y90.568 E0.58093
G1 X137.812 Y90.568 E0.81033
G1 X124.932 Y103.803 E0.57905
G1 X124.890 Y103.305 F10800.000
G1 F1200.000
G1 X112.861 Y90.945 E0.54078
G1 X136.919 Y90.945 E0.75432
G1 X124.932 Y103.262 E0.53890
G1 X124.781 Y103.690 F10800.000
G1 E-0.80000 F2100.00000
G1 Z0.800 F10800.000
G1 X97.054 Y104.449
G1 Z0.200
G1 E0.80000 F2100.00000
G1 F1200.000
G1 X97.054 Y90.568 E0.43524
G1 X110.563 Y90.568 E0.42357
G1 X97.095 Y104.406 E0.60545
G1 X97.431 Y103.521 F10800.000
G1 F1200.000
G1 X97.431 Y90.945 E0.39432
G1 X109.670 Y90.945 E0.38374
G1 X97.472 Y103.478 E0.54834
G1 X97.084 Y103.721 F10800.000
G1 E-0.80000 F2100.00000
G1 Z0.800 F10800.000
G1 X124.187 Y105.742
G1 Z0.200
G1 E0.80000 F2100.00000
G1 F1200.000
G1 X98.343 Y105.742 E0.81033
G1 X111.265 Y92.464 E0.58093
G1 X124.146 Y105.699 E0.57905
G1 X123.294 Y105.365 F10800.000
G1 F1200.000
G1 X99.236 Y105.365 E0.75432
G1 X111.265 Y93.004 E0.54078
G1 X123.252 Y105.322 E0.53890
G1 X123.494 Y105.711 F10800.000
G1 E-0.80000 F2100.00000
G1 Z0.800 F10800.000
G1 X152.726 Y115.436
G1 Z0.200
G1 E0.80000 F2100.00000
G1 F1200.000
G1 X152.726 Y112.129 E0.10369
G1 X152.659 Y111.358 E0.02428
G1 X152.452 Y110.585 E0.02508
G1 X152.114 Y109.860 E0.02508
G1 X151.655 Y109.205 E0.02508
G1 X151.089 Y108.639 E0.02508
G1 X150.434 Y108.180 E0.02508
G1 X149.709 Y107.842 E0.02508
G1 X148.936 Y107.635 E0.02508
G1 X148.165 Y107.568 E0.02428
G1 X101.615 Y107.568 E1.45954
G1 X100.844 Y107.635 E0.02428
G1 X100.071 Y107.842 E0.02508
G1 X99.346 Y108.180 E0.02508
G1 X98.691 Y108.639 E0.02508
G1 X98.125 Y109.205 E0.02508
G1 X97.666 Y109.860 E0.02508
G1 X97.328 Y110.585 E0.02508
G1 X97.121 Y111.358 E0.02508
G1 X97.054 Y112.129 E0.02428
G1 X97.054 Y115.436 E0.10369
G1 X92.500 Y115.436 E0.14276
G1 X92.897 Y115.118 E0.01595
G1 X93.290 Y114.737 E0.01715
G1 X93.961 Y113.893 E0.03380
G1 X94.506 Y112.912 E0.03518
G1 X94.904 Y111.835 E0.03602
G1 X95.143 Y110.714 E0.03592
G1 X95.228 Y109.537 E0.03699
G1 X95.228 Y88.742 E0.65204
G1 X154.552 Y88.742 E1.86008
M73 P5 R35
G1 X154.552 Y109.537 E0.65201
G1 X154.632 Y110.692 E0.03631
G1 X154.875 Y111.835 E0.03663
G1 X155.274 Y112.912 E0.03602
G1 X155.819 Y113.893 E0.03518
G1 X156.489 Y114.737 E0.03380
G1 X156.883 Y115.118 E0.01715
G1 X157.279 Y115.436 E0.01595
G1 X152.786 Y115.436 E0.14088
G1 X152.359 Y115.813 F10800.000
G1 F1200.000
G1 X152.349 Y112.145 E0.11500
G1 X152.286 Y111.423 E0.02273
G1 X152.096 Y110.714 E0.02301
G1 X151.786 Y110.049 E0.02301
G1 X151.365 Y109.448 E0.02301
G1 X150.846 Y108.929 E0.02301
G1 X150.245 Y108.508 E0.02301
G1 X149.579 Y108.198 E0.02301
G1 X148.870 Y108.008 E0.02301
G1 X148.148 Y107.945 E0.02273
G1 X101.631 Y107.945 E1.45851
G1 X100.909 Y108.008 E0.02273
G1 X100.200 Y108.198 E0.02301
G1 X99.535 Y108.508 E0.02301
G1 X98.934 Y108.929 E0.02301
G1 X98.415 Y109.448 E0.02301
G1 X97.994 Y110.049 E0.02301
G1 X97.684 Y110.714 E0.02301
G1 X97.494 Y111.423 E0.02301
G1 X97.431 Y112.145 E0.02273
G1 X97.420 Y115.813 E0.11500
G1 X90.957 Y115.813 E0.20263
G1 X91.438 Y115.627 E0.01617
G1 X91.857 Y115.409 E0.01480
G1 X92.264 Y115.142 E0.01527
G1 X92.648 Y114.834 E0.01541
G1 X93.010 Y114.484 E0.01583
G1 X93.646 Y113.683 E0.03206
G1 X94.162 Y112.754 E0.03331
G1 X94.541 Y111.730 E0.03425
G1 X94.769 Y110.661 E0.03425
G1 X94.851 Y109.524 E0.03575
G1 X94.851 Y88.365 E0.66343
G1 X154.929 Y88.365 E1.88372
G1 X154.929 Y109.524 E0.66342
G1 X155.007 Y110.640 E0.03507
G1 X155.239 Y111.730 E0.03494
G1 X155.618 Y112.754 E0.03425
G1 X156.134 Y113.683 E0.03331
G1 X156.769 Y114.484 E0.03206
G1 X157.132 Y114.834 E0.01583
G1 X157.516 Y115.142 E0.01541
G1 X157.923 Y115.409 E0.01527
G1 X158.342 Y115.627 E0.01480
G1 X158.823 Y115.813 E0.01617
G1 X152.419 Y115.813 E0.20077
G1 X152.555 Y115.464 F10800.000
G1 X152.839 Y114.735
G1 F1200.000
G1 X153.258 Y115.153 E0.01858
G1 X153.792 Y115.153 E0.01679
G1 X153.009 Y114.370 E0.03478
G1 X153.009 Y113.836 E0.01679
G1 X154.326 Y115.153 E0.05852
G1 X154.861 Y115.153 E0.01679
G1 X153.009 Y113.302 E0.08226
G1 X153.009 Y112.767 E0.01679
G1 X155.395 Y115.153 E0.10600
G1 X155.929 Y115.153 E0.01679
G1 X153.009 Y112.233 E0.12974
G1 X152.969 Y111.659 E0.01809
G1 X156.463 Y115.153 E0.15525
G1 X156.513 Y115.153 E0.00155
G1 X156.280 Y114.928 E0.01019
G1 X155.583 Y114.051 E0.03518
G1 X155.193 Y113.349 E0.02523
G1 X152.860 Y111.015 E0.10367
G1 X152.719 Y110.488 E0.01715
G1 X152.589 Y110.210 E0.00963
G1 X154.785 Y112.407 E0.09759
G1 X154.603 Y111.914 E0.01651
G1 X154.543 Y111.629 E0.00913
G1 X148.938 Y106.025 E0.24902
G1 X149.472 Y106.025 E0.01679
G1 X154.398 Y110.951 E0.21886
G1 X154.352 Y110.731 E0.00704
G1 X154.325 Y110.343 E0.01224
G1 X150.006 Y106.025 E0.19185
G1 X150.541 Y106.025 E0.01679
G1 X154.285 Y109.769 E0.16634
G1 X154.269 Y109.219 E0.01728
G1 X151.075 Y106.025 E0.14192
