; generated by PrusaSlicer 2.2.0+win64 on 2021-01-18 at 23:30:16 UTC

; 

; external perimeters extrusion width = 0.45mm
; perimeters extrusion width = 0.45mm
; infill extrusion width = 0.45mm
; solid infill extrusion width = 0.45mm
; top infill extrusion width = 0.40mm
; support material extrusion width = 0.35mm
; first layer extrusion width = 0.42mm

M73 P0 R27
M201 X9000 Y9000 Z500 E10000 ; sets maximum accelerations, mm/sec^2
M203 X500 Y500 Z12 E120 ; sets maximum feedrates, mm/sec
M204 P2000 R1500 T2000 ; sets acceleration (P, T) and retract acceleration (R), mm/sec^2
M205 X10.00 Y10.00 Z0.20 E2.50 ; sets the jerk limits, mm/sec
M205 S0 T0 ; sets the minimum extruding and travel feed rate, mm/sec
M107
M862.3 P "MK2.5SMMU2S" ; printer model check
M862.1 P0.4 ; nozzle diameter check
M115 U3.8.0 ; tell printer latest fw version
G90 ; use absolute coordinates
M83 ; extruder relative mode
M104 S215 ; set extruder temp
M140 S60 ; set bed temp
Tx
M190 S60 ; wait for bed temp
M109 S215 ; wait for extruder temp
G28 W ; home all without mesh bed level
G80 ; mesh bed leveling

G21 ; set units to millimeters

;go outside print area
G1 Y-3.0 F1000.0
G1 Z0.4 F1000.0
; select extruder
Tc
; purge line
G1 X55.0 F2000.0
G1 Z0.3 F1000.0
G92 E0.0
G1 X240.0 E25.0 F2200.0
M73 P0 R27
G1 Y-2.0 F1000.0
G1 X55.0 E25 F1400.0
G1 Z0.20 F1000.0
G1 X5.0 E4.0 F1000.0
G92 E0.0
G21 ; set units to millimeters
G90 ; use absolute coordinates
M83 ; use relative distances for extrusion
M900 K0.05 ; Filament gcode LA 1.5
M900 K30 ; Filament gcode LA 1.0
;BEFORE_LAYER_CHANGE
G92 E0.0
;0.2


G1 E-0.80000 F2100.00000
G1 Z0.600 F10800.000
;AFTER_LAYER_CHANGE
;0.2
G1 X106.058 Y82.669
G1 Z0.200
G1 E0.80000 F2100.00000
M204 S1000
G1 F1200.000
G1 X106.988 Y82.440 E0.03001
G1 X126.318 Y82.433 E0.60609
G1 X142.969 Y82.492 E0.52209
G1 X143.507 Y82.574 E0.01706
G1 X143.987 Y82.751 E0.01603
G1 X144.428 Y83.030 E0.01637
G1 X144.793 Y83.391 E0.01609
G1 X145.166 Y84.023 E0.02301
G1 X156.207 Y111.897 E0.94003
G1 X156.312 Y112.655 E0.02401
G1 X156.100 Y116.998 E0.13630
G1 X155.913 Y117.702 E0.02284
G1 X155.524 Y118.313 E0.02272
G1 X154.487 Y119.209 E0.04296
G1 X153.267 Y120.057 E0.04659
G1 X150.609 Y121.574 E0.09595
G1 X148.423 Y122.622 E0.07604
G1 X145.702 Y123.737 E0.09218
G1 X142.355 Y124.884 E0.11094
G1 X138.945 Y125.841 E0.11106
G1 X135.584 Y126.586 E0.10792
G1 X132.251 Y127.140 E0.10596
G1 X128.974 Y127.507 E0.10339
G1 X127.435 Y127.562 E0.04827
G1 X123.145 Y127.572 E0.13451
G1 X120.541 Y127.464 E0.08173
G1 X117.414 Y127.093 E0.09872
G1 X114.218 Y126.547 E0.10167
G1 X110.696 Y125.749 E0.11323
G1 X107.458 Y124.826 E0.10556
G1 X104.498 Y123.812 E0.09812
G1 X102.259 Y122.916 E0.07560
G1 X100.066 Y121.917 E0.07557
G1 X97.904 Y120.772 E0.07671
G1 X96.230 Y119.727 E0.06186
G1 X94.697 Y118.534 E0.06093
G1 X94.170 Y117.873 E0.02649
G1 X93.908 Y117.069 E0.02649
G1 X93.689 Y112.688 E0.13755
G1 X93.789 Y111.917 E0.02439
G1 X104.864 Y83.952 E0.94306
G1 X105.292 Y83.248 E0.02583
G1 X106.010 Y82.705 E0.02824
G1 E-0.80000 F2100.00000
G1 Z0.800 F10800.000
G1 X103.496 Y103.352
G1 Z0.200
G1 E0.80000 F2100.00000
G1 F1200.000
G1 X102.686 Y103.352 E0.02540
G1 X102.827 Y102.825 E0.01710
G1 X103.449 Y103.315 E0.02483
G1 X104.585 Y103.729 F10800.000
G1 F1200.000
G1 X102.195 Y103.729 E0.07492
G1 X102.611 Y102.175 E0.05045
G1 X104.538 Y103.692 E0.07691
G1 X104.785 Y103.383 F10800.000
G1 E-0.80000 F2100.00000
G1 Z0.800 F10800.000
G1 X108.193 Y101.228
G1 Z0.200
G1 E0.80000 F2100.00000
G1 F1200.000
G1 X104.118 Y98.020 E0.16262
G1 X105.833 Y91.693 E0.20552
G1 X120.303 Y91.693 E0.45371
G1 X108.240 Y101.191 E0.48139
G1 X108.193 Y101.708 F10800.000
G1 F1200.000
G1 X103.689 Y98.162 E0.17975
G1 X105.544 Y91.316 E0.22238
G1 X121.392 Y91.316 E0.49688
G1 X108.240 Y101.671 E0.52483
G1 X107.940 Y101.398 F10800.000
G1 E-0.80000 F2100.00000
G1 Z0.800 F10800.000
G1 X119.424 Y92.242
G1 Z0.200
G1 E0.80000 F2100.00000
G1 F1200.000
G1 X119.158 Y91.976 E0.01202
G1 X118.614 Y91.976 E0.01739
G1 X118.998 Y92.361 E0.01740
G1 X118.694 Y92.600 E0.01239
G1 X118.070 Y91.976 E0.02823
G1 X117.526 Y91.976 E0.01739
G1 X118.390 Y92.840 E0.03907
G1 X118.086 Y93.079 E0.01239
G1 X116.982 Y91.976 E0.04990
G1 X116.438 Y91.976 E0.01739
G1 X117.781 Y93.319 E0.06074
G1 X117.477 Y93.559 E0.01239
G1 X115.894 Y91.976 E0.07158
G1 X115.350 Y91.976 E0.01739
G1 X117.173 Y93.798 E0.08241
G1 X116.868 Y94.038 E0.01239
G1 X114.806 Y91.976 E0.09325
G1 X114.263 Y91.976 E0.01739
G1 X116.564 Y94.277 E0.10409
G1 X116.260 Y94.517 E0.01239
G1 X113.719 Y91.976 E0.11492
G1 X113.175 Y91.976 E0.01739
G1 X115.955 Y94.757 E0.12576
G1 X115.651 Y94.996 E0.01239
G1 X112.631 Y91.976 E0.13659
G1 X112.087 Y91.976 E0.01739
G1 X115.347 Y95.236 E0.14743
G1 X115.042 Y95.475 E0.01239
G1 X111.543 Y91.976 E0.15827
G1 X110.999 Y91.976 E0.01739
G1 X114.738 Y95.715 E0.16910
G1 X114.434 Y95.955 E0.01239
G1 X110.455 Y91.976 E0.17994
G1 X109.911 Y91.976 E0.01739
G1 X114.129 Y96.194 E0.19078
G1 X113.825 Y96.434 E0.01239
G1 X109.367 Y91.976 E0.20161
G1 X108.823 Y91.976 E0.01739
G1 X113.521 Y96.673 E0.21245
G1 X113.217 Y96.913 E0.01239
G1 X108.280 Y91.976 E0.22328
G1 X107.736 Y91.976 E0.01739
G1 X112.912 Y97.153 E0.23412
G1 X112.608 Y97.392 E0.01239
G1 X107.192 Y91.976 E0.24496
G1 X106.648 Y91.976 E0.01739
G1 X112.304 Y97.632 E0.25579
G1 X111.999 Y97.871 E0.01239
G1 X106.104 Y91.976 E0.26663
G1 X106.049 Y91.976 E0.00175
G1 X105.945 Y92.361 E0.01275
G1 X111.695 Y98.111 E0.26006
G1 X111.391 Y98.351 E0.01239
G1 X105.829 Y92.789 E0.25154
G1 X105.713 Y93.217 E0.01418
G1 X111.086 Y98.590 E0.24302
G1 X110.782 Y98.830 E0.01239
G1 X105.597 Y93.645 E0.23451
G1 X105.481 Y94.073 E0.01418
G1 X110.478 Y99.069 E0.22599
G1 X110.173 Y99.309 E0.01239
G1 X105.365 Y94.500 E0.21747
G1 X105.249 Y94.928 E0.01418
G1 X109.869 Y99.549 E0.20895
G1 X109.565 Y99.788 E0.01239
G1 X105.133 Y95.356 E0.20044
G1 X105.017 Y95.784 E0.01418
G1 X109.260 Y100.028 E0.19192
G1 X108.956 Y100.267 E0.01239
G1 X104.901 Y96.212 E0.18340
G1 X104.785 Y96.640 E0.01418
G1 X108.652 Y100.507 E0.17489
G1 X108.348 Y100.747 E0.01239
G1 X104.669 Y97.068 E0.16637
G1 X104.553 Y97.496 E0.01418
G1 X107.949 Y100.892 E0.15359
G1 E-0.80000 F2100.00000
G1 Z0.800 F10800.000
G1 X125.000 Y87.119
G1 Z0.200
G1 E0.80000 F2100.00000
G1 F1200.000
G1 X107.046 Y87.119 E0.56293
G1 X107.515 Y85.396 E0.05599
G1 X125.032 Y85.397 E0.54922
G1 X141.949 Y85.421 E0.53043
G1 X142.496 Y85.442 E0.01717
G1 X142.954 Y87.119 E0.05450
G1 X125.060 Y87.119 E0.56104
G1 X125.000 Y87.496 F10800.000
G1 F1200.000
G1 X106.553 Y87.496 E0.57840
G1 X107.227 Y85.019 E0.08050
G1 X141.956 Y85.044 E1.08891
G1 X142.787 Y85.075 E0.02607
G1 X143.447 Y87.496 E0.07867
G1 X125.060 Y87.496 E0.57652
G1 X124.785 Y87.159 F10800.000
G1 E-0.80000 F2100.00000
G1 Z0.800 F10800.000
G1 X142.701 Y86.621
G1 Z0.200
G1 E0.80000 F2100.00000
G1 F1200.000
G1 X141.784 Y85.704 E0.04120
G1 X141.242 Y85.703 E0.01719
G1 X142.375 Y86.836 E0.05091
G1 X141.835 Y86.836 E0.01717
G1 X140.701 Y85.702 E0.05094
G1 X140.160 Y85.702 E0.01719
G1 X141.295 Y86.836 E0.05098
G1 X140.754 Y86.836 E0.01717
G1 X139.619 Y85.701 E0.05101
G1 X139.078 Y85.700 E0.01719
G1 X140.214 Y86.836 E0.05105
G1 X139.674 Y86.836 E0.01717
G1 X138.537 Y85.699 E0.05109
G1 X137.995 Y85.698 E0.01719
G1 X139.133 Y86.836 E0.05112
G1 X138.593 Y86.836 E0.01717
G1 X137.454 Y85.698 E0.05116
G1 X136.913 Y85.697 E0.01719
G1 X138.052 Y86.836 E0.05119
G1 X137.512 Y86.836 E0.01717
G1 X136.372 Y85.696 E0.05123
G1 X135.831 Y85.695 E0.01719
G1 X136.972 Y86.836 E0.05126
G1 X136.431 Y86.836 E0.01717
G1 X135.290 Y85.694 E0.05130
G1 X134.748 Y85.694 E0.01719
G1 X135.891 Y86.836 E0.05134
G1 X135.351 Y86.836 E0.01717
G1 X134.207 Y85.693 E0.05137
G1 X133.666 Y85.692 E0.01719
G1 X134.810 Y86.836 E0.05141
G1 X134.270 Y86.836 E0.01717
G1 X133.125 Y85.691 E0.05144
G1 X132.584 Y85.690 E0.01719
G1 X133.729 Y86.836 E0.05148
G1 X133.189 Y86.836 E0.01717
G1 X132.043 Y85.690 E0.05151
G1 X131.501 Y85.689 E0.01719
G1 X132.649 Y86.836 E0.05155
G1 X132.108 Y86.836 E0.01717
G1 X130.960 Y85.688 E0.05159
G1 X130.419 Y85.687 E0.01719
G1 X131.568 Y86.836 E0.05162
G1 X131.028 Y86.836 E0.01717
G1 X129.878 Y85.687 E0.05166
G1 X129.337 Y85.686 E0.01719
G1 X130.487 Y86.836 E0.05169
G1 X129.947 Y86.836 E0.01717
G1 X128.796 Y85.685 E0.05173
G1 X128.254 Y85.684 E0.01719
G1 X129.406 Y86.836 E0.05176
G1 X128.866 Y86.836 E0.01717
G1 X127.713 Y85.683 E0.05180
G1 X127.172 Y85.683 E0.01719
G1 X128.326 Y86.836 E0.05184
G1 X127.785 Y86.836 E0.01717
G1 X126.631 Y85.682 E0.05187
G1 X126.090 Y85.681 E0.01719
G1 X127.245 Y86.836 E0.05191
G1 X126.705 Y86.836 E0.01717
G1 X125.549 Y85.680 E0.05194
G1 X125.007 Y85.679 E0.01719
G1 X126.164 Y86.836 E0.05198
G1 X125.624 Y86.836 E0.01717
G1 X124.467 Y85.679 E0.05198
G1 X123.927 Y85.679 E0.01717
G1 X125.083 Y86.836 E0.05198
G1 X124.543 Y86.836 E0.01717
G1 X123.386 Y85.679 E0.05198
G1 X122.846 Y85.679 E0.01717
G1 X124.003 Y86.836 E0.05198
G1 X123.462 Y86.836 E0.01717
G1 X122.305 Y85.679 E0.05198
G1 X121.765 Y85.679 E0.01717
G1 X122.922 Y86.836 E0.05198
G1 X122.382 Y86.836 E0.01717
G1 X121.225 Y85.679 E0.05198
G1 X120.684 Y85.679 E0.01717
G1 X121.841 Y86.836 E0.05198
G1 X121.301 Y86.836 E0.01717
G1 X120.144 Y85.679 E0.05198
G1 X119.603 Y85.679 E0.01717
G1 X120.760 Y86.836 E0.05199
G1 X120.220 Y86.836 E0.01717
G1 X119.063 Y85.679 E0.05199
G1 X118.523 Y85.679 E0.01717
G1 X119.680 Y86.836 E0.05199
G1 X119.139 Y86.836 E0.01717
G1 X117.982 Y85.679 E0.05199
G1 X117.442 Y85.679 E0.01717
G1 X118.599 Y86.836 E0.05199
G1 X118.059 Y86.836 E0.01717
G1 X116.902 Y85.679 E0.05199
G1 X116.361 Y85.679 E0.01717
G1 X117.518 Y86.836 E0.05199
G1 X116.978 Y86.836 E0.01717
G1 X115.821 Y85.679 E0.05199
G1 X115.280 Y85.679 E0.01717
G1 X116.437 Y86.836 E0.05199
G1 X115.897 Y86.836 E0.01717
G1 X114.740 Y85.679 E0.05199
G1 X114.200 Y85.679 E0.01717
G1 X115.357 Y86.836 E0.05199
G1 X114.816 Y86.836 E0.01717
G1 X113.659 Y85.679 E0.05199
G1 X113.119 Y85.679 E0.01717
G1 X114.276 Y86.836 E0.05199
G1 X113.736 Y86.836 E0.01717
G1 X112.578 Y85.679 E0.05200
G1 X112.038 Y85.679 E0.01717
G1 X113.195 Y86.836 E0.05200
G1 X112.655 Y86.836 E0.01717
G1 X111.498 Y85.679 E0.05200
G1 X110.957 Y85.679 E0.01717
G1 X112.114 Y86.836 E0.05200
G1 X111.574 Y86.836 E0.01717
G1 X110.417 Y85.679 E0.05200
G1 X109.876 Y85.679 E0.01717
G1 X111.034 Y86.836 E0.05200
G1 X110.493 Y86.836 E0.01717
G1 X109.336 Y85.679 E0.05200
G1 X108.796 Y85.679 E0.01717
G1 X109.953 Y86.836 E0.05200
G1 X109.413 Y86.836 E0.01717
G1 X108.255 Y85.679 E0.05200
G1 X107.731 Y85.679 E0.01664
G1 X108.872 Y86.836 E0.05163
G1 X108.332 Y86.836 E0.01717
G1 X107.612 Y86.117 E0.03234
G1 X107.497 Y86.541 E0.01399
G1 X107.961 Y87.006 E0.02088
G1 E-0.80000 F2100.00000
G1 Z0.800 F10800.000
G1 X125.000 Y103.352
G1 Z0.200
G1 E0.80000 F2100.00000
G1 F1200.000
G1 X112.890 Y103.352 E0.37970
G1 X125.000 Y93.817 E0.48327
G1 X137.110 Y103.352 E0.48327
G1 X125.060 Y103.352 E0.37782
G1 X125.000 Y103.729 F10800.000
G1 F1200.000
G1 X111.801 Y103.729 E0.41383
G1 X125.000 Y93.337 E0.52671
G1 X138.199 Y103.729 E0.52671
G1 X125.060 Y103.729 E0.41195
M73 P4 R26
G1 X124.654 Y103.529 F10800.000
G1 E-0.80000 F2100.00000
G1 Z0.800 F10800.000
G1 X113.769 Y102.803
G1 Z0.200
G1 E0.80000 F2100.00000
G1 F1200.000
G1 X114.035 Y103.069 E0.01202
G1 X114.579 Y103.069 E0.01740
G1 X114.195 Y102.685 E0.01739
G1 X114.499 Y102.445 E0.01239
G1 X115.123 Y103.069 E0.02823
G1 X115.667 Y103.069 E0.01740
G1 X114.803 Y102.205 E0.03907
G1 X115.108 Y101.966 E0.01239
G1 X116.211 Y103.069 E0.04991
G1 X116.755 Y103.069 E0.01740
G1 X115.412 Y101.726 E0.06074
G1 X115.716 Y101.486 E0.01239
G1 X117.299 Y103.069 E0.07158
G1 X117.843 Y103.069 E0.01740
G1 X116.021 Y101.247 E0.08242
G1 X116.325 Y101.007 E0.01239
G1 X118.387 Y103.069 E0.09325
G1 X118.931 Y103.069 E0.01740
G1 X116.629 Y100.768 E0.10409
G1 X116.934 Y100.528 E0.01239
G1 X119.475 Y103.069 E0.11493
G1 X120.019 Y103.069 E0.01740
G1 X117.238 Y100.288 E0.12576
G1 X117.542 Y100.049 E0.01239
G1 X120.562 Y103.069 E0.13660
G1 X121.106 Y103.069 E0.01740
G1 X117.846 Y99.809 E0.14744
G1 X118.151 Y99.570 E0.01239
G1 X121.650 Y103.069 E0.15828
G1 X122.194 Y103.069 E0.01740
G1 X118.455 Y99.330 E0.16911
G1 X118.759 Y99.090 E0.01239
G1 X122.738 Y103.069 E0.17995
G1 X123.282 Y103.069 E0.01740
G1 X119.064 Y98.851 E0.19079
G1 X119.368 Y98.611 E0.01239
G1 X123.826 Y103.069 E0.20162
G1 X124.370 Y103.069 E0.01740
G1 X119.672 Y98.372 E0.21246
G1 X119.977 Y98.132 E0.01239
G1 X124.914 Y103.069 E0.22330
G1 X125.458 Y103.069 E0.01740
G1 X120.281 Y97.892 E0.23413
G1 X120.585 Y97.653 E0.01239
G1 X126.002 Y103.069 E0.24497
G1 X126.546 Y103.069 E0.01740
G1 X120.890 Y97.413 E0.25581
G1 X121.194 Y97.174 E0.01239
G1 X127.090 Y103.069 E0.26664
G1 X127.634 Y103.069 E0.01740
G1 X121.498 Y96.934 E0.27748
G1 X121.803 Y96.694 E0.01239
G1 X128.177 Y103.069 E0.28832
G1 X128.721 Y103.069 E0.01740
G1 X122.107 Y96.455 E0.29916
G1 X122.411 Y96.215 E0.01239
G1 X129.265 Y103.069 E0.30999
G1 X129.809 Y103.069 E0.01740
G1 X122.716 Y95.975 E0.32083
G1 X123.020 Y95.736 E0.01239
G1 X130.353 Y103.069 E0.33167
G1 X130.897 Y103.069 E0.01740
G1 X123.324 Y95.496 E0.34250
G1 X123.629 Y95.257 E0.01239
G1 X131.441 Y103.069 E0.35334
G1 X131.985 Y103.069 E0.01740
G1 X123.933 Y95.017 E0.36418
G1 X124.237 Y94.777 E0.01239
G1 X132.529 Y103.069 E0.37501
G1 X133.073 Y103.069 E0.01740
G1 X124.542 Y94.538 E0.38585
G1 X124.846 Y94.298 E0.01239
G1 X133.617 Y103.069 E0.39669
G1 X134.161 Y103.069 E0.01740
G1 X126.262 Y95.171 E0.35722
G1 X128.820 Y97.185 E0.10412
G1 X134.705 Y103.069 E0.26614
G1 X135.249 Y103.069 E0.01740
G1 X131.378 Y99.199 E0.17505
G1 X133.936 Y101.213 E0.10412
G1 X135.962 Y103.239 E0.09164
G1 E-0.80000 F2100.00000
G1 Z0.800 F10800.000
G1 X141.807 Y101.228
G1 Z0.200
G1 E0.80000 F2100.00000
G1 F1200.000
G1 X129.697 Y91.693 E0.48327
G1 X144.183 Y91.693 E0.45419
G1 X145.883 Y98.019 E0.20538
G1 X141.854 Y101.191 E0.16078
G1 X141.807 Y101.708 F10800.000
G1 F1200.000
G1 X128.608 Y91.316 E0.52671
G1 X144.472 Y91.316 E0.49738
G1 X146.312 Y98.161 E0.22224
G1 X141.854 Y101.671 E0.17788
G1 X141.609 Y101.361 F10800.000
G1 E-0.80000 F2100.00000
G1 Z0.800 F10800.000
G1 X133.874 Y94.839
G1 Z0.200
G1 E0.80000 F2100.00000
G1 F1200.000
G1 X131.012 Y91.976 E0.12909
G1 X131.554 Y91.976 E0.01729
G1 X135.409 Y95.831 E0.17384
G1 X137.960 Y97.839 E0.10350
G1 X132.097 Y91.976 E0.26439
G1 X132.639 Y91.976 E0.01729
G1 X140.510 Y99.847 E0.35494
G1 X141.807 Y100.868 E0.05264
G1 X141.956 Y100.751 E0.00605
G1 X133.181 Y91.976 E0.39569
G1 X133.723 Y91.976 E0.01729
G1 X142.259 Y100.512 E0.38492
G1 X142.563 Y100.273 E0.01231
G1 X134.266 Y91.976 E0.37415
G1 X134.808 Y91.976 E0.01729
G1 X142.866 Y100.034 E0.36338
G1 X143.170 Y99.795 E0.01231
G1 X135.350 Y91.976 E0.35260
G1 X135.893 Y91.976 E0.01729
G1 X143.473 Y99.556 E0.34183
G1 X143.777 Y99.317 E0.01231
G1 X136.435 Y91.976 E0.33106
G1 X136.977 Y91.976 E0.01729
G1 X144.080 Y99.078 E0.32028
G1 X144.383 Y98.840 E0.01231
G1 X137.520 Y91.976 E0.30951
G1 X138.062 Y91.976 E0.01729
G1 X144.687 Y98.601 E0.29874
G1 X144.990 Y98.362 E0.01231
G1 X138.604 Y91.976 E0.28796
G1 X139.147 Y91.976 E0.01729
G1 X145.294 Y98.123 E0.27719
G1 X145.561 Y97.912 E0.01086
G1 X145.538 Y97.825 E0.00289
G1 X139.689 Y91.976 E0.26375
G1 X140.231 Y91.976 E0.01729
G1 X145.338 Y97.083 E0.23030
G1 X145.139 Y96.341 E0.02449
G1 X140.774 Y91.976 E0.19686
G1 X141.316 Y91.976 E0.01729
G1 X144.940 Y95.600 E0.16341
G1 X144.740 Y94.858 E0.02449
G1 X141.858 Y91.976 E0.12997
G1 X142.401 Y91.976 E0.01729
G1 X144.541 Y94.116 E0.09652
G1 X144.342 Y93.375 E0.02449
G1 X142.943 Y91.976 E0.06308
G1 X143.485 Y91.976 E0.01729
G1 X144.383 Y92.873 E0.04047
G1 E-0.80000 F2100.00000
G1 Z0.800 F10800.000
G1 X146.504 Y103.352
G1 Z0.200
G1 E0.80000 F2100.00000
G1 F1200.000
G1 X147.174 Y102.824 E0.02674
G1 X147.315 Y103.352 E0.01713
G1 X146.564 Y103.352 E0.02356
G1 X145.415 Y103.729 F10800.000
G1 F1200.000
G1 X147.390 Y102.174 E0.07881
G1 X147.806 Y103.729 E0.05047
G1 X145.475 Y103.729 E0.07309
G1 X145.472 Y104.125 F10800.000
G1 E-0.80000 F2100.00000
G1 Z0.800 F10800.000
G1 X124.724 Y124.603
G1 Z0.200
G1 E0.80000 F2100.00000
