; generated by PrusaSlicer 2.2.0+win64 on 2020-12-28 at 20:48:09 UTC

; 

; external perimeters extrusion width = 0.60mm
; perimeters extrusion width = 0.43mm
; infill extrusion width = 0.45mm
; solid infill extrusion width = 0.70mm
; top infill extrusion width = 0.43mm
; first layer extrusion width = 0.42mm

M73 P0 R121
M201 X9000 Y9000 Z500 E10000 ; sets maximum accelerations, mm/sec^2
M203 X500 Y500 Z12 E120 ; sets maximum feedrates, mm/sec
M204 P2000 R1500 T2000 ; sets acceleration (P, T) and retract acceleration (R), mm/sec^2
M205 X10.00 Y10.00 Z0.20 E2.50 ; sets the jerk limits, mm/sec
M205 S0 T0 ; sets the minimum extruding and travel feed rate, mm/sec
M107
M862.3 P "MK2.5SMMU2S" ; printer model check
M862.1 P0.4 ; nozzle diameter check
M115 U3.8.0 ; tell printer latest fw version
G90 ; use absolute coordinates
M83 ; extruder relative mode
M104 S215 ; set extruder temp
M140 S60 ; set bed temp
Tx
M190 S60 ; wait for bed temp
M109 S215 ; wait for extruder temp
G28 W ; home all without mesh bed level
G80 ; mesh bed leveling

G21 ; set units to millimeters

;go outside print area
G1 Y-3.0 F1000.0
G1 Z0.4 F1000.0
; select extruder
Tc
; purge line
G1 X55.0 F2000.0
G1 Z0.3 F1000.0
G92 E0.0
G1 X240.0 E25.0 F2200.0
M73 P0 R121
G1 Y-2.0 F1000.0
G1 X55.0 E25 F1400.0
G1 Z0.20 F1000.0
G1 X5.0 E4.0 F1000.0
G92 E0.0
G21 ; set units to millimeters
G90 ; use absolute coordinates
M83 ; use relative distances for extrusion
M900 K30 ; Filament gcode
;BEFORE_LAYER_CHANGE
G92 E0.0
;0.2


G1 E-0.80000 F2100.00000
G1 Z0.600 F10800.000
;AFTER_LAYER_CHANGE
;0.2
G1 X109.042 Y91.284
G1 Z0.200
G1 E0.80000 F2100.00000
M204 S1000
G1 F1200.000
G1 X110.119 Y90.121 E0.04972
G1 X111.284 Y89.042 E0.04979
G1 X112.391 Y88.152 E0.04453
G1 X113.619 Y87.300 E0.04686
G1 X114.985 Y86.494 E0.04973
G1 X117.567 Y85.314 E0.08901
G1 X119.070 Y84.809 E0.04972
G1 X120.604 Y84.422 E0.04961
G1 X123.418 Y84.017 E0.08913
G1 X125.003 Y83.956 E0.04973
G1 X126.586 Y84.017 E0.04967
G1 X127.998 Y84.171 E0.04453
G1 X129.468 Y84.436 E0.04686
G1 X131.004 Y84.832 E0.04972
G1 X133.664 Y85.824 E0.08901
G1 X135.084 Y86.530 E0.04972
G1 X136.443 Y87.341 E0.04961
G1 X138.719 Y89.044 E0.08913
G1 X139.879 Y90.119 E0.04960
G1 X140.954 Y91.280 E0.04961
G1 X142.658 Y93.556 E0.08913
G1 X143.471 Y94.917 E0.04972
G1 X144.176 Y96.336 E0.04967
G1 X145.167 Y98.994 E0.08895
G1 X145.563 Y100.530 E0.04972
G1 X145.829 Y102.000 E0.04686
G1 X145.983 Y103.414 E0.04459
G1 X146.044 Y104.999 E0.04972
G1 X145.983 Y106.580 E0.04961
G1 X145.579 Y109.394 E0.08913
G1 X145.192 Y110.928 E0.04961
G1 X144.686 Y112.433 E0.04979
G1 X143.507 Y115.013 E0.08895
G1 X142.702 Y116.379 E0.04973
G1 X141.849 Y117.607 E0.04686
G1 X140.958 Y118.716 E0.04459
G1 X139.881 Y119.879 E0.04973
G1 X138.717 Y120.957 E0.04972
G1 X136.445 Y122.658 E0.08901
G1 X135.086 Y123.469 E0.04960
G1 X133.664 Y124.176 E0.04979
G1 X131.006 Y125.167 E0.08895
G1 X129.470 Y125.563 E0.04972
G1 X128.000 Y125.829 E0.04686
G1 X126.586 Y125.983 E0.04459
G1 X125.001 Y126.044 E0.04972
G1 X123.420 Y125.983 E0.04961
G1 X120.606 Y125.579 E0.08913
G1 X119.072 Y125.192 E0.04961
G1 X117.567 Y124.686 E0.04979
G1 X114.987 Y123.507 E0.08895
G1 X113.621 Y122.702 E0.04972
G1 X112.393 Y121.849 E0.04686
G1 X111.284 Y120.958 E0.04459
G1 X110.121 Y119.881 E0.04972
G1 X109.045 Y118.720 E0.04961
G1 X107.342 Y116.445 E0.08913
G1 X106.531 Y115.086 E0.04960
G1 X105.824 Y113.664 E0.04979
G1 X104.833 Y111.006 E0.08895
G1 X104.437 Y109.470 E0.04973
G1 X104.171 Y108.000 E0.04686
G1 X104.017 Y106.586 E0.04459
G1 X103.956 Y105.001 E0.04973
G1 X104.017 Y103.420 E0.04960
G1 X104.421 Y100.606 E0.08913
G1 X104.808 Y99.072 E0.04960
G1 X105.314 Y97.567 E0.04979
G1 X106.493 Y94.987 E0.08895
G1 X107.298 Y93.621 E0.04973
G1 X108.151 Y92.393 E0.04686
G1 X109.004 Y91.331 E0.04271
G1 E-0.80000 F2100.00000
G1 Z0.800 F10800.000
G1 X112.766 Y92.809
G1 Z0.200
G1 E0.80000 F2100.00000
G1 F1200.000
G1 X115.325 Y90.709 E0.10380
G1 X118.245 Y89.148 E0.10380
G1 X121.413 Y88.187 E0.10380
G1 X124.707 Y87.862 E0.10380
G1 X128.002 Y88.187 E0.10380
G1 X131.170 Y89.148 E0.10380
G1 X134.089 Y90.709 E0.10380
G1 X136.648 Y92.809 E0.10380
G1 X138.748 Y95.368 E0.10380
G1 X140.309 Y98.287 E0.10380
G1 X141.270 Y101.455 E0.10380
G1 X141.595 Y104.750 E0.10380
G1 X141.270 Y108.045 E0.10380
G1 X140.309 Y111.212 E0.10380
G1 X138.748 Y114.132 E0.10380
G1 X136.648 Y116.691 E0.10380
G1 X134.089 Y118.791 E0.10380
G1 X131.170 Y120.352 E0.10380
G1 X128.002 Y121.313 E0.10379
G1 X124.707 Y121.637 E0.10380
G1 X121.412 Y121.313 E0.10380
G1 X118.245 Y120.352 E0.10380
G1 X115.325 Y118.791 E0.10380
G1 X112.766 Y116.691 E0.10380
G1 X110.666 Y114.132 E0.10380
G1 X109.105 Y111.212 E0.10380
G1 X108.144 Y108.045 E0.10380
G1 X107.820 Y104.750 E0.10380
G1 X108.144 Y101.455 E0.10380
G1 X109.105 Y98.287 E0.10380
G1 X110.666 Y95.368 E0.10380
G1 X112.728 Y92.855 E0.10192
G1 X113.019 Y93.094 F10800.000
G1 F1200.000
G1 X115.535 Y91.024 E0.10217
G1 X118.390 Y89.498 E0.10147
G1 X121.486 Y88.559 E0.10147
G1 X124.707 Y88.241 E0.10147
G1 X127.928 Y88.559 E0.10147
G1 X131.025 Y89.498 E0.10147
G1 X133.879 Y91.024 E0.10147
G1 X136.380 Y93.077 E0.10147
G1 X138.433 Y95.578 E0.10147
G1 X139.959 Y98.432 E0.10147
G1 X140.898 Y101.529 E0.10147
G1 X141.216 Y104.750 E0.10147
G1 X140.898 Y107.971 E0.10147
G1 X139.959 Y111.067 E0.10147
G1 X138.433 Y113.922 E0.10147
G1 X136.380 Y116.423 E0.10147
G1 X133.879 Y118.476 E0.10147
G1 X131.025 Y120.002 E0.10147
G1 X127.928 Y120.941 E0.10147
G1 X124.707 Y121.258 E0.10147
G1 X121.486 Y120.941 E0.10147
G1 X118.390 Y120.002 E0.10147
G1 X115.535 Y118.476 E0.10147
G1 X113.034 Y116.423 E0.10147
G1 X110.981 Y113.922 E0.10147
G1 X109.455 Y111.067 E0.10147
G1 X108.516 Y107.971 E0.10147
G1 X108.199 Y104.750 E0.10147
G1 X108.516 Y101.529 E0.10147
G1 X109.455 Y98.432 E0.10147
G1 X110.981 Y95.578 E0.10147
G1 X112.981 Y93.141 E0.09887
G1 X112.915 Y92.708 F10800.000
G1 X112.257 Y92.466
G1 F1200.000
G1 X113.292 Y91.488 E0.04465
G1 X114.285 Y90.687 E0.04002
G1 X115.334 Y89.959 E0.04002
G1 X116.431 Y89.308 E0.04002
G1 X117.573 Y88.737 E0.04002
G1 X118.752 Y88.248 E0.04002
G1 X119.963 Y87.845 E0.04002
G1 X121.200 Y87.530 E0.04002
G1 X122.456 Y87.303 E0.04002
G1 X123.724 Y87.166 E0.04002
G1 X125.000 Y87.121 E0.04002
G1 X126.275 Y87.166 E0.04002
G1 X127.544 Y87.303 E0.04002
G1 X128.800 Y87.530 E0.04002
G1 X130.037 Y87.845 E0.04002
G1 X131.248 Y88.248 E0.04002
G1 X132.427 Y88.737 E0.04002
G1 X133.569 Y89.308 E0.04002
G1 X134.666 Y89.959 E0.04002
G1 X135.715 Y90.687 E0.04002
G1 X136.708 Y91.488 E0.04002
G1 X137.642 Y92.358 E0.04002
G1 X138.512 Y93.292 E0.04002
G1 X139.313 Y94.285 E0.04002
G1 X140.041 Y95.334 E0.04002
G1 X140.692 Y96.431 E0.04002
G1 X141.263 Y97.573 E0.04002
G1 X141.752 Y98.752 E0.04002
G1 X142.155 Y99.963 E0.04002
G1 X142.268 Y100.405 E0.01429
G1 X142.470 Y101.200 E0.02572
G1 X142.697 Y102.456 E0.04002
G1 X142.834 Y103.725 E0.04002
G1 X142.879 Y105.000 E0.04002
G1 X142.834 Y106.275 E0.04002
G1 X142.697 Y107.544 E0.04002
G1 X142.470 Y108.800 E0.04002
G1 X142.155 Y110.037 E0.04002
G1 X141.752 Y111.248 E0.04002
G1 X141.577 Y111.669 E0.01429
G1 X141.263 Y112.427 E0.02572
G1 X140.692 Y113.569 E0.04002
G1 X140.041 Y114.666 E0.04002
G1 X139.313 Y115.715 E0.04002
G1 X138.512 Y116.708 E0.04002
G1 X137.642 Y117.642 E0.04002
G1 X136.708 Y118.512 E0.04002
G1 X135.715 Y119.313 E0.04002
G1 X134.666 Y120.041 E0.04002
G1 X133.569 Y120.692 E0.04002
G1 X133.161 Y120.896 E0.01429
G1 X132.427 Y121.263 E0.02573
G1 X131.248 Y121.752 E0.04002
G1 X130.037 Y122.155 E0.04002
G1 X128.800 Y122.470 E0.04002
G1 X127.544 Y122.697 E0.04002
G1 X127.091 Y122.746 E0.01429
G1 X126.275 Y122.834 E0.02572
G1 X125.000 Y122.879 E0.04002
G1 X123.724 Y122.834 E0.04002
G1 X123.271 Y122.785 E0.01429
G1 X122.456 Y122.697 E0.02572
G1 X121.200 Y122.470 E0.04002
G1 X119.963 Y122.155 E0.04002
G1 X118.752 Y121.752 E0.04002
G1 X118.331 Y121.577 E0.01429
G1 X117.573 Y121.263 E0.02572
G1 X116.431 Y120.692 E0.04002
G1 X115.334 Y120.041 E0.04002
G1 X114.285 Y119.313 E0.04002
G1 X113.292 Y118.512 E0.04002
G1 X112.358 Y117.642 E0.04002
G1 X111.488 Y116.708 E0.04002
G1 X111.202 Y116.353 E0.01429
G1 X110.687 Y115.715 E0.02572
G1 X109.959 Y114.666 E0.04002
G1 X109.308 Y113.569 E0.04002
G1 X108.737 Y112.427 E0.04002
G1 X108.248 Y111.248 E0.04002
G1 X107.845 Y110.037 E0.04002
G1 X107.530 Y108.800 E0.04002
G1 X107.303 Y107.544 E0.04002
G1 X107.166 Y106.275 E0.04002
G1 X107.121 Y105.000 E0.04002
G1 X107.166 Y103.725 E0.04002
G1 X107.303 Y102.456 E0.04002
G1 X107.384 Y102.007 E0.01429
G1 X107.530 Y101.200 E0.02572
G1 X107.845 Y99.963 E0.04002
G1 X108.248 Y98.752 E0.04002
G1 X108.737 Y97.573 E0.04002
G1 X109.308 Y96.431 E0.04002
G1 X109.959 Y95.334 E0.04002
G1 X110.687 Y94.285 E0.04002
G1 X111.488 Y93.292 E0.04002
G1 X112.216 Y92.510 E0.03349
G1 X111.940 Y92.253 F10800.000
G1 F1200.000
G1 X112.091 Y92.091 E0.00695
G1 X113.045 Y91.203 E0.04086
G1 X114.059 Y90.385 E0.04086
G1 X115.130 Y89.642 E0.04086
G1 X116.251 Y88.977 E0.04086
G1 X117.416 Y88.393 E0.04086
G1 X118.620 Y87.895 E0.04086
G1 X119.857 Y87.483 E0.04086
G1 X121.119 Y87.161 E0.04086
G1 X122.402 Y86.929 E0.04086
G1 X123.698 Y86.790 E0.04086
G1 X125.000 Y86.744 E0.04086
G1 X126.302 Y86.790 E0.04086
G1 X127.598 Y86.929 E0.04086
G1 X128.881 Y87.161 E0.04086
G1 X130.143 Y87.483 E0.04086
G1 X131.380 Y87.895 E0.04086
G1 X132.584 Y88.393 E0.04086
G1 X133.749 Y88.977 E0.04086
G1 X134.870 Y89.642 E0.04086
G1 X135.941 Y90.385 E0.04086
G1 X136.955 Y91.203 E0.04086
G1 X137.909 Y92.091 E0.04086
G1 X138.797 Y93.045 E0.04086
G1 X139.615 Y94.059 E0.04086
G1 X140.358 Y95.130 E0.04086
G1 X141.023 Y96.251 E0.04086
G1 X141.607 Y97.416 E0.04086
G1 X142.105 Y98.620 E0.04086
G1 X142.517 Y99.857 E0.04086
G1 X142.633 Y100.311 E0.01471
G1 X142.839 Y101.119 E0.02615
G1 X143.071 Y102.402 E0.04086
G1 X143.210 Y103.698 E0.04086
G1 X143.256 Y105.000 E0.04086
G1 X143.210 Y106.302 E0.04086
G1 X143.071 Y107.598 E0.04086
G1 X142.839 Y108.881 E0.04086
G1 X142.517 Y110.143 E0.04086
G1 X142.105 Y111.380 E0.04086
G1 X141.926 Y111.814 E0.01471
G1 X141.607 Y112.584 E0.02615
G1 X141.023 Y113.749 E0.04086
G1 X140.358 Y114.870 E0.04086
G1 X139.615 Y115.941 E0.04086
G1 X138.797 Y116.955 E0.04086
G1 X137.909 Y117.909 E0.04086
G1 X136.955 Y118.797 E0.04086
G1 X135.941 Y119.615 E0.04086
G1 X134.870 Y120.358 E0.04086
G1 X133.749 Y121.023 E0.04086
G1 X133.330 Y121.233 E0.01471
G1 X132.584 Y121.607 E0.02615
G1 X131.380 Y122.105 E0.04086
G1 X130.143 Y122.517 E0.04086
G1 X128.881 Y122.839 E0.04086
G1 X127.598 Y123.071 E0.04086
G1 X127.132 Y123.121 E0.01471
G1 X126.302 Y123.210 E0.02615
G1 X125.000 Y123.256 E0.04086
G1 X123.698 Y123.210 E0.04086
G1 X123.231 Y123.160 E0.01471
G1 X122.402 Y123.071 E0.02615
G1 X121.119 Y122.839 E0.04086
G1 X119.857 Y122.517 E0.04086
G1 X118.620 Y122.105 E0.04086
G1 X118.186 Y121.926 E0.01472
G1 X117.416 Y121.607 E0.02615
G1 X116.251 Y121.023 E0.04086
G1 X115.130 Y120.358 E0.04086
G1 X114.059 Y119.615 E0.04086
G1 X113.045 Y118.797 E0.04086
G1 X112.091 Y117.909 E0.04086
G1 X111.203 Y116.955 E0.04086
G1 X110.908 Y116.590 E0.01471
G1 X110.385 Y115.941 E0.02615
G1 X109.642 Y114.870 E0.04086
G1 X108.977 Y113.749 E0.04086
G1 X108.393 Y112.584 E0.04086
G1 X107.895 Y111.380 E0.04086
G1 X107.483 Y110.143 E0.04086
G1 X107.161 Y108.881 E0.04086
G1 X106.929 Y107.598 E0.04086
G1 X106.790 Y106.302 E0.04086
G1 X106.744 Y105.000 E0.04086
G1 X106.790 Y103.698 E0.04086
G1 X106.929 Y102.402 E0.04086
G1 X107.013 Y101.940 E0.01471
G1 X107.161 Y101.119 E0.02615
G1 X107.483 Y99.857 E0.04086
G1 X107.895 Y98.620 E0.04086
G1 X108.393 Y97.416 E0.04086
G1 X108.977 Y96.251 E0.04086
G1 X109.642 Y95.130 E0.04086
G1 X110.385 Y94.059 E0.04086
G1 X111.203 Y93.045 E0.04086
G1 X111.899 Y92.297 E0.03203
G1 X112.156 Y92.300 F10800.000
G1 E-0.80000 F2100.00000
G1 Z0.800 F10800.000
G1 X110.422 Y95.192
G1 Z0.200
G1 E0.80000 F2100.00000
G1 F1200.000
G1 X109.921 Y96.053 E0.01843
G1 X109.613 Y96.598 E0.01660
G1 X109.038 Y97.710 E0.03319
G1 X108.826 Y98.159 E0.01177
G1 X108.570 Y98.872 E0.01489
G1 X108.190 Y100.064 E0.03559
G1 X108.022 Y100.667 E0.01781
G1 X107.854 Y101.270 E0.01635
G1 X107.828 Y101.379 E0.00266
G1 X107.669 Y102.508 E0.02591
G1 X107.541 Y103.751 E0.03880
G1 X107.508 Y104.243 E0.01530
G1 X107.475 Y104.735 E0.01404
G1 X107.504 Y105.335 E0.01565
G1 X107.861 Y106.323 F10800.000
G1 F1200.000
G1 X107.436 Y105.898 E0.01891
G1 X107.472 Y106.469 E0.01800
G1 X107.730 Y106.728 E0.01150
G1 X107.789 Y107.321 E0.01877
G1 X107.536 Y107.069 E0.01124
G1 X107.615 Y107.683 E0.01948
G1 X107.847 Y107.915 E0.01032
G1 X107.865 Y108.100 E0.00585
G1 X108.026 Y108.629 E0.01738
G1 X107.733 Y108.336 E0.01303
G1 X107.806 Y108.740 E0.01293
G1 X107.876 Y109.014 E0.00888
G1 X108.259 Y109.397 E0.01704
G1 X108.492 Y110.165 E0.02526
G1 X108.059 Y109.732 E0.01925
G1 X108.117 Y109.957 E0.00731
G1 X108.300 Y110.508 E0.01827
G1 X108.725 Y110.933 E0.01890
G1 X108.843 Y111.321 E0.01276
G1 X109.147 Y111.890 E0.02029
G1 X108.589 Y111.333 E0.02479
G1 X108.968 Y112.246 E0.03111
G1 X109.761 Y113.040 E0.03530
G1 X110.376 Y114.189 E0.04101
G1 X109.493 Y113.307 E0.03927
G1 X109.556 Y113.433 E0.00444
G1 X110.272 Y114.621 E0.04363
G1 X115.379 Y119.728 E0.22727
G1 X115.487 Y119.803 E0.00411
G1 X116.693 Y120.507 E0.04395
G1 X115.268 Y119.082 E0.06342
G1 X116.417 Y119.696 E0.04101
G1 X117.754 Y121.032 E0.05946
G1 X118.667 Y121.411 E0.03111
G1 X117.567 Y120.310 E0.04895
G1 X118.136 Y120.614 E0.02029
G1 X118.524 Y120.732 E0.01276
G1 X119.492 Y121.700 E0.04306
G1 X120.268 Y121.941 E0.02556
G1 X119.292 Y120.965 E0.04341
G1 X120.060 Y121.198 E0.02526
G1 X120.986 Y122.124 E0.04120
G1 X121.664 Y122.267 E0.02180
G1 X120.828 Y121.431 E0.03719
G1 X121.357 Y121.592 E0.01738
G1 X121.542 Y121.610 E0.00585
G1 X122.317 Y122.385 E0.03448
G1 X122.931 Y122.464 E0.01948
G1 X122.136 Y121.668 E0.03540
G1 X122.729 Y121.727 E0.01877
G1 X123.531 Y122.528 E0.03566
G1 X124.102 Y122.564 E0.01800
G1 X123.323 Y121.785 E0.03465
G1 X123.917 Y121.844 E0.01877
G1 X124.657 Y122.584 E0.03293
G1 X125.000 Y122.596 E0.01081
G1 X125.197 Y122.589 E0.00620
G1 X124.510 Y121.902 E0.03056
G1 X124.707 Y121.922 E0.00623
G1 X125.033 Y121.890 E0.01029
G1 X125.714 Y122.571 E0.03031
G1 X126.230 Y122.552 E0.01627
G1 X125.520 Y121.842 E0.03162
G1 X126.007 Y121.794 E0.01540
G1 X126.715 Y122.502 E0.03152
G1 X127.198 Y122.450 E0.01529
G1 X126.494 Y121.746 E0.03134
G1 X126.981 Y121.698 E0.01540
G1 X127.671 Y122.387 E0.03068
G1 X128.124 Y122.305 E0.01449
G1 X127.468 Y121.650 E0.02917
G1 X127.956 Y121.602 E0.01540
G1 X128.577 Y122.223 E0.02767
G1 X129.013 Y122.124 E0.01407
G1 X128.382 Y121.493 E0.02809
G1 X128.793 Y121.368 E0.01350
G1 X129.440 Y122.015 E0.02879
G1 X129.866 Y121.907 E0.01384
G1 X129.203 Y121.244 E0.02949
G1 X129.614 Y121.119 E0.01350
G1 X130.273 Y121.778 E0.02932
G1 X130.674 Y121.645 E0.01331
G1 X130.024 Y120.995 E0.02892
G1 X130.435 Y120.870 E0.01350
G1 X131.076 Y121.511 E0.02851
G1 X131.149 Y121.487 E0.00243
G1 X131.458 Y121.359 E0.01053
G1 X130.846 Y120.746 E0.02727
G1 X131.256 Y120.621 E0.01350
G1 X131.837 Y121.202 E0.02584
G1 X132.215 Y121.045 E0.01289
G1 X131.608 Y120.438 E0.02701
G1 X131.957 Y120.252 E0.01244
G1 X132.577 Y120.872 E0.02760
G1 X132.934 Y120.693 E0.01255
G1 X132.306 Y120.065 E0.02795
G1 X132.654 Y119.879 E0.01244
G1 X133.291 Y120.515 E0.02830
G1 X133.635 Y120.324 E0.01238
G1 X133.003 Y119.693 E0.02810
G1 X133.352 Y119.506 E0.01244
G1 X133.971 Y120.125 E0.02753
G1 X134.306 Y119.925 E0.01229
G1 X133.701 Y119.320 E0.02695
G1 X134.049 Y119.133 E0.01244
G1 X134.635 Y119.718 E0.02604
G1 X134.950 Y119.499 E0.01210
G1 X134.374 Y118.923 E0.02563
G1 X134.668 Y118.682 E0.01196
G1 X135.266 Y119.280 E0.02661
G1 X135.545 Y119.086 E0.01067
G1 X135.580 Y119.058 E0.00141
G1 X134.962 Y118.441 E0.02748
G1 X135.256 Y118.200 E0.01196
G1 X135.876 Y118.819 E0.02759
G1 X136.173 Y118.581 E0.01197
G1 X135.550 Y117.958 E0.02769
G1 X135.844 Y117.717 E0.01196
G1 X136.469 Y118.342 E0.02780
G1 X136.523 Y118.298 E0.00219
G1 X136.749 Y118.087 E0.00974
G1 X136.138 Y117.476 E0.02721
G1 X136.432 Y117.235 E0.01196
G1 X137.027 Y117.829 E0.02646
