; generated by PrusaSlicer 2.2.0+win64 on 2020-12-28 at 20:46:52 UTC

; 

; external perimeters extrusion width = 0.60mm
; perimeters extrusion width = 0.43mm
; infill extrusion width = 0.45mm
; solid infill extrusion width = 0.70mm
; top infill extrusion width = 0.43mm
; first layer extrusion width = 0.42mm

M73 P0 R10
M201 X9000 Y9000 Z500 E10000 ; sets maximum accelerations, mm/sec^2
M203 X500 Y500 Z12 E120 ; sets maximum feedrates, mm/sec
M204 P2000 R1500 T2000 ; sets acceleration (P, T) and retract acceleration (R), mm/sec^2
M205 X10.00 Y10.00 Z0.20 E2.50 ; sets the jerk limits, mm/sec
M205 S0 T0 ; sets the minimum extruding and travel feed rate, mm/sec
M107
M862.3 P "MK2.5SMMU2S" ; printer model check
M862.1 P0.4 ; nozzle diameter check
M115 U3.8.0 ; tell printer latest fw version
G90 ; use absolute coordinates
M83 ; extruder relative mode
M104 S215 ; set extruder temp
M140 S60 ; set bed temp
Tx
M190 S60 ; wait for bed temp
M109 S215 ; wait for extruder temp
G28 W ; home all without mesh bed level
G80 ; mesh bed leveling

G21 ; set units to millimeters

;go outside print area
G1 Y-3.0 F1000.0
G1 Z0.4 F1000.0
; select extruder
Tc
; purge line
G1 X55.0 F2000.0
G1 Z0.3 F1000.0
G92 E0.0
G1 X240.0 E25.0 F2200.0
M73 P1 R10
G1 Y-2.0 F1000.0
G1 X55.0 E25 F1400.0
G1 Z0.20 F1000.0
G1 X5.0 E4.0 F1000.0
G92 E0.0
G21 ; set units to millimeters
G90 ; use absolute coordinates
M83 ; use relative distances for extrusion
M900 K30 ; Filament gcode
;BEFORE_LAYER_CHANGE
G92 E0.0
;0.2


G1 E-0.80000 F2100.00000
G1 Z0.600 F10800.000
;AFTER_LAYER_CHANGE
;0.2
G1 X99.818 Y85.873
G1 Z0.200
G1 E0.80000 F2100.00000
M204 S1000
G1 F1200.000
G1 X102.637 Y82.636 E0.13459
G1 X105.744 Y79.911 E0.12959
G1 X109.054 Y77.692 E0.12494
G1 X112.897 Y75.780 E0.13459
G1 X116.811 Y74.451 E0.12959
G1 X120.718 Y73.669 E0.12494
G1 X125.004 Y73.373 E0.13471
G1 X129.125 Y73.643 E0.12947
G1 X133.034 Y74.415 E0.12494
G1 X137.104 Y75.781 E0.13459
G1 X140.811 Y77.609 E0.12959
G1 X144.127 Y79.818 E0.12494
G1 X147.364 Y82.637 E0.13459
G1 X150.090 Y85.744 E0.12959
G1 X152.308 Y89.054 E0.12494
G1 X154.220 Y92.897 E0.13459
G1 X155.549 Y96.811 E0.12959
G1 X156.331 Y100.718 E0.12494
G1 X156.627 Y105.001 E0.13459
G1 X156.357 Y109.125 E0.12959
G1 X155.585 Y113.034 E0.12494
G1 X154.219 Y117.104 E0.13459
G1 X152.391 Y120.811 E0.12959
G1 X150.182 Y124.127 E0.12494
G1 X147.363 Y127.364 E0.13459
G1 X144.256 Y130.089 E0.12959
G1 X140.946 Y132.308 E0.12494
G1 X137.103 Y134.220 E0.13459
G1 X133.189 Y135.549 E0.12959
G1 X129.282 Y136.331 E0.12494
G1 X124.999 Y136.627 E0.13459
G1 X120.875 Y136.357 E0.12959
G1 X116.966 Y135.585 E0.12494
G1 X112.896 Y134.219 E0.13459
G1 X109.189 Y132.391 E0.12959
G1 X105.873 Y130.182 E0.12494
G1 X102.636 Y127.363 E0.13459
G1 X99.911 Y124.256 E0.12959
G1 X97.692 Y120.946 E0.12494
G1 X95.780 Y117.103 E0.13459
G1 X94.451 Y113.189 E0.12959
G1 X93.669 Y109.282 E0.12494
G1 X93.373 Y104.999 E0.13459
G1 X93.643 Y100.875 E0.12959
G1 X94.415 Y96.966 E0.12494
G1 X95.781 Y92.896 E0.13459
G1 X97.609 Y89.189 E0.12959
G1 X99.785 Y85.923 E0.12306
G1 E-0.80000 F2100.00000
G1 Z0.800 F10800.000
G1 X111.759 Y94.840
G1 Z0.200
G1 E0.80000 F2100.00000
G1 F1200.000
G1 X113.199 Y93.199 E0.06845
G1 X114.840 Y91.759 E0.06845
G1 X116.655 Y90.547 E0.06845
G1 X118.613 Y89.581 E0.06845
G1 X120.680 Y88.879 E0.06845
G1 X122.822 Y88.453 E0.06845
G1 X125.000 Y88.311 E0.06845
G1 X127.178 Y88.453 E0.06845
G1 X129.320 Y88.879 E0.06845
G1 X131.387 Y89.581 E0.06845
G1 X133.345 Y90.547 E0.06845
G1 X135.160 Y91.759 E0.06845
G1 X136.801 Y93.199 E0.06845
G1 X138.241 Y94.840 E0.06845
G1 X139.453 Y96.655 E0.06845
G1 X140.419 Y98.613 E0.06845
G1 X141.121 Y100.680 E0.06845
G1 X141.547 Y102.822 E0.06845
G1 X141.689 Y105.000 E0.06845
G1 X141.547 Y107.178 E0.06845
G1 X141.121 Y109.320 E0.06845
G1 X140.419 Y111.387 E0.06845
G1 X139.453 Y113.345 E0.06845
G1 X138.241 Y115.160 E0.06845
G1 X136.801 Y116.801 E0.06845
G1 X135.160 Y118.241 E0.06845
G1 X133.345 Y119.453 E0.06845
G1 X131.387 Y120.419 E0.06845
G1 X129.320 Y121.121 E0.06845
G1 X127.178 Y121.547 E0.06845
G1 X125.000 Y121.689 E0.06845
G1 X122.822 Y121.547 E0.06845
G1 X120.680 Y121.121 E0.06845
G1 X118.613 Y120.419 E0.06845
G1 X116.655 Y119.453 E0.06845
G1 X114.840 Y118.241 E0.06845
G1 X113.199 Y116.801 E0.06845
G1 X111.759 Y115.160 E0.06845
G1 X110.547 Y113.345 E0.06845
G1 X109.581 Y111.387 E0.06845
G1 X108.879 Y109.320 E0.06845
G1 X108.453 Y107.178 E0.06845
G1 X108.311 Y105.000 E0.06845
G1 X108.453 Y102.822 E0.06845
G1 X108.879 Y100.680 E0.06845
G1 X109.581 Y98.613 E0.06845
G1 X110.547 Y96.655 E0.06845
G1 X111.726 Y94.890 E0.06657
G1 X112.040 Y95.100 F10800.000
G1 F1200.000
G1 X113.466 Y93.466 E0.06800
G1 X115.070 Y92.059 E0.06690
G1 X116.844 Y90.874 E0.06690
G1 X118.758 Y89.930 E0.06690
G1 X120.778 Y89.244 E0.06690
G1 X122.871 Y88.828 E0.06690
G1 X125.000 Y88.688 E0.06690
G1 X127.129 Y88.828 E0.06690
G1 X129.222 Y89.244 E0.06690
G1 X131.242 Y89.930 E0.06690
G1 X133.156 Y90.874 E0.06690
G1 X134.930 Y92.059 E0.06690
G1 X136.534 Y93.466 E0.06690
G1 X137.941 Y95.070 E0.06690
G1 X139.126 Y96.844 E0.06690
G1 X140.070 Y98.758 E0.06690
G1 X140.756 Y100.778 E0.06690
G1 X141.172 Y102.871 E0.06690
G1 X141.312 Y105.000 E0.06690
G1 X141.172 Y107.129 E0.06690
G1 X140.756 Y109.222 E0.06690
G1 X140.070 Y111.242 E0.06690
G1 X139.126 Y113.156 E0.06690
G1 X137.941 Y114.930 E0.06690
G1 X136.534 Y116.534 E0.06690
G1 X134.930 Y117.941 E0.06690
G1 X133.156 Y119.126 E0.06690
G1 X131.242 Y120.070 E0.06690
G1 X129.222 Y120.756 E0.06690
G1 X127.129 Y121.172 E0.06690
G1 X125.000 Y121.312 E0.06690
G1 X122.871 Y121.172 E0.06690
G1 X120.778 Y120.756 E0.06690
G1 X118.758 Y120.070 E0.06690
G1 X116.844 Y119.126 E0.06690
G1 X115.070 Y117.941 E0.06690
G1 X113.466 Y116.534 E0.06690
G1 X112.059 Y114.930 E0.06690
G1 X110.874 Y113.156 E0.06690
G1 X109.930 Y111.242 E0.06690
G1 X109.244 Y109.222 E0.06690
G1 X108.828 Y107.129 E0.06690
G1 X108.689 Y105.000 E0.06690
G1 X108.828 Y102.871 E0.06690
G1 X109.244 Y100.778 E0.06690
G1 X109.930 Y98.758 E0.06690
G1 X110.874 Y96.844 E0.06690
G1 X112.006 Y95.149 E0.06391
G1 X111.886 Y94.730 F10800.000
G1 E-0.80000 F2100.00000
G1 Z0.800 F10800.000
G1 X102.420 Y87.674
G1 Z0.200
G1 E0.80000 F2100.00000
G1 F1200.000
G1 X104.875 Y84.875 E0.11673
G1 X107.674 Y82.420 E0.11673
G1 X110.769 Y80.352 E0.11673
G1 X114.108 Y78.705 E0.11673
G1 X117.634 Y77.509 E0.11673
G1 X121.285 Y76.782 E0.11673
G1 X125.000 Y76.539 E0.11673
G1 X128.715 Y76.782 E0.11673
G1 X132.366 Y77.509 E0.11673
G1 X135.892 Y78.705 E0.11673
G1 X139.231 Y80.352 E0.11673
G1 X142.326 Y82.420 E0.11673
G1 X145.125 Y84.875 E0.11673
G1 X147.580 Y87.674 E0.11673
G1 X149.648 Y90.769 E0.11673
G1 X151.295 Y94.108 E0.11673
G1 X152.491 Y97.634 E0.11673
G1 X153.218 Y101.285 E0.11673
G1 X153.461 Y105.000 E0.11673
G1 X153.218 Y108.715 E0.11673
G1 X152.491 Y112.366 E0.11673
G1 X151.295 Y115.892 E0.11673
G1 X149.648 Y119.231 E0.11673
G1 X147.580 Y122.326 E0.11673
G1 X145.125 Y125.125 E0.11673
G1 X142.326 Y127.580 E0.11673
G1 X139.231 Y129.648 E0.11673
G1 X135.892 Y131.295 E0.11673
G1 X132.366 Y132.491 E0.11673
G1 X128.715 Y133.218 E0.11673
G1 X125.000 Y133.461 E0.11673
G1 X121.285 Y133.218 E0.11673
G1 X117.634 Y132.491 E0.11673
G1 X114.108 Y131.295 E0.11673
G1 X110.769 Y129.648 E0.11673
G1 X107.674 Y127.580 E0.11673
G1 X104.875 Y125.125 E0.11673
G1 X102.420 Y122.326 E0.11673
G1 X100.352 Y119.231 E0.11673
G1 X98.705 Y115.892 E0.11673
G1 X97.509 Y112.366 E0.11673
G1 X96.782 Y108.715 E0.11673
G1 X96.539 Y105.000 E0.11673
G1 X96.782 Y101.285 E0.11673
G1 X97.509 Y97.634 E0.11673
G1 X98.705 Y94.108 E0.11673
G1 X100.352 Y90.769 E0.11673
G1 X102.387 Y87.724 E0.11485
G1 X102.073 Y87.514 F10800.000
G1 F1200.000
G1 X104.608 Y84.608 E0.12091
G1 X107.444 Y82.120 E0.11828
G1 X110.580 Y80.025 E0.11828
G1 X113.964 Y78.356 E0.11828
G1 X117.536 Y77.144 E0.11828
G1 X121.236 Y76.408 E0.11828
G1 X125.000 Y76.161 E0.11828
G1 X128.764 Y76.408 E0.11828
G1 X132.464 Y77.144 E0.11828
G1 X136.036 Y78.356 E0.11828
G1 X139.420 Y80.025 E0.11828
G1 X142.556 Y82.120 E0.11828
G1 X145.392 Y84.608 E0.11828
G1 X147.880 Y87.444 E0.11828
G1 X149.975 Y90.580 E0.11828
G1 X151.644 Y93.964 E0.11828
G1 X152.856 Y97.536 E0.11828
G1 X153.592 Y101.236 E0.11828
G1 X153.839 Y105.000 E0.11828
G1 X153.592 Y108.764 E0.11828
G1 X152.856 Y112.464 E0.11828
G1 X151.644 Y116.036 E0.11828
G1 X149.975 Y119.420 E0.11828
G1 X147.880 Y122.556 E0.11828
G1 X145.392 Y125.392 E0.11828
G1 X142.556 Y127.880 E0.11828
G1 X139.420 Y129.975 E0.11828
G1 X136.036 Y131.644 E0.11828
G1 X132.464 Y132.856 E0.11828
G1 X128.764 Y133.592 E0.11828
G1 X125.000 Y133.839 E0.11828
G1 X121.236 Y133.592 E0.11828
G1 X117.536 Y132.856 E0.11828
G1 X113.964 Y131.644 E0.11828
G1 X110.580 Y129.975 E0.11828
G1 X107.444 Y127.880 E0.11828
G1 X104.608 Y125.392 E0.11828
G1 X102.120 Y122.556 E0.11828
G1 X100.025 Y119.420 E0.11828
G1 X98.356 Y116.036 E0.11828
G1 X97.144 Y112.464 E0.11828
G1 X96.408 Y108.764 E0.11828
G1 X96.161 Y105.000 E0.11828
G1 X96.408 Y101.236 E0.11828
G1 X97.144 Y97.536 E0.11828
G1 X98.356 Y93.964 E0.11828
G1 X100.025 Y90.580 E0.11828
G1 X102.040 Y87.564 E0.11374
G1 X102.470 Y87.566 F10800.000
G1 E-0.80000 F2100.00000
G1 Z0.800 F10800.000
G1 X106.912 Y126.762
G1 Z0.200
G1 E0.80000 F2100.00000
G1 F1200.000
G1 X105.073 Y124.922 E0.08180
G1 X102.645 Y122.154 E0.11581
G1 X102.254 Y121.568 E0.02215
G1 X108.432 Y127.746 E0.27478
G1 X110.044 Y128.823 E0.06097
G1 X101.177 Y119.956 E0.39438
G1 X100.597 Y119.089 E0.03280
G1 X100.357 Y118.601 E0.01710
G1 X111.399 Y129.643 E0.49110
G1 X112.454 Y130.164 E0.03700
G1 X99.836 Y117.546 E0.56118
G1 X99.316 Y116.491 E0.03701
G1 X113.509 Y130.684 E0.63126
G1 X114.217 Y131.033 E0.02481
G1 X114.484 Y131.124 E0.00886
G1 X98.876 Y115.516 E0.69415
G1 X98.602 Y114.707 E0.02689
G1 X115.293 Y131.398 E0.74239
G1 X116.103 Y131.673 E0.02689
G1 X98.327 Y113.897 E0.79063
M73 P11 R9
G1 X98.052 Y113.087 E0.02689
G1 X116.913 Y131.948 E0.83887
G1 X117.720 Y132.220 E0.02678
G1 X97.780 Y112.280 E0.88687
G1 X97.647 Y111.612 E0.02141
G1 X118.388 Y132.353 E0.92247
G1 X119.055 Y132.486 E0.02141
G1 X97.514 Y110.945 E0.95807
G1 X97.381 Y110.277 E0.02141
G1 X119.723 Y132.619 E0.99368
G1 X120.391 Y132.752 E0.02141
G1 X97.248 Y109.609 E1.02928
G1 X97.116 Y108.941 E0.02141
G1 X121.059 Y132.884 E1.06488
G1 X121.322 Y132.937 E0.00845
G1 X121.669 Y132.959 E0.01092
G1 X97.041 Y108.331 E1.09536
G1 X97.003 Y107.759 E0.01804
G1 X122.241 Y132.997 E1.12248
G1 X122.813 Y133.035 E0.01804
G1 X96.966 Y107.187 E1.14961
G1 X96.928 Y106.614 E0.01804
G1 X123.386 Y133.072 E1.17674
G1 X123.958 Y133.110 E0.01804
G1 X96.890 Y106.042 E1.20387
G1 X96.853 Y105.469 E0.01804
G1 X124.531 Y133.147 E1.23099
G1 X125.090 Y133.172 E0.01762
G1 X96.828 Y104.910 E1.25699
G1 X96.861 Y104.408 E0.01582
G1 X125.592 Y133.139 E1.27786
G1 X126.094 Y133.106 E0.01582
G1 X96.894 Y103.906 E1.29872
G1 X96.927 Y103.404 E0.01582
G1 X126.596 Y133.073 E1.31958
G1 X127.098 Y133.040 E0.01582
G1 X96.960 Y102.902 E1.34045
G1 X96.993 Y102.400 E0.01582
G1 X127.600 Y133.007 E1.36131
G1 X128.102 Y132.974 E0.01582
G1 X97.026 Y101.898 E1.38217
G1 X97.058 Y101.396 E0.01582
G1 X128.757 Y133.094 E1.40982
G1 E-0.80000 F2100.00000
G1 Z0.800 F10800.000
G1 X152.917 Y109.649
G1 Z0.200
G1 E0.80000 F2100.00000
G1 F1200.000
G1 X139.533 Y96.265 E0.59525
G1 X139.699 Y96.514 E0.00939
G1 X140.139 Y97.406 E0.03131
G1 X152.684 Y109.951 E0.55793
G1 X152.595 Y110.397 E0.01431
G1 X140.660 Y98.462 E0.53083
G1 X140.945 Y99.282 E0.02729
G1 X152.506 Y110.843 E0.51421
G1 X152.417 Y111.289 E0.01431
G1 X141.219 Y100.091 E0.49804
G1 X141.395 Y100.607 E0.01713
G1 X141.443 Y100.850 E0.00777
G1 X152.329 Y111.735 E0.48416
G1 X152.240 Y112.182 E0.01431
G1 X141.576 Y101.517 E0.47431
G1 X141.708 Y102.185 E0.02141
G1 X152.116 Y112.593 E0.46289
G1 X151.980 Y112.992 E0.01326
G1 X141.831 Y102.843 E0.45139
G1 X141.869 Y103.415 E0.01804
G1 X151.845 Y113.391 E0.44369
G1 X151.709 Y113.791 E0.01326
G1 X141.906 Y103.988 E0.43599
G1 X141.944 Y104.560 E0.01804
G1 X151.574 Y114.190 E0.42830
G1 X151.438 Y114.589 E0.01326
G1 X141.965 Y105.116 E0.42132
G1 X141.932 Y105.618 E0.01582
G1 X151.303 Y114.989 E0.41676
G1 X151.167 Y115.388 E0.01326
G1 X141.899 Y106.120 E0.41219
G1 X141.866 Y106.622 E0.01582
G1 X151.031 Y115.787 E0.40761
G1 X150.854 Y116.145 E0.01256
G1 X141.834 Y107.124 E0.40121
G1 X141.755 Y107.580 E0.01456
G1 X150.678 Y116.503 E0.39685
G1 X150.501 Y116.861 E0.01256
G1 X141.666 Y108.027 E0.39294
G1 X141.578 Y108.473 E0.01431
G1 X150.325 Y117.220 E0.38903
G1 X150.148 Y117.578 E0.01256
G1 X141.489 Y108.919 E0.38512
G1 X141.400 Y109.365 E0.01431
G1 X149.971 Y117.936 E0.38121
G1 X149.795 Y118.294 E0.01256
G1 X141.267 Y109.767 E0.37925
G1 X141.132 Y110.167 E0.01326
G1 X149.618 Y118.653 E0.37743
G1 X149.441 Y119.011 E0.01256
G1 X140.996 Y110.566 E0.37560
G1 X140.861 Y110.965 E0.01326
G1 X149.235 Y119.340 E0.37246
G1 X149.021 Y119.660 E0.01213
G1 X140.725 Y111.365 E0.36896
G1 X140.562 Y111.736 E0.01277
G1 X148.807 Y119.981 E0.36669
M73 P21 R8
G1 X148.592 Y120.302 E0.01213
G1 X140.385 Y112.095 E0.36502
G1 X140.209 Y112.453 E0.01256
G1 X148.378 Y120.622 E0.36335
G1 X148.164 Y120.943 E0.01213
G1 X140.032 Y112.811 E0.36168
G1 X139.855 Y113.169 E0.01256
G1 X147.950 Y121.264 E0.36001
G1 X147.735 Y121.584 E0.01213
G1 X139.674 Y113.523 E0.35853
G1 X139.460 Y113.844 E0.01213
G1 X147.521 Y121.905 E0.35853
G1 X147.299 Y122.217 E0.01206
G1 X139.246 Y114.164 E0.35817
G1 X139.032 Y114.485 E0.01213
G1 X147.049 Y122.502 E0.35658
G1 X146.799 Y122.787 E0.01192
G1 X138.817 Y114.806 E0.35500
G1 X138.603 Y115.126 E0.01213
G1 X146.549 Y123.072 E0.35341
G1 X146.299 Y123.357 E0.01192
G1 X138.376 Y115.434 E0.35239
G1 X138.126 Y115.719 E0.01192
G1 X146.049 Y123.642 E0.35239
G1 X145.799 Y123.927 E0.01192
G1 X137.876 Y116.004 E0.35239
G1 X137.626 Y116.289 E0.01192
G1 X145.550 Y124.212 E0.35239
G1 X145.300 Y124.497 E0.01192
G1 X137.376 Y116.574 E0.35239
G1 X137.127 Y116.859 E0.01192
G1 X145.050 Y124.782 E0.35239
G1 X144.782 Y125.050 E0.01189
G1 X136.859 Y117.127 E0.35239
G1 X136.574 Y117.376 E0.01192
G1 X144.497 Y125.300 E0.35239
G1 X144.212 Y125.550 E0.01192
G1 X136.289 Y117.626 E0.35239
G1 X136.004 Y117.876 E0.01192
G1 X143.927 Y125.799 E0.35239
G1 X143.642 Y126.049 E0.01192
G1 X135.719 Y118.126 E0.35239
G1 X135.434 Y118.376 E0.01192
G1 X143.357 Y126.299 E0.35239
G1 X143.072 Y126.549 E0.01192
G1 X135.126 Y118.603 E0.35341
G1 X134.806 Y118.817 E0.01213
G1 X142.787 Y126.799 E0.35500
G1 X142.502 Y127.049 E0.01192
G1 X134.485 Y119.032 E0.35658
G1 X134.164 Y119.246 E0.01213
G1 X142.217 Y127.299 E0.35817
G1 X141.905 Y127.521 E0.01206
G1 X133.844 Y119.460 E0.35852
G1 X133.523 Y119.674 E0.01213
G1 X141.584 Y127.735 E0.35852
G1 X141.264 Y127.950 E0.01213
G1 X133.169 Y119.855 E0.36000
G1 X132.811 Y120.032 E0.01256
G1 X140.943 Y128.164 E0.36168
G1 X140.622 Y128.378 E0.01213
G1 X132.453 Y120.209 E0.36335
G1 X132.095 Y120.385 E0.01256
G1 X140.302 Y128.592 E0.36502
G1 X139.981 Y128.807 E0.01213
G1 X131.736 Y120.562 E0.36669
G1 X131.365 Y120.725 E0.01277
G1 X139.660 Y129.021 E0.36896
G1 X139.340 Y129.235 E0.01213
G1 X130.965 Y120.861 E0.37246
G1 X130.566 Y120.996 E0.01326
G1 X139.011 Y129.441 E0.37560
G1 X138.653 Y129.618 E0.01256
G1 X130.167 Y121.132 E0.37743
G1 X129.767 Y121.267 E0.01326
G1 X138.294 Y129.795 E0.37925
G1 X137.936 Y129.971 E0.01256
G1 X129.365 Y121.400 E0.38121
G1 X128.919 Y121.489 E0.01431
G1 X137.578 Y130.148 E0.38512
G1 X137.220 Y130.324 E0.01256
G1 X128.473 Y121.578 E0.38903
G1 X128.027 Y121.666 E0.01431
G1 X136.862 Y130.501 E0.39294
G1 X136.503 Y130.678 E0.01256
G1 X127.580 Y121.755 E0.39685
G1 X127.124 Y121.834 E0.01456
G1 X136.145 Y130.854 E0.40121
G1 X135.787 Y131.031 E0.01256
G1 X126.622 Y121.866 E0.40761
G1 X126.120 Y121.899 E0.01582
G1 X135.388 Y131.167 E0.41219
G1 X134.989 Y131.303 E0.01326
G1 X125.618 Y121.932 E0.41676
G1 X125.116 Y121.965 E0.01582
G1 X134.589 Y131.438 E0.42132
G1 X134.190 Y131.574 E0.01326
G1 X124.560 Y121.944 E0.42830
G1 X123.988 Y121.906 E0.01804
G1 X133.791 Y131.709 E0.43599
G1 X133.391 Y131.845 E0.01326
G1 X123.415 Y121.869 E0.44369
