; generated by PrusaSlicer 2.1.1+win64 on 2019-12-14 at 19:29:11 UTC

; 

; external perimeters extrusion width = 0.45mm
; perimeters extrusion width = 0.45mm
; infill extrusion width = 0.45mm
; solid infill extrusion width = 0.45mm
; top infill extrusion width = 0.40mm
; support material extrusion width = 0.35mm
; first layer extrusion width = 0.42mm

M73 P0 R35
M201 X9000 Y9000 Z500 E10000 ; sets maximum accelerations, mm/sec^2
M203 X500 Y500 Z12 E120 ; sets maximum feedrates, mm/sec
M204 P2000 R1500 T2000 ; sets acceleration (P, T) and retract acceleration (R), mm/sec^2
M205 X10.00 Y10.00 Z0.20 E2.50 ; sets the jerk limits, mm/sec
M205 S0 T0 ; sets the minimum extruding and travel feed rate, mm/sec
M107
M862.3 P "MK2.5SMMU2S" ; printer model check
M862.1 P0.4 ; nozzle diameter check
M115 U3.8.1 ; tell printer latest fw version
G90 ; use absolute coordinates
M83 ; extruder relative mode
M104 S215 ; set extruder temp
M140 S60 ; set bed temp
Tx
M190 S60 ; wait for bed temp
M109 S215 ; wait for extruder temp
G28 W ; home all without mesh bed level
G80 ; mesh bed leveling

;go outside print area
G1 Y-3.0 F1000.0
G1 Z0.4 F1000.0
; select extruder
Tc
; purge line
G1 X55.0 F2000.0
G1 Z0.3 F1000.0
G92 E0.0
G1 X240.0 E25.0 F2200.0
M73 P0 R35
G1 Y-2.0 F1000.0
G1 X55.0 E25 F1400.0
G1 Z0.20 F1000.0
G1 X5.0 E4.0 F1000.0
G92 E0.0
G21 ; set units to millimeters
G90 ; use absolute coordinates
M83 ; use relative distances for extrusion
M900 K30 ; Filament gcode
;BEFORE_LAYER_CHANGE
G92 E0.0
;0.2


G1 E-0.80000 F2100.00000
G1 Z0.600 F10800.000
;AFTER_LAYER_CHANGE
;0.2
G1 X112.951 Y96.935
G1 Z0.200
G1 E0.80000 F2100.00000
M204 S1000
G1 F1200
G1 X113.185 Y96.252 E0.02263
G1 X113.596 Y95.664 E0.02251
G1 X121.019 Y88.299 E0.32784
G1 X121.590 Y88.003 E0.02017
G1 X122.217 Y87.859 E0.02017
G1 X126.255 Y87.767 E0.12664
G1 X127.134 Y87.924 E0.02802
G1 X127.907 Y88.373 E0.02802
G1 X133.044 Y93.509 E0.22777
G1 X138.794 Y102.444 E0.33314
G1 X138.977 Y102.961 E0.01721
G1 X139.045 Y103.506 E0.01721
G1 X139.000 Y114.381 E0.34097
G1 X138.747 Y115.102 E0.02398
G1 X138.295 Y115.714 E0.02386
G1 X133.868 Y119.894 E0.19090
G1 X133.444 Y120.198 E0.01635
G1 X132.971 Y120.408 E0.01623
G1 X131.677 Y120.670 E0.04140
G1 X119.985 Y120.625 E0.36659
G1 X119.284 Y120.382 E0.02324
G1 X118.682 Y119.950 E0.02324
G1 X115.183 Y116.447 E0.15524
G1 X114.851 Y115.985 E0.01783
G1 X114.628 Y115.458 E0.01795
G1 X112.916 Y101.783 E0.43211
G1 X112.951 Y96.995 E0.15014
G1 X113.322 Y97.000 F10800.000
G1 F1200
G1 X113.524 Y96.415 E0.01942
G1 X113.880 Y95.912 E0.01930
G1 X121.239 Y88.605 E0.32515
G1 X121.732 Y88.353 E0.01737
G1 X122.273 Y88.232 E0.01737
G1 X126.254 Y88.144 E0.12488
G1 X127.013 Y88.281 E0.02417
G1 X127.680 Y88.675 E0.02428
G1 X132.767 Y93.765 E0.22564
G1 X138.459 Y102.617 E0.32999
G1 X138.668 Y103.518 E0.02900
G1 X138.629 Y114.315 E0.33853
G1 X138.410 Y114.933 E0.02055
G1 X138.021 Y115.455 E0.02044
G1 X133.622 Y119.608 E0.18968
G1 X132.837 Y120.055 E0.02833
G1 X131.666 Y120.293 E0.03746
G1 X120.051 Y120.254 E0.36418
G1 X119.452 Y120.045 E0.01987
G1 X118.939 Y119.673 E0.01987
G1 X115.469 Y116.201 E0.15392
G1 X115.177 Y115.795 E0.01567
G1 X114.985 Y115.334 E0.01567
G1 X113.292 Y101.751 E0.42920
G1 X113.322 Y97.060 E0.14706
G1 X113.672 Y96.847 F10800.000
G1 F1200
G1 X114.021 Y96.199 E0.02307
G1 X114.934 Y95.285 E0.04052
G1 X115.031 Y95.218 E0.00368
G1 X115.104 Y95.115 E0.00395
G1 X116.012 Y94.208 E0.04025
G1 X116.108 Y94.140 E0.00368
G1 X116.181 Y94.038 E0.00395
G1 X117.089 Y93.130 E0.04025
G1 X117.185 Y93.063 E0.00368
G1 X117.259 Y92.961 E0.00395
G1 X118.167 Y92.053 E0.04025
G1 X118.263 Y91.986 E0.00368
G1 X118.336 Y91.883 E0.00395
G1 X119.244 Y90.976 E0.04025
G1 X119.340 Y90.908 E0.00368
G1 X119.414 Y90.806 E0.00395
G1 X120.321 Y89.898 E0.04025
G1 X120.418 Y89.831 E0.00368
G1 X120.493 Y89.726 E0.00404
G1 X121.441 Y88.791 E0.04175
G1 X121.836 Y88.584 E0.01400
G1 X122.320 Y88.481 E0.01550
G1 X122.754 Y88.506 E0.01364
G1 X123.360 Y88.738 E0.02035
G1 X123.515 Y88.645 E0.00567
G1 X124.006 Y88.471 E0.01633
G1 X124.777 Y88.466 E0.02416
G1 X125.329 Y88.657 E0.01832
G1 X125.862 Y88.469 E0.01771
G1 X126.632 Y88.468 E0.02414
G1 X126.874 Y88.531 E0.00784
G1 X127.308 Y88.750 E0.01526
G1 X129.306 Y90.721 E0.08799
G1 X129.379 Y90.824 E0.00395
G1 X129.476 Y90.891 E0.00368
G1 X130.383 Y91.798 E0.04025
G1 X130.457 Y91.901 E0.00395
G1 X130.553 Y91.968 E0.00368
G1 X131.461 Y92.876 E0.04025
G1 X131.534 Y92.978 E0.00395
G1 X131.630 Y93.046 E0.00368
G1 X132.514 Y93.929 E0.03918
G1 X132.768 Y94.304 E0.01419
G1 X132.979 Y95.009 E0.02307
G1 X132.979 Y96.320 E0.04112
G1 X132.917 Y96.591 E0.00871
G1 X132.979 Y96.862 E0.00872
G1 X132.978 Y98.117 E0.03935
G1 X133.528 Y98.232 E0.01761
G1 X134.176 Y98.581 E0.02309
G1 X134.693 Y99.098 E0.02290
G1 X134.766 Y99.200 E0.00395
G1 X134.863 Y99.268 E0.00368
G1 X135.770 Y100.175 E0.04025
G1 X135.844 Y100.278 E0.00395
G1 X135.940 Y100.345 E0.00368
G1 X136.848 Y101.253 E0.04025
G1 X136.921 Y101.355 E0.00395
G1 X137.017 Y101.422 E0.00368
G1 X137.908 Y102.313 E0.03952
G1 X138.192 Y102.757 E0.01651
G1 X138.351 Y103.288 E0.01738
G1 X138.366 Y114.189 E0.34178
G1 X138.320 Y114.421 E0.00743
G1 X138.082 Y114.888 E0.01642
G1 X137.665 Y115.304 E0.01848
G1 X137.473 Y115.435 E0.00728
G1 X137.292 Y115.510 E0.00613
G1 X136.480 Y116.328 E0.03615
G1 X136.382 Y116.396 E0.00373
G1 X136.309 Y116.499 E0.00396
G1 X135.401 Y117.406 E0.04025
G1 X135.305 Y117.474 E0.00368
G1 X135.231 Y117.576 E0.00395
G1 X134.324 Y118.484 E0.04025
G1 X134.228 Y118.551 E0.00368
G1 X134.154 Y118.653 E0.00395
G1 X133.255 Y119.552 E0.03986
G1 X132.767 Y119.813 E0.01734
G1 X132.329 Y119.900 E0.01402
G1 X132.210 Y119.905 E0.00371
G1 X131.885 Y119.990 E0.01055
G1 X120.340 Y119.990 E0.36199
G1 X120.009 Y119.941 E0.01047
G1 X119.249 Y119.555 E0.02675
G1 X118.875 Y119.181 E0.01657
G1 X118.801 Y119.079 E0.00395
G1 X118.705 Y119.011 E0.00368
G1 X117.797 Y118.104 E0.04025
G1 X117.724 Y118.001 E0.00395
G1 X117.628 Y117.934 E0.00368
G1 X116.720 Y117.026 E0.04025
G1 X116.647 Y116.924 E0.00395
G1 X116.550 Y116.857 E0.00368
G1 X115.637 Y115.944 E0.04049
G1 X115.251 Y115.183 E0.02675
G1 X115.202 Y114.852 E0.01048
G1 X115.202 Y103.709 E0.34939
G1 X114.659 Y103.162 E0.02417
G1 X114.483 Y103.090 E0.00597
G1 X114.316 Y102.981 E0.00622
G1 X113.871 Y102.541 E0.01965
G1 X113.615 Y102.023 E0.01810
G1 X113.586 Y101.840 E0.00583
G1 X113.589 Y100.948 E0.02794
G1 X113.654 Y100.593 E0.01134
G1 X113.719 Y100.428 E0.00554
G1 X113.586 Y100.005 E0.01389
G1 X113.593 Y99.062 E0.02958
G1 X113.654 Y98.742 E0.01022
G1 X113.719 Y98.580 E0.00547
G1 X113.586 Y98.159 E0.01383
G1 X113.586 Y97.291 E0.02722
G1 X113.660 Y96.905 E0.01231
G1 X114.019 Y96.994 F10800.000
G1 F1200
G1 X114.308 Y96.445 E0.01947
G1 X115.183 Y95.570 E0.03880
G1 X115.300 Y95.496 E0.00434
G1 X115.386 Y95.367 E0.00486
G1 X116.261 Y94.492 E0.03877
G1 X116.378 Y94.418 E0.00434
G1 X116.464 Y94.289 E0.00486
G1 X117.338 Y93.415 E0.03877
G1 X117.455 Y93.341 E0.00434
G1 X117.541 Y93.212 E0.00486
G1 X118.415 Y92.337 E0.03877
G1 X118.532 Y92.263 E0.00434
G1 X118.618 Y92.134 E0.00486
G1 X119.493 Y91.260 E0.03877
G1 X119.610 Y91.186 E0.00434
G1 X119.696 Y91.057 E0.00486
G1 X120.570 Y90.183 E0.03877
G1 X120.687 Y90.109 E0.00434
G1 X120.774 Y89.979 E0.00490
G1 X121.683 Y89.081 E0.04006
G1 X121.979 Y88.933 E0.01039
G1 X122.366 Y88.856 E0.01236
G1 X122.696 Y88.879 E0.01036
G1 X123.408 Y89.165 E0.02405
G1 X123.673 Y88.988 E0.01001
G1 X124.049 Y88.847 E0.01257
G1 X124.687 Y88.834 E0.02000
G1 X125.129 Y88.987 E0.01468
G1 X125.328 Y89.111 E0.00735
G1 X125.508 Y88.994 E0.00673
G1 X125.901 Y88.846 E0.01318
G1 X126.568 Y88.840 E0.02090
G1 X126.725 Y88.878 E0.00506
G1 X127.112 Y89.073 E0.01359
G1 X127.947 Y89.896 E0.03675
G1 X128.033 Y90.024 E0.00483
G1 X128.149 Y90.098 E0.00434
G1 X129.024 Y90.972 E0.03877
G1 X129.110 Y91.101 E0.00486
G1 X129.227 Y91.175 E0.00434
G1 X130.101 Y92.050 E0.03877
G1 X130.187 Y92.179 E0.00486
G1 X130.304 Y92.253 E0.00434
G1 X131.179 Y93.127 E0.03877
G1 X131.265 Y93.256 E0.00486
G1 X131.382 Y93.330 E0.00434
G1 X132.236 Y94.185 E0.03789
G1 X132.417 Y94.445 E0.00995
G1 X132.602 Y95.038 E0.01947
G1 X132.602 Y96.295 E0.03940
G1 X132.527 Y96.591 E0.00958
G1 X132.602 Y96.887 E0.00958
G1 X132.601 Y98.247 E0.04261
G1 X132.877 Y98.523 E0.01224
G1 X133.096 Y98.526 E0.00687
G1 X133.380 Y98.580 E0.00905
G1 X133.931 Y98.869 E0.01949
G1 X134.411 Y99.349 E0.02129
G1 X134.497 Y99.478 E0.00486
G1 X134.614 Y99.552 E0.00434
G1 X135.488 Y100.426 E0.03877
G1 X135.574 Y100.555 E0.00486
G1 X135.691 Y100.629 E0.00434
G1 X136.566 Y101.504 E0.03877
G1 X136.651 Y101.633 E0.00486
G1 X136.768 Y101.707 E0.00434
G1 X137.626 Y102.564 E0.03804
G1 X137.857 Y102.933 E0.01365
G1 X137.981 Y103.366 E0.01411
G1 X137.989 Y114.168 E0.33870
G1 X137.957 Y114.319 E0.00484
G1 X137.793 Y114.643 E0.01136
G1 X137.413 Y115.023 E0.01688
G1 X137.285 Y115.108 E0.00478
G1 X137.083 Y115.185 E0.00679
G1 X136.230 Y116.044 E0.03796
G1 X136.113 Y116.119 E0.00436
G1 X136.027 Y116.247 E0.00486
G1 X135.152 Y117.122 E0.03877
G1 X135.035 Y117.196 E0.00434
G1 X134.949 Y117.325 E0.00486
G1 X134.075 Y118.199 E0.03877
G1 X133.958 Y118.273 E0.00434
G1 X133.872 Y118.402 E0.00486
G1 X133.008 Y119.266 E0.03831
G1 X132.667 Y119.449 E0.01214
G1 X132.274 Y119.527 E0.01254
G1 X132.156 Y119.529 E0.00372
G1 X131.857 Y119.613 E0.00973
G1 X120.355 Y119.613 E0.36064
G1 X120.097 Y119.573 E0.00818
G1 X119.494 Y119.267 E0.02120
G1 X119.157 Y118.930 E0.01495
G1 X119.071 Y118.801 E0.00486
G1 X118.954 Y118.727 E0.00434
G1 X118.080 Y117.852 E0.03877
G1 X117.994 Y117.724 E0.00486
G1 X117.877 Y117.649 E0.00434
G1 X117.002 Y116.775 E0.03877
G1 X116.916 Y116.646 E0.00486
G1 X116.799 Y116.572 E0.00434
G1 X115.925 Y115.698 E0.03876
G1 X115.619 Y115.095 E0.02120
G1 X115.579 Y114.837 E0.00818
G1 X115.579 Y103.554 E0.35380
G1 X114.868 Y102.838 E0.03163
G1 X114.664 Y102.759 E0.00686
G1 X114.565 Y102.697 E0.00365
G1 X114.159 Y102.295 E0.01792
G1 X113.982 Y101.932 E0.01268
G1 X113.963 Y101.823 E0.00347
G1 X113.966 Y100.968 E0.02682
G1 X114.019 Y100.688 E0.00893
G1 X114.125 Y100.446 E0.00829
G1 X113.963 Y99.974 E0.01566
G1 X113.970 Y99.084 E0.02790
G1 X114.019 Y98.841 E0.00778
G1 X114.125 Y98.597 E0.00832
G1 X113.963 Y98.125 E0.01565
G1 X113.963 Y97.307 E0.02567
G1 X114.009 Y97.053 E0.00807
G1 X114.370 Y97.136 F10800.000
G1 F1200
G1 X114.597 Y96.689 E0.01571
G1 X115.426 Y95.860 E0.03679
G1 X115.569 Y95.782 E0.00511
G1 X115.671 Y95.615 E0.00613
G1 X116.504 Y94.782 E0.03692
G1 X116.647 Y94.704 E0.00511
G1 X116.749 Y94.537 E0.00613
G1 X117.581 Y93.705 E0.03692
G1 X117.724 Y93.627 E0.00511
G1 X117.826 Y93.460 E0.00613
G1 X118.659 Y92.627 E0.03692
G1 X118.801 Y92.549 E0.00511
G1 X118.903 Y92.383 E0.00613
G1 X119.736 Y91.550 E0.03692
G1 X119.879 Y91.472 E0.00511
G1 X119.981 Y91.305 E0.00613
G1 X120.813 Y90.473 E0.03692
G1 X120.956 Y90.395 E0.00511
G1 X121.058 Y90.228 E0.00611
G1 X121.925 Y89.372 E0.03823
G1 X122.076 Y89.298 E0.00525
G1 X122.417 Y89.231 E0.01089
G1 X122.584 Y89.241 E0.00526
G1 X123.188 Y89.483 E0.02040
G1 X123.451 Y89.684 E0.01037
G1 X123.738 Y89.396 E0.01275
G1 X123.830 Y89.332 E0.00352
G1 X124.151 Y89.211 E0.01075
G1 X124.595 Y89.202 E0.01392
G1 X124.976 Y89.333 E0.01263
G1 X125.066 Y89.396 E0.00345
G1 X125.337 Y89.667 E0.01201
G1 X125.570 Y89.411 E0.01087
G1 X125.671 Y89.336 E0.00395
G1 X126.000 Y89.211 E0.01101
G1 X126.541 Y89.217 E0.01697
G1 X126.915 Y89.396 E0.01299
G1 X127.661 Y90.143 E0.03312
G1 X127.763 Y90.310 E0.00613
G1 X127.906 Y90.388 E0.00511
G1 X128.739 Y91.220 E0.03692
G1 X128.841 Y91.387 E0.00613
G1 X128.984 Y91.465 E0.00511
G1 X129.816 Y92.298 E0.03692
G1 X129.918 Y92.465 E0.00613
G1 X130.061 Y92.543 E0.00511
G1 X130.894 Y93.375 E0.03692
G1 X130.995 Y93.542 E0.00613
G1 X131.138 Y93.620 E0.00511
G1 X131.960 Y94.442 E0.03643
G1 X132.069 Y94.593 E0.00585
G1 X132.225 Y95.069 E0.01571
G1 X132.225 Y96.267 E0.03755
G1 X132.135 Y96.591 E0.01055
G1 X132.225 Y96.915 E0.01055
G1 X132.225 Y98.118 E0.03771
G1 X132.168 Y98.347 E0.00739
G1 X132.722 Y98.901 E0.02458
G1 X133.055 Y98.901 E0.01043
G1 X133.239 Y98.931 E0.00585
G1 X133.686 Y99.157 E0.01571
G1 X134.126 Y99.597 E0.01950
G1 X134.228 Y99.764 E0.00613
G1 X134.371 Y99.842 E0.00511
G1 X135.203 Y100.675 E0.03692
G1 X135.305 Y100.841 E0.00613
G1 X135.448 Y100.919 E0.00511
G1 X136.280 Y101.752 E0.03692
G1 X136.382 Y101.919 E0.00613
G1 X136.525 Y101.997 E0.00511
G1 X137.345 Y102.817 E0.03637
G1 X137.502 Y103.064 E0.00918
G1 X137.612 Y103.444 E0.01241
G1 X137.611 Y114.151 E0.33568
G1 X137.502 Y114.401 E0.00856
G1 X137.159 Y114.744 E0.01522
G1 X136.873 Y114.862 E0.00971
G1 X135.986 Y115.755 E0.03943
G1 X135.844 Y115.832 E0.00510
G1 X135.742 Y115.999 E0.00613
G1 X134.909 Y116.832 E0.03692
G1 X134.766 Y116.910 E0.00511
G1 X134.664 Y117.077 E0.00613
G1 X133.832 Y117.909 E0.03692
G1 X133.689 Y117.987 E0.00511
G1 X133.587 Y118.154 E0.00613
G1 X132.761 Y118.980 E0.03661
G1 X132.566 Y119.084 E0.00695
G1 X132.225 Y119.152 E0.01089
G1 X132.104 Y119.149 E0.00380
G1 X131.826 Y119.236 E0.00914
G1 X120.371 Y119.236 E0.35917
G1 X120.187 Y119.206 E0.00585
G1 X119.740 Y118.979 E0.01571
G1 X119.442 Y118.682 E0.01320
G1 X119.340 Y118.515 E0.00613
G1 X119.197 Y118.437 E0.00511
G1 X118.365 Y117.604 E0.03692
G1 X118.263 Y117.437 E0.00613
G1 X118.120 Y117.359 E0.00511
G1 X117.287 Y116.527 E0.03692
G1 X117.185 Y116.360 E0.00613
G1 X117.042 Y116.282 E0.00511
G1 X116.213 Y115.452 E0.03679
G1 X115.986 Y115.006 E0.01571
G1 X115.956 Y114.821 E0.00585
G1 X115.956 Y103.398 E0.35817
G1 X115.079 Y102.515 E0.03903
G1 X114.793 Y102.396 E0.00971
G1 X114.450 Y102.053 E0.01522
G1 X114.346 Y101.835 E0.00757
G1 X114.343 Y100.989 E0.02653
G1 X114.383 Y100.788 E0.00641
G1 X114.586 Y100.356 E0.01497
G1 X114.418 Y100.157 E0.00816
G1 X114.340 Y99.940 E0.00722
G1 X114.343 Y99.140 E0.02509
G1 X114.383 Y98.940 E0.00641
G1 X114.586 Y98.508 E0.01497
G1 X114.418 Y98.309 E0.00816
G1 X114.340 Y98.092 E0.00723
G1 X114.340 Y97.320 E0.02419
G1 X114.360 Y97.195 E0.00397
G1 X114.736 Y97.229 F10800.000
G1 F1200
G1 X114.885 Y96.934 E0.01035
G1 X115.660 Y96.159 E0.03438
G1 X115.835 Y96.085 E0.00595
G1 X115.960 Y95.860 E0.00808
G1 X116.738 Y95.082 E0.03450
G1 X116.913 Y95.008 E0.00595
G1 X117.037 Y94.782 E0.00808
G1 X117.815 Y94.004 E0.03450
G1 X117.990 Y93.930 E0.00595
G1 X118.114 Y93.705 E0.00808
G1 X118.892 Y92.927 E0.03450
G1 X119.067 Y92.853 E0.00595
G1 X119.192 Y92.627 E0.00808
G1 X119.970 Y91.849 E0.03450
G1 X120.145 Y91.776 E0.00595
G1 X120.269 Y91.550 E0.00808
G1 X121.047 Y90.772 E0.03450
G1 X121.222 Y90.698 E0.00595
G1 X121.347 Y90.473 E0.00808
G1 X122.131 Y89.688 E0.03478
G1 X122.180 Y89.662 E0.00175
G1 X122.459 Y89.607 E0.00893
G1 X122.515 Y89.612 E0.00175
G1 X123.012 Y89.818 E0.01687
G1 X123.057 Y89.855 E0.00183
G1 X123.156 Y90.012 E0.00582
G1 X123.305 Y90.042 E0.00476
G1 X123.510 Y90.158 E0.00739
G1 X123.990 Y89.678 E0.02131
G1 X124.245 Y89.578 E0.00856
G1 X124.560 Y89.578 E0.00988
G1 X124.787 Y89.659 E0.00757
G1 X125.288 Y90.152 E0.02202
G1 X125.520 Y90.106 E0.00740
G1 X125.603 Y89.934 E0.00597
G1 X125.834 Y89.682 E0.01072
G1 X126.090 Y89.579 E0.00867
G1 X126.469 Y89.591 E0.01187
G1 X126.673 Y89.688 E0.00707
G1 X127.373 Y90.388 E0.03106
G1 X127.497 Y90.614 E0.00808
G1 X127.672 Y90.687 E0.00595
G1 X128.450 Y91.465 E0.03450
G1 X128.575 Y91.691 E0.00808
G1 X128.750 Y91.765 E0.00595
G1 X129.528 Y92.543 E0.03450
G1 X129.652 Y92.768 E0.00808
G1 X129.827 Y92.842 E0.00595
G1 X130.605 Y93.620 E0.03450
G1 X130.730 Y93.846 E0.00808
G1 X130.905 Y93.919 E0.00595
G1 X131.681 Y94.696 E0.03443
G1 X131.744 Y94.786 E0.00345
G1 X131.848 Y95.100 E0.01035
G1 X131.848 Y96.236 E0.03563
G1 X131.739 Y96.591 E0.01165
G1 X131.848 Y96.946 E0.01165
G1 X131.848 Y98.085 E0.03569
G1 X131.738 Y98.442 E0.01172
G1 X131.795 Y98.613 E0.00565
G1 X131.981 Y98.693 E0.00636
G1 X132.566 Y99.278 E0.02593
G1 X133.038 Y99.278 E0.01478
G1 X133.146 Y99.297 E0.00345
G1 X133.441 Y99.446 E0.01035
G1 X133.837 Y99.842 E0.01758
G1 X133.962 Y100.068 E0.00808
G1 X134.137 Y100.141 E0.00595
G1 X134.915 Y100.919 E0.03450
G1 X135.039 Y101.145 E0.00808
G1 X135.214 Y101.219 E0.00595
