; generated by PrusaSlicer 2.1.1+win64 on 2020-06-30 at 20:56:15 UTC

; 

; external perimeters extrusion width = 0.45mm
; perimeters extrusion width = 0.45mm
; infill extrusion width = 0.45mm
; solid infill extrusion width = 0.45mm
; top infill extrusion width = 0.40mm
; support material extrusion width = 0.35mm
; first layer extrusion width = 0.42mm

M73 P0 R79
M201 X9000 Y9000 Z500 E10000 ; sets maximum accelerations, mm/sec^2
M203 X500 Y500 Z12 E120 ; sets maximum feedrates, mm/sec
M204 P2000 R1500 T2000 ; sets acceleration (P, T) and retract acceleration (R), mm/sec^2
M205 X10.00 Y10.00 Z0.20 E4.50 ; sets the jerk limits, mm/sec
M205 S0 T0 ; sets the minimum extruding and travel feed rate, mm/sec
M107
M862.3 P "MK2.5SMMU2S" ; printer model check
M862.1 P0.4 ; nozzle diameter check
M115 U3.8.1 ; tell printer latest fw version
G90 ; use absolute coordinates
M83 ; extruder relative mode
M104 S215 ; set extruder temp
M140 S60 ; set bed temp
Tx
M190 S60 ; wait for bed temp
M109 S215 ; wait for extruder temp
G28 W ; home all without mesh bed level
G80 ; mesh bed leveling

;go outside print area
G1 Y-3.0 F1000.0
G1 Z0.4 F1000.0
; select extruder
Tc
; purge line
G1 X55.0 F2000.0
G1 Z0.3 F1000.0
G92 E0.0
G1 X240.0 E25.0 F2200.0
M73 P0 R79
G1 Y-2.0 F1000.0
G1 X55.0 E25 F1400.0
G1 Z0.20 F1000.0
G1 X5.0 E4.0 F1000.0
G92 E0.0
G21 ; set units to millimeters
G90 ; use absolute coordinates
M83 ; use relative distances for extrusion
M900 K30 ; Filament gcode
;BEFORE_LAYER_CHANGE
G92 E0.0
;0.2


G1 E-0.80000 F2100.00000
G1 Z0.600 F10800.000
;AFTER_LAYER_CHANGE
;0.2
G1 X63.968 Y58.032
G1 Z0.200
G1 E0.80000 F2100.00000
M204 S1000
G1 F1200
G1 X64.353 Y57.398 E0.02326
G1 X69.412 Y52.339 E0.22431
G1 X70.475 Y51.697 E0.03895
G1 X71.321 Y51.520 E0.02709
G1 X180.140 Y51.520 E3.41194
G1 X180.957 Y51.678 E0.02608
G1 X181.658 Y52.132 E0.02620
G1 X185.724 Y56.204 E0.18042
G1 X186.077 Y56.761 E0.02066
G1 X186.248 Y57.397 E0.02066
G1 X186.261 Y105.708 E1.51476
G1 X184.426 Y148.416 E1.34032
G1 X184.013 Y149.494 E0.03620
G1 X183.665 Y150.015 E0.01964
G1 X177.002 Y156.676 E0.29538
G1 X176.542 Y156.985 E0.01737
G1 X176.023 Y157.167 E0.01726
G1 X173.509 Y157.433 E0.07927
G1 X72.963 Y157.431 E3.15254
G1 X72.246 Y157.272 E0.02304
G1 X71.618 Y156.883 E0.02315
G1 X65.988 Y151.252 E0.24969
G1 X65.609 Y150.639 E0.02259
G1 X65.450 Y149.932 E0.02270
G1 X63.816 Y112.479 E1.17545
G1 X63.817 Y58.759 E1.68436
G1 X63.956 Y58.091 E0.02138
G1 F8640
G1 X64.353 Y57.398 E-0.18444
G1 X66.116 Y55.636 E-0.57556
G1 E-0.04000 F2100.00000
G1 Z0.800 F10800.000
G1 X128.283 Y105.642
G1 Z0.200
G1 E0.80000 F2100.00000
G1 F1200
G1 X124.349 Y101.709 E0.17443
G1 X123.587 Y101.709 E0.02389
G1 X128.113 Y106.234 E0.20068
G1 X128.113 Y106.996 E0.02389
G1 X122.826 Y101.709 E0.23446
G1 X122.289 Y101.709 E0.01683
G1 X122.176 Y101.821 E0.00499
G1 X128.001 Y107.646 E0.25827
G1 X127.646 Y108.000 E0.01571
G1 X128.113 Y108.467 E0.02070
G1 X128.113 Y108.520 E0.00167
G1 X121.302 Y101.709 E0.30202
G1 X120.540 Y101.709 E0.02389
G1 X128.113 Y109.282 E0.33580
G1 X128.113 Y110.044 E0.02389
G1 X119.778 Y101.709 E0.36958
G1 X119.021 Y101.713 E0.02374
G1 X128.109 Y110.801 E0.40294
G1 X127.728 Y111.182 E0.01689
G1 X118.640 Y102.094 E0.40294
G1 X118.559 Y102.175 E0.00360
G1 X118.092 Y101.709 E0.02070
G1 X117.493 Y101.709 E0.01880
G1 X127.347 Y111.562 E0.43693
G1 X126.966 Y111.943 E0.01689
G1 X116.731 Y101.709 E0.45382
G1 X115.969 Y101.709 E0.02389
G1 X126.585 Y112.324 E0.47071
G1 X126.204 Y112.705 E0.01689
G1 X115.485 Y101.987 E0.47528
G1 X115.104 Y102.368 E0.01689
G1 X126.482 Y113.745 E0.50449
G1 X126.482 Y114.507 E0.02389
G1 X114.724 Y102.748 E0.52138
G1 X114.343 Y103.129 E0.01689
G1 X126.482 Y115.269 E0.53827
G1 X126.482 Y115.690 E0.01321
G1 X126.312 Y115.860 E0.00755
G1 X113.962 Y103.510 E0.54762
G1 X113.581 Y103.891 E0.01689
G1 X126.482 Y116.792 E0.57205
G1 X126.482 Y117.554 E0.02389
G1 X113.200 Y104.272 E0.58894
G1 X112.819 Y104.653 E0.01689
G1 X126.482 Y118.316 E0.60583
G1 X126.482 Y118.953 E0.01997
G1 X126.419 Y119.015 E0.00277
G1 X112.438 Y105.034 E0.61995
G1 X112.057 Y105.415 E0.01689
G1 X126.038 Y119.396 E0.61995
G1 X126.015 Y119.419 E0.00104
G1 X126.482 Y119.886 E0.02070
G1 X126.482 Y120.601 E0.02242
G1 X111.676 Y105.796 E0.65650
G1 X111.295 Y106.177 E0.01689
G1 X126.482 Y121.363 E0.67339
G1 X126.482 Y122.125 E0.02389
G1 X110.915 Y106.558 E0.69028
G1 X110.637 Y106.835 E0.01232
G1 X110.637 Y107.041 E0.00646
G1 X126.146 Y122.551 E0.68772
G1 X126.015 Y122.682 E0.00581
G1 X126.482 Y123.149 E0.02070
G1 X126.482 Y123.649 E0.01566
G1 X110.637 Y107.803 E0.70261
G1 X110.637 Y108.565 E0.02389
G1 X126.482 Y124.410 E0.70261
G1 X126.482 Y125.172 E0.02389
G1 X111.022 Y109.712 E0.68551
G1 X110.641 Y110.093 E0.01689
G1 X126.254 Y125.706 E0.69229
G1 X126.015 Y125.945 E0.01059
G1 X126.482 Y126.412 E0.02070
G1 X126.482 Y126.696 E0.00891
G1 X110.637 Y110.850 E0.70261
M73 P1 R78
G1 X110.637 Y111.612 E0.02389
G1 X126.482 Y127.458 E0.70261
G1 X126.482 Y128.219 E0.02389
G1 X110.637 Y112.374 E0.70261
G1 X110.637 Y112.427 E0.00167
G1 X112.735 Y114.525 E0.09304
G1 X112.380 Y114.880 E0.01571
G1 X126.362 Y128.861 E0.61995
G1 X126.015 Y129.208 E0.01537
G1 X126.482 Y129.674 E0.02070
G1 X126.482 Y129.743 E0.00215
G1 X112.268 Y115.529 E0.63027
G1 X112.268 Y116.291 E0.02389
G1 X126.482 Y130.505 E0.63027
G1 X126.482 Y131.267 E0.02389
G1 X112.268 Y117.053 E0.63027
G1 X112.268 Y117.321 E0.00842
G1 X112.735 Y117.788 E0.02070
G1 X112.488 Y118.035 E0.01094
G1 X126.469 Y132.016 E0.61995
G1 X126.088 Y132.397 E0.01689
G1 X112.268 Y118.576 E0.61283
G1 X112.268 Y119.338 E0.02389
G1 X126.482 Y133.552 E0.63027
G1 X126.482 Y134.314 E0.02389
G1 X112.268 Y120.100 E0.63027
G1 X112.268 Y120.584 E0.01518
G1 X112.735 Y121.051 E0.02070
G1 X112.596 Y121.190 E0.00616
G1 X126.482 Y135.076 E0.61573
G1 X126.482 Y135.266 E0.00597
G1 X126.196 Y135.552 E0.01267
G1 X112.268 Y121.624 E0.61760
G1 X112.268 Y122.385 E0.02389
G1 X126.482 Y136.599 E0.63027
G1 X126.482 Y137.361 E0.02389
G1 X112.268 Y123.147 E0.63027
G1 X112.268 Y123.847 E0.02193
G1 X112.735 Y124.313 E0.02070
G1 X112.704 Y124.345 E0.00138
G1 X126.482 Y138.123 E0.61096
G1 X126.482 Y138.529 E0.01272
G1 X126.304 Y138.707 E0.00789
G1 X112.323 Y124.726 E0.61995
G1 X112.268 Y124.780 E0.00243
G1 X112.268 Y125.433 E0.02046
G1 X126.482 Y139.647 E0.63027
G1 X126.482 Y140.408 E0.02389
G1 X112.268 Y126.195 E0.63027
G1 X112.268 Y126.956 E0.02389
G1 X126.482 Y141.170 E0.63027
G1 X126.482 Y141.792 E0.01948
G1 X126.412 Y141.862 E0.00312
G1 X112.430 Y127.881 E0.61995
G1 X112.268 Y128.043 E0.00720
G1 X112.268 Y128.480 E0.01370
G1 X126.031 Y142.243 E0.61026
G1 X126.015 Y142.258 E0.00069
G1 X126.482 Y142.725 E0.02070
G1 X126.482 Y143.456 E0.02291
G1 X112.268 Y129.242 E0.63027
G1 X112.268 Y130.004 E0.02389
G1 X126.482 Y144.218 E0.63027
G1 X126.482 Y144.979 E0.02389
G1 X112.538 Y131.036 E0.61829
G1 X112.268 Y131.306 E0.01198
G1 X112.268 Y131.527 E0.00695
G1 X126.138 Y145.398 E0.61504
G1 X126.015 Y145.521 E0.00547
G1 X126.482 Y145.988 E0.02070
G1 X126.482 Y146.503 E0.01615
G1 X112.268 Y132.289 E0.63027
G1 X112.268 Y133.051 E0.02389
G1 X126.482 Y147.265 E0.63027
G1 X126.482 Y148.027 E0.02389
G1 X112.646 Y134.191 E0.61352
G1 X112.268 Y134.574 E0.01689
G1 X126.246 Y148.553 E0.61982
G1 X125.865 Y148.934 E0.01689
G1 X112.268 Y135.336 E0.60293
G1 X112.268 Y136.098 E0.02389
G1 X125.484 Y149.315 E0.58604
G1 X125.103 Y149.695 E0.01689
G1 X112.268 Y136.860 E0.56915
G1 X112.268 Y136.897 E0.00118
G1 X112.735 Y137.364 E0.02070
G1 X112.373 Y137.726 E0.01606
G1 X124.723 Y150.076 E0.54762
G1 X124.342 Y150.457 E0.01689
G1 X112.268 Y138.384 E0.53537
G1 X112.268 Y139.145 E0.02389
G1 X123.961 Y150.838 E0.51848
G1 X123.580 Y151.219 E0.01689
G1 X112.268 Y139.907 E0.50159
G1 X112.268 Y140.160 E0.00793
G1 X112.735 Y140.627 E0.02070
G1 X112.480 Y140.881 E0.01128
G1 X123.199 Y151.600 E0.47528
G1 X122.818 Y151.981 E0.01689
G1 X112.268 Y141.431 E0.46781
G1 X112.268 Y142.193 E0.02389
G1 X122.437 Y152.362 E0.45092
G1 X122.056 Y152.743 E0.01689
G1 X112.268 Y142.954 E0.43403
G1 X112.268 Y143.423 E0.01469
G1 X112.735 Y143.890 E0.02070
G1 X112.588 Y144.036 E0.00650
G1 X121.675 Y153.124 E0.40294
G1 X121.294 Y153.505 E0.01689
G1 X112.268 Y144.478 E0.40025
G1 X112.268 Y145.240 E0.02389
G1 X120.913 Y153.885 E0.38336
G1 X120.533 Y154.266 E0.01689
G1 X112.268 Y146.002 E0.36647
G1 X112.268 Y146.686 E0.02144
G1 X112.735 Y147.152 E0.02070
G1 X112.696 Y147.191 E0.00173
G1 X120.152 Y154.647 E0.33060
G1 X119.771 Y155.028 E0.01689
G1 X112.315 Y147.572 E0.33060
G1 X112.268 Y147.619 E0.00208
G1 X112.268 Y148.287 E0.02094
G1 X119.056 Y155.075 E0.30099
G1 X118.294 Y155.075 E0.02389
G1 X112.268 Y149.049 E0.26721
G1 X112.268 Y149.811 E0.02389
G1 X117.702 Y155.245 E0.24095
G1 F8640
G1 X115.375 Y152.917 E-0.76000
G1 E-0.04000 F2100.00000
G1 Z0.800 F10800.000
G1 X128.860 Y155.245
G1 Z0.200
G1 E0.80000 F2100.00000
G1 F1200
G1 X123.426 Y149.811 E0.24095
G1 X123.426 Y149.049 E0.02389
G1 X129.452 Y155.075 E0.26721
G1 X130.214 Y155.075 E0.02389
G1 X123.426 Y148.287 E0.30099
G1 X123.426 Y147.619 E0.02094
G1 X123.473 Y147.572 E0.00208
G1 X130.929 Y155.028 E0.33060
G1 X131.310 Y154.647 E0.01689
G1 X123.854 Y147.191 E0.33060
G1 X123.893 Y147.152 E0.00173
G1 X123.426 Y146.686 E0.02070
G1 X123.426 Y146.002 E0.02144
G1 X131.691 Y154.266 E0.36647
G1 X132.072 Y153.885 E0.01689
G1 X123.426 Y145.240 E0.38336
G1 X123.426 Y144.478 E0.02389
G1 X132.453 Y153.505 E0.40025
G1 X132.833 Y153.124 E0.01689
G1 X123.746 Y144.036 E0.40294
G1 X123.893 Y143.890 E0.00650
G1 X123.426 Y143.423 E0.02070
G1 X123.426 Y142.954 E0.01469
G1 X133.214 Y152.743 E0.43403
G1 X133.595 Y152.362 E0.01689
G1 X123.426 Y142.193 E0.45092
G1 X123.426 Y141.431 E0.02389
G1 X133.976 Y151.981 E0.46781
G1 X134.357 Y151.600 E0.01689
G1 X123.639 Y140.881 E0.47528
G1 X123.893 Y140.627 E0.01128
G1 X123.426 Y140.160 E0.02070
G1 X123.426 Y139.907 E0.00793
G1 X134.738 Y151.219 E0.50159
G1 X135.119 Y150.838 E0.01689
G1 X123.426 Y139.145 E0.51848
G1 X123.426 Y138.384 E0.02389
G1 X135.500 Y150.457 E0.53537
G1 X135.881 Y150.076 E0.01689
G1 X123.531 Y137.726 E0.54762
G1 X123.893 Y137.364 E0.01606
G1 X123.426 Y136.897 E0.02070
G1 X123.426 Y136.860 E0.00118
G1 X136.262 Y149.695 E0.56915
G1 X136.643 Y149.315 E0.01689
G1 X123.426 Y136.098 E0.58604
G1 X123.426 Y135.336 E0.02389
G1 X137.023 Y148.934 E0.60293
M73 P2 R77
G1 X137.404 Y148.553 E0.01689
G1 X123.426 Y134.574 E0.61982
G1 X123.804 Y134.191 E0.01689
G1 X137.640 Y148.027 E0.61352
G1 X137.640 Y147.265 E0.02389
G1 X123.426 Y133.051 E0.63027
G1 X123.426 Y132.289 E0.02389
G1 X137.640 Y146.503 E0.63027
G1 X137.640 Y145.988 E0.01615
G1 X137.173 Y145.521 E0.02070
G1 X137.297 Y145.398 E0.00547
G1 X123.426 Y131.527 E0.61504
G1 X123.426 Y131.306 E0.00695
G1 X123.696 Y131.036 E0.01198
G1 X137.640 Y144.979 E0.61829
G1 X137.640 Y144.218 E0.02389
G1 X123.426 Y130.004 E0.63027
G1 X123.426 Y129.242 E0.02389
G1 X137.640 Y143.456 E0.63027
G1 X137.640 Y142.725 E0.02291
G1 X137.173 Y142.258 E0.02070
G1 X137.189 Y142.243 E0.00069
G1 X123.426 Y128.480 E0.61026
G1 X123.426 Y128.043 E0.01370
G1 X123.589 Y127.881 E0.00720
G1 X137.570 Y141.862 E0.61995
G1 X137.640 Y141.792 E0.00312
G1 X137.640 Y141.170 E0.01948
G1 X123.426 Y126.956 E0.63027
G1 X123.426 Y126.195 E0.02389
G1 X137.640 Y140.408 E0.63027
G1 X137.640 Y139.647 E0.02389
G1 X123.426 Y125.433 E0.63027
G1 X123.426 Y124.780 E0.02046
G1 X123.481 Y124.726 E0.00243
G1 X137.462 Y138.707 E0.61995
G1 X137.640 Y138.529 E0.00789
G1 X137.640 Y138.123 E0.01272
G1 X123.862 Y124.345 E0.61096
G1 X123.893 Y124.313 E0.00138
G1 X123.426 Y123.847 E0.02070
G1 X123.426 Y123.147 E0.02193
G1 X137.640 Y137.361 E0.63027
G1 X137.640 Y136.599 E0.02389
G1 X123.426 Y122.385 E0.63027
G1 X123.426 Y121.624 E0.02389
G1 X137.354 Y135.552 E0.61760
G1 X137.640 Y135.266 E0.01267
G1 X137.640 Y135.076 E0.00597
G1 X123.754 Y121.190 E0.61573
G1 X123.893 Y121.051 E0.00616
G1 X123.426 Y120.584 E0.02070
G1 X123.426 Y120.100 E0.01518
G1 X137.640 Y134.314 E0.63027
G1 X137.640 Y133.552 E0.02389
G1 X123.426 Y119.338 E0.63027
G1 X123.426 Y118.576 E0.02389
G1 X137.247 Y132.397 E0.61283
G1 X137.628 Y132.016 E0.01689
G1 X123.646 Y118.035 E0.61995
G1 X123.893 Y117.788 E0.01094
G1 X123.426 Y117.321 E0.02070
G1 X123.426 Y117.053 E0.00842
G1 X137.640 Y131.267 E0.63027
G1 X137.640 Y130.505 E0.02389
G1 X123.426 Y116.291 E0.63027
G1 X123.426 Y115.529 E0.02389
G1 X137.640 Y129.743 E0.63027
G1 X137.640 Y129.674 E0.00215
G1 X137.173 Y129.208 E0.02070
G1 X137.520 Y128.861 E0.01537
G1 X123.539 Y114.880 E0.61995
G1 X123.893 Y114.525 E0.01571
G1 X121.795 Y112.427 E0.09304
G1 X121.795 Y112.374 E0.00167
G1 X137.640 Y128.219 E0.70261
G1 X137.640 Y127.458 E0.02389
G1 X121.795 Y111.612 E0.70261
G1 X121.795 Y110.850 E0.02389
G1 X137.640 Y126.696 E0.70261
G1 X137.640 Y126.412 E0.00891
G1 X137.173 Y125.945 E0.02070
G1 X137.412 Y125.706 E0.01059
G1 X121.799 Y110.093 E0.69229
G1 X122.180 Y109.712 E0.01689
G1 X137.640 Y125.172 E0.68551
G1 X137.640 Y124.410 E0.02389
G1 X121.795 Y108.565 E0.70261
G1 X121.795 Y107.803 E0.02389
G1 X137.640 Y123.649 E0.70261
G1 X137.640 Y123.149 E0.01566
G1 X137.173 Y122.682 E0.02070
G1 X137.304 Y122.551 E0.00581
G1 X121.795 Y107.041 E0.68772
G1 X121.795 Y106.835 E0.00646
G1 X122.073 Y106.558 E0.01232
G1 X137.640 Y122.125 E0.69028
G1 X137.640 Y121.363 E0.02389
G1 X122.454 Y106.177 E0.67339
G1 X122.834 Y105.796 E0.01689
G1 X137.640 Y120.601 E0.65650
G1 X137.640 Y119.886 E0.02242
G1 X137.173 Y119.419 E0.02070
G1 X137.197 Y119.396 E0.00104
G1 X123.215 Y105.415 E0.61995
G1 X123.596 Y105.034 E0.01689
G1 X137.578 Y119.015 E0.61995
G1 X137.640 Y118.953 E0.00277
G1 X137.640 Y118.316 E0.01997
G1 X123.977 Y104.653 E0.60583
G1 X124.358 Y104.272 E0.01689
G1 X137.640 Y117.554 E0.58894
G1 X137.640 Y116.792 E0.02389
G1 X124.739 Y103.891 E0.57205
G1 X125.120 Y103.510 E0.01689
G1 X137.470 Y115.860 E0.54762
G1 X137.640 Y115.690 E0.00755
G1 X137.640 Y115.269 E0.01321
G1 X125.501 Y103.129 E0.53827
G1 X125.882 Y102.748 E0.01689
G1 X137.640 Y114.507 E0.52138
G1 X137.640 Y113.745 E0.02389
G1 X126.263 Y102.368 E0.50449
G1 X126.644 Y101.987 E0.01689
G1 X137.362 Y112.705 E0.47528
G1 X137.743 Y112.324 E0.01689
G1 X127.127 Y101.709 E0.47071
G1 X127.889 Y101.709 E0.02389
G1 X138.124 Y111.943 E0.45382
G1 X138.505 Y111.562 E0.01689
G1 X128.651 Y101.709 E0.43693
G1 X129.251 Y101.709 E0.01880
G1 X129.717 Y102.175 E0.02070
G1 X129.799 Y102.094 E0.00360
G1 X138.886 Y111.182 E0.40294
G1 X139.267 Y110.801 E0.01689
G1 X130.179 Y101.713 E0.40294
G1 X130.937 Y101.709 E0.02374
G1 X139.271 Y110.044 E0.36958
G1 X139.271 Y109.282 E0.02389
G1 X131.698 Y101.709 E0.33580
G1 X132.460 Y101.709 E0.02389
G1 X139.271 Y108.520 E0.30202
G1 X139.271 Y108.467 E0.00167
G1 X138.805 Y108.000 E0.02070
G1 X139.159 Y107.646 E0.01571
G1 X133.334 Y101.821 E0.25827
G1 X133.447 Y101.709 E0.00499
G1 X133.984 Y101.709 E0.01683
G1 X139.271 Y106.996 E0.23446
G1 X139.271 Y106.234 E0.02389
G1 X134.746 Y101.709 E0.20068
G1 X135.507 Y101.709 E0.02389
G1 X139.441 Y105.642 E0.17443
G1 F8640
G1 X137.114 Y103.315 E-0.76000
G1 E-0.04000 F2100.00000
G1 Z0.800 F10800.000
G1 X150.599 Y105.642
G1 Z0.200
G1 E0.80000 F2100.00000
G1 F1200
G1 X146.666 Y101.709 E0.17443
G1 X145.904 Y101.709 E0.02389
G1 X150.430 Y106.234 E0.20068
G1 X150.430 Y106.996 E0.02389
G1 X145.142 Y101.709 E0.23446
G1 X144.605 Y101.709 E0.01683
G1 X144.493 Y101.821 E0.00499
G1 X150.317 Y107.646 E0.25827
G1 X149.963 Y108.000 E0.01571
G1 X150.430 Y108.467 E0.02070
G1 X150.430 Y108.520 E0.00167
G1 X143.618 Y101.709 E0.30202
G1 X142.856 Y101.709 E0.02389
G1 X150.430 Y109.282 E0.33580
M73 P3 R76
G1 X150.430 Y110.044 E0.02389
G1 X142.095 Y101.709 E0.36958
G1 X141.338 Y101.713 E0.02374
G1 X150.425 Y110.801 E0.40294
G1 X150.044 Y111.182 E0.01689
G1 X140.957 Y102.094 E0.40294
G1 X140.876 Y102.175 E0.00360
G1 X140.409 Y101.709 E0.02070
G1 X139.809 Y101.709 E0.01880
G1 X149.663 Y111.562 E0.43693
G1 X149.282 Y111.943 E0.01689
G1 X139.047 Y101.709 E0.45382
G1 X138.286 Y101.709 E0.02389
G1 X148.901 Y112.324 E0.47071
G1 X148.520 Y112.705 E0.01689
G1 X137.802 Y101.987 E0.47528
G1 X137.421 Y102.368 E0.01689
