; generated by PrusaSlicer 2.1.1+win64 on 2020-06-02 at 22:54:36 UTC

; 

; external perimeters extrusion width = 0.45mm
; perimeters extrusion width = 0.45mm
; infill extrusion width = 0.45mm
; solid infill extrusion width = 0.45mm
; top infill extrusion width = 0.40mm
; support material extrusion width = 0.35mm
; first layer extrusion width = 0.42mm

M73 P0 R129
M201 X9000 Y9000 Z500 E10000 ; sets maximum accelerations, mm/sec^2
M203 X500 Y500 Z12 E120 ; sets maximum feedrates, mm/sec
M204 P2000 R1500 T2000 ; sets acceleration (P, T) and retract acceleration (R), mm/sec^2
M205 X10.00 Y10.00 Z0.20 E2.50 ; sets the jerk limits, mm/sec
M205 S0 T0 ; sets the minimum extruding and travel feed rate, mm/sec
M107
M862.3 P "MK2.5SMMU2S" ; printer model check
M862.1 P0.4 ; nozzle diameter check
M115 U3.8.0 ; tell printer latest fw version
G90 ; use absolute coordinates
M83 ; extruder relative mode
M104 S215 ; set extruder temp
M140 S60 ; set bed temp
Tx
M190 S60 ; wait for bed temp
M109 S215 ; wait for extruder temp
G28 W ; home all without mesh bed level
G80 ; mesh bed leveling

G21 ; set units to millimeters

;go outside print area
G1 Y-3.0 F1000.0
G1 Z0.4 F1000.0
; select extruder
Tc
; purge line
G1 X55.0 F2000.0
G1 Z0.3 F1000.0
G92 E0.0
G1 X240.0 E25.0 F2200.0
M73 P0 R128
G1 Y-2.0 F1000.0
G1 X55.0 E25 F1400.0
G1 Z0.20 F1000.0
G1 X5.0 E4.0 F1000.0
G92 E0.0
G21 ; set units to millimeters
G90 ; use absolute coordinates
M83 ; use relative distances for extrusion
M900 K30 ; Filament gcode
;BEFORE_LAYER_CHANGE
G92 E0.0
;0.2


G1 E-0.80000 F2100.00000
G1 Z0.600 F10800.000
;AFTER_LAYER_CHANGE
;0.2
G1 X65.166 Y89.687
G1 Z0.200
G1 E0.80000 F2100.00000
M204 S1000
G1 F1200
G1 X65.531 Y89.191 E0.01930
G1 X69.695 Y85.074 E0.18360
G1 X122.205 Y49.640 E1.98621
G1 X122.942 Y49.322 E0.02518
G1 X126.169 Y48.742 E0.10278
G1 X126.802 Y48.838 E0.02010
G1 X127.381 Y49.112 E0.02010
G1 X181.358 Y85.752 E2.04547
G1 X182.840 Y87.057 E0.06193
G1 X184.074 Y88.635 E0.06279
G1 X184.872 Y90.133 E0.05322
G1 X185.399 Y91.667 E0.05088
G1 X185.733 Y93.710 E0.06490
G1 X185.729 Y144.444 E1.59073
G1 X185.437 Y146.637 E0.06936
G1 X184.896 Y148.152 E0.05042
G1 X184.529 Y148.650 E0.01942
G1 X179.031 Y154.101 E0.24276
G1 X178.618 Y154.328 E0.01475
G1 X178.167 Y154.462 E0.01475
G1 X175.486 Y154.750 E0.08455
G1 X75.082 Y154.776 E3.14810
G1 X73.273 Y154.644 E0.05686
G1 X71.688 Y154.256 E0.05118
G1 X69.810 Y153.441 E0.06419
G1 X68.114 Y152.270 E0.06462
G1 X66.894 Y151.067 E0.05373
G1 X66.203 Y150.181 E0.03522
G1 X65.302 Y148.651 E0.05568
G1 X64.895 Y147.634 E0.03435
G1 X64.565 Y146.643 E0.03274
G1 X64.278 Y144.924 E0.05466
G1 X64.270 Y94.522 E1.58032
G1 X64.325 Y93.229 E0.04056
G1 X64.529 Y91.950 E0.04063
G1 X64.987 Y90.130 E0.05883
G1 X65.143 Y89.743 E0.01310
G1 E-0.80000 F2100.00000
G1 Z0.800 F10800.000
G1 X67.093 Y90.724
G1 Z0.200
G1 E0.80000 F2100.00000
G1 F1200
G1 X70.952 Y86.866 E0.17110
G1 X73.323 Y85.561 E0.08485
G1 X72.186 Y86.698 E0.05038
G1 X71.060 Y87.318 E0.04031
G1 X69.957 Y88.054 E0.04157
G1 X68.982 Y88.968 E0.04191
G1 X68.193 Y89.993 E0.04056
G1 X67.561 Y91.170 E0.04191
G1 X67.477 Y91.407 E0.00787
G1 X66.755 Y92.129 E0.03201
G1 X66.681 Y92.347 E0.00721
G1 X66.503 Y93.448 E0.03496
G1 X67.050 Y92.900 E0.02428
G1 X66.912 Y93.755 E0.02715
G1 X66.910 Y94.107 E0.01106
G1 X66.459 Y94.558 E0.02000
G1 X66.461 Y95.152 E0.01863
G1 X66.530 Y95.554 E0.01277
G1 X66.922 Y95.161 E0.01740
G1 X67.078 Y96.072 E0.02898
G1 X66.685 Y96.465 E0.01740
G1 X66.699 Y96.544 E0.00252
G1 X66.949 Y97.267 E0.02399
G1 X67.305 Y96.911 E0.01578
G1 X67.582 Y97.701 E0.02624
G1 X67.247 Y98.036 E0.01484
G1 X67.623 Y98.726 E0.02465
G1 X67.957 Y98.392 E0.01480
G1 X68.206 Y98.849 E0.01631
G1 X68.362 Y99.054 E0.00807
G1 X68.039 Y99.377 E0.01431
G1 X68.507 Y99.975 E0.02382
G1 X68.830 Y99.653 E0.01431
G1 X69.056 Y99.936 E0.01137
G1 X69.347 Y100.202 E0.01235
G1 X69.026 Y100.523 E0.01421
G1 X69.583 Y101.033 E0.02367
G1 X69.903 Y100.713 E0.01421
G1 X70.044 Y100.837 E0.00589
G1 X70.529 Y101.153 E0.01816
G1 X70.202 Y101.480 E0.01451
G1 X70.848 Y101.901 E0.02417
G1 X71.180 Y101.569 E0.01471
G1 X71.922 Y101.894 E0.02539
G1 X71.578 Y102.238 E0.01525
G1 X72.224 Y102.520 E0.02212
G1 X72.334 Y102.548 E0.00355
G1 X72.707 Y102.175 E0.01654
G1 X73.558 Y102.390 E0.02754
G1 X73.186 Y102.762 E0.01649
G1 X73.606 Y102.867 E0.01357
G1 X74.107 Y102.908 E0.01574
G1 X74.526 Y102.489 E0.01861
G1 X74.989 Y102.526 E0.01456
G1 X75.556 Y102.526 E0.01776
G1 X75.108 Y102.974 E0.01986
G1 X76.174 Y102.974 E0.03344
G1 X76.622 Y102.526 E0.01986
G1 X77.689 Y102.526 E0.03344
G1 X77.241 Y102.974 E0.01986
G1 X78.307 Y102.974 E0.03344
G1 X78.755 Y102.526 E0.01986
G1 X79.822 Y102.526 E0.03344
G1 X79.374 Y102.974 E0.01986
G1 X80.440 Y102.974 E0.03344
G1 X80.888 Y102.526 E0.01986
G1 X81.955 Y102.526 E0.03344
G1 X81.507 Y102.974 E0.01986
G1 X82.574 Y102.974 E0.03344
G1 X83.021 Y102.526 E0.01986
G1 X84.088 Y102.526 E0.03344
G1 X83.640 Y102.974 E0.01986
G1 X84.707 Y102.974 E0.03344
G1 X85.154 Y102.526 E0.01986
G1 X86.221 Y102.526 E0.03344
G1 X85.773 Y102.974 E0.01986
G1 X86.840 Y102.974 E0.03344
G1 X87.287 Y102.526 E0.01986
G1 X88.354 Y102.526 E0.03344
G1 X87.906 Y102.974 E0.01986
G1 X88.973 Y102.974 E0.03344
G1 X89.421 Y102.526 E0.01986
G1 X90.487 Y102.526 E0.03344
G1 X90.039 Y102.974 E0.01986
G1 X91.106 Y102.974 E0.03344
G1 X91.554 Y102.526 E0.01986
G1 X92.620 Y102.526 E0.03344
G1 X92.172 Y102.974 E0.01986
G1 X93.239 Y102.974 E0.03344
G1 X93.687 Y102.526 E0.01986
G1 X94.753 Y102.526 E0.03344
G1 X94.305 Y102.974 E0.01986
G1 X95.372 Y102.974 E0.03344
G1 X95.820 Y102.526 E0.01986
G1 X96.886 Y102.526 E0.03344
G1 X96.439 Y102.974 E0.01986
G1 X97.505 Y102.974 E0.03344
G1 X97.953 Y102.526 E0.01986
G1 X99.019 Y102.526 E0.03344
G1 X98.572 Y102.974 E0.01986
G1 X99.638 Y102.974 E0.03344
G1 X100.086 Y102.526 E0.01986
G1 X101.153 Y102.526 E0.03344
G1 X100.705 Y102.974 E0.01986
G1 X101.771 Y102.974 E0.03344
G1 X102.219 Y102.526 E0.01986
G1 X103.286 Y102.526 E0.03344
G1 X102.838 Y102.974 E0.01986
G1 X103.904 Y102.974 E0.03344
G1 X104.352 Y102.526 E0.01986
G1 X105.419 Y102.526 E0.03344
G1 X104.971 Y102.974 E0.01986
G1 X106.037 Y102.974 E0.03344
G1 X106.485 Y102.526 E0.01986
G1 X107.552 Y102.526 E0.03344
G1 X107.104 Y102.974 E0.01986
G1 X108.171 Y102.974 E0.03344
G1 X108.618 Y102.526 E0.01986
G1 X109.685 Y102.526 E0.03344
G1 X109.237 Y102.974 E0.01986
G1 X110.304 Y102.974 E0.03344
G1 X110.751 Y102.526 E0.01986
G1 X111.818 Y102.526 E0.03344
G1 X111.370 Y102.974 E0.01986
G1 X112.437 Y102.974 E0.03344
G1 X112.885 Y102.526 E0.01986
G1 X113.951 Y102.526 E0.03344
G1 X113.503 Y102.974 E0.01986
G1 X114.570 Y102.974 E0.03344
G1 X115.018 Y102.526 E0.01986
G1 X116.084 Y102.526 E0.03344
G1 X115.636 Y102.974 E0.01986
G1 X116.703 Y102.974 E0.03344
G1 X117.151 Y102.526 E0.01986
G1 X118.217 Y102.526 E0.03344
G1 X117.769 Y102.974 E0.01986
G1 X118.836 Y102.974 E0.03344
G1 X119.284 Y102.526 E0.01986
G1 X120.350 Y102.526 E0.03344
G1 X119.902 Y102.974 E0.01986
G1 X120.969 Y102.974 E0.03344
G1 X121.417 Y102.526 E0.01986
G1 X122.483 Y102.526 E0.03344
G1 X122.036 Y102.974 E0.01986
G1 X123.102 Y102.974 E0.03344
G1 X123.550 Y102.526 E0.01986
G1 X124.616 Y102.526 E0.03344
G1 X124.169 Y102.974 E0.01986
G1 X125.235 Y102.974 E0.03344
G1 X125.683 Y102.526 E0.01986
G1 X126.750 Y102.526 E0.03344
G1 X126.302 Y102.974 E0.01986
G1 X127.368 Y102.974 E0.03344
G1 X127.816 Y102.526 E0.01986
G1 X128.883 Y102.526 E0.03344
G1 X128.435 Y102.974 E0.01986
G1 X129.501 Y102.974 E0.03344
G1 X129.949 Y102.526 E0.01986
G1 X131.016 Y102.526 E0.03344
G1 X130.568 Y102.974 E0.01986
G1 X131.634 Y102.974 E0.03344
G1 X132.082 Y102.526 E0.01986
G1 X133.149 Y102.526 E0.03344
G1 X132.701 Y102.974 E0.01986
G1 X133.768 Y102.974 E0.03344
G1 X134.215 Y102.526 E0.01986
G1 X135.282 Y102.526 E0.03344
G1 X134.834 Y102.974 E0.01986
G1 X135.901 Y102.974 E0.03344
G1 X136.348 Y102.526 E0.01986
G1 X137.415 Y102.526 E0.03344
G1 X136.967 Y102.974 E0.01986
G1 X138.034 Y102.974 E0.03344
G1 X138.482 Y102.526 E0.01986
G1 X139.548 Y102.526 E0.03344
G1 X139.100 Y102.974 E0.01986
G1 X140.167 Y102.974 E0.03344
G1 X140.615 Y102.526 E0.01986
G1 X141.681 Y102.526 E0.03344
G1 X141.233 Y102.974 E0.01986
G1 X142.300 Y102.974 E0.03344
G1 X142.748 Y102.526 E0.01986
G1 X143.814 Y102.526 E0.03344
G1 X143.366 Y102.974 E0.01986
G1 X144.433 Y102.974 E0.03344
G1 X144.881 Y102.526 E0.01986
G1 X145.947 Y102.526 E0.03344
G1 X145.499 Y102.974 E0.01986
G1 X146.566 Y102.974 E0.03344
G1 X147.014 Y102.526 E0.01986
G1 X148.080 Y102.526 E0.03344
G1 X147.633 Y102.974 E0.01986
G1 X148.699 Y102.974 E0.03344
G1 X149.147 Y102.526 E0.01986
G1 X150.213 Y102.526 E0.03344
G1 X149.766 Y102.974 E0.01986
G1 X150.832 Y102.974 E0.03344
G1 X151.280 Y102.526 E0.01986
G1 X152.347 Y102.526 E0.03344
G1 X151.899 Y102.974 E0.01986
G1 X152.965 Y102.974 E0.03344
G1 X153.413 Y102.526 E0.01986
G1 X154.480 Y102.526 E0.03344
G1 X154.032 Y102.974 E0.01986
G1 X155.098 Y102.974 E0.03344
G1 X155.546 Y102.526 E0.01986
G1 X156.613 Y102.526 E0.03344
G1 X156.165 Y102.974 E0.01986
G1 X157.231 Y102.974 E0.03344
G1 X157.679 Y102.526 E0.01986
G1 X158.746 Y102.526 E0.03344
G1 X158.298 Y102.974 E0.01986
G1 X159.365 Y102.974 E0.03344
G1 X159.812 Y102.526 E0.01986
G1 X160.879 Y102.526 E0.03344
G1 X160.431 Y102.974 E0.01986
G1 X161.498 Y102.974 E0.03344
G1 X161.945 Y102.526 E0.01986
G1 X163.012 Y102.526 E0.03344
G1 X162.564 Y102.974 E0.01986
G1 X163.631 Y102.974 E0.03344
G1 X164.079 Y102.526 E0.01986
G1 X165.145 Y102.526 E0.03344
G1 X164.697 Y102.974 E0.01986
G1 X165.764 Y102.974 E0.03344
G1 X166.212 Y102.526 E0.01986
G1 X167.278 Y102.526 E0.03344
G1 X166.830 Y102.974 E0.01986
G1 X167.897 Y102.974 E0.03344
G1 X168.345 Y102.526 E0.01986
G1 X169.411 Y102.526 E0.03344
G1 X168.963 Y102.974 E0.01986
G1 X170.030 Y102.974 E0.03344
G1 X170.478 Y102.526 E0.01986
G1 X171.544 Y102.526 E0.03344
G1 X171.096 Y102.974 E0.01986
G1 X172.163 Y102.974 E0.03344
G1 X172.611 Y102.526 E0.01986
G1 X173.677 Y102.526 E0.03344
G1 X173.230 Y102.974 E0.01986
G1 X174.296 Y102.974 E0.03344
G1 X174.744 Y102.526 E0.01986
G1 X175.033 Y102.525 E0.00905
G1 X175.882 Y102.455 E0.02671
G1 X175.386 Y102.950 E0.02197
G1 X176.407 Y102.866 E0.03212
G1 X176.581 Y102.822 E0.00562
G1 X177.206 Y102.197 E0.02771
G1 X177.649 Y102.082 E0.01435
G1 X178.834 Y101.563 E0.04056
G1 X179.029 Y101.440 E0.00724
G1 X177.774 Y102.696 E0.05568
G1 E-0.80000 F2100.00000
G1 Z0.800 F10800.000
G1 X176.206 Y99.998
G1 Z0.200
G1 E0.80000 F2100.00000
G1 F1200
G1 X180.374 Y95.829 E0.18483
G1 X180.540 Y94.892 E0.02985
G1 X180.541 Y94.596 E0.00930
G1 X175.180 Y99.957 E0.23775
G1 X174.978 Y99.974 E0.00633
G1 X174.096 Y99.974 E0.02765
G1 X180.481 Y93.589 E0.28311
G1 X180.397 Y93.072 E0.01644
G1 X180.280 Y92.724 E0.01151
G1 X173.030 Y99.974 E0.32147
G1 X171.963 Y99.974 E0.03344
G1 X179.975 Y91.962 E0.35525
G1 X179.672 Y91.396 E0.02013
G1 X179.586 Y91.284 E0.00442
G1 X170.897 Y99.974 E0.38532
G1 X169.830 Y99.974 E0.03344
G1 X179.123 Y90.681 E0.41205
G1 X178.573 Y90.165 E0.02366
G1 X168.764 Y99.974 E0.43494
G1 X167.697 Y99.974 E0.03344
G1 X177.952 Y89.719 E0.45472
G1 X177.662 Y89.527 E0.01090
G1 X177.285 Y89.319 E0.01350
G1 X166.631 Y99.974 E0.47244
G1 X165.564 Y99.974 E0.03344
G1 X176.597 Y88.941 E0.48922
G1 X175.909 Y88.562 E0.02462
G1 X172.184 Y92.287 E0.16516
G1 X172.542 Y92.645 E0.01586
G1 X171.841 Y93.346 E0.03108
G1 X171.483 Y92.988 E0.01586
G1 X164.498 Y99.974 E0.30976
G1 X163.431 Y99.974 E0.03344
G1 X175.221 Y88.184 E0.52279
G1 X174.533 Y87.805 E0.02462
G1 X162.364 Y99.974 E0.53957
G1 X161.298 Y99.974 E0.03344
G1 X168.252 Y93.020 E0.30837
G1 X167.719 Y92.486 E0.02365
G1 X160.231 Y99.974 E0.33201
G1 X159.165 Y99.974 E0.03344
G1 X167.186 Y91.953 E0.35566
G1 X166.947 Y91.714 E0.01058
G1 X165.316 Y93.346 E0.07234
G1 X165.021 Y93.051 E0.01306
G1 X158.098 Y99.974 E0.30697
G1 X157.032 Y99.974 E0.03344
G1 X164.488 Y92.518 E0.33061
G1 X163.954 Y91.985 E0.02365
G1 X155.965 Y99.974 E0.35426
G1 X154.899 Y99.974 E0.03344
G1 X161.790 Y93.083 E0.30557
G1 X161.257 Y92.549 E0.02365
G1 X153.832 Y99.974 E0.32921
G1 X152.766 Y99.974 E0.03344
G1 X160.723 Y92.016 E0.35286
G1 X160.422 Y91.714 E0.01338
G1 X158.790 Y93.346 E0.07234
G1 X158.559 Y93.114 E0.01027
G1 X151.699 Y99.974 E0.30417
G1 X150.632 Y99.974 E0.03344
G1 X158.025 Y92.581 E0.32782
G1 X157.492 Y92.048 E0.02365
G1 X149.566 Y99.974 E0.35146
M73 P0 R127
G1 X148.499 Y99.974 E0.03344
G1 X155.328 Y93.146 E0.30277
G1 X154.794 Y92.613 E0.02365
G1 X147.433 Y99.974 E0.32642
G1 X146.366 Y99.974 E0.03344
G1 X154.261 Y92.079 E0.35006
G1 X153.896 Y91.714 E0.01618
G1 X152.265 Y93.346 E0.07234
G1 X152.096 Y93.177 E0.00747
G1 X145.300 Y99.974 E0.30137
G1 X144.233 Y99.974 E0.03344
G1 X151.563 Y92.644 E0.32502
G1 X151.030 Y92.111 E0.02365
G1 X143.167 Y99.974 E0.34866
G1 X142.100 Y99.974 E0.03344
G1 X148.865 Y93.209 E0.29997
G1 X148.332 Y92.676 E0.02365
G1 X141.034 Y99.974 E0.32362
G1 X139.967 Y99.974 E0.03344
G1 X147.799 Y92.142 E0.34727
G1 X147.371 Y91.714 E0.01897
G1 X145.739 Y93.346 E0.07234
G1 X145.634 Y93.240 E0.00467
G1 X138.901 Y99.974 E0.29858
G1 X137.834 Y99.974 E0.03344
G1 X145.101 Y92.707 E0.32222
G1 X144.567 Y92.174 E0.02365
G1 X136.767 Y99.974 E0.34587
G1 X135.701 Y99.974 E0.03344
G1 X142.403 Y93.272 E0.29718
G1 X141.870 Y92.739 E0.02365
G1 X134.634 Y99.974 E0.32082
G1 X133.568 Y99.974 E0.03344
G1 X141.336 Y92.205 E0.34447
G1 X140.845 Y91.714 E0.02177
G1 X139.214 Y93.346 E0.07234
G1 X139.172 Y93.304 E0.00188
G1 X132.501 Y99.974 E0.29578
G1 X131.435 Y99.974 E0.03344
G1 X138.638 Y92.770 E0.31943
G1 X138.105 Y92.237 E0.02365
G1 X130.368 Y99.974 E0.34307
G1 X129.302 Y99.974 E0.03344
G1 X135.941 Y93.335 E0.29438
G1 X135.407 Y92.802 E0.02365
G1 X128.235 Y99.974 E0.31803
G1 X127.169 Y99.974 E0.03344
G1 X134.874 Y92.269 E0.34167
G1 X134.341 Y91.735 E0.02365
G1 X126.102 Y99.974 E0.36532
G1 X125.035 Y99.974 E0.03344
G1 X132.176 Y92.833 E0.31663
G1 X131.643 Y92.300 E0.02365
G1 X123.969 Y99.974 E0.34027
G1 X122.902 Y99.974 E0.03344
G1 X131.110 Y91.767 E0.36392
G1 X131.057 Y91.714 E0.00232
G1 X129.426 Y93.346 E0.07234
G1 X128.945 Y92.865 E0.02133
G1 X121.836 Y99.974 E0.31523
G1 X120.769 Y99.974 E0.03344
G1 X128.412 Y92.332 E0.33888
G1 X127.878 Y91.798 E0.02365
G1 X119.703 Y99.974 E0.36252
G1 X118.636 Y99.974 E0.03344
G1 X125.714 Y92.896 E0.31383
G1 X125.181 Y92.363 E0.02365
G1 X117.570 Y99.974 E0.33748
G1 X116.503 Y99.974 E0.03344
G1 X124.647 Y91.830 E0.36112
G1 X124.532 Y91.714 E0.00512
G1 X122.901 Y93.346 E0.07234
G1 X122.483 Y92.928 E0.01853
G1 X115.437 Y99.974 E0.31243
G1 X114.370 Y99.974 E0.03344
G1 X121.949 Y92.395 E0.33608
G1 X121.416 Y91.861 E0.02365
G1 X113.303 Y99.974 E0.35973
G1 X112.237 Y99.974 E0.03344
G1 X119.251 Y92.959 E0.31103
G1 X118.718 Y92.426 E0.02365
G1 X111.170 Y99.974 E0.33468
G1 X110.104 Y99.974 E0.03344
G1 X118.185 Y91.893 E0.35833
G1 X118.006 Y91.714 E0.00791
G1 X116.375 Y93.346 E0.07234
G1 X116.020 Y92.991 E0.01573
G1 X109.037 Y99.974 E0.30964
G1 X107.971 Y99.974 E0.03344
G1 X115.487 Y92.458 E0.33328
G1 X114.954 Y91.924 E0.02365
G1 X106.904 Y99.974 E0.35693
G1 X105.838 Y99.974 E0.03344
G1 X112.789 Y93.023 E0.30824
G1 X112.256 Y92.489 E0.02365
G1 X104.771 Y99.974 E0.33188
G1 X103.705 Y99.974 E0.03344
G1 X111.723 Y91.956 E0.35553
G1 X111.481 Y91.714 E0.01071
G1 X109.850 Y93.346 E0.07234
G1 X109.558 Y93.054 E0.01294
G1 X102.638 Y99.974 E0.30684
G1 X101.572 Y99.974 E0.03344
G1 X109.025 Y92.521 E0.33049
G1 X108.491 Y91.988 E0.02365
G1 X100.505 Y99.974 E0.35413
G1 X99.438 Y99.974 E0.03344
G1 X106.327 Y93.086 E0.30544
G1 X105.794 Y92.552 E0.02365
G1 X98.372 Y99.974 E0.32909
G1 X97.305 Y99.974 E0.03344
G1 X105.260 Y92.019 E0.35273
G1 X104.956 Y91.714 E0.01351
G1 X103.324 Y93.346 E0.07234
G1 X103.096 Y93.117 E0.01014
G1 X96.239 Y99.974 E0.30404
G1 X95.172 Y99.974 E0.03344
G1 X102.562 Y92.584 E0.32769
G1 X102.029 Y92.051 E0.02365
G1 X94.106 Y99.974 E0.35133
G1 X93.039 Y99.974 E0.03344
G1 X99.864 Y93.149 E0.30264
G1 X99.331 Y92.615 E0.02365
G1 X91.973 Y99.974 E0.32629
G1 X90.906 Y99.974 E0.03344
G1 X98.798 Y92.082 E0.34994
G1 X98.430 Y91.714 E0.01630
G1 X96.799 Y93.346 E0.07234
G1 X96.633 Y93.180 E0.00734
