; generated by PrusaSlicer 2.1.1+win64 on 2020-04-20 at 23:05:34 UTC

; 

; external perimeters extrusion width = 0.45mm
; perimeters extrusion width = 0.45mm
; infill extrusion width = 0.45mm
; solid infill extrusion width = 0.45mm
; top infill extrusion width = 0.40mm
; first layer extrusion width = 0.42mm

M73 P0 R98
M201 X9000 Y9000 Z500 E10000 ; sets maximum accelerations, mm/sec^2
M203 X500 Y500 Z12 E120 ; sets maximum feedrates, mm/sec
M204 P2000 R1500 T2000 ; sets acceleration (P, T) and retract acceleration (R), mm/sec^2
M205 X10.00 Y10.00 Z0.20 E2.50 ; sets the jerk limits, mm/sec
M205 S0 T0 ; sets the minimum extruding and travel feed rate, mm/sec
M107
M862.3 P "MK2.5SMMU2S" ; printer model check
M862.1 P0.4 ; nozzle diameter check
M115 U3.8.0 ; tell printer latest fw version
G90 ; use absolute coordinates
M83 ; extruder relative mode
M104 S215 ; set extruder temp
M140 S60 ; set bed temp
Tx
M190 S60 ; wait for bed temp
M109 S215 ; wait for extruder temp
G28 W ; home all without mesh bed level
G80 ; mesh bed leveling

G21 ; set units to millimeters

;go outside print area
G1 Y-3.0 F1000.0
G1 Z0.4 F1000.0
; select extruder
Tc
; purge line
G1 X55.0 F2000.0
G1 Z0.3 F1000.0
G92 E0.0
G1 X240.0 E25.0 F2200.0
M73 P0 R98
G1 Y-2.0 F1000.0
G1 X55.0 E25 F1400.0
G1 Z0.20 F1000.0
G1 X5.0 E4.0 F1000.0
G92 E0.0
G21 ; set units to millimeters
G90 ; use absolute coordinates
M83 ; use relative distances for extrusion
M900 K30 ; Filament gcode
;BEFORE_LAYER_CHANGE
G92 E0.0
;0.2


G1 E-0.80000 F2100.00000
G1 Z0.600 F10800.000
;AFTER_LAYER_CHANGE
;0.2
G1 X76.073 Y52.610
G1 Z0.200
G1 E0.80000 F2100.00000
M204 S1000
G1 F1200
G1 X76.289 Y52.148 E0.01601
G1 X76.607 Y51.748 E0.01601
G1 X77.008 Y51.433 E0.01601
G1 X77.472 Y51.219 E0.01601
G1 X108.150 Y42.163 E1.00293
G1 X109.815 Y41.793 E0.05348
G1 X111.491 Y41.664 E0.05270
G1 X117.777 Y41.661 E0.19710
G1 X119.613 Y41.802 E0.05773
G1 X172.261 Y51.150 E1.67657
G1 X172.765 Y51.312 E0.01658
G1 X173.218 Y51.591 E0.01669
G1 X173.588 Y51.969 E0.01658
G1 X173.857 Y52.428 E0.01669
G1 X174.039 Y53.295 E0.02777
G1 X174.038 Y166.173 E3.53923
G1 X173.943 Y166.793 E0.01964
G1 X173.675 Y167.359 E0.01964
G1 X173.256 Y167.829 E0.01976
G1 X172.723 Y168.159 E0.01964
G1 X171.856 Y168.340 E0.02777
G1 X78.124 Y168.340 E2.93888
G1 X77.505 Y168.243 E0.01964
G1 X76.939 Y167.975 E0.01964
G1 X76.472 Y167.557 E0.01964
G1 X76.143 Y167.024 E0.01964
G1 X75.961 Y166.154 E0.02788
G1 X75.961 Y53.296 E3.53857
G1 X76.063 Y52.669 E0.01991
G1 E-0.80000 F2100.00000
G1 Z0.800 F10800.000
G1 X86.267 Y95.254
G1 Z0.200
G1 E0.80000 F2100.00000
G1 F1200
G1 X82.593 Y95.254 E0.11520
G1 X82.593 Y89.580 E0.17791
G1 X86.267 Y89.580 E0.11520
G1 X86.267 Y95.194 E0.17603
G1 X85.890 Y94.877 F10800.000
G1 F1200
G1 X82.970 Y94.877 E0.09155
G1 X82.970 Y89.957 E0.15426
G1 X85.890 Y89.957 E0.09155
G1 X85.890 Y94.817 E0.15238
G1 X85.961 Y95.271 F10800.000
G1 E-0.80000 F2100.00000
G1 Z0.800 F10800.000
G1 X93.267 Y95.254
G1 Z0.200
G1 E0.80000 F2100.00000
G1 F1200
G1 X89.593 Y95.254 E0.11520
G1 X89.593 Y89.580 E0.17791
G1 X93.267 Y89.580 E0.11520
G1 X93.267 Y95.194 E0.17603
G1 X92.890 Y94.877 F10800.000
G1 F1200
G1 X89.970 Y94.877 E0.09155
G1 X89.970 Y89.957 E0.15426
G1 X92.890 Y89.957 E0.09155
G1 X92.890 Y94.817 E0.15238
G1 X92.961 Y95.271 F10800.000
G1 E-0.80000 F2100.00000
G1 Z0.800 F10800.000
G1 X114.689 Y52.639
G1 Z0.200
G1 E0.80000 F2100.00000
G1 F1200
G1 X114.239 Y52.600 E0.01415
G1 X113.803 Y52.483 E0.01415
G1 X113.394 Y52.292 E0.01415
G1 X113.025 Y52.034 E0.01415
G1 X112.706 Y51.714 E0.01415
G1 X112.447 Y51.345 E0.01415
G1 X112.256 Y50.936 E0.01415
G1 X112.139 Y50.500 E0.01415
G1 X112.100 Y50.050 E0.01415
G1 X112.139 Y49.600 E0.01415
G1 X112.256 Y49.164 E0.01415
G1 X112.447 Y48.755 E0.01415
G1 X112.706 Y48.386 E0.01415
G1 X113.025 Y48.066 E0.01415
G1 X113.394 Y47.808 E0.01415
G1 X113.803 Y47.617 E0.01415
G1 X114.239 Y47.500 E0.01415
G1 X114.669 Y47.462 E0.01353
G1 X115.136 Y47.499 E0.01469
G1 X115.575 Y47.617 E0.01423
G1 X115.984 Y47.808 E0.01415
G1 X116.353 Y48.066 E0.01415
G1 X116.673 Y48.386 E0.01415
G1 X116.932 Y48.755 E0.01415
G1 X117.122 Y49.164 E0.01415
G1 X117.239 Y49.600 E0.01415
G1 X117.278 Y50.050 E0.01415
G1 X117.239 Y50.500 E0.01415
G1 X117.122 Y50.936 E0.01415
G1 X116.932 Y51.345 E0.01415
G1 X116.673 Y51.714 E0.01415
G1 X116.353 Y52.034 E0.01415
G1 X116.000 Y52.281 E0.01353
G1 X115.577 Y52.483 E0.01469
G1 X115.139 Y52.600 E0.01423
G1 X114.749 Y52.634 E0.01227
G1 X114.689 Y52.261 F10800.000
G1 F1200
G1 X114.305 Y52.227 E0.01208
G1 X113.933 Y52.127 E0.01208
G1 X113.584 Y51.965 E0.01208
G1 X113.268 Y51.744 E0.01208
G1 X112.996 Y51.471 E0.01208
G1 X112.774 Y51.155 E0.01208
G1 X112.612 Y50.806 E0.01208
G1 X112.512 Y50.434 E0.01208
G1 X112.478 Y50.050 E0.01208
G1 X112.512 Y49.666 E0.01208
G1 X112.612 Y49.294 E0.01208
G1 X112.774 Y48.945 E0.01208
G1 X112.996 Y48.629 E0.01208
G1 X113.268 Y48.356 E0.01208
G1 X113.584 Y48.135 E0.01208
G1 X113.933 Y47.973 E0.01208
G1 X114.305 Y47.873 E0.01208
G1 X114.671 Y47.841 E0.01151
G1 X115.072 Y47.873 E0.01262
G1 X115.445 Y47.973 E0.01211
G1 X115.794 Y48.135 E0.01208
G1 X116.110 Y48.356 E0.01208
G1 X116.383 Y48.629 E0.01208
G1 X116.604 Y48.945 E0.01208
G1 X116.767 Y49.294 E0.01208
G1 X116.866 Y49.666 E0.01208
G1 X116.900 Y50.050 E0.01208
G1 X116.866 Y50.434 E0.01208
G1 X116.767 Y50.806 E0.01208
G1 X116.604 Y51.155 E0.01208
G1 X116.383 Y51.471 E0.01208
G1 X116.110 Y51.744 E0.01208
G1 X115.809 Y51.954 E0.01151
G1 X115.446 Y52.127 E0.01262
G1 X115.073 Y52.227 E0.01211
G1 X114.749 Y52.256 E0.01020
G1 X114.496 Y52.595 F10800.000
G1 E-0.80000 F2100.00000
G1 Z0.800 F10800.000
G1 X156.313 Y65.887
G1 Z0.200
G1 E0.80000 F2100.00000
G1 F1200
G1 X156.313 Y60.213 E0.17791
G1 X159.987 Y60.213 E0.11520
G1 X159.987 Y65.887 E0.17791
G1 X156.373 Y65.887 E0.11332
G1 X156.690 Y65.510 F10800.000
G1 F1200
G1 X156.690 Y60.590 E0.15426
G1 X159.610 Y60.590 E0.09155
G1 X159.610 Y65.510 E0.15426
G1 X156.750 Y65.510 E0.08967
G1 X156.314 Y65.645 F10800.000
G1 E-0.80000 F2100.00000
G1 Z0.800 F10800.000
G1 X163.313 Y65.887
G1 Z0.200
G1 E0.80000 F2100.00000
G1 F1200
G1 X163.313 Y60.213 E0.17791
G1 X166.987 Y60.213 E0.11520
G1 X166.987 Y65.887 E0.17791
G1 X163.373 Y65.887 E0.11332
G1 X163.690 Y65.510 F10800.000
G1 F1200
G1 X163.690 Y60.590 E0.15426
G1 X166.610 Y60.590 E0.09155
G1 X166.610 Y65.510 E0.15426
G1 X163.750 Y65.510 E0.08967
G1 X163.314 Y65.645 F10800.000
G1 E-0.80000 F2100.00000
G1 Z0.800 F10800.000
G1 X125.000 Y101.413
G1 Z0.200
G1 E0.80000 F2100.00000
G1 F1200
G1 X78.737 Y101.413 E1.45054
G1 X78.737 Y53.887 E1.49014
G1 X97.528 Y53.887 E0.58918
G1 X105.276 Y46.882 E0.32749
G1 X106.383 Y46.020 E0.04402
G1 X107.587 Y45.339 E0.04334
G1 X108.877 Y44.843 E0.04334
G1 X110.156 Y44.556 E0.04111
G1 X111.628 Y44.437 E0.04630
G1 X117.752 Y44.437 E0.19201
G1 X119.081 Y44.535 E0.04178
G1 X120.503 Y44.843 E0.04562
G1 X121.791 Y45.339 E0.04328
G1 X122.995 Y46.020 E0.04334
G1 X124.102 Y46.882 E0.04402
G1 X131.850 Y53.887 E0.32749
G1 X171.263 Y53.887 E1.23576
G1 X171.263 Y101.413 E1.49014
G1 X125.060 Y101.413 E1.44866
G1 X125.000 Y101.790 F10800.000
G1 F1200
G1 X78.360 Y101.790 E1.46236
M73 P1 R97
G1 X78.360 Y53.510 E1.51379
G1 X97.383 Y53.510 E0.59645
G1 X105.033 Y46.593 E0.32337
G1 X106.174 Y45.705 E0.04533
G1 X107.425 Y44.997 E0.04509
G1 X108.767 Y44.481 E0.04509
G1 X110.100 Y44.182 E0.04281
G1 X111.613 Y44.060 E0.04761
G1 X117.766 Y44.060 E0.19292
G1 X119.135 Y44.161 E0.04305
G1 X120.612 Y44.481 E0.04736
G1 X121.953 Y44.997 E0.04506
G1 X123.204 Y45.705 E0.04509
G1 X124.345 Y46.593 E0.04533
G1 X131.995 Y53.510 E0.32337
G1 X171.640 Y53.510 E1.24303
G1 X171.640 Y101.790 E1.51379
G1 X125.060 Y101.790 E1.46048
G1 X124.716 Y101.509 F10800.000
G1 E-0.80000 F2100.00000
G1 Z0.800 F10800.000
G1 X94.600 Y101.300
G1 Z0.200
G1 E0.80000 F2100.00000
G1 F1200
G1 X86.550 Y93.250 E0.35819
G1 X86.550 Y93.785 E0.01684
G1 X93.895 Y101.130 E0.32682
G1 X93.360 Y101.130 E0.01684
G1 X86.550 Y94.321 E0.30301
G1 X86.550 Y94.856 E0.01684
G1 X92.824 Y101.130 E0.27920
G1 X92.289 Y101.130 E0.01684
G1 X86.550 Y95.391 E0.25538
G1 X86.550 Y95.537 E0.00460
G1 X86.161 Y95.537 E0.01224
G1 X91.754 Y101.130 E0.24888
G1 X91.219 Y101.130 E0.01684
G1 X85.626 Y95.537 E0.24888
G1 X85.091 Y95.537 E0.01684
G1 X90.684 Y101.130 E0.24888
G1 X90.149 Y101.130 E0.01684
G1 X84.556 Y95.537 E0.24888
G1 X84.021 Y95.537 E0.01684
G1 X89.614 Y101.130 E0.24888
G1 X89.078 Y101.130 E0.01684
G1 X83.485 Y95.537 E0.24888
G1 X82.950 Y95.537 E0.01684
G1 X88.543 Y101.130 E0.24888
G1 X88.008 Y101.130 E0.01684
G1 X79.020 Y92.142 E0.39996
G1 X79.020 Y92.677 E0.01684
G1 X87.473 Y101.130 E0.37615
G1 X86.938 Y101.130 E0.01684
G1 X79.020 Y93.212 E0.35233
G1 X79.020 Y93.747 E0.01684
G1 X86.403 Y101.130 E0.32852
G1 X85.868 Y101.130 E0.01684
G1 X79.020 Y94.282 E0.30471
G1 X79.020 Y94.818 E0.01684
G1 X85.332 Y101.130 E0.28089
G1 X84.797 Y101.130 E0.01684
G1 X79.020 Y95.353 E0.25708
G1 X79.020 Y95.888 E0.01684
G1 X84.262 Y101.130 E0.23327
G1 X83.727 Y101.130 E0.01684
G1 X79.020 Y96.423 E0.20945
G1 X79.020 Y96.958 E0.01684
G1 X83.192 Y101.130 E0.18564
G1 X82.657 Y101.130 E0.01684
G1 X79.020 Y97.493 E0.16183
G1 X79.020 Y98.029 E0.01684
G1 X82.121 Y101.130 E0.13801
G1 X81.586 Y101.130 E0.01684
G1 X79.020 Y98.564 E0.11420
G1 X79.020 Y99.099 E0.01684
G1 X81.051 Y101.130 E0.09039
G1 X80.516 Y101.130 E0.01684
G1 X79.020 Y99.634 E0.06657
G1 X79.020 Y100.169 E0.01684
G1 X79.981 Y101.130 E0.04276
G1 X79.446 Y101.130 E0.01684
G1 X78.850 Y100.535 E0.02650
G1 E-0.80000 F2100.00000
G1 Z0.800 F10800.000
G1 X82.480 Y95.067
G1 Z0.200
G1 E0.80000 F2100.00000
G1 F1200
G1 X79.020 Y91.607 E0.15397
G1 X79.020 Y91.072 E0.01684
G1 X82.310 Y94.362 E0.14642
G1 X82.310 Y93.827 E0.01684
G1 X79.020 Y90.536 E0.14642
G1 X79.020 Y90.001 E0.01684
G1 X82.310 Y93.292 E0.14642
G1 X82.310 Y92.757 E0.01684
G1 X79.020 Y89.466 E0.14642
G1 X79.020 Y88.931 E0.01684
G1 X82.310 Y92.221 E0.14642
G1 X82.310 Y91.686 E0.01684
G1 X79.020 Y88.396 E0.14642
G1 X79.020 Y87.861 E0.01684
G1 X82.310 Y91.151 E0.14642
G1 X82.310 Y90.616 E0.01684
G1 X79.020 Y87.326 E0.14642
G1 X79.020 Y86.790 E0.01684
G1 X82.310 Y90.081 E0.14642
G1 X82.310 Y89.546 E0.01684
G1 X79.020 Y86.255 E0.14642
G1 X79.020 Y85.720 E0.01684
G1 X82.597 Y89.297 E0.15918
G1 X83.132 Y89.297 E0.01684
G1 X79.020 Y85.185 E0.18300
G1 X79.020 Y84.650 E0.01684
G1 X83.667 Y89.297 E0.20681
G1 X84.203 Y89.297 E0.01684
G1 X79.020 Y84.115 E0.23062
G1 X79.020 Y83.579 E0.01684
G1 X84.738 Y89.297 E0.25443
G1 X85.273 Y89.297 E0.01684
G1 X79.020 Y83.044 E0.27825
G1 X79.020 Y82.509 E0.01684
G1 X85.978 Y89.467 E0.30961
G1 E-0.80000 F2100.00000
G1 Z0.800 F10800.000
G1 X78.850 Y75.383
G1 Z0.200
G1 E0.80000 F2100.00000
G1 F1200
G1 X92.765 Y89.297 E0.61918
G1 X92.230 Y89.297 E0.01684
G1 X79.020 Y76.087 E0.58782
G1 X79.020 Y76.623 E0.01684
G1 X91.695 Y89.297 E0.56401
G1 X91.160 Y89.297 E0.01684
G1 X79.020 Y77.158 E0.54019
G1 X79.020 Y77.693 E0.01684
G1 X90.624 Y89.297 E0.51638
G1 X90.089 Y89.297 E0.01684
G1 X79.020 Y78.228 E0.49257
G1 X79.020 Y78.763 E0.01684
G1 X89.554 Y89.297 E0.46875
G1 X89.310 Y89.297 E0.00767
G1 X89.310 Y89.589 E0.00917
G1 X79.020 Y79.298 E0.45791
G1 X79.020 Y79.833 E0.01684
G1 X89.310 Y90.124 E0.45791
G1 X89.310 Y90.659 E0.01684
G1 X79.020 Y80.369 E0.45791
G1 X79.020 Y80.904 E0.01684
G1 X89.310 Y91.194 E0.45791
G1 X89.310 Y91.729 E0.01684
G1 X79.020 Y81.439 E0.45791
G1 X79.020 Y81.974 E0.01684
G1 X89.310 Y92.264 E0.45791
G1 X89.310 Y92.800 E0.01684
G1 X86.550 Y90.039 E0.12283
G1 X86.550 Y90.575 E0.01684
G1 X89.310 Y93.335 E0.12283
G1 X89.310 Y93.870 E0.01684
G1 X86.550 Y91.110 E0.12283
G1 X86.550 Y91.645 E0.01684
G1 X89.310 Y94.405 E0.12283
G1 X89.310 Y94.940 E0.01684
G1 X86.550 Y92.180 E0.12283
G1 X86.550 Y92.715 E0.01684
G1 X94.965 Y101.130 E0.37445
G1 X95.500 Y101.130 E0.01684
G1 X89.907 Y95.537 E0.24888
G1 X90.442 Y95.537 E0.01684
G1 X96.035 Y101.130 E0.24888
G1 X96.571 Y101.130 E0.01684
G1 X90.977 Y95.537 E0.24888
G1 X91.513 Y95.537 E0.01684
G1 X97.106 Y101.130 E0.24888
G1 X97.641 Y101.130 E0.01684
G1 X92.048 Y95.537 E0.24888
G1 X92.583 Y95.537 E0.01684
G1 X98.176 Y101.130 E0.24888
G1 X98.711 Y101.130 E0.01684
G1 X93.118 Y95.537 E0.24888
G1 X93.550 Y95.537 E0.01359
G1 X93.550 Y95.434 E0.00325
G1 X99.246 Y101.130 E0.25347
G1 X99.781 Y101.130 E0.01684
G1 X93.550 Y94.899 E0.27728
G1 X93.550 Y94.364 E0.01684
G1 X100.317 Y101.130 E0.30110
G1 X100.852 Y101.130 E0.01684
G1 X93.550 Y93.828 E0.32491
G1 X93.550 Y93.293 E0.01684
G1 X101.387 Y101.130 E0.34872
G1 X101.922 Y101.130 E0.01684
G1 X93.550 Y92.758 E0.37254
G1 X93.550 Y92.223 E0.01684
G1 X102.457 Y101.130 E0.39635
G1 X102.992 Y101.130 E0.01684
G1 X93.550 Y91.688 E0.42016
G1 X93.550 Y91.153 E0.01684
G1 X103.527 Y101.130 E0.44398
G1 X104.063 Y101.130 E0.01684
G1 X93.550 Y90.618 E0.46779
G1 X93.550 Y90.082 E0.01684
G1 X104.598 Y101.130 E0.49160
G1 X105.133 Y101.130 E0.01684
G1 X79.020 Y75.017 E1.16198
G1 X79.020 Y74.482 E0.01684
G1 X105.668 Y101.130 E1.18579
G1 X106.203 Y101.130 E0.01684
G1 X79.020 Y73.947 E1.20961
G1 X79.020 Y73.412 E0.01684
G1 X106.738 Y101.130 E1.23342
M73 P2 R96
G1 X107.274 Y101.130 E0.01684
G1 X79.020 Y72.876 E1.25723
G1 X79.020 Y72.341 E0.01684
G1 X107.809 Y101.130 E1.28105
G1 X108.344 Y101.130 E0.01684
G1 X79.020 Y71.806 E1.30486
G1 X79.020 Y71.271 E0.01684
G1 X108.879 Y101.130 E1.32867
G1 X109.414 Y101.130 E0.01684
G1 X79.020 Y70.736 E1.35248
G1 X79.020 Y70.201 E0.01684
G1 X109.949 Y101.130 E1.37630
G1 X110.484 Y101.130 E0.01684
G1 X79.020 Y69.666 E1.40011
G1 X79.020 Y69.130 E0.01684
G1 X111.020 Y101.130 E1.42392
G1 X111.555 Y101.130 E0.01684
G1 X79.020 Y68.595 E1.44774
G1 X79.020 Y68.060 E0.01684
G1 X112.090 Y101.130 E1.47155
G1 X112.625 Y101.130 E0.01684
G1 X79.020 Y67.525 E1.49536
G1 X79.020 Y66.990 E0.01684
G1 X113.160 Y101.130 E1.51918
G1 X113.695 Y101.130 E0.01684
G1 X79.020 Y66.455 E1.54299
G1 X79.020 Y65.919 E0.01684
G1 X114.231 Y101.130 E1.56680
G1 X114.766 Y101.130 E0.01684
G1 X79.020 Y65.384 E1.59062
G1 X79.020 Y64.849 E0.01684
G1 X115.301 Y101.130 E1.61443
G1 X115.836 Y101.130 E0.01684
G1 X79.020 Y64.314 E1.63824
G1 X79.020 Y63.779 E0.01684
G1 X116.371 Y101.130 E1.66206
G1 X116.906 Y101.130 E0.01684
G1 X79.020 Y63.244 E1.68587
G1 X79.020 Y62.709 E0.01684
G1 X117.441 Y101.130 E1.70968
G1 X117.977 Y101.130 E0.01684
G1 X79.020 Y62.173 E1.73350
G1 X79.020 Y61.638 E0.01684
G1 X118.512 Y101.130 E1.75731
G1 X119.047 Y101.130 E0.01684
G1 X79.020 Y61.103 E1.78112
G1 X79.020 Y60.568 E0.01684
G1 X119.582 Y101.130 E1.80493
G1 X120.117 Y101.130 E0.01684
G1 X79.020 Y60.033 E1.82875
M73 P3 R95
G1 X79.020 Y59.498 E0.01684
G1 X120.652 Y101.130 E1.85256
G1 X121.187 Y101.130 E0.01684
G1 X79.020 Y58.963 E1.87637
G1 X79.020 Y58.427 E0.01684
G1 X121.723 Y101.130 E1.90019
G1 X122.258 Y101.130 E0.01684
G1 X79.020 Y57.892 E1.92400
G1 X79.020 Y57.357 E0.01684
G1 X122.793 Y101.130 E1.94781
G1 X123.328 Y101.130 E0.01684
G1 X79.020 Y56.822 E1.97163
G1 X79.020 Y56.287 E0.01684
G1 X123.863 Y101.130 E1.99544
G1 X124.398 Y101.130 E0.01684
G1 X79.020 Y55.752 E2.01925
G1 X79.020 Y55.216 E0.01684
G1 X124.934 Y101.130 E2.04307
G1 X125.469 Y101.130 E0.01684
G1 X79.020 Y54.681 E2.06688
G1 X79.020 Y54.170 E0.01609
G1 X79.044 Y54.170 E0.00075
G1 X126.004 Y101.130 E2.08964
G1 X126.539 Y101.130 E0.01684
G1 X79.579 Y54.170 E2.08964
G1 X80.114 Y54.170 E0.01684
G1 X127.074 Y101.130 E2.08964
G1 X127.609 Y101.130 E0.01684
G1 X80.649 Y54.170 E2.08964
G1 X81.184 Y54.170 E0.01684
G1 X128.144 Y101.130 E2.08964
G1 X128.680 Y101.130 E0.01684
G1 X81.719 Y54.170 E2.08964
G1 X82.254 Y54.170 E0.01684
G1 X129.215 Y101.130 E2.08964
G1 X129.750 Y101.130 E0.01684
G1 X82.790 Y54.170 E2.08964
G1 X83.325 Y54.170 E0.01684
G1 X130.285 Y101.130 E2.08964
M73 P4 R94
G1 X130.820 Y101.130 E0.01684
G1 X83.860 Y54.170 E2.08964
G1 X84.395 Y54.170 E0.01684
G1 X131.355 Y101.130 E2.08964
G1 X131.891 Y101.130 E0.01684
G1 X84.930 Y54.170 E2.08964
G1 X85.465 Y54.170 E0.01684
G1 X132.426 Y101.130 E2.08964
G1 X132.961 Y101.130 E0.01684
G1 X86.001 Y54.170 E2.08964
G1 X86.536 Y54.170 E0.01684
G1 X133.496 Y101.130 E2.08964
G1 X134.031 Y101.130 E0.01684
