; generated by PrusaSlicer 2.2.0+win64 on 2020-09-03 at 19:08:09 UTC

; 

; external perimeters extrusion width = 0.45mm
; perimeters extrusion width = 0.45mm
; infill extrusion width = 0.45mm
; solid infill extrusion width = 0.45mm
; top infill extrusion width = 0.40mm
; first layer extrusion width = 0.42mm

; external perimeters extrusion width = 0.45mm
; perimeters extrusion width = 0.45mm
; infill extrusion width = 0.45mm
; solid infill extrusion width = 0.45mm
; top infill extrusion width = 0.40mm
; first layer extrusion width = 0.42mm

M73 P0 R59
M201 X9000 Y9000 Z500 E10000 ; sets maximum accelerations, mm/sec^2
M203 X500 Y500 Z12 E120 ; sets maximum feedrates, mm/sec
M204 P2000 R1500 T2000 ; sets acceleration (P, T) and retract acceleration (R), mm/sec^2
M205 X10.00 Y10.00 Z0.20 E4.50 ; sets the jerk limits, mm/sec
M205 S0 T0 ; sets the minimum extruding and travel feed rate, mm/sec
M107
M862.3 P "MK2.5SMMU2S" ; printer model check
M862.1 P0.4 ; nozzle diameter check
M115 U3.9.0 ; tell printer latest fw version
G90 ; use absolute coordinates
M83 ; extruder relative mode
M104 S215 ; set extruder temp
M140 S60 ; set bed temp
M190 S60 ; wait for bed temp
M109 S215 ; wait for extruder temp
G28 W ; home all without mesh bed level
G80 ; mesh bed leveling

; Send the filament type to the MMU2.0 unit.
; E stands for extruder number, F stands for filament type (0: default; 1:flex; 2: PVA)
M403 E0 F0
M403 E1 F0
M403 E2 F0
M403 E3 F0
M403 E4 F0


;go outside print area
G1 Y-3.0 F1000.0
G1 Z0.4 F1000.0
; select extruder
T0
; initial load
G1 X55.0 E29.0 F1073.0
M73 P0 R59
G1 X5.0 E29.0 F1800.0
G1 X55.0 E8.0 F2000.0
G1 Z0.3 F1000.0
G92 E0.0
G1 X240.0 E25.0 F2200.0
G1 Y-2.0 F1000.0
G1 X55.0 E25 F1400.0
G1 Z0.20 F1000.0
G1 X5.0 E4.0 F1000.0
G92 E0.0

G92 E0.0
G21 ; set units to millimeters
G90 ; use absolute coordinates
M83 ; use relative distances for extrusion
T0
M900 K0.06 ; Filament gcode LA 1.5
M900 K30 ; Filament gcode LA 1.0
G1 Z0.200 F10800.000
;BEFORE_LAYER_CHANGE
G92 E0.0
;0.2


G1 E-0.80000 F2100.00000
G1 Z0.800 F10800.000
G1 Z0.200
;AFTER_LAYER_CHANGE
;0.2
G1 E-2.20000 F2100.00000
G1 Z0.800 F10800.000
G1 X155.943 Y68.972
G1 Z0.200
G1 E3.00000 F2100.00000
;-------------------------------------
; CP WIPE TOWER FIRST LAYER BRIM START
G1  X155.943 Y83.032  E0.8016 F2400
G1  X153.400 Y83.489   F7000
G1  Y68.515  E0.6260 F2100
G1  X92.486  E2.5466
G1  Y83.489  E0.6260
G1  X153.400  E2.5466
G1  X153.857 Y83.946   F7000
G1  Y68.058  E0.6642 F2100
G1  X92.029  E2.5849
G1  Y83.946  E0.6642
G1  X153.857  E2.5849
G1  X154.314 Y84.403   F7000
G1  Y67.601  E0.7025 F2100
G1  X91.572  E2.6231
G1  Y84.403  E0.7025
G1  X154.314  E2.6231
G1  X154.771 Y84.860   F7000
G1  Y67.144  E0.7407 F2100
G1  X91.115  E2.6613
G1  Y84.860  E0.7407
G1  X154.771  E2.6613
G1  X152.943 Y83.032   F7000
G1  X92.943 
G1  X152.943 
; CP WIPE TOWER FIRST LAYER BRIM END
;-----------------------------------

G1 F8640.000
G1 X149.652 Y83.032 E-0.76000
G1 E-0.04000 F2100.00000
G1 Z0.800 F10800.000
G1 X168.333 Y68.804
G1 Z0.200
G1 E0.80000 F2100.00000
M204 S1000
G1 F1200.000
G1 X190.517 Y92.800 E1.02463
G1 X192.659 Y95.456 E0.10701
G1 X194.160 Y98.274 E0.10010
G1 X194.716 Y100.049 E0.05833
G1 X194.792 Y100.625 E0.01823
G1 X194.792 Y109.356 E0.27375
G1 X194.714 Y109.959 E0.01906
G1 X194.191 Y111.654 E0.05563
G1 X192.690 Y114.489 E0.10057
G1 X190.519 Y117.198 E0.10886
G1 X137.679 Y174.357 E2.44064
G1 X135.034 Y176.530 E0.10732
G1 X132.026 Y178.138 E0.10694
G1 X128.763 Y179.128 E0.10694
G1 X125.368 Y179.463 E0.10694
G1 X121.974 Y179.129 E0.10694
G1 X118.703 Y178.136 E0.10718
G1 X115.696 Y176.527 E0.10694
G1 X113.015 Y174.316 E0.10896
G1 X60.176 Y117.151 E2.44074
G1 X58.149 Y114.660 E0.10071
G1 X56.542 Y111.649 E0.10701
G1 X55.557 Y108.397 E0.10653
G1 X55.222 Y105.001 E0.10701
G1 X55.557 Y101.605 E0.10701
G1 X56.543 Y98.349 E0.10665
G1 X58.150 Y95.338 E0.10701
G1 X60.177 Y92.848 E0.10069
G1 X113.016 Y35.684 E2.44074
G1 X115.697 Y33.472 E0.10899
G1 X118.705 Y31.863 E0.10694
G1 X121.972 Y30.872 E0.10706
G1 X125.370 Y30.537 E0.10706
G1 X128.761 Y30.871 E0.10682
G1 X132.021 Y31.860 E0.10682
G1 X135.029 Y33.467 E0.10694
G1 X137.631 Y35.595 E0.10539
G1 X168.292 Y68.760 E1.41616
M73 P2 R58
G1 F8640.000
G1 X170.526 Y71.177 E-0.76000
G1 E-0.04000 F2100.00000
G1 Z0.800 F10800.000
G1 X73.678 Y93.661
G1 Z0.200
G1 E0.80000 F2100.00000
G1 F1200.000
G1 X73.654 Y94.140 E0.01504
G1 X73.512 Y94.714 E0.01854
G1 X74.295 Y94.505 E0.02541
G1 X75.044 Y94.447 E0.02355
G1 X75.831 Y94.510 E0.02479
G1 X76.635 Y94.699 E0.02588
G1 X77.430 Y95.016 E0.02683
G1 X78.191 Y95.466 E0.02771
G1 X78.891 Y96.052 E0.02864
G1 X79.505 Y96.778 E0.02982
G1 X80.004 Y97.648 E0.03143
G1 X80.363 Y98.661 E0.03371
G1 X80.555 Y99.820 E0.03682
G1 X80.556 Y101.125 E0.04093
G1 X80.395 Y102.180 E0.03346
G1 X80.050 Y104.028 E0.05896
G1 X78.546 Y111.533 E0.23999
G1 X78.259 Y112.470 E0.03072
G1 X77.810 Y113.294 E0.02942
G1 X77.235 Y113.999 E0.02854
G1 X76.566 Y114.594 E0.02806
G1 X75.835 Y115.087 E0.02766
G1 X75.071 Y115.488 E0.02705
G1 X74.304 Y115.805 E0.02604
G1 X73.562 Y116.048 E0.02448
G1 X72.873 Y116.225 E0.02228
G1 X72.268 Y116.344 E0.01936
G1 X71.769 Y116.413 E0.01577
G1 X71.111 Y116.445 E0.02067
G1 X64.164 Y116.590 E0.21787
G1 X65.095 Y112.889 E0.11967
G1 X69.936 Y112.719 E0.15187
G1 X71.542 Y112.682 E0.05037
G1 X71.807 Y112.664 E0.00832
G1 X72.116 Y112.613 E0.00984
G1 X72.857 Y112.413 E0.02407
G1 X73.245 Y112.275 E0.01290
G1 X74.018 Y111.928 E0.02656
G1 X74.362 Y111.733 E0.01241
G1 X74.666 Y111.526 E0.01151
G1 X74.911 Y111.316 E0.01014
G1 X75.085 Y111.111 E0.00842
G1 X75.185 Y110.914 E0.00694
G1 X75.395 Y110.071 E0.02721
G1 X75.749 Y108.463 E0.05163
G1 X76.602 Y104.336 E0.13215
G1 X77.099 Y101.758 E0.08232
G1 X77.190 Y101.230 E0.01679
G1 X77.216 Y100.828 E0.01261
G1 X77.172 Y100.435 E0.01242
G1 X77.066 Y100.045 E0.01266
G1 X76.906 Y99.666 E0.01291
G1 X76.698 Y99.304 E0.01308
G1 X76.451 Y98.968 E0.01309
G1 X76.175 Y98.663 E0.01290
G1 X75.879 Y98.396 E0.01248
G1 X75.573 Y98.176 E0.01183
G1 X75.268 Y98.007 E0.01094
G1 X74.974 Y97.896 E0.00984
G1 X74.697 Y97.844 E0.00883
G1 X74.204 Y97.829 E0.01548
G1 X73.684 Y97.873 E0.01634
G1 X73.438 Y97.925 E0.00788
G1 X73.200 Y98.000 E0.00783
G1 X72.978 Y98.100 E0.00764
G1 X72.783 Y98.223 E0.00723
G1 X72.440 Y98.580 E0.01551
G1 X72.204 Y99.107 E0.01810
G1 X70.637 Y104.867 E0.18716
G1 X72.902 Y104.869 E0.07100
G1 X71.902 Y107.608 E0.09142
G1 X66.553 Y107.791 E0.16781
G1 X70.419 Y94.070 E0.44695
G1 X73.619 Y93.669 E0.10112
G1 X74.056 Y93.530 F10800.000
G1 X74.078 Y93.231
G1 F1200.000
G1 X70.124 Y93.727 E0.12495
G1 X66.050 Y108.186 E0.47098
G1 X72.169 Y107.976 E0.19196
G1 X73.441 Y104.493 E0.11628
G1 X71.131 Y104.490 E0.07244
G1 X72.560 Y99.234 E0.17079
G1 X72.758 Y98.794 E0.01513
G1 X73.023 Y98.517 E0.01202
G1 X73.335 Y98.352 E0.01106
G1 X73.739 Y98.247 E0.01310
G1 X74.214 Y98.206 E0.01495
G1 X74.656 Y98.220 E0.01388
G1 X74.872 Y98.260 E0.00687
G1 X75.109 Y98.350 E0.00794
G1 X75.371 Y98.495 E0.00939
G1 X75.642 Y98.690 E0.01048
G1 X75.909 Y98.930 E0.01124
G1 X76.158 Y99.206 E0.01167
G1 X76.381 Y99.510 E0.01182
G1 X76.567 Y99.834 E0.01171
G1 X76.709 Y100.169 E0.01139
G1 X76.801 Y100.505 E0.01094
G1 X76.837 Y100.837 E0.01046
G1 X76.815 Y101.185 E0.01095
G1 X76.728 Y101.690 E0.01605
G1 X76.232 Y104.262 E0.08213
G1 X75.380 Y108.384 E0.13199
G1 X75.027 Y109.985 E0.05140
G1 X74.829 Y110.781 E0.02572
G1 X74.769 Y110.901 E0.00421
G1 X74.643 Y111.049 E0.00609
G1 X74.436 Y111.227 E0.00855
G1 X74.163 Y111.413 E0.01037
G1 X73.848 Y111.591 E0.01136
G1 X73.104 Y111.925 E0.02554
G1 X72.745 Y112.053 E0.01197
G1 X72.036 Y112.244 E0.02302
G1 X71.763 Y112.289 E0.00868
G1 X64.799 Y112.522 E0.21848
G1 X63.884 Y116.156 E0.11749
G1 X62.562 Y115.070 E0.05365
G1 X60.791 Y112.912 E0.08753
G1 X59.474 Y110.450 E0.08753
G1 X58.664 Y107.778 E0.08753
G1 X58.390 Y105.000 E0.08753
G1 X58.664 Y102.222 E0.08753
G1 X59.474 Y99.550 E0.08753
G1 X60.790 Y97.088 E0.08753
G1 X62.562 Y94.930 E0.08753
G1 X64.720 Y93.159 E0.08753
G1 X67.182 Y91.843 E0.08753
G1 X69.853 Y91.032 E0.08753
G1 X72.632 Y90.759 E0.08753
G1 X75.410 Y91.032 E0.08753
G1 X78.082 Y91.843 E0.08753
G1 X80.544 Y93.159 E0.08753
G1 X82.702 Y94.930 E0.08753
G1 X84.473 Y97.088 E0.08753
G1 X85.789 Y99.550 E0.08753
G1 X86.156 Y100.761 E0.03966
G1 X86.156 Y109.239 E0.26585
G1 X85.789 Y110.450 E0.03966
G1 X84.473 Y112.912 E0.08753
G1 X82.702 Y115.070 E0.08753
G1 X80.544 Y116.841 E0.08753
G1 X78.082 Y118.157 E0.08753
G1 X75.410 Y118.968 E0.08753
G1 X72.632 Y119.241 E0.08753
G1 X69.853 Y118.968 E0.08753
G1 X67.182 Y118.157 E0.08753
G1 X64.926 Y116.952 E0.08020
G1 X71.124 Y116.822 E0.19438
G1 X71.805 Y116.788 E0.02136
G1 X72.330 Y116.716 E0.01662
G1 X72.957 Y116.593 E0.02003
G1 X73.667 Y116.411 E0.02300
G1 X74.435 Y116.159 E0.02532
G1 X75.231 Y115.830 E0.02703
G1 X76.029 Y115.411 E0.02824
G1 X76.798 Y114.892 E0.02910
G1 X77.508 Y114.261 E0.02980
G1 X78.125 Y113.505 E0.03058
G1 X78.609 Y112.617 E0.03171
G1 X78.912 Y111.626 E0.03250
G1 X80.420 Y104.100 E0.24066
G1 X80.767 Y102.243 E0.05923
G1 X80.933 Y101.153 E0.03455
G1 X80.932 Y99.788 E0.04280
G1 X80.729 Y98.567 E0.03883
G1 X80.348 Y97.490 E0.03582
G1 X79.815 Y96.561 E0.03357
G1 X79.158 Y95.784 E0.03191
G1 X78.409 Y95.157 E0.03063
G1 X77.597 Y94.677 E0.02959
G1 X76.749 Y94.338 E0.02863
G1 X75.890 Y94.137 E0.02765
G1 X75.044 Y94.069 E0.02661
G1 X74.231 Y94.132 E0.02557
G1 X74.029 Y94.186 E0.00656
G1 X74.075 Y93.291 E0.02810
G1 F8640.000
G1 X70.803 Y93.652 E-0.76000
G1 E-0.04000 F2100.00000
G1 Z0.800 F10800.000
G1 X75.484 Y90.661
G1 Z0.200
G1 E0.80000 F2100.00000
G1 F1200.000
G1 X78.227 Y91.493 E0.08986
G1 X80.754 Y92.844 E0.08986
G1 X82.970 Y94.662 E0.08986
G1 X84.788 Y96.877 E0.08986
G1 X86.139 Y99.405 E0.08986
G1 X86.533 Y100.705 E0.04258
G1 X86.533 Y109.295 E0.26936
G1 X86.139 Y110.595 E0.04258
G1 X84.788 Y113.123 E0.08986
G1 X82.970 Y115.338 E0.08986
G1 X80.754 Y117.156 E0.08986
G1 X78.227 Y118.507 E0.08986
G1 X75.484 Y119.339 E0.08986
G1 X72.632 Y119.620 E0.08986
G1 X69.779 Y119.339 E0.08986
G1 X67.037 Y118.507 E0.08986
G1 X64.509 Y117.156 E0.08986
G1 X62.294 Y115.338 E0.08986
G1 X60.475 Y113.123 E0.08986
G1 X59.124 Y110.595 E0.08986
G1 X58.292 Y107.852 E0.08986
G1 X58.012 Y105.000 E0.08986
G1 X58.292 Y102.148 E0.08986
G1 X59.124 Y99.405 E0.08986
G1 X60.475 Y96.877 E0.08986
G1 X62.294 Y94.662 E0.08986
G1 X64.509 Y92.844 E0.08986
G1 X67.037 Y91.493 E0.08986
G1 X69.779 Y90.661 E0.08986
G1 X72.632 Y90.380 E0.08986
G1 X75.424 Y90.655 E0.08798
G1 X75.612 Y91.040 F10800.000
G1 F8640.000
G1 X78.227 Y91.493 E-0.67537
G1 X78.550 Y91.665 E-0.08463
G1 E-0.04000 F2100.00000
G1 Z0.800 F10800.000
G1 X74.192 Y93.223
G1 Z0.200
G1 E0.80000 F2100.00000
G1 F1200.000
G1 X74.933 Y93.964 E0.03288
G1 F8640.000
G1 X74.192 Y93.223 E-0.24205
G1 E-0.55795 F2100.00000
G1 Z0.800 F10800.000
G1 X71.435 Y103.803
G1 Z0.200
G1 E0.80000 F2100.00000
G1 F1200.000
G1 X71.840 Y104.208 E0.01796
G1 X72.374 Y104.209 E0.01675
G1 X71.687 Y103.522 E0.03046
G1 X71.801 Y103.103 E0.01363
G1 X73.078 Y104.379 E0.05662
G1 F8640.000
G1 X71.801 Y103.103 E-0.41682
G1 X71.687 Y103.522 E-0.10036
G1 X72.374 Y104.209 E-0.22420
G1 X72.293 Y104.209 E-0.01862
G1 E-0.04000 F2100.00000
G1 Z0.800 F10800.000
G1 X76.687 Y100.520
G1 Z0.200
G1 E0.80000 F2100.00000
G1 F1200.000
G1 X74.680 Y98.512 E0.08906
G1 X74.131 Y98.497 E0.01721
G1 X76.549 Y100.915 E0.10725
G1 X76.533 Y101.152 E0.00746
G1 X76.492 Y101.392 E0.00762
G1 X73.660 Y98.560 E0.12562
G1 X73.438 Y98.618 E0.00721
G1 X73.272 Y98.705 E0.00587
G1 X76.410 Y101.843 E0.13920
G1 X76.324 Y102.291 E0.01429
G1 X72.993 Y98.960 E0.14776
G1 X72.828 Y99.328 E0.01266
G1 X76.238 Y102.738 E0.15126
G1 X76.152 Y103.185 E0.01429
G1 X72.714 Y99.747 E0.15251
G1 X72.600 Y100.167 E0.01363
G1 X76.066 Y103.632 E0.15374
G1 X75.979 Y104.080 E0.01429
G1 X72.486 Y100.586 E0.15498
G1 X72.372 Y101.006 E0.01363
G1 X75.889 Y104.523 E0.15605
G1 X75.798 Y104.965 E0.01416
G1 X72.258 Y101.425 E0.15706
G1 X72.143 Y101.844 E0.01363
G1 X75.707 Y105.408 E0.15807
G1 X75.615 Y105.850 E0.01416
G1 X72.029 Y102.264 E0.15907
G1 X71.915 Y102.683 E0.01363
G1 X75.524 Y106.292 E0.16008
G1 X75.432 Y106.734 E0.01416
G1 X73.595 Y104.896 E0.08153
G1 X73.452 Y105.287 E0.01305
G1 X75.341 Y107.176 E0.08380
G1 X75.250 Y107.618 E0.01416
G1 X73.309 Y105.678 E0.08607
G1 X73.167 Y106.069 E0.01305
G1 X75.158 Y108.060 E0.08835
G1 X75.065 Y108.500 E0.01411
G1 X73.024 Y106.459 E0.09053
G1 X72.881 Y106.850 E0.01305
G1 X74.969 Y108.938 E0.09259
G1 X74.872 Y109.375 E0.01404
G1 X72.739 Y107.241 E0.09465
G1 X72.596 Y107.632 E0.01305
G1 X74.776 Y109.812 E0.09671
G1 X74.672 Y110.242 E0.01387
G1 X72.453 Y108.023 E0.09843
G1 X72.370 Y108.252 E0.00767
G1 X72.157 Y108.260 E0.00668
G1 X74.566 Y110.669 E0.10687
G1 X74.531 Y110.744 E0.00259
G1 X74.442 Y110.849 E0.00433
G1 X74.318 Y110.955 E0.00510
G1 X71.641 Y108.277 E0.11878
G1 X71.125 Y108.295 E0.01619
G1 X74.006 Y111.176 E0.12782
G1 X73.661 Y111.365 E0.01233
G1 X70.609 Y108.313 E0.13540
G1 X70.093 Y108.330 E0.01619
G1 X73.293 Y111.530 E0.14195
G1 X72.920 Y111.690 E0.01274
G1 X69.577 Y108.348 E0.14827
G1 X69.062 Y108.365 E0.01619
G1 X72.517 Y111.821 E0.15330
G1 X72.097 Y111.935 E0.01365
G1 X68.546 Y108.383 E0.15754
G1 X68.030 Y108.401 E0.01619
G1 X71.636 Y112.007 E0.15999
G1 X71.128 Y112.032 E0.01598
G1 X67.514 Y108.418 E0.16030
G1 X66.998 Y108.436 E0.01619
G1 X70.606 Y112.044 E0.16005
G1 X70.085 Y112.056 E0.01636
G1 X66.318 Y108.290 E0.16708
G1 F8640.000
G1 X68.646 Y110.617 E-0.76000
G1 E-0.04000 F2100.00000
G1 Z0.800 F10800.000
G1 X60.438 Y112.012
G1 Z0.200
G1 E0.80000 F2100.00000
G1 F1200.000
G1 X63.791 Y115.366 E0.14877
G1 X63.899 Y114.940 E0.01379
G1 X60.238 Y111.279 E0.16237
G1 X59.737 Y110.341 E0.03337
G1 X59.695 Y110.202 E0.00455
G1 X64.006 Y114.513 E0.19124
G1 X64.113 Y114.087 E0.01379
G1 X59.463 Y109.436 E0.20631
G1 X59.230 Y108.671 E0.02510
G1 X64.220 Y113.661 E0.22137
G1 X64.328 Y113.235 E0.01379
G1 X58.998 Y107.905 E0.23643
G1 X58.943 Y107.723 E0.00596
G1 X58.898 Y107.272 E0.01422
G1 X64.435 Y112.808 E0.24561
G1 X64.542 Y112.382 E0.01379
G1 X58.840 Y106.680 E0.25295
G1 X58.782 Y106.088 E0.01865
G1 X64.928 Y112.234 E0.27265
G1 X65.443 Y112.216 E0.01618
G1 X58.723 Y105.496 E0.29810
G1 X58.675 Y105.000 E0.01564
G1 X58.682 Y104.922 E0.00247
G1 X65.959 Y112.198 E0.32280
G1 X66.474 Y112.180 E0.01618
G1 X58.730 Y104.436 E0.34354
G1 X58.778 Y103.950 E0.01531
G1 X66.990 Y112.162 E0.36429
G1 X67.505 Y112.144 E0.01618
G1 X58.826 Y103.465 E0.38503
G1 X58.874 Y102.979 E0.01531
G1 X68.021 Y112.126 E0.40578
G1 X68.536 Y112.108 E0.01618
G1 X58.921 Y102.493 E0.42652
G1 X58.943 Y102.277 E0.00682
G1 X59.012 Y102.050 E0.00744
G1 X69.052 Y112.090 E0.44539
G1 X69.567 Y112.072 E0.01618
G1 X59.136 Y101.641 E0.46274
G1 X59.260 Y101.231 E0.01342
G1 X65.857 Y107.829 E0.29266
G1 X65.974 Y107.412 E0.01356
G1 X59.384 Y100.822 E0.29235
G1 X59.508 Y100.413 E0.01342
G1 X66.092 Y106.996 E0.29204
G1 X66.209 Y106.580 E0.01356
G1 X59.632 Y100.003 E0.29174
G1 X59.766 Y99.604 E0.01322
G1 X66.326 Y106.164 E0.29100
G1 X66.444 Y105.747 E0.01356
G1 X59.952 Y99.256 E0.28796
G1 X60.138 Y98.908 E0.01237
G1 X66.561 Y105.331 E0.28491
G1 X66.678 Y104.915 E0.01356
G1 X60.324 Y98.561 E0.28187
G1 X60.510 Y98.213 E0.01237
G1 X66.795 Y104.499 E0.27883
G1 X66.913 Y104.082 E0.01356
G1 X60.696 Y97.865 E0.27579
G1 X60.881 Y97.518 E0.01237
G1 X67.030 Y103.666 E0.27275
G1 X67.147 Y103.250 E0.01356
G1 X61.079 Y97.182 E0.26918
G1 X61.320 Y96.889 E0.01189
G1 X67.264 Y102.834 E0.26371
G1 X67.382 Y102.418 E0.01356
G1 X61.560 Y96.596 E0.25825
G1 X61.801 Y96.303 E0.01189
G1 X67.499 Y102.001 E0.25278
G1 X67.616 Y101.585 E0.01356
G1 X62.041 Y96.010 E0.24731
G1 X62.282 Y95.717 E0.01189
G1 X67.733 Y101.169 E0.24185
G1 X67.851 Y100.753 E0.01356
G1 X62.522 Y95.424 E0.23638
G1 X62.762 Y95.131 E0.01189
G1 X67.968 Y100.336 E0.23092
G1 X68.085 Y99.920 E0.01356
G1 X63.056 Y94.890 E0.22312
G1 X63.349 Y94.650 E0.01189
G1 X68.202 Y99.504 E0.21532
G1 X68.320 Y99.088 E0.01356
G1 X63.642 Y94.409 E0.20753
G1 X63.935 Y94.169 E0.01189
G1 X68.437 Y98.671 E0.19973
G1 X68.554 Y98.255 E0.01356
