; generated by PrusaSlicer 2.3.1+win64 on 2021-08-12 at 19:25:51 UTC

; 

; external perimeters extrusion width = 0.45mm
; perimeters extrusion width = 0.45mm
; infill extrusion width = 0.45mm
; solid infill extrusion width = 0.45mm
; top infill extrusion width = 0.40mm

; external perimeters extrusion width = 0.45mm
; perimeters extrusion width = 0.45mm
; infill extrusion width = 0.45mm
; solid infill extrusion width = 0.45mm
; top infill extrusion width = 0.40mm

M73 P0 R52
M201 X9000 Y9000 Z500 E10000 ; sets maximum accelerations, mm/sec^2
M203 X500 Y500 Z12 E120 ; sets maximum feedrates, mm/sec
M204 P2000 R1500 T2000 ; sets acceleration (P, T) and retract acceleration (R), mm/sec^2
M205 X10.00 Y10.00 Z0.20 E4.50 ; sets the jerk limits, mm/sec
M205 S0 T0 ; sets the minimum extruding and travel feed rate, mm/sec
M107
;TYPE:Custom
M862.3 P "MK2.5SMMU2S" ; printer model check
M862.1 P0.4 ; nozzle diameter check
M115 U3.9.3 ; tell printer latest fw version
G90 ; use absolute coordinates
M83 ; extruder relative mode
M104 S215 ; set extruder temp
M140 S60 ; set bed temp
M190 S60 ; wait for bed temp
M109 S215 ; wait for extruder temp
G28 W ; home all without mesh bed level
G80 ; mesh bed leveling

; Send the filament type to the MMU2.0 unit.
; E stands for extruder number, F stands for filament type (0: default; 1:flex; 2: PVA)
M403 E0 F0
M403 E1 F0
M403 E2 F0
M403 E3 F0
M403 E4 F0


;go outside print area
G1 Y-3.0 F1000.0
G1 Z0.4 F1000.0
; select extruder
T0
; initial load
G1 X55.0 E29.0 F1073.0
G1 X5.0 E29.0 F1800.0
G1 X55.0 E8.0 F2000.0
G1 Z0.3 F1000.0
G92 E0.0
G1 X240.0 E25.0 F2200.0
G1 Y-2.0 F1000.0
G1 X55.0 E25 F1400.0
G1 Z0.20 F1000.0
G1 X5.0 E4.0 F1000.0
G92 E0.0

G92 E0.0
G21 ; set units to millimeters
G90 ; use absolute coordinates
M83 ; use relative distances for extrusion
T0
M900 K0.05 ; Filament gcode LA 1.5
M900 K30 ; Filament gcode LA 1.0
G1 Z0.200 F10800.000
;LAYER_CHANGE
;Z:0.2
;HEIGHT:0.2
;BEFORE_LAYER_CHANGE
G92 E0.0
;0.2


G1 E-0.80000 F3600.000
G1 Z0.800 F10800.000
G1 Z0.200
;AFTER_LAYER_CHANGE
;0.2
G1 E-2.20000 F3600.000
G1 Z0.800 F10800.000
G1 X161.087 Y98.320
G1 Z0.200
G1 E3.00000 F3600.000
;HEIGHT:0.200000
;TYPE:Wipe tower
;WIDTH:0.500000
;-------------------------------------
; CP WIPE TOWER FIRST LAYER BRIM START
G1  X161.087 Y112.380  E0.8016 F2400
G1  X158.544 Y112.837   F7000
G1  Y97.863  E0.6260 F2100
G1  X97.630  E2.5466
G1  Y112.837  E0.6260
G1  X158.544  E2.5466
G1  X159.001 Y113.294   F7000
G1  Y97.406  E0.6642 F2100
G1  X97.173  E2.5849
G1  Y113.294  E0.6642
M73 P1 R52
G1  X159.001  E2.5849
G1  X159.458 Y113.751   F7000
G1  Y96.949  E0.7025 F2100
G1  X96.716  E2.6231
G1  Y113.751  E0.7025
G1  X159.458  E2.6231
G1  X159.915 Y114.208   F7000
G1  Y96.492  E0.7407 F2100
G1  X96.259  E2.6613
G1  Y114.208  E0.7407
G1  X159.915  E2.6613
; CP WIPE TOWER FIRST LAYER BRIM END
;-----------------------------------

;WIPE_START
G1 F8640.000
G1 X159.458 Y113.751 E-0.25587
G1 X158.185 Y113.751 E-0.50413
;WIPE_END
G1 E-0.04000 F3600.000
G1 Z0.800 F10800.000
G1 X153.018 Y143.990
G1 Z0.200
G1 E0.80000 F3600.000
M204 S1000
;TYPE:External perimeter
;WIDTH:0.45
;HEIGHT:0.2
G1 F1200.000
G1 X152.556 Y143.874 E0.01612
G1 X152.555 Y143.846 E0.00095
G1 X152.529 Y143.839 E0.00090
G1 X152.359 Y138.987 E0.16434
G1 X152.322 Y137.381 E0.05437
G1 X152.304 Y137.118 E0.00894
G1 X152.253 Y136.809 E0.01057
G1 X152.053 Y136.070 E0.02594
G1 X151.916 Y135.683 E0.01389
G1 X151.569 Y134.911 E0.02863
G1 X151.375 Y134.568 E0.01335
G1 X151.179 Y134.281 E0.01176
G1 X150.987 Y134.057 E0.01000
G1 X150.785 Y133.885 E0.00899
G1 X150.590 Y133.786 E0.00738
G1 X149.750 Y133.577 E0.02931
G1 X148.142 Y133.223 E0.05573
G1 X144.015 Y132.370 E0.14265
G1 X141.437 Y131.873 E0.08887
G1 X140.910 Y131.782 E0.01810
G1 X140.511 Y131.756 E0.01354
G1 X140.119 Y131.800 E0.01332
G1 X139.732 Y131.905 E0.01359
G1 X139.354 Y132.065 E0.01388
G1 X138.994 Y132.272 E0.01406
G1 X138.659 Y132.518 E0.01407
G1 X138.355 Y132.793 E0.01387
G1 X138.090 Y133.087 E0.01342
G1 X137.870 Y133.392 E0.01271
G1 X137.702 Y133.696 E0.01175
G1 X137.592 Y133.987 E0.01054
G1 X137.541 Y134.262 E0.00945
G1 X137.525 Y134.753 E0.01665
G1 X137.570 Y135.271 E0.01759
G1 X137.695 Y135.752 E0.01682
G1 X137.795 Y135.972 E0.00819
G1 X137.903 Y136.143 E0.00683
G1 X138.243 Y136.469 E0.01598
G1 X138.766 Y136.704 E0.01941
G1 X144.506 Y138.265 E0.20135
G1 X144.509 Y135.999 E0.07671
G1 X147.277 Y137.010 E0.09976
G1 X147.278 Y137.035 E0.00085
G1 X147.304 Y137.044 E0.00095
G1 X147.488 Y142.424 E0.18220
G1 X133.738 Y138.550 E0.48354
G1 X133.735 Y138.522 E0.00096
G1 X133.711 Y138.515 E0.00083
G1 X133.299 Y135.228 E0.11213
G1 X133.797 Y135.254 E0.01689
G1 X134.349 Y135.395 E0.01928
G1 X134.145 Y134.630 E0.02678
G1 X134.086 Y133.879 E0.02551
G1 X134.150 Y133.089 E0.02684
G1 X134.339 Y132.283 E0.02802
G1 X134.657 Y131.486 E0.02904
G1 X135.108 Y130.723 E0.02999
G1 X135.696 Y130.021 E0.03101
G1 X136.424 Y129.405 E0.03228
G1 X137.296 Y128.905 E0.03403
G1 X138.312 Y128.545 E0.03648
G1 X139.473 Y128.353 E0.03983
G1 X140.781 Y128.351 E0.04426
G1 X141.837 Y128.513 E0.03618
G1 X144.787 Y129.072 E0.10162
G1 X151.192 Y130.362 E0.22115
G1 X152.130 Y130.649 E0.03323
G1 X152.957 Y131.100 E0.03186
G1 X153.664 Y131.677 E0.03091
G1 X154.288 Y132.382 E0.03185
G1 X154.782 Y133.114 E0.02991
G1 X155.183 Y133.880 E0.02925
G1 X155.501 Y134.648 E0.02815
G1 X155.745 Y135.391 E0.02647
G1 X155.922 Y136.080 E0.02408
G1 X156.040 Y136.687 E0.02093
G1 X156.109 Y137.184 E0.01698
G1 X156.135 Y137.540 E0.01210
G1 X156.287 Y144.813 E0.24622
G1 X153.076 Y144.005 E0.11210
G1 X152.894 Y144.370 F10800.000
;WIPE_START
G1 F8640.000
G1 X152.556 Y143.874 E-0.21229
G1 X152.555 Y143.846 E-0.01112
G1 X152.529 Y143.839 E-0.01054
G1 X152.482 Y142.511 E-0.52606
;WIPE_END
G1 E-0.04000 F3600.000
G1 Z0.800 F10800.000
G1 X144.655 Y150.279
G1 Z0.200
G1 E0.80000 F3600.000
;TYPE:Perimeter
G1 F1200.000
G1 X141.926 Y150.010 E0.09282
G1 X139.302 Y149.214 E0.09282
G1 X136.883 Y147.921 E0.09282
G1 X134.764 Y146.182 E0.09282
G1 X133.024 Y144.062 E0.09282
G1 X131.731 Y141.644 E0.09282
G1 X130.935 Y139.020 E0.09282
G1 X130.667 Y136.291 E0.09282
G1 X130.935 Y133.562 E0.09282
G1 X131.731 Y130.938 E0.09282
G1 X133.024 Y128.520 E0.09282
G1 X134.764 Y126.400 E0.09282
G1 X136.883 Y124.660 E0.09282
G1 X139.302 Y123.368 E0.09282
G1 X140.453 Y123.018 E0.04071
G1 X148.857 Y123.018 E0.28447
G1 X150.008 Y123.368 E0.04071
G1 X152.426 Y124.660 E0.09282
G1 X154.546 Y126.400 E0.09282
G1 X156.285 Y128.520 E0.09282
G1 X157.578 Y130.938 E0.09282
G1 X158.374 Y133.562 E0.09282
G1 X158.643 Y136.291 E0.09282
G1 X158.374 Y139.020 E0.09282
G1 X157.578 Y141.644 E0.09282
G1 X157.056 Y142.620 E0.03749
G1 X156.948 Y137.502 E0.17328
G1 X156.919 Y137.099 E0.01370
G1 X156.844 Y136.553 E0.01864
G1 X156.716 Y135.901 E0.02250
G1 X156.527 Y135.163 E0.02578
G1 X156.265 Y134.365 E0.02841
G1 X155.921 Y133.534 E0.03045
G1 X155.482 Y132.696 E0.03202
G1 X154.933 Y131.883 E0.03323
G1 X154.230 Y131.088 E0.03591
G1 X153.413 Y130.421 E0.03572
G1 X152.448 Y129.895 E0.03720
G1 X151.392 Y129.572 E0.03738
G1 X144.943 Y128.273 E0.22266
G1 X141.975 Y127.710 E0.10226
G1 X140.842 Y127.537 E0.03878
G1 X139.406 Y127.538 E0.04863
G1 X138.108 Y127.754 E0.04452
G1 X136.955 Y128.162 E0.04141
G1 X135.955 Y128.736 E0.03902
G1 X135.117 Y129.444 E0.03715
G1 X134.441 Y130.252 E0.03564
G1 X133.924 Y131.126 E0.03437
G1 X133.561 Y132.038 E0.03323
G1 X133.344 Y132.962 E0.03214
G1 X133.270 Y133.878 E0.03109
G1 X133.312 Y134.414 E0.01820
G1 X132.370 Y134.365 E0.03191
G1 X132.971 Y139.153 E0.16331
G1 X132.994 Y139.159 E0.00083
G1 X132.998 Y139.187 E0.00096
G1 X148.340 Y143.510 E0.53954
G1 X148.099 Y136.468 E0.23850
G1 X148.073 Y136.458 E0.00095
G1 X148.072 Y136.433 E0.00085
G1 X143.696 Y134.836 E0.15770
G1 X143.693 Y137.200 E0.08005
G1 X139.041 Y135.935 E0.16318
G1 X138.705 Y135.784 E0.01248
G1 X138.514 Y135.585 E0.00934
G1 X138.457 Y135.461 E0.00463
G1 X138.377 Y135.152 E0.01078
G1 X138.341 Y134.731 E0.01433
G1 X138.353 Y134.350 E0.01291
G1 X138.379 Y134.208 E0.00488
G1 X138.443 Y134.039 E0.00612
G1 X138.559 Y133.828 E0.00813
G1 X138.725 Y133.599 E0.00957
G1 X138.932 Y133.368 E0.01052
G1 X139.174 Y133.150 E0.01102
G1 X139.439 Y132.956 E0.01113
G1 X139.718 Y132.795 E0.01088
G1 X139.999 Y132.676 E0.01033
G1 X140.272 Y132.602 E0.00958
G1 X140.529 Y132.574 E0.00876
G1 X140.814 Y132.592 E0.00967
G1 X143.855 Y133.168 E0.10477
G1 X147.972 Y134.019 E0.14229
G1 X149.564 Y134.370 E0.05518
G1 X150.304 Y134.554 E0.02584
G1 X150.411 Y134.636 E0.00453
G1 X150.532 Y134.777 E0.00629
G1 X150.842 Y135.279 E0.02000
G1 X151.159 Y135.987 E0.02624
G1 X151.276 Y136.313 E0.01171
G1 X151.456 Y136.983 E0.02349
G1 X151.495 Y137.212 E0.00788
G1 X151.737 Y144.479 E0.24612
G1 X151.761 Y144.485 E0.00086
G1 X151.762 Y144.514 E0.00095
G1 X155.204 Y145.380 E0.12013
M73 P1 R51
G1 X154.546 Y146.182 E0.03513
G1 X152.426 Y147.921 E0.09282
G1 X150.008 Y149.214 E0.09282
G1 X147.384 Y150.010 E0.09282
G1 X144.714 Y150.273 E0.09079
G1 X144.655 Y150.688 F10800.000
G1 F1200.000
G1 X141.846 Y150.411 E0.09553
G1 X139.145 Y149.592 E0.09553
G1 X136.656 Y148.261 E0.09553
G1 X134.474 Y146.471 E0.09553
G1 X132.684 Y144.289 E0.09553
G1 X131.354 Y141.800 E0.09553
G1 X130.534 Y139.100 E0.09553
G1 X130.258 Y136.291 E0.09553
G1 X130.534 Y133.482 E0.09553
G1 X131.354 Y130.781 E0.09553
G1 X132.684 Y128.292 E0.09553
G1 X134.474 Y126.111 E0.09553
G1 X136.656 Y124.320 E0.09553
G1 X139.145 Y122.990 E0.09553
G1 X140.392 Y122.611 E0.04411
G1 X148.917 Y122.611 E0.28856
G1 X150.164 Y122.990 E0.04411
G1 X152.653 Y124.320 E0.09553
G1 X154.835 Y126.111 E0.09553
G1 X156.625 Y128.292 E0.09553
G1 X157.956 Y130.781 E0.09553
G1 X158.775 Y133.482 E0.09553
G1 X159.052 Y136.291 E0.09553
G1 X158.775 Y139.100 E0.09553
G1 X157.956 Y141.800 E0.09553
G1 X156.681 Y144.184 E0.09150
G1 X156.542 Y137.521 E0.22559
M73 P2 R51
G1 X156.514 Y137.141 E0.01290
G1 X156.442 Y136.620 E0.01781
G1 X156.319 Y135.991 E0.02171
G1 X156.136 Y135.277 E0.02493
G1 X155.883 Y134.507 E0.02744
G1 X155.552 Y133.707 E0.02930
G1 X155.132 Y132.905 E0.03064
G1 X154.610 Y132.132 E0.03157
G1 X153.947 Y131.382 E0.03388
G1 X153.185 Y130.760 E0.03331
G1 X152.289 Y130.272 E0.03453
G1 X151.292 Y129.967 E0.03531
G1 X144.865 Y128.673 E0.22191
G1 X141.906 Y128.112 E0.10194
G1 X140.811 Y127.944 E0.03748
G1 X139.439 Y127.945 E0.04645
G1 X138.210 Y128.149 E0.04218
G1 X137.125 Y128.533 E0.03895
G1 X136.190 Y129.071 E0.03652
G1 X135.406 Y129.732 E0.03471
G1 X134.774 Y130.487 E0.03333
G1 X134.291 Y131.306 E0.03218
G1 X133.950 Y132.160 E0.03114
G1 X133.747 Y133.025 E0.03008
G1 X133.678 Y133.878 E0.02897
G1 X133.742 Y134.699 E0.02787
G1 X133.781 Y134.846 E0.00513
G1 X132.835 Y134.797 E0.03209
G1 X133.341 Y138.834 E0.13772
G1 X133.364 Y138.841 E0.00083
G1 X133.368 Y138.869 E0.00096
G1 X147.914 Y142.967 E0.51154
G1 X147.702 Y136.756 E0.21035
G1 X147.676 Y136.746 E0.00094
G1 X147.675 Y136.721 E0.00085
G1 X144.102 Y135.417 E0.12873
G1 X144.100 Y137.733 E0.07838
G1 X138.904 Y136.320 E0.18227
G1 X138.474 Y136.127 E0.01595
G1 X138.220 Y135.883 E0.01191
G1 X138.076 Y135.606 E0.01057
G1 X137.973 Y135.212 E0.01380
G1 X137.933 Y134.742 E0.01596
G1 X137.947 Y134.306 E0.01478
G1 X137.986 Y134.097 E0.00716
G1 X138.073 Y133.867 E0.00833
G1 X138.215 Y133.610 E0.00994
G1 X138.407 Y133.343 E0.01114
G1 X138.644 Y133.080 E0.01197
G1 X138.916 Y132.834 E0.01244
G1 X139.217 Y132.614 E0.01260
G1 X139.536 Y132.430 E0.01247
G1 X139.865 Y132.291 E0.01210
G1 X140.196 Y132.201 E0.01158
G1 X140.520 Y132.165 E0.01104
G1 X140.862 Y132.187 E0.01160
G1 X143.935 Y132.769 E0.10587
G1 X148.057 Y133.621 E0.14247
G1 X149.657 Y133.973 E0.05546
G1 X150.447 Y134.170 E0.02757
G1 X150.558 Y134.226 E0.00419
G1 X150.699 Y134.346 E0.00627
G1 X150.856 Y134.529 E0.00815
G1 X151.029 Y134.783 E0.01043
G1 X151.206 Y135.095 E0.01213
G1 X151.538 Y135.835 E0.02744
G1 X151.664 Y136.191 E0.01280
G1 X151.855 Y136.896 E0.02472
G1 X151.899 Y137.165 E0.00922
G1 X152.133 Y144.159 E0.23688
G1 X152.158 Y144.166 E0.00088
G1 X152.159 Y144.194 E0.00095
G1 X155.926 Y145.142 E0.13149
G1 X154.835 Y146.471 E0.05822
G1 X152.653 Y148.261 E0.09553
G1 X150.164 Y149.592 E0.09553
G1 X147.463 Y150.411 E0.09553
G1 X144.714 Y150.682 E0.09350
G1 X144.655 Y151.097 F10800.000
;TYPE:External perimeter
G1 F1200.000
G1 X141.766 Y150.812 E0.09825
G1 X138.989 Y149.970 E0.09825
G1 X136.429 Y148.602 E0.09825
G1 X134.185 Y146.760 E0.09825
G1 X132.344 Y144.517 E0.09825
G1 X130.976 Y141.957 E0.09825
G1 X130.133 Y139.179 E0.09825
G1 X129.849 Y136.291 E0.09825
G1 X130.133 Y133.402 E0.09825
G1 X130.976 Y130.625 E0.09825
G1 X132.344 Y128.065 E0.09825
G1 X134.185 Y125.821 E0.09825
G1 X136.429 Y123.980 E0.09825
G1 X138.989 Y122.612 E0.09825
G1 X140.332 Y122.204 E0.04751
G1 X148.978 Y122.204 E0.29265
G1 X150.321 Y122.612 E0.04751
G1 X152.880 Y123.980 E0.09825
G1 X155.124 Y125.821 E0.09825
G1 X156.965 Y128.065 E0.09825
G1 X158.334 Y130.625 E0.09825
G1 X159.176 Y133.402 E0.09825
G1 X159.461 Y136.291 E0.09825
G1 X159.176 Y139.179 E0.09825
G1 X158.334 Y141.957 E0.09825
G1 X156.965 Y144.517 E0.09825
G1 X155.124 Y146.760 E0.09825
G1 X152.880 Y148.602 E0.09825
G1 X150.321 Y149.970 E0.09825
G1 X147.543 Y150.812 E0.09825
G1 X144.714 Y151.091 E0.09622
G1 X144.455 Y150.750 F10800.000
;WIPE_START
G1 F8640.000
G1 X142.803 Y150.910 E-0.76000
;WIPE_END
G1 E-0.04000 F3600.000
G1 Z0.800 F10800.000
G1 X143.698 Y150.062
G1 Z0.200
G1 E0.80000 F3600.000
;TYPE:Solid infill
;WIDTH:0.451323
G1 F1200.000
G1 X133.196 Y139.560 E0.50433
G1 X134.000 Y139.787 E0.02837
G1 X144.134 Y149.921 E0.48668
G1 X144.655 Y149.972 E0.01776
G1 X144.753 Y149.962 E0.00336
G1 X134.804 Y140.013 E0.47780
G1 X135.608 Y140.240 E0.02837
G1 X145.279 Y149.911 E0.46443
G1 X145.805 Y149.859 E0.01794
G1 X136.413 Y140.466 E0.45106
G1 X137.217 Y140.693 E0.02837
G1 X146.331 Y149.807 E0.43770
G1 X146.856 Y149.755 E0.01794
G1 X138.021 Y140.920 E0.42433
G1 X138.825 Y141.146 E0.02837
G1 X147.373 Y149.694 E0.41052
G1 X147.816 Y149.560 E0.01573
G1 X139.629 Y141.373 E0.39319
G1 X140.433 Y141.599 E0.02837
G1 X148.259 Y149.425 E0.37585
G1 X148.702 Y149.291 E0.01573
G1 X141.237 Y141.826 E0.35852
G1 X142.041 Y142.052 E0.02837
G1 X149.146 Y149.156 E0.34118
G1 X149.589 Y149.022 E0.01573
G1 X142.845 Y142.279 E0.32385
G1 X143.649 Y142.505 E0.02837
G1 X150.010 Y148.866 E0.30549
G1 X150.387 Y148.665 E0.01449
G1 X144.454 Y142.732 E0.28495
G1 X145.258 Y142.958 E0.02837
G1 X150.763 Y148.464 E0.26441
G1 X151.140 Y148.263 E0.01449
G1 X146.062 Y143.185 E0.24386
G1 X146.866 Y143.411 E0.02837
G1 X151.516 Y148.062 E0.22332
G1 X151.892 Y147.860 E0.01449
G1 X147.670 Y143.638 E0.20278
G1 X148.474 Y143.865 E0.02837
G1 X152.267 Y147.657 E0.18214
G1 X152.584 Y147.397 E0.01394
G1 X148.644 Y143.457 E0.18922
G1 X148.623 Y142.859 E0.02032
G1 X152.901 Y147.136 E0.20544
G1 X153.218 Y146.876 E0.01394
G1 X148.603 Y142.261 E0.22165
G1 X148.583 Y141.663 E0.02032
G1 X153.666 Y146.746 E0.24412
;WIPE_START
G1 F8640.000
G1 X152.308 Y145.388 E-0.76000
;WIPE_END
G1 E-0.04000 F3600.000
G1 Z0.800 F10800.000
G1 X154.589 Y145.936
G1 Z0.200
G1 E0.80000 F3600.000
G1 F1200.000
G1 X154.059 Y145.406 E0.02546
G1 X153.287 Y145.212 E0.02703
G1 X154.170 Y146.095 E0.04241
G1 X153.853 Y146.355 E0.01394
G1 X152.263 Y144.765 E0.07636
G1 X151.602 Y144.105 F10800.000
G1 F1200.000
G1 X148.562 Y141.065 E0.14599
G1 X148.542 Y140.467 E0.02032
G1 X151.392 Y143.317 E0.13691
G1 X151.373 Y142.720 E0.02030
G1 X148.521 Y139.869 E0.13694
G1 X148.501 Y139.271 E0.02032
G1 X151.353 Y142.123 E0.13696
G1 X151.333 Y141.525 E0.02030
G1 X148.480 Y138.673 E0.13699
G1 X148.460 Y138.075 E0.02032
G1 X151.313 Y140.928 E0.13702
G1 X151.293 Y140.330 E0.02030
G1 X148.439 Y137.476 E0.13704
G1 X148.419 Y136.878 E0.02032
G1 X151.273 Y139.733 E0.13707
G1 X151.253 Y139.135 E0.02030
G1 X146.052 Y133.934 E0.24978
G1 X146.780 Y134.085 E0.02525
G1 X151.233 Y138.538 E0.21385
G1 X151.213 Y137.940 E0.02030
G1 X147.508 Y134.235 E0.17793
G1 X148.242 Y134.391 E0.02548
G1 X151.193 Y137.343 E0.14174
G1 X151.158 Y137.048 E0.01009
G1 X151.040 Y136.612 E0.01533
G1 X148.983 Y134.555 E0.09880
