; generated by PrusaSlicer 2.3.1+win64 on 2021-08-12 at 19:26:21 UTC

; 

; external perimeters extrusion width = 0.45mm
; perimeters extrusion width = 0.45mm
; infill extrusion width = 0.45mm
; solid infill extrusion width = 0.45mm
; top infill extrusion width = 0.40mm

; external perimeters extrusion width = 0.45mm
; perimeters extrusion width = 0.45mm
; infill extrusion width = 0.45mm
; solid infill extrusion width = 0.45mm
; top infill extrusion width = 0.40mm

M73 P0 R131
M201 X9000 Y9000 Z500 E10000 ; sets maximum accelerations, mm/sec^2
M203 X500 Y500 Z12 E120 ; sets maximum feedrates, mm/sec
M204 P2000 R1500 T2000 ; sets acceleration (P, T) and retract acceleration (R), mm/sec^2
M205 X10.00 Y10.00 Z0.20 E4.50 ; sets the jerk limits, mm/sec
M205 S0 T0 ; sets the minimum extruding and travel feed rate, mm/sec
M107
;TYPE:Custom
M862.3 P "MK2.5SMMU2S" ; printer model check
M862.1 P0.4 ; nozzle diameter check
M115 U3.9.3 ; tell printer latest fw version
G90 ; use absolute coordinates
M83 ; extruder relative mode
M104 S215 ; set extruder temp
M140 S60 ; set bed temp
M190 S60 ; wait for bed temp
M109 S215 ; wait for extruder temp
G28 W ; home all without mesh bed level
G80 ; mesh bed leveling

; Send the filament type to the MMU2.0 unit.
; E stands for extruder number, F stands for filament type (0: default; 1:flex; 2: PVA)
M403 E0 F0
M403 E1 F0
M403 E2 F0
M403 E3 F0
M403 E4 F0


;go outside print area
G1 Y-3.0 F1000.0
G1 Z0.4 F1000.0
; select extruder
T0
; initial load
G1 X55.0 E29.0 F1073.0
G1 X5.0 E29.0 F1800.0
G1 X55.0 E8.0 F2000.0
G1 Z0.3 F1000.0
G92 E0.0
G1 X240.0 E25.0 F2200.0
G1 Y-2.0 F1000.0
G1 X55.0 E25 F1400.0
G1 Z0.20 F1000.0
G1 X5.0 E4.0 F1000.0
G92 E0.0

G92 E0.0
G21 ; set units to millimeters
G90 ; use absolute coordinates
M83 ; use relative distances for extrusion
T0
M900 K0.05 ; Filament gcode LA 1.5
M900 K30 ; Filament gcode LA 1.0
G1 Z0.200 F10800.000
;LAYER_CHANGE
;Z:0.2
;HEIGHT:0.2
;BEFORE_LAYER_CHANGE
G92 E0.0
;0.2


G1 E-0.80000 F3600.000
G1 Z0.800 F10800.000
G1 Z0.200
;AFTER_LAYER_CHANGE
;0.2
G1 E-2.20000 F3600.000
G1 Z0.800 F10800.000
G1 X133.155 Y98.653
G1 Z0.200
G1 E3.00000 F3600.000
;HEIGHT:0.200000
;TYPE:Wipe tower
;WIDTH:0.500000
;-------------------------------------
; CP WIPE TOWER FIRST LAYER BRIM START
G1  X133.155 Y112.713  E0.8016 F2400
G1  X130.612 Y113.170   F7000
G1  Y98.196  E0.6260 F2100
G1  X69.698  E2.5466
G1  Y113.170  E0.6260
G1  X130.612  E2.5466
G1  X131.069 Y113.627   F7000
G1  Y97.739  E0.6642 F2100
G1  X69.241  E2.5849
G1  Y113.627  E0.6642
G1  X131.069  E2.5849
G1  X131.526 Y114.084   F7000
G1  Y97.282  E0.7025 F2100
G1  X68.784  E2.6231
M73 P0 R130
G1  Y114.084  E0.7025
G1  X131.526  E2.6231
G1  X131.983 Y114.541   F7000
G1  Y96.825  E0.7407 F2100
G1  X68.327  E2.6613
G1  Y114.541  E0.7407
G1  X131.983  E2.6613
; CP WIPE TOWER FIRST LAYER BRIM END
;-----------------------------------

;WIPE_START
G1 F8640.000
G1 X131.526 Y114.084 E-0.25587
G1 X130.252 Y114.084 E-0.50413
;WIPE_END
G1 E-0.04000 F3600.000
G1 Z0.800 F10800.000
G1 X60.688 Y85.388
G1 Z0.200
G1 E0.80000 F3600.000
M204 S1000
;TYPE:External perimeter
;WIDTH:0.45
;HEIGHT:0.2
G1 F1200.000
G1 X60.713 Y84.889 E0.01692
G1 X60.854 Y84.337 E0.01928
G1 X60.090 Y84.541 E0.02678
G1 X59.338 Y84.600 E0.02551
G1 X58.548 Y84.536 E0.02684
G1 X57.742 Y84.347 E0.02802
G1 X56.945 Y84.029 E0.02904
G1 X56.182 Y83.579 E0.02999
G1 X55.480 Y82.991 E0.03101
G1 X54.865 Y82.262 E0.03228
G1 X54.364 Y81.391 E0.03403
G1 X54.004 Y80.375 E0.03648
G1 X53.812 Y79.214 E0.03983
G1 X53.811 Y77.906 E0.04426
G1 X53.972 Y76.850 E0.03617
G1 X54.317 Y75.001 E0.06366
G1 X55.821 Y67.495 E0.25911
G1 X56.109 Y66.556 E0.03324
G1 X56.559 Y65.730 E0.03186
G1 X57.136 Y65.022 E0.03090
G1 X57.806 Y64.426 E0.03037
G1 X58.539 Y63.932 E0.02992
G1 X59.304 Y63.530 E0.02925
G1 X60.094 Y63.203 E0.02892
G1 X60.837 Y62.960 E0.02647
G1 X61.526 Y62.783 E0.02408
G1 X62.132 Y62.664 E0.02093
G1 X62.629 Y62.595 E0.01698
G1 X62.986 Y62.570 E0.01210
G1 X70.258 Y62.417 E0.24622
G1 X69.319 Y66.148 E0.13023
G1 X64.992 Y66.309 E0.14657
G1 X62.841 Y66.364 E0.07284
G1 X62.577 Y66.382 E0.00895
G1 X62.269 Y66.434 E0.01057
G1 X61.529 Y66.633 E0.02594
G1 X61.142 Y66.771 E0.01389
G1 X60.391 Y67.108 E0.02786
G1 X60.048 Y67.302 E0.01335
G1 X59.746 Y67.508 E0.01238
G1 X59.502 Y67.717 E0.01088
G1 X59.330 Y67.920 E0.00899
G1 X59.231 Y68.116 E0.00745
G1 X58.668 Y70.563 E0.08498
G1 X57.815 Y74.690 E0.14264
G1 X57.318 Y77.268 E0.08887
G1 X57.228 Y77.795 E0.01810
G1 X57.202 Y78.194 E0.01354
G1 X57.245 Y78.585 E0.01332
G1 X57.350 Y78.973 E0.01359
G1 X57.510 Y79.350 E0.01388
G1 X57.717 Y79.710 E0.01406
G1 X57.963 Y80.046 E0.01407
G1 X58.238 Y80.349 E0.01387
G1 X58.533 Y80.615 E0.01342
G1 X58.837 Y80.834 E0.01271
G1 X59.141 Y81.002 E0.01175
G1 X59.432 Y81.112 E0.01054
G1 X59.710 Y81.164 E0.00955
G1 X59.942 Y81.177 E0.00789
G1 X60.455 Y81.166 E0.01737
G1 X60.965 Y81.082 E0.01748
G1 X61.196 Y81.010 E0.00819
G1 X61.397 Y80.919 E0.00746
G1 X61.589 Y80.797 E0.00771
G1 X61.929 Y80.443 E0.01660
G1 X62.163 Y79.920 E0.01941
G1 X63.725 Y74.180 E0.20135
G1 X61.458 Y74.178 E0.07671
G1 X62.469 Y71.409 E0.09975
G1 X67.869 Y71.215 E0.18292
G1 X63.996 Y84.966 E0.48355
G1 X60.747 Y85.381 E0.11085
G1 X60.310 Y85.519 F10800.000
;WIPE_START
G1 F8640.000
G1 X60.713 Y84.889 E-0.19501
G1 X60.854 Y84.337 E-0.22542
G1 X60.090 Y84.541 E-0.31315
G1 X60.023 Y84.547 E-0.02643
;WIPE_END
G1 E-0.04000 F3600.000
G1 Z0.800 F10800.000
G1 X62.242 Y88.009
G1 Z0.200
G1 E0.80000 F3600.000
;TYPE:Perimeter
G1 F1200.000
G1 X59.516 Y87.740 E0.09275
G1 X56.894 Y86.945 E0.09275
G1 X54.477 Y85.653 E0.09275
G1 X52.359 Y83.915 E0.09275
G1 X50.621 Y81.797 E0.09275
G1 X49.329 Y79.381 E0.09275
G1 X48.534 Y76.759 E0.09275
G1 X48.265 Y74.032 E0.09275
G1 X48.534 Y71.305 E0.09275
G1 X49.329 Y68.683 E0.09275
G1 X50.621 Y66.267 E0.09275
G1 X52.359 Y64.148 E0.09275
G1 X54.477 Y62.410 E0.09275
G1 X56.894 Y61.119 E0.09275
G1 X59.516 Y60.323 E0.09275
G1 X62.242 Y60.055 E0.09275
G1 X64.969 Y60.323 E0.09275
G1 X67.591 Y61.119 E0.09275
G1 X68.563 Y61.638 E0.03730
G1 X62.948 Y61.756 E0.19012
G1 X62.544 Y61.785 E0.01370
G1 X61.998 Y61.861 E0.01864
G1 X61.346 Y61.988 E0.02250
G1 X60.608 Y62.178 E0.02578
G1 X59.811 Y62.439 E0.02842
G1 X58.958 Y62.792 E0.03122
G1 X58.121 Y63.232 E0.03201
G1 X57.306 Y63.782 E0.03328
G1 X56.546 Y64.457 E0.03442
G1 X55.880 Y65.274 E0.03566
G1 X55.354 Y66.239 E0.03720
G1 X55.031 Y67.295 E0.03740
G1 X53.518 Y74.846 E0.26067
G1 X53.169 Y76.714 E0.06430
G1 X52.996 Y77.844 E0.03872
G1 X52.998 Y79.281 E0.04863
G1 X53.213 Y80.578 E0.04452
G1 X53.621 Y81.732 E0.04141
G1 X54.195 Y82.731 E0.03902
G1 X54.903 Y83.570 E0.03715
G1 X55.711 Y84.246 E0.03564
G1 X56.585 Y84.762 E0.03437
G1 X57.497 Y85.126 E0.03323
G1 X58.422 Y85.343 E0.03214
G1 X59.337 Y85.417 E0.03109
G1 X59.873 Y85.375 E0.01820
G1 X59.825 Y86.319 E0.03200
G1 X64.633 Y85.705 E0.16408
G1 X68.956 Y70.362 E0.53957
G1 X61.892 Y70.615 E0.23925
G1 X60.295 Y74.991 E0.15766
G1 X62.660 Y74.993 E0.08005
G1 X61.394 Y79.645 E0.16318
G1 X61.244 Y79.982 E0.01248
G1 X61.071 Y80.162 E0.00845
G1 X60.905 Y80.248 E0.00632
G1 X60.776 Y80.288 E0.00458
G1 X60.380 Y80.353 E0.01357
G1 X59.956 Y80.363 E0.01435
G1 X59.653 Y80.325 E0.01033
G1 X59.484 Y80.261 E0.00612
G1 X59.274 Y80.145 E0.00813
G1 X59.044 Y79.980 E0.00957
G1 X58.813 Y79.772 E0.01052
G1 X58.595 Y79.531 E0.01102
G1 X58.401 Y79.265 E0.01113
G1 X58.241 Y78.987 E0.01088
G1 X58.121 Y78.706 E0.01033
G1 X58.047 Y78.433 E0.00958
G1 X58.019 Y78.175 E0.00876
G1 X58.037 Y77.890 E0.00967
G1 X58.119 Y77.414 E0.01637
G1 X58.614 Y74.849 E0.08840
G1 X59.464 Y70.735 E0.14222
G1 X59.995 Y68.409 E0.08074
G1 X60.081 Y68.294 E0.00488
G1 X60.242 Y68.156 E0.00717
G1 X60.479 Y67.994 E0.00971
G1 X60.759 Y67.835 E0.01092
G1 X61.446 Y67.527 E0.02547
G1 X61.772 Y67.411 E0.01171
G1 X62.442 Y67.230 E0.02349
G1 X62.672 Y67.192 E0.00787
G1 X65.018 Y67.123 E0.07945
G1 X69.960 Y66.939 E0.16740
G1 X70.912 Y63.153 E0.13215
G1 X72.126 Y64.148 E0.05313
G1 X73.864 Y66.267 E0.09275
G1 X75.156 Y68.683 E0.09275
G1 X75.505 Y69.833 E0.04067
G1 X75.505 Y78.231 E0.28426
G1 X75.156 Y79.381 E0.04067
G1 X73.864 Y81.797 E0.09275
G1 X72.126 Y83.915 E0.09275
G1 X70.008 Y85.653 E0.09275
G1 X67.591 Y86.945 E0.09275
G1 X64.969 Y87.740 E0.09275
G1 X62.302 Y88.003 E0.09071
G1 X62.242 Y88.418 F10800.000
G1 F1200.000
G1 X59.436 Y88.142 E0.09546
G1 X56.737 Y87.323 E0.09546
G1 X54.250 Y85.994 E0.09546
G1 X52.070 Y84.204 E0.09546
G1 X50.281 Y82.024 E0.09546
G1 X48.951 Y79.537 E0.09546
G1 X48.133 Y76.838 E0.09546
G1 X47.856 Y74.032 E0.09546
G1 X48.133 Y71.225 E0.09546
G1 X48.951 Y68.526 E0.09546
G1 X50.281 Y66.039 E0.09546
G1 X52.070 Y63.859 E0.09546
G1 X54.250 Y62.070 E0.09546
G1 X56.737 Y60.741 E0.09546
G1 X59.436 Y59.922 E0.09546
G1 X62.242 Y59.646 E0.09546
G1 X65.049 Y59.922 E0.09546
G1 X67.748 Y60.741 E0.09546
G1 X70.127 Y62.013 E0.09133
G1 X62.967 Y62.163 E0.24243
G1 X62.587 Y62.190 E0.01290
G1 X62.065 Y62.262 E0.01781
G1 X61.436 Y62.386 E0.02171
G1 X60.723 Y62.569 E0.02493
G1 X59.952 Y62.821 E0.02745
G1 X59.131 Y63.161 E0.03007
G1 X58.330 Y63.582 E0.03063
G1 X57.556 Y64.104 E0.03160
G1 X56.841 Y64.740 E0.03240
G1 X56.220 Y65.502 E0.03328
G1 X55.732 Y66.398 E0.03453
G1 X55.426 Y67.395 E0.03532
G1 X53.917 Y74.924 E0.25989
G1 X53.571 Y76.782 E0.06398
G1 X53.404 Y77.875 E0.03744
G1 X53.405 Y79.247 E0.04645
G1 X53.609 Y80.477 E0.04218
G1 X53.992 Y81.561 E0.03895
G1 X54.530 Y82.497 E0.03652
G1 X55.192 Y83.280 E0.03471
G1 X55.947 Y83.912 E0.03333
G1 X56.765 Y84.396 E0.03218
G1 X57.620 Y84.737 E0.03114
G1 X58.485 Y84.940 E0.03008
G1 X59.338 Y85.008 E0.02897
G1 X60.158 Y84.944 E0.02787
G1 X60.305 Y84.905 E0.00513
G1 X60.256 Y85.854 E0.03215
G1 X64.314 Y85.335 E0.13848
G1 X68.412 Y70.789 E0.51156
G1 X62.180 Y71.012 E0.21109
G1 X60.877 Y74.584 E0.12870
G1 X63.192 Y74.587 E0.07838
G1 X61.779 Y79.783 E0.18227
G1 X61.586 Y80.213 E0.01595
G1 X61.330 Y80.479 E0.01253
G1 X61.050 Y80.629 E0.01073
G1 X60.870 Y80.685 E0.00639
G1 X60.418 Y80.760 E0.01553
G1 X59.949 Y80.770 E0.01586
G1 X59.759 Y80.759 E0.00646
G1 X59.543 Y80.719 E0.00743
G1 X59.313 Y80.632 E0.00833
G1 X59.056 Y80.490 E0.00994
G1 X58.789 Y80.297 E0.01114
G1 X58.526 Y80.061 E0.01197
G1 X58.279 Y79.788 E0.01244
G1 X58.059 Y79.488 E0.01260
G1 X57.875 Y79.168 E0.01247
G1 X57.736 Y78.839 E0.01210
G1 X57.646 Y78.509 E0.01158
G1 X57.610 Y78.185 E0.01104
G1 X57.633 Y77.843 E0.01161
G1 X57.719 Y77.341 E0.01723
G1 X58.214 Y74.770 E0.08864
G1 X59.066 Y70.649 E0.14243
G1 X59.547 Y68.507 E0.07430
G1 X59.613 Y68.263 E0.00857
G1 X59.672 Y68.147 E0.00441
G1 X59.791 Y68.005 E0.00627
G1 X59.994 Y67.832 E0.00902
G1 X60.263 Y67.648 E0.01104
G1 X60.575 Y67.472 E0.01213
G1 X61.294 Y67.149 E0.02667
G1 X61.650 Y67.022 E0.01280
G1 X62.355 Y66.832 E0.02472
G1 X62.624 Y66.787 E0.00922
G1 X69.639 Y66.543 E0.23760
G1 X70.674 Y62.431 E0.14355
G1 X72.415 Y63.859 E0.07622
G1 X74.204 Y66.039 E0.09546
G1 X75.534 Y68.526 E0.09546
G1 X75.912 Y69.773 E0.04407
G1 X75.912 Y78.291 E0.28835
G1 X75.534 Y79.537 E0.04407
G1 X74.204 Y82.024 E0.09546
G1 X72.415 Y84.204 E0.09546
G1 X70.235 Y85.994 E0.09546
G1 X67.748 Y87.323 E0.09546
G1 X65.049 Y88.142 E0.09546
G1 X62.302 Y88.412 E0.09343
G1 X62.242 Y88.827 F10800.000
;TYPE:External perimeter
G1 F1200.000
G1 X59.356 Y88.543 E0.09817
G1 X56.581 Y87.701 E0.09817
G1 X54.023 Y86.334 E0.09817
G1 X51.781 Y84.494 E0.09817
G1 X49.941 Y82.252 E0.09817
G1 X48.573 Y79.694 E0.09817
G1 X47.731 Y76.918 E0.09817
G1 X47.447 Y74.032 E0.09817
G1 X47.731 Y71.145 E0.09817
G1 X48.573 Y68.370 E0.09817
G1 X49.941 Y65.812 E0.09817
G1 X51.781 Y63.570 E0.09817
G1 X54.023 Y61.730 E0.09817
G1 X56.581 Y60.363 E0.09817
G1 X59.356 Y59.521 E0.09817
G1 X62.242 Y59.237 E0.09817
G1 X65.129 Y59.521 E0.09817
G1 X67.904 Y60.363 E0.09817
G1 X70.462 Y61.730 E0.09817
G1 X72.704 Y63.570 E0.09817
G1 X74.544 Y65.812 E0.09817
G1 X75.912 Y68.370 E0.09817
G1 X76.319 Y69.712 E0.04748
G1 X76.319 Y78.352 E0.29244
G1 X75.912 Y79.694 E0.04748
G1 X74.544 Y82.252 E0.09817
G1 X72.704 Y84.494 E0.09817
G1 X70.462 Y86.334 E0.09817
G1 X67.904 Y87.701 E0.09817
G1 X65.129 Y88.543 E0.09817
G1 X62.302 Y88.821 E0.09614
G1 X62.042 Y88.481 F10800.000
;WIPE_START
G1 F8640.000
G1 X60.391 Y88.641 E-0.76000
;WIPE_END
G1 E-0.04000 F3600.000
G1 Z0.800 F10800.000
G1 X61.286 Y87.792
G1 Z0.200
G1 E0.80000 F3600.000
;TYPE:Solid infill
;WIDTH:0.451006
G1 F1200.000
G1 X60.087 Y86.593 E0.05753
G1 X60.599 Y86.528 E0.01751
G1 X61.722 Y87.651 E0.05389
G1 X62.242 Y87.702 E0.01774
G1 X62.341 Y87.693 E0.00335
G1 X61.111 Y86.463 E0.05902
G1 X61.623 Y86.397 E0.01751
G1 X62.866 Y87.641 E0.05967
G1 X63.392 Y87.589 E0.01791
G1 X62.134 Y86.332 E0.06033
G1 X62.646 Y86.267 E0.01751
G1 X63.917 Y87.537 E0.06098
G1 X64.442 Y87.486 E0.01791
G1 X63.158 Y86.201 E0.06163
G1 X63.670 Y86.136 E0.01751
G1 X64.959 Y87.425 E0.06185
G1 X65.401 Y87.290 E0.01570
G1 X64.182 Y86.071 E0.05854
G1 X64.693 Y86.005 E0.01751
G1 X65.844 Y87.156 E0.05523
G1 X66.287 Y87.022 E0.01570
G1 X64.955 Y85.689 E0.06393
G1 X65.082 Y85.239 E0.01587
G1 X66.730 Y86.887 E0.07909
G1 X67.173 Y86.753 E0.01570
G1 X65.208 Y84.789 E0.09426
G1 X65.335 Y84.339 E0.01587
G1 X67.594 Y86.597 E0.10840
G1 X67.970 Y86.396 E0.01447
G1 X65.462 Y83.888 E0.12036
G1 X65.589 Y83.438 E0.01587
G1 X68.346 Y86.195 E0.13232
G1 X68.722 Y85.994 E0.01447
G1 X65.716 Y82.988 E0.14428
G1 X65.843 Y82.538 E0.01587
G1 X69.098 Y85.793 E0.15624
G1 X69.474 Y85.592 E0.01447
G1 X65.969 Y82.087 E0.16820
G1 X66.096 Y81.637 E0.01587
G1 X69.849 Y85.389 E0.18006
G1 X70.165 Y85.129 E0.01391
G1 X66.223 Y81.187 E0.18918
G1 X66.350 Y80.737 E0.01587
G1 X70.482 Y84.869 E0.19831
G1 X70.799 Y84.609 E0.01391
G1 X66.477 Y80.286 E0.20743
G1 X66.604 Y79.836 E0.01587
G1 X71.116 Y84.349 E0.21655
G1 X71.433 Y84.089 E0.01391
G1 X66.731 Y79.386 E0.22568
M73 P1 R130
G1 X66.857 Y78.935 E0.01587
G1 X71.750 Y83.828 E0.23480
G1 X71.909 Y83.698 E0.00696
G1 X72.039 Y83.540 E0.00696
G1 X66.984 Y78.485 E0.24256
G1 X67.111 Y78.035 E0.01587
G1 X72.299 Y83.223 E0.24896
G1 X72.559 Y82.906 E0.01391
G1 X67.238 Y77.585 E0.25536
G1 X67.365 Y77.134 E0.01587
G1 X72.819 Y82.589 E0.26175
G1 X73.080 Y82.272 E0.01391
G1 X67.492 Y76.684 E0.26815
G1 X67.619 Y76.234 E0.01587
G1 X73.340 Y81.955 E0.27454
G1 X73.600 Y81.638 E0.01391
G1 X67.745 Y75.784 E0.28094
G1 X67.872 Y75.333 E0.01587
G1 X73.803 Y81.264 E0.28460
G1 X74.004 Y80.888 E0.01447
G1 X67.999 Y74.883 E0.28816
G1 X68.126 Y74.433 E0.01587
G1 X74.205 Y80.512 E0.29172
G1 X74.406 Y80.136 E0.01447
G1 X68.253 Y73.982 E0.29528
G1 X68.380 Y73.532 E0.01587
G1 X74.607 Y79.760 E0.29884
G1 X74.808 Y79.383 E0.01447
G1 X68.507 Y73.082 E0.30240
G1 X68.633 Y72.632 E0.01587
G1 X74.964 Y78.962 E0.30378
G1 X75.098 Y78.519 E0.01570
G1 X68.760 Y72.181 E0.30414
G1 X68.887 Y71.731 E0.01587
G1 X75.199 Y78.043 E0.30291
G1 X75.199 Y77.466 E0.01958
G1 X69.014 Y71.281 E0.29682
G1 X69.141 Y70.831 E0.01587
G1 X75.382 Y77.072 E0.29952
;WIPE_START
G1 F8640.000
G1 X74.025 Y75.715 E-0.76000
;WIPE_END
G1 E-0.04000 F3600.000
G1 Z0.800 F10800.000
G1 X60.080 Y80.238
G1 Z0.200
G1 E0.80000 F3600.000
G1 F1200.000
G1 X58.397 Y78.554 E0.08078
G1 X58.348 Y78.376 E0.00629
G1 X58.325 Y78.168 E0.00707
G1 X58.342 Y77.922 E0.00837
G1 X60.452 Y80.032 E0.10125
G1 X60.705 Y79.991 E0.00870
G1 X60.898 Y79.901 E0.00722
G1 X58.427 Y77.431 E0.11856
G1 X58.520 Y76.947 E0.01672
G1 X61.108 Y79.534 E0.12418
G1 X61.232 Y79.081 E0.01595
G1 X58.614 Y76.463 E0.12563
G1 X58.707 Y75.979 E0.01672
G1 X61.355 Y78.627 E0.12708
G1 X61.478 Y78.173 E0.01595
G1 X58.800 Y75.495 E0.12853
G1 X58.893 Y75.011 E0.01672
G1 X61.751 Y77.869 E0.13714
;WIPE_START
G1 F8640.000
G1 X60.393 Y76.511 E-0.76000
;WIPE_END
G1 E-0.04000 F3600.000
G1 Z0.800 F10800.000
G1 X62.368 Y75.600
G1 Z0.200
G1 E0.80000 F3600.000
G1 F1200.000
G1 X62.066 Y75.298 E0.01451
G1 X61.488 Y75.297 E0.01960
G1 X62.095 Y75.905 E0.02915
G1 X61.972 Y76.358 E0.01595
G1 X60.910 Y75.297 E0.05095
G1 X60.332 Y75.296 E0.01960
G1 X61.849 Y76.812 E0.07276
G1 X61.725 Y77.266 E0.01595
G1 X58.991 Y74.532 E0.13121
G1 X59.090 Y74.053 E0.01657
G1 X59.985 Y74.949 E0.04297
G1 X60.139 Y74.526 E0.01527
