; generated by PrusaSlicer 2.2.0+win64 on 2020-09-08 at 22:28:17 UTC

; 

; external perimeters extrusion width = 0.45mm
; perimeters extrusion width = 0.45mm
; infill extrusion width = 0.45mm
; solid infill extrusion width = 0.45mm
; top infill extrusion width = 0.40mm
; support material extrusion width = 0.35mm
; first layer extrusion width = 0.42mm

M73 P0 R105
M201 X9000 Y9000 Z500 E10000 ; sets maximum accelerations, mm/sec^2
M203 X500 Y500 Z12 E120 ; sets maximum feedrates, mm/sec
M204 P2000 R1500 T2000 ; sets acceleration (P, T) and retract acceleration (R), mm/sec^2
M205 X10.00 Y10.00 Z0.20 E2.50 ; sets the jerk limits, mm/sec
M205 S0 T0 ; sets the minimum extruding and travel feed rate, mm/sec
M107
M862.3 P "MK2.5SMMU2S" ; printer model check
M862.1 P0.4 ; nozzle diameter check
M115 U3.8.0 ; tell printer latest fw version
G90 ; use absolute coordinates
M83 ; extruder relative mode
M104 S215 ; set extruder temp
M140 S60 ; set bed temp
Tx
M190 S60 ; wait for bed temp
M109 S215 ; wait for extruder temp
G28 W ; home all without mesh bed level
G80 ; mesh bed leveling

G21 ; set units to millimeters

;go outside print area
G1 Y-3.0 F1000.0
G1 Z0.4 F1000.0
; select extruder
Tc
; purge line
G1 X55.0 F2000.0
G1 Z0.3 F1000.0
G92 E0.0
G1 X240.0 E25.0 F2200.0
M73 P0 R105
G1 Y-2.0 F1000.0
G1 X55.0 E25 F1400.0
G1 Z0.20 F1000.0
G1 X5.0 E4.0 F1000.0
G92 E0.0
G21 ; set units to millimeters
G90 ; use absolute coordinates
M83 ; use relative distances for extrusion
M900 K0.06 ; Filament gcode LA 1.5
M900 K30 ; Filament gcode LA 1.0
;BEFORE_LAYER_CHANGE
G92 E0.0
;0.2


G1 E-0.80000 F2100.00000
G1 Z0.600 F10800.000
;AFTER_LAYER_CHANGE
;0.2
G1 X107.666 Y73.259
G1 Z0.200
G1 E0.80000 F2100.00000
M204 S1000
G1 F1200.000
G1 X108.061 Y72.720 E0.02095
G1 X115.690 Y65.090 E0.33830
G1 X116.077 Y64.789 E0.01538
G1 X116.521 Y64.571 E0.01550
G1 X117.311 Y64.426 E0.02520
G1 X133.376 Y64.389 E0.50371
G1 X134.264 Y64.561 E0.02837
G1 X135.024 Y65.054 E0.02837
G1 X142.054 Y72.086 E0.31177
G1 X142.447 Y72.663 E0.02190
G1 X142.655 Y73.326 E0.02178
G1 X142.991 Y77.266 E0.12399
G1 X142.991 Y119.699 E1.33045
G1 X142.692 Y123.194 E0.11001
G1 X142.492 Y123.764 E0.01894
G1 X135.690 Y137.146 E0.47066
G1 X135.256 Y137.866 E0.02636
G1 X134.721 Y138.425 E0.02426
G1 X133.659 Y139.056 E0.03872
G1 X117.367 Y145.574 E0.55019
G1 X116.698 Y145.727 E0.02154
G1 X116.012 Y145.681 E0.02154
G1 X115.378 Y145.448 E0.02119
G1 X114.838 Y145.048 E0.02107
G1 X109.550 Y139.516 E0.23995
G1 X109.121 Y138.863 E0.02449
G1 X105.398 Y121.597 E0.55383
G1 X107.014 Y77.165 E1.39404
G1 X107.438 Y73.883 E0.10376
G1 X107.645 Y73.315 E0.01895
G1 E-0.80000 F2100.00000
G1 Z0.800 F10800.000
G1 X117.338 Y66.803
G1 Z0.200
G1 E0.80000 F2100.00000
G1 F1200.000
G1 X109.763 Y74.379 E0.33592
G1 X110.296 Y74.912 E0.02365
G1 X117.752 Y67.457 E0.33060
G1 X118.285 Y67.990 E0.02365
G1 X110.829 Y75.446 E0.33060
G1 X111.021 Y75.637 E0.00849
G1 X109.389 Y77.268 E0.07234
G1 X109.731 Y77.610 E0.01516
G1 X118.818 Y68.523 E0.40294
G1 X119.352 Y69.056 E0.02365
G1 X110.264 Y78.143 E0.40294
G1 X110.798 Y78.677 E0.02365
G1 X119.885 Y69.590 E0.40294
G1 X120.418 Y70.123 E0.02365
G1 X109.700 Y80.841 E0.47527
G1 X110.233 Y81.375 E0.02365
G1 X120.951 Y70.656 E0.47527
G1 X121.485 Y71.189 E0.02365
G1 X110.766 Y81.908 E0.47527
G1 X111.021 Y82.162 E0.01128
G1 X109.389 Y83.794 E0.07234
G1 X109.668 Y84.073 E0.01236
G1 X122.018 Y71.723 E0.54761
G1 X122.551 Y72.256 E0.02365
G1 X110.201 Y84.606 E0.54761
G1 X110.735 Y85.139 E0.02365
G1 X123.084 Y72.789 E0.54761
G1 X123.618 Y73.323 E0.02365
G1 X109.637 Y87.304 E0.61995
G1 X110.170 Y87.837 E0.02365
G1 X124.151 Y73.856 E0.61995
G1 X124.684 Y74.389 E0.02365
G1 X110.703 Y88.370 E0.61995
G1 X111.021 Y88.688 E0.01408
G1 X109.389 Y90.319 E0.07234
G1 X109.605 Y90.535 E0.00957
G1 X133.374 Y66.766 E1.05397
G1 X133.908 Y67.299 E0.02365
G1 X110.138 Y91.068 E1.05397
G1 X110.672 Y91.601 E0.02365
G1 X124.653 Y77.620 E0.61995
G1 X125.002 Y77.969 E0.01548
G1 X125.703 Y77.268 E0.03108
G1 X125.354 Y76.919 E0.01548
G1 X134.441 Y67.832 E0.40294
G1 X134.974 Y68.365 E0.02365
G1 X109.573 Y93.766 E1.12631
G1 X110.107 Y94.299 E0.02365
G1 X135.507 Y68.899 E1.12631
G1 X136.041 Y69.432 E0.02365
G1 X125.322 Y80.150 E0.47527
G1 X125.002 Y79.830 E0.01421
G1 X124.301 Y80.531 E0.03108
G1 X124.621 Y80.851 E0.01421
G1 X110.640 Y94.833 E0.61995
G1 X111.021 Y95.213 E0.01688
G1 X109.389 Y96.845 E0.07234
G1 X109.542 Y96.997 E0.00677
G1 X136.574 Y69.965 E1.19864
G1 X137.107 Y70.498 E0.02365
G1 X110.075 Y97.530 E1.19864
G1 X110.608 Y98.064 E0.02365
G1 X124.590 Y84.083 E0.61995
G1 X125.002 Y84.495 E0.01827
G1 X125.703 Y83.794 E0.03108
G1 X125.291 Y83.382 E0.01827
G1 X137.640 Y71.032 E0.54761
G1 X138.174 Y71.565 E0.02365
G1 X109.510 Y100.228 E1.27098
G1 X110.044 Y100.762 E0.02365
G1 X138.707 Y72.098 E1.27098
G1 X139.240 Y72.632 E0.02365
G1 X125.259 Y86.613 E0.61995
G1 X125.002 Y86.355 E0.01141
G1 X124.301 Y87.056 E0.03108
G1 X124.558 Y87.314 E0.01141
G1 X110.577 Y101.295 E0.61995
G1 X111.021 Y101.739 E0.01967
G1 X109.389 Y103.370 E0.07234
G1 X109.479 Y103.460 E0.00397
G1 X139.774 Y73.165 E1.34332
M73 P1 R104
G1 X140.307 Y73.698 E0.02365
G1 X110.012 Y103.993 E1.34332
G1 X110.545 Y104.526 E0.02365
G1 X124.527 Y90.545 E0.61995
G1 X125.002 Y91.020 E0.02107
G1 X125.703 Y90.319 E0.03108
G1 X125.228 Y89.844 E0.02107
G1 X139.209 Y75.863 E0.61995
G1 X139.742 Y76.396 E0.02365
G1 X109.447 Y106.691 E1.34332
G1 X109.981 Y107.224 E0.02365
G1 X140.275 Y76.929 E1.34332
G1 X140.614 Y77.268 E0.01503
G1 X138.983 Y78.900 E0.07234
G1 X139.177 Y79.094 E0.00861
G1 X125.196 Y93.075 E0.61995
G1 X125.002 Y92.881 E0.00861
G1 X124.301 Y93.582 E0.03108
G1 X124.495 Y93.776 E0.00861
G1 X110.514 Y107.757 E0.61995
G1 X111.021 Y108.264 E0.02247
G1 X109.389 Y109.895 E0.07234
G1 X109.416 Y109.922 E0.00118
G1 X139.710 Y79.627 E1.34332
G1 X140.244 Y80.160 E0.02365
G1 X109.949 Y110.455 E1.34332
G1 X110.482 Y110.988 E0.02365
G1 X124.463 Y97.007 E0.61995
G1 X124.301 Y96.845 E0.00722
G1 X125.002 Y96.143 E0.03108
G1 X125.164 Y96.306 E0.00722
G1 X139.146 Y82.325 E0.61995
G1 X139.679 Y82.858 E0.02365
G1 X109.389 Y113.158 E1.34332
G1 X109.917 Y113.686 E0.02342
G1 X140.212 Y83.392 E1.34332
G1 X140.614 Y83.794 E0.01783
G1 X138.983 Y85.425 E0.07234
G1 X139.114 Y85.556 E0.00582
G1 X125.133 Y99.537 E0.61995
G1 X125.002 Y99.406 E0.00582
G1 X124.301 Y100.107 E0.03108
G1 X124.432 Y100.238 E0.00582
G1 X110.451 Y114.220 E0.61995
G1 X110.984 Y114.753 E0.02365
G1 X139.647 Y86.090 E1.27098
G1 X140.181 Y86.623 E0.02365
G1 X109.886 Y116.917 E1.34332
G1 X110.419 Y117.451 E0.02365
G1 X139.083 Y88.787 E1.27098
G1 X139.616 Y89.321 E0.02365
G1 X110.953 Y117.984 E1.27098
G1 X111.021 Y118.052 E0.00302
G1 X107.758 Y121.315 E0.14467
G1 X108.223 Y121.780 E0.02063
G1 X140.149 Y89.854 E1.41565
G1 X140.614 Y90.319 E0.02063
G1 X138.983 Y91.950 E0.07234
G1 X139.051 Y92.019 E0.00302
G1 X108.756 Y122.313 E1.34332
G1 X109.290 Y122.846 E0.02365
G1 X139.584 Y92.552 E1.34332
G1 X140.118 Y93.085 E0.02365
G1 X109.823 Y123.380 E1.34332
G1 X110.356 Y123.913 E0.02365
G1 X139.019 Y95.250 E1.27098
G1 X139.553 Y95.783 E0.02365
G1 X125.572 Y109.764 E0.61995
G1 X125.703 Y109.895 E0.00582
G1 X125.002 Y110.596 E0.03108
G1 X124.871 Y110.465 E0.00582
G1 X110.889 Y124.446 E0.61995
G1 X111.423 Y124.980 E0.02365
G1 X140.086 Y96.316 E1.27098
G1 X140.614 Y96.845 E0.02342
G1 X111.956 Y125.513 E1.27098
G1 X112.489 Y126.046 E0.02365
G1 X139.521 Y99.014 E1.19864
G1 X140.054 Y99.547 E0.02365
G1 X113.023 Y126.579 E1.19864
G1 X113.556 Y127.113 E0.02365
G1 X140.588 Y100.081 E1.19864
G1 X140.614 Y100.107 E0.00118
G1 X138.983 Y101.739 E0.07234
G1 X139.490 Y102.245 E0.02247
G1 X117.157 Y124.578 E0.99026
G1 X118.224 Y124.578 E0.03344
G1 X140.023 Y102.779 E0.96661
G1 X140.556 Y103.312 E0.02365
G1 X119.290 Y124.578 E0.94297
M73 P2 R103
G1 X120.357 Y124.578 E0.03344
G1 X139.458 Y105.476 E0.84698
G1 X139.991 Y106.010 E0.02365
G1 X121.423 Y124.578 E0.82334
G1 X122.490 Y124.578 E0.03344
G1 X140.525 Y106.543 E0.79969
G1 X140.614 Y106.633 E0.00397
G1 X138.983 Y108.264 E0.07234
G1 X139.427 Y108.708 E0.01967
G1 X123.556 Y124.578 E0.70371
G1 X124.623 Y124.578 E0.03344
G1 X139.960 Y109.241 E0.68006
G1 X140.493 Y109.774 E0.02365
G1 X125.690 Y124.578 E0.65642
G1 X126.756 Y124.578 E0.03344
G1 X139.395 Y111.939 E0.56043
G1 X139.928 Y112.472 E0.02365
G1 X127.823 Y124.578 E0.53679
G1 X128.889 Y124.578 E0.03344
G1 X140.462 Y113.005 E0.51314
G1 X140.614 Y113.158 E0.00677
G1 X138.983 Y114.789 E0.07234
G1 X139.364 Y115.170 E0.01688
G1 X129.956 Y124.578 E0.41716
G1 X131.022 Y124.578 E0.03344
G1 X139.897 Y115.703 E0.39351
G1 X140.430 Y116.237 E0.02365
G1 X132.089 Y124.578 E0.36987
G1 X133.155 Y124.578 E0.03344
G1 X139.332 Y118.401 E0.27388
G1 X139.865 Y118.934 E0.02365
G1 X134.177 Y124.623 E0.25223
G1 X134.440 Y124.886 E0.01167
G1 X134.440 Y125.426 E0.01693
G1 X140.399 Y119.468 E0.26420
G1 X140.614 Y119.683 E0.00957
G1 X138.983 Y121.315 E0.07234
G1 X139.300 Y121.632 E0.01408
G1 X134.440 Y126.493 E0.21551
G1 X134.440 Y127.559 E0.03344
G1 X139.834 Y122.166 E0.23916
G1 X140.367 Y122.699 E0.02365
G1 X134.271 Y128.795 E0.27033
G1 E-0.80000 F2100.00000
G1 Z0.800 F10800.000
G1 X126.786 Y127.747
G1 Z0.200
G1 E0.80000 F2100.00000
G1 F1200.000
G1 X126.979 Y127.555 E0.00854
G1 X125.908 Y127.559 E0.03356
G1 X125.889 Y127.578 E0.00084
G1 X123.767 Y127.567 E0.06653
G1 X123.586 Y127.747 E0.00802
G1 E-0.80000 F2100.00000
G1 Z0.800 F10800.000
G1 X115.733 Y126.002
G1 Z0.200
G1 E0.80000 F2100.00000
G1 F1200.000
G1 X114.089 Y127.646 E0.07289
G1 X114.622 Y128.179 E0.02365
G1 X115.563 Y127.238 E0.04172
G1 X115.563 Y128.305 E0.03344
G1 X115.036 Y128.832 E0.02340
G1 E-0.80000 F2100.00000
G1 Z0.800 F10800.000
G1 X115.733 Y133.468
G1 Z0.200
G1 E0.80000 F2100.00000
G1 F1200.000
G1 X111.297 Y137.904 E0.19672
G1 X111.830 Y138.437 E0.02365
G1 X115.613 Y134.655 E0.16773
G1 X115.760 Y135.574 E0.02919
G1 X112.363 Y138.971 E0.15061
G1 X112.896 Y139.504 E0.02365
G1 X116.032 Y136.369 E0.13903
G1 X116.199 Y136.638 E0.00995
G1 X116.513 Y136.954 E0.01396
G1 X113.430 Y140.037 E0.13673
G1 X113.963 Y140.571 E0.02365
G1 X117.185 Y137.348 E0.14289
G1 X117.497 Y137.436 E0.01015
G1 X118.078 Y137.522 E0.01842
G1 X114.496 Y141.104 E0.15882
G1 X115.029 Y141.637 E0.02365
G1 X119.091 Y137.575 E0.18011
G1 X120.151 Y137.582 E0.03323
G1 X115.563 Y142.170 E0.20345
G1 X116.096 Y142.704 E0.02365
G1 X121.217 Y137.582 E0.22709
G1 X122.299 Y137.567 E0.03391
G1 X116.509 Y143.357 E0.25672
G1 E-0.80000 F2100.00000
G1 Z0.800 F10800.000
G1 X124.601 Y135.575
G1 Z0.200
G1 E0.80000 F2100.00000
G1 F1200.000
G1 X122.362 Y135.583 E0.07019
G1 X119.754 Y131.027 E0.16462
G1 X122.391 Y126.459 E0.16539
G1 X127.641 Y126.439 E0.16462
G1 X130.250 Y130.996 E0.16462
G1 X127.612 Y135.564 E0.16539
G1 X124.661 Y135.575 E0.09254
G1 X124.628 Y135.198 F10800.000
G1 F1200.000
G1 X122.580 Y135.205 E0.06420
G1 X120.189 Y131.028 E0.15093
G1 X122.609 Y126.835 E0.15180
G1 X127.423 Y126.817 E0.15093
G1 X129.815 Y130.995 E0.15093
G1 X127.394 Y135.188 E0.15180
G1 X124.688 Y135.198 E0.08485
G1 X124.512 Y135.581 F10800.000
G1 X125.107 Y136.468
G1 F1200.000
G1 X118.796 Y136.462 E0.19790
G1 X118.370 Y136.437 E0.01335
G1 X117.890 Y136.373 E0.01521
G1 X117.554 Y136.297 E0.01078
G1 X117.403 Y136.228 E0.00523
G1 X117.278 Y136.141 E0.00477
G1 X117.058 Y135.915 E0.00989
G1 X116.951 Y135.700 E0.00753
G1 X116.839 Y135.295 E0.01317
G1 X116.738 Y134.689 E0.01925
G1 X116.685 Y134.020 E0.02106
G1 X116.669 Y131.973 E0.06416
G1 X116.676 Y125.691 E0.19698
G1 X133.327 Y125.691 E0.52209
G1 X133.326 Y133.780 E0.25364
G1 X133.242 Y134.916 E0.03570
G1 X133.193 Y135.191 E0.00875
G1 X133.015 Y135.767 E0.01890
G1 X132.935 Y135.930 E0.00571
G1 X132.852 Y136.041 E0.00434
G1 X132.703 Y136.170 E0.00619
G1 X132.517 Y136.269 E0.00662
G1 X132.177 Y136.371 E0.01112
G1 X131.850 Y136.419 E0.01036
G1 X131.209 Y136.445 E0.02011
G1 X129.280 Y136.469 E0.06048
G1 X127.819 Y136.453 E0.04583
G1 X125.167 Y136.468 E0.08312
G1 X125.108 Y136.845 F10800.000
G1 F1200.000
G1 X118.785 Y136.839 E0.19828
G1 X118.335 Y136.813 E0.01414
G1 X117.830 Y136.745 E0.01596
G1 X117.419 Y136.650 E0.01321
G1 X117.215 Y136.557 E0.00705
G1 X117.042 Y136.436 E0.00660
G1 X116.879 Y136.288 E0.00692
G1 X116.740 Y136.123 E0.00675
G1 X116.597 Y135.835 E0.01008
G1 X116.470 Y135.376 E0.01492
G1 X116.363 Y134.735 E0.02038
G1 X116.308 Y134.036 E0.02199
G1 X116.292 Y131.975 E0.06463
G1 X116.299 Y125.314 E0.20884
G1 X133.704 Y125.314 E0.54572
G1 X133.703 Y133.794 E0.26590
G1 X133.616 Y134.963 E0.03673
G1 X133.562 Y135.272 E0.00984
G1 X133.364 Y135.913 E0.02103
G1 X133.257 Y136.127 E0.00751
G1 X133.131 Y136.299 E0.00669
G1 X132.918 Y136.483 E0.00883
G1 X132.660 Y136.620 E0.00913
G1 X132.259 Y136.740 E0.01314
G1 X131.885 Y136.795 E0.01184
G1 X131.219 Y136.822 E0.02091
G1 X129.281 Y136.846 E0.06079
G1 X127.818 Y136.830 E0.04587
G1 X125.168 Y136.845 E0.08307
G1 X124.909 Y136.499 F10800.000
G1 E-0.80000 F2100.00000
G1 Z0.800 F10800.000
G1 X117.767 Y136.229
G1 Z0.200
G1 E0.80000 F2100.00000
G1 F1200.000
G1 X117.291 Y135.749 E0.02121
G1 X117.216 Y135.598 E0.00530
G1 X117.115 Y135.233 E0.01188
G1 X117.077 Y135.005 E0.00726
G1 X118.201 Y136.129 E0.04991
G1 X118.784 Y136.178 E0.01837
G1 X116.998 Y134.392 E0.07933
G1 X116.966 Y133.826 E0.01780
G1 X119.320 Y136.179 E0.10455
G1 X119.854 Y136.180 E0.01680
G1 X116.962 Y133.288 E0.12848
G1 X116.958 Y132.749 E0.01691
G1 X120.389 Y136.181 E0.15242
G1 X120.924 Y136.181 E0.01680
G1 X116.954 Y132.211 E0.17635
G1 X116.953 Y131.675 E0.01683
G1 X121.459 Y136.182 E0.20017
G1 X121.994 Y136.182 E0.01680
G1 X116.953 Y131.142 E0.22390
G1 X116.954 Y130.608 E0.01676
G1 X122.528 Y136.183 E0.24764
G1 X123.063 Y136.183 E0.01680
G1 X122.745 Y135.865 E0.01416
G1 X123.277 Y135.863 E0.01672
G1 X123.598 Y136.184 E0.01427
G1 X124.133 Y136.184 E0.01680
G1 X123.809 Y135.861 E0.01438
G1 X124.341 Y135.859 E0.01672
G1 X124.668 Y136.185 E0.01449
G1 X125.202 Y136.186 E0.01680
G1 X124.874 Y135.857 E0.01461
G1 X125.406 Y135.855 E0.01672
G1 X125.734 Y136.183 E0.01460
G1 X126.265 Y136.180 E0.01668
G1 X125.938 Y135.853 E0.01453
G1 X126.470 Y135.851 E0.01672
G1 X126.796 Y136.177 E0.01447
G1 X127.327 Y136.173 E0.01668
G1 X127.003 Y135.849 E0.01441
G1 X127.535 Y135.847 E0.01672
G1 X127.859 Y136.171 E0.01438
G1 X128.399 Y136.177 E0.01697
G1 X127.883 Y135.661 E0.02292
G1 X128.078 Y135.322 E0.01228
G1 X128.939 Y136.183 E0.03823
G1 X129.475 Y136.184 E0.01682
G1 X128.274 Y134.983 E0.05333
G1 X128.469 Y134.645 E0.01228
G1 X130.002 Y136.177 E0.06809
G1 X130.530 Y136.171 E0.01658
G1 X128.665 Y134.306 E0.08284
G1 X128.861 Y133.967 E0.01228
G1 X131.058 Y136.164 E0.09759
G1 X131.575 Y136.147 E0.01626
G1 X129.056 Y133.629 E0.11188
G1 X129.252 Y133.290 E0.01228
G1 X132.063 Y136.102 E0.12490
G1 X132.409 Y136.006 E0.01125
G1 X132.470 Y135.974 E0.00217
G1 X129.447 Y132.951 E0.13427
G1 X129.643 Y132.613 E0.01228
G1 X132.732 Y135.702 E0.13722
G1 X132.864 Y135.299 E0.01330
G1 X129.838 Y132.274 E0.13439
G1 X130.034 Y131.935 E0.01228
G1 X132.962 Y134.864 E0.13008
G1 X132.999 Y134.366 E0.01566
G1 X130.229 Y131.597 E0.12303
G1 X130.425 Y131.258 E0.01228
G1 X133.036 Y133.869 E0.11599
G1 X133.043 Y133.342 E0.01655
G1 X130.413 Y130.712 E0.11684
G1 X129.698 Y129.462 E0.04522
G1 X133.043 Y132.808 E0.14861
G1 X133.044 Y132.274 E0.01678
G1 X128.983 Y128.213 E0.18039
G1 X128.267 Y126.964 E0.04522
G1 X133.044 Y131.740 E0.21216
G1 X133.044 Y131.205 E0.01678
G1 X127.927 Y126.089 E0.22727
G1 X127.927 Y125.974 E0.00363
G1 X128.346 Y125.974 E0.01316
G1 X133.044 Y130.671 E0.20867
G1 X133.044 Y130.137 E0.01678
G1 X128.880 Y125.974 E0.18494
G1 X129.415 Y125.974 E0.01678
G1 X133.044 Y129.603 E0.16122
G1 X133.044 Y129.069 E0.01678
G1 X129.949 Y125.974 E0.13749
G1 X130.483 Y125.974 E0.01678
G1 X133.044 Y128.535 E0.11376
G1 X133.044 Y128.000 E0.01678
G1 X131.017 Y125.974 E0.09003
G1 X131.551 Y125.974 E0.01678
G1 X133.044 Y127.466 E0.06630
G1 X133.044 Y126.932 E0.01678
G1 X132.086 Y125.974 E0.04257
G1 X132.620 Y125.974 E0.01678
G1 X133.214 Y126.568 E0.02638
G1 E-0.80000 F2100.00000
G1 Z0.800 F10800.000
G1 X127.644 Y126.065
G1 Z0.200
