; generated by PrusaSlicer 2.2.0+win64 on 2020-09-08 at 22:27:53 UTC

; 

; external perimeters extrusion width = 0.45mm
; perimeters extrusion width = 0.45mm
; infill extrusion width = 0.45mm
; solid infill extrusion width = 0.45mm
; top infill extrusion width = 0.40mm
; support material extrusion width = 0.35mm
; first layer extrusion width = 0.42mm

M73 P0 R50
M201 X9000 Y9000 Z500 E10000 ; sets maximum accelerations, mm/sec^2
M203 X500 Y500 Z12 E120 ; sets maximum feedrates, mm/sec
M204 P2000 R1500 T2000 ; sets acceleration (P, T) and retract acceleration (R), mm/sec^2
M205 X10.00 Y10.00 Z0.20 E2.50 ; sets the jerk limits, mm/sec
M205 S0 T0 ; sets the minimum extruding and travel feed rate, mm/sec
M107
M862.3 P "MK2.5SMMU2S" ; printer model check
M862.1 P0.4 ; nozzle diameter check
M115 U3.8.0 ; tell printer latest fw version
G90 ; use absolute coordinates
M83 ; extruder relative mode
M104 S215 ; set extruder temp
M140 S60 ; set bed temp
Tx
M190 S60 ; wait for bed temp
M109 S215 ; wait for extruder temp
G28 W ; home all without mesh bed level
G80 ; mesh bed leveling

G21 ; set units to millimeters

;go outside print area
G1 Y-3.0 F1000.0
G1 Z0.4 F1000.0
; select extruder
Tc
; purge line
G1 X55.0 F2000.0
G1 Z0.3 F1000.0
G92 E0.0
G1 X240.0 E25.0 F2200.0
M73 P0 R50
G1 Y-2.0 F1000.0
G1 X55.0 E25 F1400.0
G1 Z0.20 F1000.0
G1 X5.0 E4.0 F1000.0
G92 E0.0
G21 ; set units to millimeters
G90 ; use absolute coordinates
M83 ; use relative distances for extrusion
M900 K0.06 ; Filament gcode LA 1.5
M900 K30 ; Filament gcode LA 1.0
;BEFORE_LAYER_CHANGE
G92 E0.0
;0.2


G1 E-0.80000 F2100.00000
G1 Z0.600 F10800.000
;AFTER_LAYER_CHANGE
;0.2
G1 X101.752 Y62.592
G1 Z0.200
G1 E0.80000 F2100.00000
M204 S1000
G1 F1200.000
G1 X103.112 Y60.328 E0.08282
G1 X104.747 Y58.124 E0.08604
G1 X106.683 Y56.000 E0.09013
G1 X108.642 Y54.229 E0.08279
G1 X110.843 Y52.596 E0.08593
G1 X113.313 Y51.125 E0.09013
G1 X115.701 Y49.999 E0.08279
G1 X118.289 Y49.074 E0.08616
G1 X120.954 Y48.406 E0.08616
G1 X123.563 Y48.016 E0.08270
G1 X126.433 Y47.867 E0.09009
G1 X129.177 Y48.002 E0.08616
G1 X131.899 Y48.406 E0.08628
G1 X134.569 Y49.075 E0.08628
G1 X137.160 Y50.002 E0.08628
G1 X139.647 Y51.179 E0.08628
G1 X142.008 Y52.593 E0.08628
G1 X144.218 Y54.233 E0.08628
G1 X146.257 Y56.081 E0.08628
G1 X148.105 Y58.120 E0.08628
G1 X149.744 Y60.330 E0.08628
G1 X151.159 Y62.691 E0.08628
G1 X152.335 Y65.179 E0.08628
G1 X153.262 Y67.770 E0.08628
G1 X153.931 Y70.439 E0.08628
G1 X154.335 Y73.165 E0.08640
G1 X154.468 Y75.971 E0.08807
G1 X151.485 Y136.777 E1.90883
G1 X151.052 Y139.668 E0.09164
G1 X150.406 Y142.233 E0.08294
G1 X149.520 Y144.717 E0.08270
G1 X148.248 Y147.408 E0.09331
G1 X146.888 Y149.672 E0.08282
G1 X145.253 Y151.876 E0.08604
G1 X143.317 Y154.000 E0.09013
G1 X141.358 Y155.771 E0.08279
G1 X139.154 Y157.406 E0.08604
G1 X136.687 Y158.875 E0.09001
G1 X134.299 Y160.001 E0.08279
G1 X131.711 Y160.926 E0.08616
G1 X129.046 Y161.594 E0.08616
G1 X126.433 Y161.984 E0.08282
G1 X123.510 Y162.132 E0.09176
G1 X120.823 Y161.998 E0.08438
G1 X118.100 Y161.594 E0.08628
G1 X115.431 Y160.925 E0.08628
G1 X112.840 Y159.998 E0.08628
G1 X110.353 Y158.821 E0.08628
G1 X107.992 Y157.407 E0.08628
G1 X105.782 Y155.767 E0.08628
G1 X103.740 Y153.916 E0.08640
G1 X101.895 Y151.880 E0.08616
G1 X100.256 Y149.670 E0.08628
G1 X98.841 Y147.309 E0.08628
G1 X97.665 Y144.821 E0.08628
G1 X96.738 Y142.230 E0.08628
G1 X96.070 Y139.561 E0.08628
G1 X95.666 Y136.839 E0.08628
G1 X95.532 Y134.029 E0.08819
G1 X98.515 Y73.223 E1.90883
G1 X98.948 Y70.332 E0.09164
G1 X99.594 Y67.767 E0.08294
G1 X100.478 Y65.286 E0.08258
G1 X101.726 Y62.647 E0.09155
G1 E-0.80000 F2100.00000
G1 Z0.800 F10800.000
G1 X126.495 Y79.565
G1 Z0.200
G1 E0.80000 F2100.00000
G1 F1200.000
G1 X125.857 Y79.508 E0.02009
G1 X125.240 Y79.340 E0.02005
G1 X124.687 Y79.080 E0.01915
G1 X124.209 Y78.748 E0.01826
G1 X123.726 Y78.275 E0.02118
G1 X123.363 Y77.756 E0.01987
G1 X123.096 Y77.185 E0.01977
G1 X122.933 Y76.576 E0.01977
G1 X122.878 Y75.947 E0.01979
G1 X122.935 Y75.309 E0.02010
G1 X123.103 Y74.692 E0.02005
G1 X123.363 Y74.139 E0.01915
G1 X123.695 Y73.661 E0.01826
G1 X124.168 Y73.178 E0.02118
G1 X124.687 Y72.814 E0.01987
G1 X125.264 Y72.545 E0.01996
G1 X125.945 Y72.378 E0.02197
G1 X126.496 Y72.330 E0.01736
G1 X127.124 Y72.385 E0.01976
G1 X127.668 Y72.530 E0.01768
G1 X128.300 Y72.811 E0.02167
G1 X128.783 Y73.147 E0.01845
G1 X129.265 Y73.619 E0.02117
G1 X129.629 Y74.138 E0.01987
G1 X129.896 Y74.710 E0.01977
G1 X130.059 Y75.319 E0.01977
G1 X130.114 Y75.948 E0.01979
G1 X130.057 Y76.586 E0.02010
G1 X129.888 Y77.203 E0.02005
G1 X129.629 Y77.756 E0.01914
G1 X129.296 Y78.234 E0.01827
G1 X128.824 Y78.717 E0.02117
G1 X128.305 Y79.080 E0.01987
G1 X127.733 Y79.347 E0.01977
G1 X127.124 Y79.510 E0.01977
G1 X126.555 Y79.560 E0.01791
G1 X126.496 Y79.187 F10800.000
G1 F1200.000
G1 X125.924 Y79.136 E0.01800
G1 X125.371 Y78.985 E0.01798
G1 X124.876 Y78.753 E0.01712
G1 X124.450 Y78.456 E0.01627
G1 X124.015 Y78.030 E0.01910
G1 X123.691 Y77.567 E0.01774
G1 X123.452 Y77.055 E0.01770
G1 X123.306 Y76.510 E0.01770
G1 X123.257 Y75.947 E0.01771
G1 X123.308 Y75.375 E0.01800
G1 X123.459 Y74.822 E0.01798
G1 X123.691 Y74.328 E0.01713
G1 X123.987 Y73.902 E0.01627
G1 X124.413 Y73.467 E0.01910
G1 X124.876 Y73.142 E0.01774
G1 X125.390 Y72.903 E0.01777
G1 X126.006 Y72.751 E0.01990
G1 X126.496 Y72.708 E0.01541
G1 X127.058 Y72.757 E0.01770
G1 X127.542 Y72.886 E0.01571
G1 X128.114 Y73.141 E0.01961
G1 X128.542 Y73.439 E0.01634
G1 X128.977 Y73.864 E0.01908
G1 X129.301 Y74.328 E0.01774
G1 X129.540 Y74.839 E0.01770
G1 X129.686 Y75.385 E0.01770
G1 X129.735 Y75.948 E0.01771
G1 X129.684 Y76.520 E0.01800
G1 X129.533 Y77.073 E0.01798
G1 X129.301 Y77.567 E0.01711
G1 X129.005 Y77.993 E0.01628
G1 X128.579 Y78.428 E0.01909
G1 X128.116 Y78.753 E0.01774
G1 X127.604 Y78.991 E0.01770
G1 X127.058 Y79.137 E0.01770
G1 X126.556 Y79.181 E0.01583
G1 X126.295 Y79.533 F10800.000
G1 E-0.80000 F2100.00000
G1 Z0.800 F10800.000
G1 X128.054 Y72.222
G1 Z0.200
G1 E0.80000 F2100.00000
G1 F1200.000
G1 X126.990 Y71.939 E0.03452
G1 X126.990 Y54.348 E0.55157
G1 X129.735 Y54.628 E0.08652
G1 X131.300 Y54.925 E0.04995
G1 X133.618 Y55.593 E0.07565
G1 X135.840 Y56.513 E0.07541
G1 X136.838 Y57.007 E0.03490
G1 X128.084 Y72.170 E0.54897
G1 X127.871 Y71.783 F10800.000
G1 F1200.000
G1 X127.367 Y71.649 E0.01637
G1 X127.367 Y54.765 E0.52939
G1 X129.681 Y55.001 E0.07293
G1 X131.212 Y55.292 E0.04889
G1 X133.494 Y55.949 E0.07443
G1 X135.684 Y56.857 E0.07435
G1 X136.310 Y57.167 E0.02190
G1 X127.901 Y71.731 E0.52731
G1 X127.740 Y72.161 F10800.000
G1 E-0.80000 F2100.00000
G1 Z0.800 F10800.000
G1 X145.436 Y86.289
G1 Z0.200
G1 E0.80000 F2100.00000
G1 F1200.000
G1 X130.221 Y77.505 E0.55085
G1 X130.504 Y76.441 E0.03452
G1 X148.082 Y76.441 E0.55115
G1 X147.925 Y78.359 E0.06033
G1 X147.814 Y79.195 E0.02646
G1 X147.519 Y80.751 E0.04967
G1 X146.851 Y83.070 E0.07565
G1 X145.930 Y85.292 E0.07541
G1 X145.463 Y86.235 E0.03302
G1 X145.277 Y85.762 F10800.000
G1 F1200.000
G1 X130.660 Y77.323 E0.52920
G1 X130.794 Y76.818 E0.01637
G1 X147.673 Y76.818 E0.52923
G1 X147.550 Y78.318 E0.04720
G1 X147.441 Y79.135 E0.02583
G1 X147.151 Y80.664 E0.04879
G1 X146.494 Y82.945 E0.07443
G1 X145.587 Y85.136 E0.07435
G1 X145.303 Y85.708 E0.02002
G1 X145.090 Y86.116 F10800.000
G1 E-0.80000 F2100.00000
G1 Z0.800 F10800.000
G1 X137.740 Y94.395
G1 Z0.200
G1 E0.80000 F2100.00000
G1 F1200.000
G1 X128.943 Y79.159 E0.55160
G1 X129.720 Y78.379 E0.03452
G1 X144.954 Y87.174 E0.55153
G1 X143.355 Y89.394 E0.08579
G1 X141.745 Y91.196 E0.07576
G1 X139.943 Y92.806 E0.07575
G1 X137.788 Y94.359 E0.08329
G1 X137.858 Y93.845 F10800.000
G1 F1200.000
G1 X129.414 Y79.221 E0.52946
G1 X129.783 Y78.850 E0.01637
G1 X144.404 Y87.292 E0.52936
G1 X143.060 Y89.158 E0.07210
G1 X141.478 Y90.929 E0.07447
G1 X139.707 Y92.512 E0.07447
G1 X137.906 Y93.810 E0.06959
G1 X137.522 Y94.062 F10800.000
G1 E-0.80000 F2100.00000
G1 Z0.800 F10800.000
G1 X127.010 Y97.533
G1 Z0.200
G1 E0.80000 F2100.00000
G1 F1200.000
G1 X127.010 Y79.953 E0.55122
G1 X128.072 Y79.665 E0.03452
G1 X136.856 Y94.878 E0.55078
G1 X135.840 Y95.382 E0.03553
G1 X133.618 Y96.302 E0.07541
G1 X131.295 Y96.972 E0.07582
G1 X128.918 Y97.375 E0.07558
G1 X127.069 Y97.528 E0.05816
G1 X127.387 Y97.123 F10800.000
G1 F1200.000
G1 X127.387 Y80.241 E0.52933
G1 X127.891 Y80.105 E0.01637
G1 X136.328 Y94.719 E0.52909
G1 X135.684 Y95.038 E0.02253
G1 X133.494 Y95.946 E0.07435
G1 X131.211 Y96.603 E0.07450
G1 X128.871 Y97.001 E0.07441
G1 X127.447 Y97.118 E0.04481
G1 X126.987 Y97.141 F10800.000
G1 X126.002 Y97.534
G1 F1200.000
G1 X124.085 Y97.376 E0.06031
G1 X123.324 Y97.277 E0.02408
G1 X121.692 Y96.970 E0.05204
G1 X119.373 Y96.302 E0.07566
G1 X117.151 Y95.382 E0.07541
G1 X116.154 Y94.888 E0.03490
G1 X124.938 Y79.673 E0.55085
G1 X126.002 Y79.955 E0.03452
G1 X126.002 Y97.474 E0.54927
G1 X125.625 Y97.124 F10800.000
G1 F1200.000
G1 X124.125 Y97.001 E0.04719
G1 X123.383 Y96.904 E0.02347
G1 X121.780 Y96.603 E0.05115
G1 X119.498 Y95.946 E0.07444
G1 X117.307 Y95.038 E0.07435
G1 X116.682 Y94.728 E0.02190
G1 X125.120 Y80.111 E0.52920
G1 X125.625 Y80.245 E0.01637
G1 X125.625 Y97.064 E0.52735
G1 X125.607 Y97.524 F10800.000
G1 E-0.80000 F2100.00000
G1 Z0.800 F10800.000
G1 X115.269 Y94.405
G1 Z0.200
G1 E0.80000 F2100.00000
G1 F1200.000
G1 X113.049 Y92.806 E0.08579
G1 X111.247 Y91.196 E0.07576
G1 X109.637 Y89.395 E0.07575
G1 X108.049 Y87.191 E0.08517
G1 X123.284 Y78.395 E0.55160
G1 X124.064 Y79.172 E0.03452
G1 X115.299 Y94.353 E0.54965
G1 X115.151 Y93.856 F10800.000
G1 F1200.000
G1 X113.285 Y92.512 E0.07210
G1 X111.514 Y90.929 E0.07447
G1 X109.932 Y89.158 E0.07447
G1 X108.599 Y87.309 E0.07147
G1 X123.223 Y78.866 E0.52946
G1 X123.593 Y79.234 E0.01637
G1 X115.181 Y93.804 E0.52748
G1 X114.932 Y94.190 F10800.000
G1 E-0.80000 F2100.00000
G1 Z0.800 F10800.000
G1 X107.565 Y86.307
G1 Z0.200
G1 E0.80000 F2100.00000
G1 F1200.000
G1 X107.062 Y85.292 E0.03553
G1 X106.141 Y83.070 E0.07541
G1 X105.472 Y80.746 E0.07582
G1 X105.068 Y78.369 E0.07558
M73 P2 R49
G1 X104.910 Y76.461 E0.06004
G1 X122.491 Y76.461 E0.55122
G1 X122.778 Y77.524 E0.03452
G1 X107.617 Y86.277 E0.54890
G1 X107.724 Y85.780 F10800.000
G1 F1200.000
G1 X107.405 Y85.136 E0.02253
G1 X106.498 Y82.945 E0.07435
G1 X105.840 Y80.662 E0.07450
G1 X105.442 Y78.322 E0.07441
G1 X105.320 Y76.838 E0.04669
G1 X122.202 Y76.838 E0.52933
G1 X122.338 Y77.342 E0.01637
G1 X107.776 Y85.750 E0.52721
G1 X107.372 Y85.968 F10800.000
G1 E-0.80000 F2100.00000
G1 Z0.800 F10800.000
G1 X122.488 Y75.454
G1 Z0.200
G1 E0.80000 F2100.00000
G1 F1200.000
G1 X104.909 Y75.454 E0.55116
G1 X105.067 Y73.537 E0.06031
G1 X105.167 Y72.775 E0.02408
G1 X105.473 Y71.144 E0.05204
G1 X106.141 Y68.825 E0.07567
G1 X107.072 Y66.582 E0.07615
G1 X107.556 Y65.605 E0.03415
G1 X122.770 Y74.390 E0.55085
G1 X122.503 Y75.396 E0.03264
G1 X122.198 Y75.077 F10800.000
G1 F1200.000
G1 X105.319 Y75.077 E0.52923
G1 X105.442 Y73.576 E0.04719
G1 X105.539 Y72.834 E0.02347
G1 X105.840 Y71.231 E0.05115
G1 X106.498 Y68.950 E0.07444
G1 X107.416 Y66.738 E0.07509
G1 X107.715 Y66.133 E0.02116
G1 X122.332 Y74.572 E0.52920
G1 X122.213 Y75.019 E0.01449
G1 X122.331 Y75.454 F10800.000
G1 X123.272 Y73.516
G1 F1200.000
G1 X108.038 Y64.721 E0.55153
G1 X109.637 Y62.500 E0.08579
G1 X111.248 Y60.698 E0.07580
G1 X113.133 Y59.028 E0.07897
G1 X115.252 Y57.500 E0.08190
G1 X124.048 Y72.736 E0.55160
G1 X123.314 Y73.473 E0.03264
G1 X123.209 Y73.044 F10800.000
G1 F1200.000
G1 X108.588 Y64.603 E0.52936
G1 X109.932 Y62.737 E0.07210
G1 X111.515 Y60.965 E0.07449
G1 X113.369 Y59.323 E0.07768
G1 X115.134 Y58.050 E0.06823
G1 X123.577 Y72.674 E0.52946
G1 X123.251 Y73.002 E0.01449
G1 X123.136 Y73.437 F10800.000
G1 X124.919 Y72.229
G1 F1200.000
G1 X116.136 Y57.017 E0.55078
G1 X117.151 Y56.513 E0.03553
G1 X119.373 Y55.593 E0.07541
G1 X121.698 Y54.923 E0.07585
G1 X124.138 Y54.514 E0.07756
G1 X125.982 Y54.362 E0.05803
G1 X125.982 Y71.942 E0.55122
G1 X124.977 Y72.214 E0.03264
G1 X125.101 Y71.790 F10800.000
G1 F1200.000
G1 X116.664 Y57.176 E0.52909
G1 X117.307 Y56.857 E0.02253
G1 X119.498 Y55.949 E0.07435
G1 X121.782 Y55.291 E0.07450
G1 X124.184 Y54.889 E0.07639
G1 X125.605 Y54.771 E0.04470
G1 X125.605 Y71.653 E0.52933
G1 X125.159 Y71.774 E0.01449
G1 X124.841 Y72.094 F10800.000
G1 E-0.80000 F2100.00000
G1 Z0.800 F10800.000
G1 X129.708 Y73.500
G1 Z0.200
G1 E0.80000 F2100.00000
G1 F1200.000
G1 X128.927 Y72.723 E0.03452
G1 X137.723 Y57.489 E0.55153
G1 X139.943 Y59.089 E0.08579
G1 X141.745 Y60.699 E0.07576
G1 X143.355 Y62.500 E0.07575
G1 X144.943 Y64.704 E0.08517
G1 X129.760 Y73.470 E0.54972
G1 X129.769 Y73.029 F10800.000
G1 F1200.000
G1 X129.399 Y72.661 E0.01637
G1 X137.841 Y58.039 E0.52936
G1 X139.706 Y59.383 E0.07210
G1 X141.478 Y60.966 E0.07447
G1 X143.060 Y62.737 E0.07447
G1 X144.393 Y64.586 E0.07147
G1 X129.821 Y72.999 E0.52758
G1 X129.475 Y73.300 F10800.000
G1 E-0.80000 F2100.00000
G1 Z0.800 F10800.000
G1 X130.501 Y75.434
G1 Z0.200
G1 E0.80000 F2100.00000
G1 F1200.000
G1 X130.214 Y74.371 E0.03452
G1 X145.427 Y65.588 E0.55078
G1 X145.930 Y66.603 E0.03553
G1 X146.851 Y68.825 E0.07541
G1 X147.520 Y71.149 E0.07582
G1 X147.924 Y73.525 E0.07558
G1 X148.081 Y75.434 E0.06004
G1 X130.561 Y75.434 E0.54934
G1 X130.790 Y75.057 F10800.000
G1 F1200.000
G1 X130.653 Y74.552 E0.01637
G1 X145.267 Y66.115 E0.52909
G1 X145.587 Y66.759 E0.02253
G1 X146.494 Y68.950 E0.07435
G1 X147.152 Y71.233 E0.07450
G1 X147.549 Y73.572 E0.07441
G1 X147.672 Y75.057 E0.04669
G1 X130.850 Y75.057 E0.52745
G1 X130.398 Y75.138 F10800.000
G1 E-0.80000 F2100.00000
G1 Z0.800 F10800.000
G1 X126.427 Y100.822
G1 Z0.200
G1 E0.80000 F2100.00000
G1 F1200.000
G1 X123.985 Y100.702 E0.07666
G1 X121.567 Y100.343 E0.07666
G1 X119.195 Y99.749 E0.07666
G1 X116.893 Y98.925 E0.07666
G1 X114.683 Y97.880 E0.07666
G1 X112.586 Y96.623 E0.07666
G1 X110.623 Y95.167 E0.07666
G1 X108.811 Y93.525 E0.07666
G1 X107.169 Y91.713 E0.07666
G1 X105.713 Y89.749 E0.07666
G1 X104.456 Y87.652 E0.07666
G1 X103.410 Y85.442 E0.07666
G1 X102.587 Y83.140 E0.07666
G1 X101.993 Y80.769 E0.07666
G1 X101.634 Y78.350 E0.07666
G1 X101.514 Y75.908 E0.07666
G1 X101.634 Y73.466 E0.07666
G1 X101.993 Y71.048 E0.07666
G1 X102.587 Y68.676 E0.07666
G1 X103.410 Y66.374 E0.07666
G1 X104.456 Y64.164 E0.07666
G1 X105.713 Y62.067 E0.07666
G1 X107.169 Y60.104 E0.07666
G1 X108.811 Y58.292 E0.07666
G1 X110.623 Y56.650 E0.07666
G1 X112.586 Y55.194 E0.07666
G1 X114.683 Y53.937 E0.07666
G1 X116.893 Y52.891 E0.07666
G1 X119.195 Y52.068 E0.07666
G1 X121.567 Y51.474 E0.07666
G1 X123.985 Y51.115 E0.07666
G1 X126.427 Y50.995 E0.07666
G1 X128.869 Y51.115 E0.07666
G1 X131.288 Y51.474 E0.07666
G1 X133.659 Y52.068 E0.07666
G1 X135.961 Y52.891 E0.07666
G1 X138.172 Y53.937 E0.07666
G1 X140.269 Y55.194 E0.07666
G1 X142.232 Y56.650 E0.07666
G1 X144.044 Y58.292 E0.07666
G1 X145.686 Y60.103 E0.07666
G1 X147.142 Y62.067 E0.07666
G1 X148.399 Y64.164 E0.07666
G1 X149.444 Y66.374 E0.07666
G1 X150.268 Y68.676 E0.07666
G1 X150.862 Y71.048 E0.07666
G1 X151.221 Y73.466 E0.07666
G1 X151.341 Y75.908 E0.07666
G1 X151.221 Y78.350 E0.07666
G1 X150.862 Y80.769 E0.07666
G1 X150.268 Y83.140 E0.07666
G1 X149.444 Y85.442 E0.07666
G1 X148.399 Y87.652 E0.07666
G1 X147.142 Y89.750 E0.07666
G1 X145.686 Y91.713 E0.07666
G1 X144.044 Y93.525 E0.07666
G1 X142.232 Y95.167 E0.07666
G1 X140.269 Y96.623 E0.07666
G1 X138.172 Y97.880 E0.07666
G1 X135.961 Y98.925 E0.07666
G1 X133.659 Y99.749 E0.07666
G1 X131.288 Y100.343 E0.07666
G1 X128.869 Y100.702 E0.07666
G1 X126.487 Y100.819 E0.07478
G1 X126.427 Y101.199 F10800.000
G1 F1200.000
G1 X123.948 Y101.077 E0.07782
G1 X121.493 Y100.713 E0.07782
G1 X119.086 Y100.110 E0.07782
G1 X116.749 Y99.274 E0.07782
G1 X114.505 Y98.213 E0.07782
G1 X112.377 Y96.937 E0.07782
G1 X110.383 Y95.458 E0.07782
G1 X108.544 Y93.792 E0.07782
G1 X106.877 Y91.953 E0.07782
G1 X105.399 Y89.959 E0.07782
G1 X104.123 Y87.830 E0.07782
G1 X103.062 Y85.587 E0.07782
G1 X102.226 Y83.250 E0.07782
G1 X101.622 Y80.842 E0.07782
G1 X101.258 Y78.387 E0.07782
G1 X101.137 Y75.908 E0.07782
G1 X101.258 Y73.429 E0.07782
G1 X101.622 Y70.974 E0.07782
G1 X102.226 Y68.567 E0.07782
