; generated by PrusaSlicer 2.2.0+win64 on 2021-01-11 at 18:16:40 UTC

; 

; external perimeters extrusion width = 0.45mm
; perimeters extrusion width = 0.45mm
; infill extrusion width = 0.45mm
; solid infill extrusion width = 0.45mm
; top infill extrusion width = 0.40mm
; first layer extrusion width = 0.42mm

M73 P0 R147
M201 X9000 Y9000 Z500 E10000 ; sets maximum accelerations, mm/sec^2
M203 X500 Y500 Z12 E120 ; sets maximum feedrates, mm/sec
M204 P2000 R1500 T2000 ; sets acceleration (P, T) and retract acceleration (R), mm/sec^2
M205 X10.00 Y10.00 Z0.20 E4.50 ; sets the jerk limits, mm/sec
M205 S0 T0 ; sets the minimum extruding and travel feed rate, mm/sec
M107
M862.3 P "MK2.5SMMU2S" ; printer model check
M862.1 P0.4 ; nozzle diameter check
M115 U3.9.1 ; tell printer latest fw version
G90 ; use absolute coordinates
M83 ; extruder relative mode
M104 S215 ; set extruder temp
M140 S60 ; set bed temp
Tx
M190 S60 ; wait for bed temp
M109 S215 ; wait for extruder temp
G28 W ; home all without mesh bed level
G80 ; mesh bed leveling

;go outside print area
G1 Y-3.0 F1000.0
G1 Z0.4 F1000.0
; select extruder
Tc
; purge line
G1 X55.0 F2000.0
G1 Z0.3 F1000.0
G92 E0.0
G1 X240.0 E25.0 F2200.0
M73 P0 R147
G1 Y-2.0 F1000.0
G1 X55.0 E25 F1400.0
G1 Z0.20 F1000.0
G1 X5.0 E4.0 F1000.0
G92 E0.0
G21 ; set units to millimeters
G90 ; use absolute coordinates
M83 ; use relative distances for extrusion
M900 K0.05 ; Filament gcode LA 1.5
M900 K30 ; Filament gcode LA 1.0
;BEFORE_LAYER_CHANGE
G92 E0.0
;0.2


G1 E-0.80000 F2100.00000
G1 Z0.600 F10800.000
;AFTER_LAYER_CHANGE
;0.2
G1 X94.799 Y5.768
G1 Z0.200
G1 E0.80000 F2100.00000
M204 S1000
G1 F1200.000
G1 X95.310 Y5.167 E0.02473
G1 X95.989 Y4.766 E0.02473
G1 X96.762 Y4.610 E0.02473
G1 X153.164 Y4.609 E1.76844
G1 X154.108 Y4.806 E0.03024
G1 X154.896 Y5.362 E0.03024
G1 X155.398 Y6.186 E0.03024
G1 X155.532 Y7.141 E0.03024
G1 X140.294 Y203.496 E6.17507
G1 X140.018 Y204.214 E0.02414
G1 X139.524 Y204.810 E0.02426
G1 X138.868 Y205.213 E0.02414
G1 X138.118 Y205.386 E0.02414
G1 X111.550 Y205.341 E0.83303
G1 X110.841 Y205.070 E0.02378
G1 X110.257 Y204.593 E0.02367
G1 X109.850 Y203.953 E0.02378
G1 X109.666 Y203.217 E0.02378
G1 X94.470 Y7.170 E6.16536
G1 X94.513 Y6.503 E0.02095
G1 X94.777 Y5.824 E0.02285
G1 F8640.000
G1 X95.310 Y5.167 E-0.19524
G1 X95.989 Y4.766 E-0.18209
G1 X96.762 Y4.610 E-0.18209
G1 X97.631 Y4.610 E-0.20058
G1 E-0.04000 F2100.00000
G1 Z0.800 F10800.000
G1 X125.000 Y130.278
G1 Z0.200
G1 E0.80000 F2100.00000
G1 F1200.000
G1 X109.101 Y130.278 E0.49850
G1 X107.131 Y107.934 E0.70328
G1 X142.869 Y107.934 E1.12053
G1 X140.899 Y130.278 E0.70328
G1 X125.060 Y130.278 E0.49662
G1 X125.000 Y129.901 F10800.000
G1 F1200.000
G1 X109.446 Y129.901 E0.48767
G1 X107.543 Y108.312 E0.67954
G1 X142.457 Y108.312 E1.09471
G1 X140.554 Y129.901 E0.67954
G1 X125.060 Y129.901 E0.48579
G1 X124.910 Y130.290 F10800.000
G1 F8640.000
G1 X121.769 Y129.901 E-0.76000
G1 E-0.04000 F2100.00000
G1 Z0.800 F10800.000
G1 X125.000 Y105.826
G1 Z0.200
G1 E0.80000 F2100.00000
G1 F1200.000
G1 X106.945 Y105.826 E0.56609
G1 X104.980 Y83.541 E0.70144
G1 X145.020 Y83.541 E1.25540
G1 X143.055 Y105.826 E0.70144
G1 X125.060 Y105.826 E0.56421
G1 X125.000 Y105.449 F10800.000
G1 F1200.000
G1 X107.291 Y105.449 E0.55527
G1 X105.392 Y83.918 E0.67770
G1 X144.608 Y83.918 E1.22957
G1 X142.709 Y105.449 E0.67770
M73 P0 R146
G1 X125.060 Y105.449 E0.55339
G1 X124.903 Y105.837 F10800.000
G1 F8640.000
G1 X121.769 Y105.449 E-0.76000
G1 E-0.04000 F2100.00000
G1 Z0.800 F10800.000
G1 X115.538 Y81.606
G1 Z0.200
G1 E0.80000 F2100.00000
G1 F1200.000
G1 X104.811 Y81.613 E0.33634
G1 X103.938 Y71.718 E0.31144
G1 X115.492 Y81.567 E0.47602
G1 F8640.000
G1 X112.201 Y81.581 E-0.76000
G1 E-0.04000 F2100.00000
G1 Z0.800 F10800.000
G1 X114.515 Y81.229
G1 Z0.200
G1 E0.80000 F2100.00000
G1 F1200.000
G1 X105.156 Y81.236 E0.29345
G1 X104.395 Y72.603 E0.27172
G1 X114.469 Y81.190 E0.41507
G1 X114.715 Y81.576 F10800.000
G1 F8640.000
G1 X111.178 Y81.206 E-0.76000
G1 E-0.04000 F2100.00000
G1 Z0.800 F10800.000
G1 X125.000 Y81.604
G1 Z0.200
G1 E0.80000 F2100.00000
G1 F1200.000
G1 X117.851 Y81.604 E0.22416
G1 X103.814 Y70.308 E0.56493
G1 X102.840 Y59.265 E0.34757
G1 X147.160 Y59.265 E1.38961
G1 X146.186 Y70.308 E0.34757
G1 X132.149 Y81.604 E0.56493
G1 X125.060 Y81.604 E0.22228
G1 X125.000 Y81.227 F10800.000
G1 F1200.000
G1 X117.984 Y81.227 E0.22000
G1 X104.175 Y70.115 E0.55573
G1 X103.252 Y59.642 E0.32963
G1 X146.748 Y59.642 E1.36379
G1 X145.825 Y70.115 E0.32963
G1 X132.016 Y81.227 E0.55573
G1 X125.060 Y81.227 E0.21811
G1 X124.859 Y81.601 F10800.000
G1 F8640.000
G1 X121.769 Y81.227 E-0.76000
G1 E-0.04000 F2100.00000
G1 Z0.800 F10800.000
G1 X113.069 Y56.525
G1 Z0.200
G1 E0.80000 F2100.00000
G1 F1200.000
G1 X102.599 Y56.534 E0.32828
G1 X101.740 Y46.785 E0.30686
G1 X113.024 Y56.485 E0.46657
G1 F8640.000
G1 X109.732 Y56.501 E-0.76000
G1 E-0.04000 F2100.00000
G1 Z0.800 F10800.000
G1 X112.053 Y56.148
G1 Z0.200
G1 E0.80000 F2100.00000
G1 F1200.000
G1 X102.945 Y56.156 E0.28559
G1 X102.197 Y47.675 E0.26696
G1 X112.008 Y56.109 E0.40566
G1 X112.254 Y56.495 F10800.000
G1 F8640.000
G1 X108.716 Y56.126 E-0.76000
G1 E-0.04000 F2100.00000
G1 Z0.800 F10800.000
G1 X111.495 Y31.240
G1 Z0.200
G1 E0.80000 F2100.00000
G1 F1200.000
G1 X100.370 Y31.249 E0.34880
G1 X99.321 Y19.354 E0.37441
G1 X111.452 Y31.198 E0.53156
G1 X110.570 Y30.864 F10800.000
G1 F1200.000
G1 X100.715 Y30.872 E0.30897
G1 X99.787 Y20.336 E0.33165
G1 X110.527 Y30.822 E0.47064
G1 X110.770 Y31.210 F10800.000
G1 F8640.000
G1 X107.235 Y30.839 E-0.76000
G1 E-0.04000 F2100.00000
G1 Z0.800 F10800.000
G1 X138.505 Y31.240
G1 Z0.200
G1 E0.80000 F2100.00000
G1 F1200.000
G1 X150.679 Y19.354 E0.53344
G1 X149.630 Y31.249 E0.37441
G1 X138.565 Y31.240 E0.34692
G1 X139.430 Y30.864 F10800.000
G1 F1200.000
G1 X150.213 Y20.336 E0.47252
G1 X149.285 Y30.872 E0.33165
G1 X139.490 Y30.864 E0.30709
G1 X139.045 Y30.755 F10800.000
G1 F8640.000
G1 X141.839 Y28.558 E-0.76000
G1 E-0.04000 F2100.00000
G1 Z0.800 F10800.000
G1 X125.000 Y56.523
G1 Z0.200
G1 E0.80000 F2100.00000
G1 F1200.000
G1 X114.950 Y56.523 E0.31510
G1 X101.587 Y45.053 E0.55216
G1 X100.746 Y35.513 E0.30029
G1 X120.074 Y35.513 E0.60601
G1 X120.074 Y48.504 E0.40732
G1 X129.926 Y48.504 E0.30892
G1 X129.926 Y35.513 E0.40732
G1 X149.254 Y35.513 E0.60601
G1 X148.413 Y45.053 E0.30029
G1 X135.050 Y56.523 E0.55216
G1 X125.060 Y56.523 E0.31322
G1 X125.000 Y56.146 F10800.000
G1 F1200.000
G1 X115.090 Y56.146 E0.31072
G1 X101.949 Y44.867 E0.54297
G1 X101.158 Y35.890 E0.28256
G1 X119.697 Y35.890 E0.58127
G1 X119.697 Y48.881 E0.40732
G1 X130.303 Y48.881 E0.33256
G1 X130.303 Y35.890 E0.40732
G1 X148.842 Y35.890 E0.58127
G1 X148.051 Y44.867 E0.28256
G1 X134.910 Y56.146 E0.54297
G1 X125.060 Y56.146 E0.30884
G1 X124.855 Y56.518 F10800.000
G1 F8640.000
G1 X121.769 Y56.146 E-0.76000
G1 E-0.04000 F2100.00000
G1 Z0.800 F10800.000
G1 X125.000 Y42.727
G1 Z0.200
G1 E0.80000 F2100.00000
G1 F1200.000
G1 X124.377 Y42.665 E0.01963
G1 X123.778 Y42.483 E0.01964
G1 X123.225 Y42.188 E0.01964
G1 X122.741 Y41.791 E0.01964
G1 X122.344 Y41.307 E0.01963
G1 X122.049 Y40.754 E0.01964
G1 X121.867 Y40.155 E0.01964
G1 X121.805 Y39.532 E0.01964
G1 X121.867 Y38.909 E0.01964
G1 X122.049 Y38.309 E0.01964
G1 X122.344 Y37.757 E0.01964
G1 X122.741 Y37.273 E0.01964
G1 X123.225 Y36.876 E0.01964
G1 X123.778 Y36.581 E0.01964
G1 X124.377 Y36.399 E0.01963
G1 X124.981 Y36.339 E0.01905
G1 X125.621 Y36.398 E0.02016
G1 X126.222 Y36.581 E0.01969
G1 X126.775 Y36.876 E0.01964
G1 X127.259 Y37.273 E0.01964
G1 X127.656 Y37.757 E0.01964
G1 X127.951 Y38.309 E0.01964
G1 X128.133 Y38.909 E0.01964
G1 X128.195 Y39.532 E0.01964
G1 X128.133 Y40.155 E0.01964
G1 X127.951 Y40.754 E0.01964
G1 X127.656 Y41.307 E0.01963
G1 X127.259 Y41.791 E0.01963
G1 X126.775 Y42.188 E0.01964
G1 X126.222 Y42.483 E0.01964
G1 X125.623 Y42.665 E0.01964
G1 X125.060 Y42.721 E0.01775
G1 X125.000 Y42.348 F10800.000
G1 F1200.000
G1 X124.451 Y42.294 E0.01731
G1 X123.923 Y42.133 E0.01731
G1 X123.436 Y41.873 E0.01731
G1 X123.009 Y41.523 E0.01731
G1 X122.659 Y41.096 E0.01731
G1 X122.399 Y40.609 E0.01731
G1 X122.238 Y40.081 E0.01731
G1 X122.184 Y39.532 E0.01731
G1 X122.238 Y38.983 E0.01731
G1 X122.399 Y38.454 E0.01731
G1 X122.659 Y37.968 E0.01731
G1 X123.009 Y37.541 E0.01731
G1 X123.436 Y37.191 E0.01731
G1 X123.923 Y36.931 E0.01731
G1 X124.451 Y36.770 E0.01731
G1 X124.983 Y36.718 E0.01676
G1 X125.549 Y36.770 E0.01783
G1 X126.077 Y36.931 E0.01733
G1 X126.564 Y37.191 E0.01731
G1 X126.991 Y37.541 E0.01731
G1 X127.341 Y37.968 E0.01731
G1 X127.601 Y38.454 E0.01731
G1 X127.762 Y38.983 E0.01731
G1 X127.816 Y39.532 E0.01731
G1 X127.762 Y40.081 E0.01731
G1 X127.601 Y40.609 E0.01731
G1 X127.341 Y41.096 E0.01731
G1 X126.991 Y41.523 E0.01731
G1 X126.564 Y41.873 E0.01731
G1 X126.077 Y42.133 E0.01731
G1 X125.549 Y42.294 E0.01731
G1 X125.060 Y42.342 E0.01543
G1 X124.800 Y42.694 F10800.000
G1 F8640.000
G1 X124.451 Y42.294 E-0.14106
G1 X123.923 Y42.133 E-0.12745
G1 X123.436 Y41.873 E-0.12745
G1 X123.009 Y41.523 E-0.12745
G1 X122.659 Y41.096 E-0.12745
G1 X122.436 Y40.679 E-0.10914
G1 E-0.04000 F2100.00000
G1 Z0.800 F10800.000
G1 X136.931 Y56.525
G1 Z0.200
G1 E0.80000 F2100.00000
G1 F1200.000
G1 X148.260 Y46.785 E0.46845
G1 X147.401 Y56.534 E0.30686
G1 X136.991 Y56.525 E0.32639
G1 F8640.000
G1 X139.481 Y54.372 E-0.76000
G1 E-0.04000 F2100.00000
G1 Z0.800 F10800.000
G1 X137.947 Y56.148
G1 Z0.200
G1 E0.80000 F2100.00000
G1 F1200.000
G1 X147.803 Y47.675 E0.40754
G1 X147.055 Y56.156 E0.26696
G1 X138.007 Y56.148 E0.28371
G1 X137.569 Y56.016 F10800.000
G1 F8640.000
G1 X140.496 Y53.995 E-0.76000
G1 E-0.04000 F2100.00000
G1 Z0.800 F10800.000
G1 X134.462 Y81.606
G1 Z0.200
G1 E0.80000 F2100.00000
G1 F1200.000
G1 X146.062 Y71.718 E0.47790
G1 X145.189 Y81.613 E0.31144
G1 X134.522 Y81.606 E0.33446
G1 F8640.000
G1 X137.022 Y79.464 E-0.76000
G1 E-0.04000 F2100.00000
G1 Z0.800 F10800.000
G1 X135.485 Y81.229
G1 Z0.200
G1 E0.80000 F2100.00000
G1 F1200.000
G1 X145.605 Y72.603 E0.41695
G1 X144.844 Y81.236 E0.27172
G1 X135.545 Y81.229 E0.29157
G1 X135.108 Y81.096 F10800.000
G1 F8640.000
G1 X138.044 Y79.087 E-0.76000
G1 E-0.04000 F2100.00000
G1 Z0.800 F10800.000
G1 X125.000 Y153.718
G1 Z0.200
G1 E0.80000 F2100.00000
G1 F1200.000
G1 X111.168 Y153.718 E0.43370
G1 X109.244 Y131.904 E0.68662
M73 P1 R145
G1 X121.193 Y131.904 E0.37464
G1 X121.193 Y145.022 E0.41129
G1 X128.807 Y145.022 E0.23873
G1 X128.807 Y131.904 E0.41129
G1 X140.756 Y131.904 E0.37464
G1 X138.832 Y153.718 E0.68662
G1 X125.060 Y153.718 E0.43182
G1 X125.000 Y153.341 F10800.000
G1 F1200.000
G1 X111.513 Y153.341 E0.42288
G1 X109.656 Y132.281 E0.66289
G1 X120.816 Y132.281 E0.34990
G1 X120.816 Y145.399 E0.41129
G1 X129.184 Y145.399 E0.26238
G1 X129.184 Y132.281 E0.41129
G1 X140.344 Y132.281 E0.34990
G1 X138.487 Y153.341 E0.66289
G1 X125.060 Y153.341 E0.42099
G1 X124.917 Y153.732 F10800.000
G1 F8640.000
G1 X121.769 Y153.341 E-0.76000
G1 E-0.04000 F2100.00000
G1 Z0.800 F10800.000
G1 X125.000 Y144.166
G1 Z0.200
G1 E0.80000 F2100.00000
G1 F1200.000
G1 X124.377 Y144.104 E0.01964
G1 X123.778 Y143.923 E0.01964
G1 X123.225 Y143.628 E0.01964
G1 X122.741 Y143.230 E0.01964
G1 X122.344 Y142.746 E0.01964
G1 X122.049 Y142.194 E0.01964
G1 X121.867 Y141.595 E0.01964
G1 X121.805 Y140.971 E0.01964
G1 X121.867 Y140.348 E0.01964
G1 X122.049 Y139.749 E0.01964
G1 X122.344 Y139.197 E0.01964
G1 X122.741 Y138.712 E0.01964
G1 X123.225 Y138.315 E0.01964
G1 X123.778 Y138.020 E0.01964
G1 X124.377 Y137.838 E0.01964
G1 X124.982 Y137.779 E0.01905
G1 X125.621 Y137.838 E0.02015
G1 X126.222 Y138.020 E0.01969
G1 X126.775 Y138.315 E0.01964
G1 X127.259 Y138.712 E0.01964
G1 X127.656 Y139.197 E0.01964
G1 X127.951 Y139.749 E0.01964
G1 X128.133 Y140.348 E0.01964
G1 X128.195 Y140.971 E0.01964
G1 X128.133 Y141.595 E0.01964
G1 X127.951 Y142.194 E0.01964
G1 X127.656 Y142.746 E0.01964
G1 X127.259 Y143.230 E0.01964
G1 X126.775 Y143.628 E0.01964
G1 X126.222 Y143.923 E0.01964
G1 X125.623 Y144.104 E0.01964
G1 X125.060 Y144.160 E0.01775
G1 X125.000 Y143.787 F10800.000
G1 F1200.000
G1 X124.451 Y143.733 E0.01731
G1 X123.923 Y143.573 E0.01731
G1 X123.436 Y143.312 E0.01731
G1 X123.009 Y142.962 E0.01731
G1 X122.659 Y142.536 E0.01731
G1 X122.399 Y142.049 E0.01731
G1 X122.238 Y141.521 E0.01731
G1 X122.184 Y140.971 E0.01731
G1 X122.238 Y140.422 E0.01731
G1 X122.399 Y139.894 E0.01731
G1 X122.659 Y139.407 E0.01731
G1 X123.009 Y138.980 E0.01731
G1 X123.436 Y138.630 E0.01731
G1 X123.923 Y138.370 E0.01731
G1 X124.451 Y138.210 E0.01731
G1 X124.983 Y138.157 E0.01676
G1 X125.549 Y138.210 E0.01782
G1 X126.077 Y138.370 E0.01733
G1 X126.564 Y138.630 E0.01731
G1 X126.991 Y138.980 E0.01731
G1 X127.341 Y139.407 E0.01731
G1 X127.601 Y139.894 E0.01731
G1 X127.762 Y140.422 E0.01731
G1 X127.816 Y140.971 E0.01731
G1 X127.762 Y141.521 E0.01731
G1 X127.601 Y142.049 E0.01731
G1 X127.341 Y142.536 E0.01731
G1 X126.991 Y142.962 E0.01731
G1 X126.564 Y143.312 E0.01731
G1 X126.077 Y143.573 E0.01731
G1 X125.549 Y143.733 E0.01731
G1 X125.060 Y143.781 E0.01543
G1 X124.800 Y144.133 F10800.000
G1 F8640.000
G1 X124.451 Y143.733 E-0.14106
G1 X123.923 Y143.573 E-0.12745
G1 X123.436 Y143.312 E-0.12745
G1 X123.009 Y142.962 E-0.12745
G1 X122.659 Y142.536 E-0.12745
G1 X122.436 Y142.119 E-0.10914
G1 E-0.04000 F2100.00000
G1 Z0.800 F10800.000
G1 X125.000 Y176.938
G1 Z0.200
G1 E0.80000 F2100.00000
G1 F1200.000
G1 X113.215 Y176.938 E0.36951
G1 X111.314 Y155.376 E0.67870
G1 X138.686 Y155.376 E0.85824
G1 X136.785 Y176.938 E0.67870
G1 X125.060 Y176.938 E0.36763
G1 X125.000 Y176.561 F10800.000
G1 F1200.000
G1 X113.560 Y176.561 E0.35869
G1 X111.726 Y155.753 E0.65497
G1 X138.274 Y155.753 E0.83242
G1 X136.440 Y176.561 E0.65497
G1 X125.060 Y176.561 E0.35681
G1 X124.925 Y176.954 F10800.000
G1 F8640.000
G1 X121.769 Y176.561 E-0.76000
G1 E-0.04000 F2100.00000
G1 Z0.800 F10800.000
G1 X125.000 Y198.285
G1 Z0.200
G1 E0.80000 F2100.00000
G1 F1200.000
G1 X115.097 Y198.285 E0.31050
G1 X113.380 Y178.815 E0.61284
G1 X136.620 Y178.815 E0.72865
G1 X134.903 Y198.285 E0.61284
G1 X125.060 Y198.285 E0.30862
G1 X125.000 Y197.908 F10800.000
G1 F1200.000
G1 X115.442 Y197.908 E0.29968
G1 X113.792 Y179.192 E0.58911
G1 X136.208 Y179.192 E0.70283
G1 X134.558 Y197.908 E0.58911
G1 X125.060 Y197.908 E0.29780
G1 X124.928 Y198.301 F10800.000
G1 F8640.000
G1 X121.769 Y197.908 E-0.76000
G1 E-0.04000 F2100.00000
G1 Z0.800 F10800.000
G1 X125.000 Y202.427
G1 Z0.200
G1 E0.80000 F2100.00000
G1 F1200.000
G1 X112.621 Y202.427 E0.38813
G1 X112.621 Y198.285 E0.12987
G1 X114.174 Y198.285 E0.04869
G1 X97.481 Y7.573 E6.00250
G1 X98.283 Y7.573 E0.02514
G1 X99.182 Y17.777 E0.32118
G1 X113.242 Y31.238 E0.61029
G1 X136.758 Y31.238 E0.73735
G1 X150.818 Y17.777 E0.61029
G1 X151.717 Y7.573 E0.32118
G1 X152.519 Y7.573 E0.02514
G1 X135.826 Y198.285 E6.00250
G1 X137.379 Y198.285 E0.04869
G1 X137.379 Y202.427 E0.12987
G1 X125.060 Y202.427 E0.38625
G1 X125.000 Y202.804 F10800.000
G1 F1200.000
G1 X112.244 Y202.804 E0.39995
G1 X112.244 Y197.908 E0.15352
G1 X113.762 Y197.908 E0.04761
G1 X97.069 Y7.196 E6.00250
M73 P2 R144
G1 X98.628 Y7.196 E0.04887
G1 X99.546 Y17.603 E0.32756
G1 X113.393 Y30.861 E0.60110
G1 X136.607 Y30.861 E0.72785
G1 X150.454 Y17.603 E0.60110
G1 X151.372 Y7.196 E0.32756
G1 X152.931 Y7.196 E0.04887
G1 X136.238 Y197.908 E6.00250
G1 X137.756 Y197.908 E0.04761
G1 X137.756 Y202.804 E0.15352
G1 X125.060 Y202.804 E0.39807
G1 X124.759 Y202.485 F10800.000
G1 F8640.000
G1 X121.769 Y202.804 E-0.76000
G1 E-0.04000 F2100.00000
G1 Z0.800 F10800.000
G1 X118.836 Y202.314
G1 Z0.200
G1 E0.80000 F2100.00000
G1 F1200.000
G1 X114.424 Y197.902 E0.19586
G1 X114.476 Y198.487 E0.01844
G1 X118.133 Y202.144 E0.16236
G1 X117.599 Y202.144 E0.01676
G1 X114.022 Y198.568 E0.15877
G1 X113.489 Y198.568 E0.01676
G1 X117.065 Y202.144 E0.15877
G1 X116.531 Y202.144 E0.01676
G1 X112.955 Y198.568 E0.15877
G1 X112.904 Y198.568 E0.00160
G1 X112.904 Y199.051 E0.01516
G1 X115.997 Y202.144 E0.13733
G1 X115.464 Y202.144 E0.01676
G1 X112.904 Y199.585 E0.11363
G1 X112.904 Y200.118 E0.01676
G1 X114.930 Y202.144 E0.08993
G1 X114.396 Y202.144 E0.01676
