; generated by PrusaSlicer 2.1.1+win64 on 2020-06-02 at 19:49:25 UTC

; 

; external perimeters extrusion width = 0.45mm
; perimeters extrusion width = 0.45mm
; infill extrusion width = 0.45mm
; solid infill extrusion width = 0.45mm
; top infill extrusion width = 0.40mm
; support material extrusion width = 0.35mm
; first layer extrusion width = 0.42mm

M73 P0 R233
M201 X9000 Y9000 Z500 E10000 ; sets maximum accelerations, mm/sec^2
M203 X500 Y500 Z12 E120 ; sets maximum feedrates, mm/sec
M204 P2000 R1500 T2000 ; sets acceleration (P, T) and retract acceleration (R), mm/sec^2
M205 X10.00 Y10.00 Z0.20 E2.50 ; sets the jerk limits, mm/sec
M205 S0 T0 ; sets the minimum extruding and travel feed rate, mm/sec
M107
M862.3 P "MK2.5SMMU2S" ; printer model check
M862.1 P0.4 ; nozzle diameter check
M115 U3.8.0 ; tell printer latest fw version
G90 ; use absolute coordinates
M83 ; extruder relative mode
M104 S215 ; set extruder temp
M140 S60 ; set bed temp
Tx
M190 S60 ; wait for bed temp
M109 S215 ; wait for extruder temp
G28 W ; home all without mesh bed level
G80 ; mesh bed leveling

G21 ; set units to millimeters

;go outside print area
G1 Y-3.0 F1000.0
G1 Z0.4 F1000.0
; select extruder
Tc
; purge line
G1 X55.0 F2000.0
G1 Z0.3 F1000.0
G92 E0.0
G1 X240.0 E25.0 F2200.0
M73 P0 R233
G1 Y-2.0 F1000.0
G1 X55.0 E25 F1400.0
G1 Z0.20 F1000.0
G1 X5.0 E4.0 F1000.0
G92 E0.0
G21 ; set units to millimeters
G90 ; use absolute coordinates
M83 ; use relative distances for extrusion
M900 K30 ; Filament gcode
;BEFORE_LAYER_CHANGE
G92 E0.0
;0.2


G1 E-0.80000 F2100.00000
G1 Z0.600 F10800.000
;AFTER_LAYER_CHANGE
;0.2
G1 X190.209 Y135.616
G1 Z0.200
G1 E0.80000 F2100.00000
M204 S1000
G1 F1200
G1 X189.721 Y136.334 E0.02721
G1 X189.114 Y136.754 E0.02315
G1 X188.401 Y136.948 E0.02315
G1 X122.176 Y142.902 E2.08483
G1 X64.857 Y142.904 E1.79718
G1 X64.175 Y142.831 E0.02152
G1 X63.408 Y142.589 E0.02520
G1 X62.795 Y142.246 E0.02205
G1 X62.272 Y141.806 E0.02141
G1 X61.834 Y141.268 E0.02176
G1 X61.465 Y140.563 E0.02495
G1 X61.271 Y139.886 E0.02208
G1 X61.210 Y139.227 E0.02075
G1 X61.210 Y70.758 E2.14680
G1 X61.267 Y70.137 E0.01955
G1 X61.429 Y69.533 E0.01961
G1 X61.694 Y68.956 E0.01991
G1 X62.040 Y68.453 E0.01913
G1 X62.583 Y67.913 E0.02403
G1 X63.312 Y67.454 E0.02700
G1 X64.142 Y67.176 E0.02744
G1 X64.849 Y67.097 E0.02232
G1 X122.087 Y67.096 E1.79466
G1 X188.402 Y72.950 E2.08734
G1 X189.138 Y73.155 E0.02394
G1 X189.758 Y73.601 E0.02394
G1 X190.215 Y74.296 E0.02608
G1 X190.380 Y75.108 E0.02597
G1 X190.380 Y134.769 E1.87065
G1 X190.221 Y135.558 E0.02521
G1 E-0.80000 F2100.00000
G1 Z0.800 F10800.000
G1 X181.015 Y95.682
G1 Z0.200
G1 E0.80000 F2100.00000
G1 F1200
G1 X184.402 Y92.295 E0.15020
G1 X184.841 Y91.424 E0.03058
G1 X185.121 Y90.509 E0.03000
G1 X179.618 Y96.013 E0.24405
G1 X178.939 Y96.189 E0.02198
G1 X178.322 Y96.242 E0.01943
G1 X185.349 Y89.215 E0.31159
G1 X185.395 Y88.854 E0.01140
G1 X185.364 Y88.133 E0.02264
G1 X177.230 Y96.268 E0.36071
G1 X176.256 Y96.175 E0.03068
G1 X185.260 Y87.171 E0.39928
G1 X185.071 Y86.293 E0.02814
G1 X175.409 Y95.955 E0.42841
G1 X175.034 Y95.857 E0.01216
G1 X174.625 Y95.672 E0.01406
G1 X184.772 Y85.526 E0.44990
G1 X184.569 Y85.023 E0.01700
G1 X184.432 Y84.799 E0.00823
G1 X173.891 Y95.340 E0.46740
G1 X173.247 Y94.918 E0.02415
G1 X184.025 Y84.139 E0.47794
G1 X183.878 Y83.900 E0.00882
G1 X183.560 Y83.538 E0.01509
G1 X172.629 Y94.469 E0.48469
G1 X172.084 Y93.947 E0.02365
G1 X183.060 Y82.971 E0.48670
G1 X182.480 Y82.485 E0.02374
G1 X171.581 Y93.384 E0.48329
G1 X171.128 Y92.771 E0.02391
G1 X181.876 Y82.023 E0.47659
G1 X181.192 Y81.640 E0.02458
G1 X170.744 Y92.088 E0.46327
G1 X170.393 Y91.372 E0.02499
G1 X180.459 Y81.307 E0.44632
G1 X179.670 Y81.028 E0.02621
G1 X170.143 Y90.556 E0.42247
G1 X170.022 Y90.163 E0.01289
G1 X169.960 Y89.673 E0.01549
G1 X178.773 Y80.859 E0.39081
G1 X178.285 Y80.775 E0.01555
G1 X177.791 Y80.775 E0.01549
G1 X169.861 Y88.704 E0.35160
G1 X169.909 Y87.591 E0.03496
G1 X176.674 Y80.825 E0.29999
G1 X175.665 Y80.998 E0.03209
G1 X175.308 Y81.124 E0.01187
G1 X170.191 Y86.242 E0.22692
G1 X170.681 Y85.023 E0.04118
G1 X171.221 Y84.145 E0.03234
G1 X173.745 Y81.621 E0.11189
G1 E-0.80000 F2100.00000
G1 Z0.800 F10800.000
G1 X162.701 Y95.865
G1 Z0.200
G1 E0.80000 F2100.00000
G1 F1200
G1 X166.717 Y91.849 E0.17808
G1 X166.931 Y91.424 E0.01491
G1 X167.309 Y90.190 E0.04046
G1 X161.409 Y96.091 E0.26164
G1 X161.029 Y96.189 E0.01229
G1 X160.170 Y96.263 E0.02704
G1 X167.471 Y88.961 E0.32375
G1 X167.485 Y88.854 E0.00338
G1 X167.445 Y87.921 E0.02930
G1 X159.116 Y96.250 E0.36935
G1 X158.401 Y96.189 E0.02250
G1 X158.170 Y96.129 E0.00747
G1 X167.311 Y86.989 E0.40532
G1 X167.151 Y86.247 E0.02379
G1 X167.104 Y86.129 E0.00398
G1 X157.324 Y95.909 E0.43366
G1 X157.124 Y95.857 E0.00647
G1 X156.563 Y95.603 E0.01931
G1 X166.798 Y85.368 E0.45384
G1 X166.659 Y85.023 E0.01167
G1 X166.437 Y84.663 E0.01327
G1 X155.841 Y95.259 E0.46986
G1 X155.205 Y94.829 E0.02408
G1 X166.031 Y84.002 E0.48006
G1 X165.968 Y83.900 E0.00378
G1 X165.546 Y83.421 E0.02001
G1 X154.606 Y94.361 E0.48511
G1 X154.061 Y93.839 E0.02365
G1 X165.038 Y82.862 E0.48672
G1 X164.448 Y82.386 E0.02378
G1 X159.162 Y87.672 E0.23440
G1 X159.640 Y88.150 E0.02120
G1 X158.939 Y88.851 E0.03108
G1 X158.461 Y88.373 E0.02120
G1 X153.577 Y93.257 E0.21655
G1 X153.124 Y92.644 E0.02391
G1 X163.824 Y81.943 E0.47447
G1 X163.140 Y81.561 E0.02458
G1 X152.760 Y91.941 E0.46027
G1 X152.499 Y91.424 E0.01816
G1 X152.431 Y91.203 E0.00724
G1 X162.385 Y81.249 E0.44137
G1 X161.675 Y80.998 E0.02362
G1 X161.585 Y80.983 E0.00286
G1 X152.181 Y90.387 E0.41698
G1 X152.112 Y90.163 E0.00734
G1 X152.025 Y89.476 E0.02169
G1 X160.674 Y80.827 E0.38355
G1 X160.375 Y80.775 E0.00954
G1 X159.659 Y80.775 E0.02242
G1 X151.961 Y88.473 E0.34135
G1 X152.001 Y87.536 E0.02941
G1 X152.047 Y87.321 E0.00692
G1 X158.497 Y80.871 E0.28599
M73 P0 R232
G1 X157.755 Y80.998 E0.02359
G1 X157.056 Y81.245 E0.02324
G1 X152.124 Y86.178 E0.21872
G1 E-0.80000 F2100.00000
G1 Z0.800 F10800.000
G1 X144.404 Y96.030
G1 Z0.200
G1 E0.80000 F2100.00000
G1 F1200
G1 X149.026 Y91.409 E0.20493
G1 X149.408 Y90.163 E0.04085
G1 X149.437 Y89.931 E0.00733
G1 X143.199 Y96.169 E0.27659
G1 X143.119 Y96.189 E0.00259
G1 X142.018 Y96.283 E0.03465
G1 X149.570 Y88.732 E0.33485
G1 X149.526 Y87.709 E0.03211
G1 X141.002 Y96.233 E0.37799
G1 X140.491 Y96.189 E0.01609
G1 X140.085 Y96.084 E0.01315
G1 X149.362 Y86.807 E0.41136
G1 X149.241 Y86.247 E0.01795
G1 X149.130 Y85.971 E0.00931
G1 X139.238 Y95.863 E0.43863
G1 X138.501 Y95.535 E0.02532
G1 X148.825 Y85.211 E0.45778
G1 X148.749 Y85.023 E0.00634
G1 X148.443 Y84.526 E0.01831
G1 X137.799 Y95.170 E0.47198
G1 X137.163 Y94.740 E0.02408
G1 X148.032 Y83.870 E0.48196
G1 X147.533 Y83.303 E0.02369
G1 X143.006 Y87.830 E0.20073
G1 X143.326 Y88.150 E0.01421
G1 X142.625 Y88.851 E0.03108
G1 X142.305 Y88.531 E0.01421
G1 X136.583 Y94.253 E0.25371
G1 X136.038 Y93.731 E0.02365
G1 X147.006 Y82.764 E0.48630
G1 X146.415 Y82.287 E0.02378
G1 X135.573 Y93.130 E0.48077
G1 X135.183 Y92.602 E0.02058
G1 X135.133 Y92.503 E0.00346
G1 X145.772 Y81.864 E0.47175
G1 X145.088 Y81.482 E0.02458
G1 X134.775 Y91.794 E0.45726
G1 X134.589 Y91.424 E0.01300
G1 X134.469 Y91.034 E0.01280
G1 X144.312 Y81.191 E0.43643
G1 X143.765 Y80.998 E0.01819
G1 X143.486 Y80.950 E0.00886
G1 X134.219 Y90.217 E0.41091
G1 X134.090 Y89.280 E0.02965
G1 X142.576 Y80.794 E0.37629
G1 X142.465 Y80.775 E0.00353
G1 X141.528 Y80.775 E0.02936
G1 X134.061 Y88.242 E0.33111
G1 X134.091 Y87.536 E0.02215
G1 X134.198 Y87.039 E0.01597
G1 X140.320 Y80.917 E0.27145
G1 X139.845 Y80.998 E0.01510
G1 X138.804 Y81.366 E0.03462
G1 X134.362 Y85.808 E0.19696
G1 X133.487 Y85.456 F10800.000
G1 F1200
G1 X133.863 Y84.520 E0.03163
G1 X134.654 Y83.235 E0.04730
G1 X135.634 Y82.122 E0.04651
G1 X136.824 Y81.156 E0.04806
G1 X138.141 Y80.420 E0.04733
G1 X139.564 Y79.917 E0.04730
G1 X141.051 Y79.662 E0.04730
G1 X142.559 Y79.662 E0.04730
G1 X144.046 Y79.917 E0.04730
G1 X145.469 Y80.420 E0.04730
G1 X146.786 Y81.155 E0.04730
G1 X147.959 Y82.103 E0.04730
G1 X148.956 Y83.235 E0.04730
G1 X149.747 Y84.520 E0.04730
G1 X150.309 Y85.920 E0.04730
G1 X150.627 Y87.395 E0.04730
G1 X150.691 Y88.902 E0.04730
G1 X150.503 Y90.373 E0.04651
G1 X150.058 Y91.840 E0.04806
G1 X149.379 Y93.188 E0.04733
G1 X148.482 Y94.400 E0.04730
G1 X147.393 Y95.444 E0.04730
G1 X146.164 Y96.275 E0.04651
G1 X144.769 Y96.910 E0.04806
G1 X143.308 Y97.291 E0.04733
G1 X141.805 Y97.418 E0.04730
G1 X140.302 Y97.291 E0.04730
G1 X138.842 Y96.910 E0.04730
G1 X137.467 Y96.289 E0.04730
G1 X136.217 Y95.444 E0.04730
G1 X135.128 Y94.400 E0.04730
G1 X134.231 Y93.188 E0.04730
G1 X133.564 Y91.863 E0.04651
G1 X133.111 Y90.399 E0.04806
G1 X132.919 Y88.902 E0.04733
G1 X132.983 Y87.395 E0.04730
G1 X133.301 Y85.920 E0.04730
G1 X133.465 Y85.512 E0.01379
G1 X133.815 Y85.652 F10800.000
G1 F1200
G1 X134.201 Y84.690 E0.03250
G1 X134.958 Y83.460 E0.04529
G1 X135.896 Y82.395 E0.04451
G1 X137.036 Y81.469 E0.04604
G1 X138.297 Y80.764 E0.04530
G1 X139.659 Y80.283 E0.04529
G1 X141.083 Y80.039 E0.04529
G1 X142.527 Y80.039 E0.04529
G1 X143.951 Y80.283 E0.04529
G1 X145.313 Y80.764 E0.04529
G1 X146.574 Y81.469 E0.04529
G1 X147.697 Y82.376 E0.04529
G1 X148.652 Y83.460 E0.04529
G1 X149.409 Y84.690 E0.04529
G1 X149.947 Y86.031 E0.04529
G1 X150.252 Y87.443 E0.04529
G1 X150.313 Y88.886 E0.04529
G1 X150.133 Y90.294 E0.04451
G1 X149.707 Y91.699 E0.04604
G1 X149.056 Y92.989 E0.04530
G1 X148.198 Y94.150 E0.04529
G1 X147.155 Y95.150 E0.04529
G1 X145.979 Y95.945 E0.04451
G1 X144.642 Y96.553 E0.04604
G1 X143.244 Y96.918 E0.04530
G1 X141.805 Y97.040 E0.04529
G1 X140.366 Y96.918 E0.04529
G1 X138.968 Y96.554 E0.04529
G1 X137.652 Y95.959 E0.04529
G1 X136.455 Y95.150 E0.04529
G1 X135.412 Y94.150 E0.04529
G1 X134.554 Y92.989 E0.04529
G1 X133.914 Y91.722 E0.04451
G1 X133.480 Y90.319 E0.04604
G1 X133.297 Y88.886 E0.04530
G1 X133.358 Y87.443 E0.04529
G1 X133.663 Y86.031 E0.04529
G1 X133.792 Y85.708 E0.01090
G1 X133.554 Y85.349 F10800.000
G1 E-0.80000 F2100.00000
G1 Z0.800 F10800.000
G1 X150.893 Y87.395
G1 Z0.200
G1 E0.80000 F2100.00000
G1 F1200
G1 X151.211 Y85.920 E0.04730
G1 X151.773 Y84.520 E0.04730
G1 X152.564 Y83.235 E0.04730
G1 X153.561 Y82.103 E0.04730
G1 X154.734 Y81.155 E0.04730
G1 X156.051 Y80.420 E0.04730
G1 X157.474 Y79.917 E0.04730
G1 X158.961 Y79.662 E0.04730
G1 X160.469 Y79.662 E0.04730
G1 X161.931 Y79.913 E0.04650
G1 X163.378 Y80.419 E0.04806
G1 X164.696 Y81.155 E0.04733
G1 X165.869 Y82.103 E0.04730
G1 X166.866 Y83.235 E0.04730
G1 X167.657 Y84.520 E0.04730
G1 X168.210 Y85.896 E0.04651
G1 X168.537 Y87.394 E0.04806
G1 X168.601 Y88.902 E0.04733
G1 X168.410 Y90.398 E0.04730
G1 X167.968 Y91.841 E0.04730
G1 X167.289 Y93.188 E0.04730
G1 X166.392 Y94.400 E0.04730
G1 X165.303 Y95.444 E0.04730
G1 X164.074 Y96.275 E0.04650
G1 X162.679 Y96.910 E0.04806
G1 X161.218 Y97.291 E0.04733
G1 X159.715 Y97.418 E0.04730
G1 X158.212 Y97.291 E0.04730
G1 X156.752 Y96.910 E0.04730
G1 X155.377 Y96.289 E0.04730
G1 X154.127 Y95.444 E0.04730
G1 X153.057 Y94.418 E0.04651
G1 X152.142 Y93.188 E0.04806
G1 X151.462 Y91.841 E0.04733
G1 X151.020 Y90.398 E0.04730
G1 X150.829 Y88.902 E0.04730
G1 X150.890 Y87.454 E0.04542
G1 X151.267 Y87.470 F10800.000
G1 F1200
G1 X151.573 Y86.031 E0.04615
G1 X152.111 Y84.690 E0.04529
G1 X152.868 Y83.460 E0.04529
G1 X153.823 Y82.376 E0.04529
G1 X154.946 Y81.469 E0.04529
G1 X156.207 Y80.764 E0.04529
G1 X157.569 Y80.283 E0.04529
G1 X158.993 Y80.039 E0.04529
G1 X160.437 Y80.039 E0.04529
G1 X161.836 Y80.279 E0.04451
G1 X163.222 Y80.764 E0.04604
G1 X164.484 Y81.469 E0.04530
G1 X165.607 Y82.376 E0.04529
G1 X166.562 Y83.460 E0.04529
G1 X167.319 Y84.690 E0.04529
G1 X167.848 Y86.008 E0.04451
G1 X168.162 Y87.442 E0.04604
G1 X168.223 Y88.886 E0.04530
G1 X168.040 Y90.318 E0.04529
G1 X167.617 Y91.699 E0.04529
G1 X166.966 Y92.989 E0.04529
G1 X166.108 Y94.150 E0.04529
G1 X165.065 Y95.150 E0.04529
G1 X163.889 Y95.945 E0.04451
G1 X162.552 Y96.553 E0.04604
G1 X161.154 Y96.918 E0.04530
G1 X159.715 Y97.040 E0.04529
G1 X158.276 Y96.918 E0.04529
G1 X156.878 Y96.554 E0.04529
G1 X155.562 Y95.959 E0.04529
G1 X154.365 Y95.150 E0.04529
G1 X153.340 Y94.168 E0.04451
G1 X152.464 Y92.989 E0.04604
G1 X151.813 Y91.699 E0.04530
G1 X151.390 Y90.318 E0.04529
G1 X151.207 Y88.886 E0.04529
G1 X151.264 Y87.530 E0.04253
G1 X150.948 Y87.229 F10800.000
G1 E-0.80000 F2100.00000
G1 Z0.800 F10800.000
G1 X168.765 Y88.274
G1 Z0.200
G1 E0.80000 F2100.00000
G1 F1200
G1 X168.803 Y87.395 E0.02760
G1 X169.121 Y85.920 E0.04730
G1 X169.683 Y84.520 E0.04730
G1 X170.474 Y83.235 E0.04730
G1 X171.471 Y82.103 E0.04730
G1 X172.644 Y81.155 E0.04730
G1 X173.961 Y80.420 E0.04730
G1 X175.384 Y79.917 E0.04730
G1 X176.871 Y79.662 E0.04730
G1 X178.379 Y79.662 E0.04730
G1 X179.866 Y79.917 E0.04730
G1 X181.289 Y80.420 E0.04730
G1 X182.606 Y81.155 E0.04730
G1 X183.779 Y82.103 E0.04730
G1 X184.776 Y83.235 E0.04730
G1 X185.567 Y84.520 E0.04730
G1 X186.120 Y85.896 E0.04651
G1 X186.447 Y87.394 E0.04806
G1 X186.511 Y88.902 E0.04733
G1 X186.320 Y90.398 E0.04730
G1 X185.878 Y91.841 E0.04730
G1 X185.199 Y93.188 E0.04730
G1 X184.302 Y94.400 E0.04730
G1 X183.213 Y95.444 E0.04730
G1 X181.963 Y96.289 E0.04730
G1 X180.588 Y96.910 E0.04730
G1 X179.128 Y97.291 E0.04730
G1 X177.625 Y97.418 E0.04730
G1 X176.122 Y97.291 E0.04730
G1 X174.662 Y96.910 E0.04730
G1 X173.287 Y96.289 E0.04730
G1 X172.037 Y95.444 E0.04730
G1 X170.967 Y94.418 E0.04651
G1 X170.052 Y93.188 E0.04806
G1 X169.372 Y91.841 E0.04733
G1 X168.930 Y90.398 E0.04730
G1 X168.739 Y88.902 E0.04730
G1 X168.763 Y88.334 E0.01782
G1 X169.140 Y88.350 F10800.000
G1 F1200
G1 X169.178 Y87.443 E0.02847
G1 X169.483 Y86.031 E0.04529
G1 X170.021 Y84.690 E0.04529
G1 X170.778 Y83.460 E0.04529
G1 X171.733 Y82.376 E0.04529
G1 X172.856 Y81.469 E0.04529
G1 X174.117 Y80.764 E0.04529
G1 X175.479 Y80.283 E0.04529
G1 X176.903 Y80.039 E0.04529
G1 X178.347 Y80.039 E0.04529
G1 X179.771 Y80.283 E0.04529
G1 X181.133 Y80.764 E0.04529
G1 X182.394 Y81.469 E0.04529
G1 X183.517 Y82.376 E0.04529
G1 X184.472 Y83.460 E0.04529
G1 X185.229 Y84.690 E0.04529
G1 X185.758 Y86.008 E0.04451
G1 X186.072 Y87.442 E0.04604
G1 X186.133 Y88.886 E0.04530
G1 X185.950 Y90.318 E0.04529
G1 X185.527 Y91.699 E0.04529
G1 X184.876 Y92.989 E0.04529
G1 X184.018 Y94.150 E0.04529
G1 X182.975 Y95.150 E0.04529
G1 X181.778 Y95.959 E0.04529
G1 X180.462 Y96.554 E0.04529
G1 X179.064 Y96.918 E0.04529
G1 X177.625 Y97.040 E0.04529
G1 X176.186 Y96.918 E0.04529
G1 X174.788 Y96.554 E0.04529
G1 X173.472 Y95.959 E0.04529
G1 X172.275 Y95.150 E0.04529
G1 X171.250 Y94.168 E0.04451
G1 X170.374 Y92.989 E0.04604
G1 X169.723 Y91.699 E0.04530
G1 X169.300 Y90.318 E0.04529
G1 X169.117 Y88.886 E0.04529
G1 X169.137 Y88.410 E0.01494
G1 X168.793 Y88.149 F10800.000
G1 E-0.80000 F2100.00000
G1 Z0.800 F10800.000
G1 X145.854 Y75.728
G1 Z0.200
G1 E0.80000 F2100.00000
G1 F1200
G1 X187.590 Y75.728 E1.30863
G1 X187.590 Y101.320 E0.80243
G1 X131.840 Y101.320 E1.74802
G1 X131.840 Y75.728 E0.80243
G1 X145.794 Y75.728 E0.43751
G1 X145.794 Y75.351 F10800.000
G1 F1200
G1 X187.967 Y75.351 E1.32233
G1 X187.967 Y101.697 E0.82607
G1 X131.463 Y101.697 E1.77166
G1 X131.463 Y75.351 E0.82607
G1 X145.734 Y75.351 E0.44745
G1 X146.102 Y75.606 F10800.000
G1 E-0.80000 F2100.00000
G1 Z0.800 F10800.000
G1 X147.062 Y81.233
G1 Z0.200
G1 E0.80000 F2100.00000
G1 F1200
G1 X141.840 Y76.011 E0.23282
G1 X141.303 Y76.011 E0.01690
G1 X145.381 Y80.089 E0.18182
G1 X144.552 Y79.796 E0.02772
G1 X140.767 Y76.011 E0.16875
G1 X140.231 Y76.011 E0.01690
G1 X143.810 Y79.590 E0.15955
G1 X143.163 Y79.479 E0.02070
G1 X139.695 Y76.011 E0.15461
G1 X139.159 Y76.011 E0.01690
G1 X142.527 Y79.379 E0.15018
G1 X141.991 Y79.379 E0.01690
G1 X138.622 Y76.011 E0.15018
G1 X138.086 Y76.011 E0.01690
G1 X141.455 Y79.379 E0.15018
G1 X141.027 Y79.379 E0.01349
G1 X140.934 Y79.395 E0.00295
G1 X137.550 Y76.011 E0.15088
G1 X137.014 Y76.011 E0.01690
G1 X140.477 Y79.474 E0.15438
G1 X140.019 Y79.552 E0.01464
G1 X136.478 Y76.011 E0.15788
G1 X135.942 Y76.011 E0.01690
G1 X139.561 Y79.631 E0.16138
G1 X139.156 Y79.761 E0.01343
G1 X135.405 Y76.011 E0.16721
G1 X134.869 Y76.011 E0.01690
