; generated by PrusaSlicer 2.1.1+win64 on 2020-06-02 at 19:52:54 UTC

; 

; external perimeters extrusion width = 0.45mm
; perimeters extrusion width = 0.45mm
; infill extrusion width = 0.45mm
; solid infill extrusion width = 0.45mm
; top infill extrusion width = 0.40mm
; support material extrusion width = 0.35mm
; first layer extrusion width = 0.42mm

M73 P0 R72
M201 X9000 Y9000 Z500 E10000 ; sets maximum accelerations, mm/sec^2
M203 X500 Y500 Z12 E120 ; sets maximum feedrates, mm/sec
M204 P2000 R1500 T2000 ; sets acceleration (P, T) and retract acceleration (R), mm/sec^2
M205 X10.00 Y10.00 Z0.20 E2.50 ; sets the jerk limits, mm/sec
M205 S0 T0 ; sets the minimum extruding and travel feed rate, mm/sec
M107
M862.3 P "MK2.5SMMU2S" ; printer model check
M862.1 P0.4 ; nozzle diameter check
M115 U3.8.0 ; tell printer latest fw version
G90 ; use absolute coordinates
M83 ; extruder relative mode
M104 S215 ; set extruder temp
M140 S60 ; set bed temp
Tx
M190 S60 ; wait for bed temp
M109 S215 ; wait for extruder temp
G28 W ; home all without mesh bed level
G80 ; mesh bed leveling

G21 ; set units to millimeters

;go outside print area
G1 Y-3.0 F1000.0
G1 Z0.4 F1000.0
; select extruder
Tc
; purge line
G1 X55.0 F2000.0
G1 Z0.3 F1000.0
G92 E0.0
G1 X240.0 E25.0 F2200.0
M73 P0 R72
G1 Y-2.0 F1000.0
G1 X55.0 E25 F1400.0
G1 Z0.20 F1000.0
G1 X5.0 E4.0 F1000.0
G92 E0.0
G21 ; set units to millimeters
G90 ; use absolute coordinates
M83 ; use relative distances for extrusion
M900 K30 ; Filament gcode
;BEFORE_LAYER_CHANGE
G92 E0.0
;0.2


G1 E-0.80000 F2100.00000
G1 Z0.600 F10800.000
;AFTER_LAYER_CHANGE
;0.2
G1 X99.647 Y85.859
G1 Z0.200
G1 E0.80000 F2100.00000
M204 S1000
G1 F1200
G1 X104.089 Y81.417 E0.19696
G1 X105.130 Y81.049 E0.03462
G1 X105.605 Y80.968 E0.01510
G1 X99.483 Y87.090 E0.27145
G1 X99.376 Y87.587 E0.01597
G1 X99.346 Y88.293 E0.02216
G1 X106.813 Y80.826 E0.33111
G1 X107.750 Y80.826 E0.02936
G1 X107.861 Y80.845 E0.00353
G1 X99.375 Y89.331 E0.37629
G1 X99.504 Y90.268 E0.02965
G1 X108.771 Y81.001 E0.41091
G1 X109.050 Y81.049 E0.00886
G1 X109.597 Y81.242 E0.01819
G1 X99.754 Y91.085 E0.43643
G1 X99.874 Y91.475 E0.01280
G1 X100.060 Y91.845 E0.01300
G1 X110.373 Y81.533 E0.45726
G1 X111.057 Y81.915 E0.02458
G1 X100.418 Y92.554 E0.47175
G1 X100.468 Y92.653 E0.00346
G1 X100.858 Y93.181 E0.02058
G1 X111.700 Y82.338 E0.48077
G1 X112.291 Y82.815 E0.02378
G1 X101.323 Y93.782 E0.48630
G1 X101.868 Y94.304 E0.02365
G1 X107.590 Y88.582 E0.25371
G1 X107.910 Y88.902 E0.01421
G1 X108.611 Y88.201 E0.03108
G1 X108.291 Y87.881 E0.01421
G1 X112.818 Y83.354 E0.20073
G1 X113.317 Y83.921 E0.02369
G1 X102.448 Y94.791 E0.48196
G1 X103.084 Y95.221 E0.02408
G1 X113.728 Y84.577 E0.47198
G1 X114.034 Y85.074 E0.01831
G1 X114.110 Y85.262 E0.00634
G1 X103.786 Y95.586 E0.45778
G1 X104.523 Y95.914 E0.02532
G1 X114.415 Y86.022 E0.43863
G1 X114.526 Y86.298 E0.00931
G1 X114.647 Y86.858 E0.01795
G1 X105.370 Y96.135 E0.41136
G1 X105.776 Y96.240 E0.01315
G1 X106.287 Y96.284 E0.01609
G1 X114.811 Y87.760 E0.37799
G1 X114.855 Y88.783 E0.03211
G1 X107.303 Y96.334 E0.33485
G1 X108.404 Y96.240 E0.03465
G1 X108.484 Y96.220 E0.00259
G1 X114.722 Y89.982 E0.27659
G1 X114.693 Y90.214 E0.00733
G1 X114.311 Y91.460 E0.04085
G1 X109.689 Y96.081 E0.20493
G1 E-0.80000 F2100.00000
G1 Z0.800 F10800.000
G1 X117.409 Y86.229
G1 Z0.200
G1 E0.80000 F2100.00000
G1 F1200
G1 X122.341 Y81.296 E0.21872
G1 X123.040 Y81.049 E0.02324
G1 X123.782 Y80.922 E0.02359
G1 X117.332 Y87.372 E0.28599
G1 X117.286 Y87.587 E0.00692
G1 X117.246 Y88.524 E0.02941
G1 X124.944 Y80.826 E0.34135
G1 X125.660 Y80.826 E0.02242
G1 X125.959 Y80.878 E0.00954
G1 X117.310 Y89.527 E0.38355
G1 X117.397 Y90.214 E0.02169
G1 X117.466 Y90.438 E0.00734
G1 X126.870 Y81.034 E0.41698
G1 X126.960 Y81.049 E0.00286
G1 X127.670 Y81.300 E0.02362
G1 X117.716 Y91.254 E0.44137
G1 X117.784 Y91.475 E0.00724
G1 X118.045 Y91.992 E0.01816
G1 X128.425 Y81.612 E0.46027
G1 X129.109 Y81.994 E0.02458
G1 X118.409 Y92.695 E0.47447
G1 X118.862 Y93.308 E0.02391
G1 X123.746 Y88.424 E0.21655
G1 X124.224 Y88.902 E0.02120
G1 X124.925 Y88.201 E0.03108
G1 X124.447 Y87.723 E0.02120
G1 X129.733 Y82.437 E0.23440
G1 X130.323 Y82.913 E0.02378
G1 X119.346 Y93.890 E0.48672
G1 X119.891 Y94.412 E0.02365
G1 X130.831 Y83.472 E0.48511
G1 X131.253 Y83.951 E0.02001
G1 X131.316 Y84.053 E0.00378
G1 X120.490 Y94.880 E0.48006
G1 X121.126 Y95.310 E0.02408
G1 X131.722 Y84.714 E0.46986
G1 X131.944 Y85.074 E0.01327
G1 X132.083 Y85.419 E0.01167
G1 X121.848 Y95.654 E0.45384
G1 X122.409 Y95.908 E0.01931
G1 X122.609 Y95.960 E0.00647
G1 X132.389 Y86.180 E0.43366
G1 X132.436 Y86.298 E0.00398
G1 X132.596 Y87.040 E0.02379
G1 X123.455 Y96.180 E0.40532
G1 X123.686 Y96.240 E0.00747
G1 X124.401 Y96.301 E0.02250
G1 X132.730 Y87.972 E0.36935
G1 X132.770 Y88.905 E0.02930
G1 X132.756 Y89.012 E0.00338
G1 X125.455 Y96.314 E0.32375
G1 X126.314 Y96.240 E0.02704
G1 X126.694 Y96.142 E0.01229
G1 X132.594 Y90.241 E0.26164
G1 X132.216 Y91.475 E0.04046
G1 X132.002 Y91.900 E0.01491
G1 X127.986 Y95.916 E0.17807
G1 E-0.80000 F2100.00000
G1 Z0.800 F10800.000
G1 X139.030 Y81.672
G1 Z0.200
G1 E0.80000 F2100.00000
G1 F1200
G1 X136.506 Y84.196 E0.11189
G1 X135.966 Y85.074 E0.03234
G1 X135.476 Y86.293 E0.04118
G1 X140.593 Y81.175 E0.22692
G1 X140.950 Y81.049 E0.01187
G1 X141.959 Y80.876 E0.03209
G1 X135.194 Y87.642 E0.29999
G1 X135.146 Y88.755 E0.03496
G1 X143.076 Y80.826 E0.35160
G1 X143.570 Y80.826 E0.01549
G1 X144.058 Y80.910 E0.01555
G1 X135.245 Y89.724 E0.39081
G1 X135.307 Y90.214 E0.01549
G1 X135.428 Y90.607 E0.01289
G1 X144.955 Y81.079 E0.42247
G1 X145.744 Y81.358 E0.02621
G1 X135.678 Y91.423 E0.44632
G1 X136.029 Y92.139 E0.02499
G1 X146.477 Y81.691 E0.46327
G1 X147.161 Y82.074 E0.02458
G1 X136.413 Y92.822 E0.47659
G1 X136.866 Y93.435 E0.02391
G1 X147.765 Y82.536 E0.48329
G1 X148.345 Y83.022 E0.02374
G1 X137.369 Y93.998 E0.48670
G1 X137.914 Y94.520 E0.02365
G1 X148.845 Y83.589 E0.48469
G1 X149.163 Y83.951 E0.01509
G1 X149.310 Y84.190 E0.00882
G1 X138.532 Y94.969 E0.47794
G1 X139.176 Y95.391 E0.02415
G1 X149.717 Y84.850 E0.46740
G1 X149.854 Y85.074 E0.00823
G1 X150.057 Y85.577 E0.01700
G1 X139.910 Y95.723 E0.44990
G1 X140.319 Y95.908 E0.01406
G1 X140.694 Y96.006 E0.01216
G1 X150.356 Y86.344 E0.42841
G1 X150.545 Y87.222 E0.02814
G1 X141.541 Y96.226 E0.39928
G1 X142.515 Y96.319 E0.03068
G1 X150.649 Y88.184 E0.36071
G1 X150.680 Y88.905 E0.02264
G1 X150.634 Y89.266 E0.01140
G1 X143.607 Y96.293 E0.31159
G1 X144.224 Y96.240 E0.01943
G1 X144.903 Y96.064 E0.02198
G1 X150.406 Y90.560 E0.24405
G1 X150.126 Y91.475 E0.03000
G1 X149.687 Y92.346 E0.03058
G1 X146.300 Y95.733 E0.15020
G1 E-0.80000 F2100.00000
G1 Z0.800 F10800.000
G1 X115.785 Y90.449
G1 Z0.200
G1 E0.80000 F2100.00000
G1 F1200
G1 X115.343 Y91.892 E0.04730
G1 X114.664 Y93.239 E0.04730
G1 X113.767 Y94.451 E0.04730
G1 X112.678 Y95.495 E0.04730
G1 X111.449 Y96.326 E0.04650
G1 X110.054 Y96.961 E0.04806
G1 X108.593 Y97.342 E0.04733
G1 X107.090 Y97.469 E0.04730
G1 X105.587 Y97.342 E0.04730
G1 X104.127 Y96.961 E0.04730
G1 X102.752 Y96.340 E0.04730
G1 X101.502 Y95.495 E0.04730
G1 X100.413 Y94.451 E0.04730
G1 X99.516 Y93.239 E0.04730
G1 X98.849 Y91.914 E0.04651
G1 X98.396 Y90.450 E0.04806
G1 X98.204 Y88.953 E0.04733
G1 X98.268 Y87.446 E0.04730
G1 X98.586 Y85.971 E0.04730
G1 X99.148 Y84.571 E0.04730
G1 X99.939 Y83.286 E0.04730
G1 X100.919 Y82.173 E0.04651
G1 X102.109 Y81.207 E0.04806
G1 X103.426 Y80.471 E0.04733
G1 X104.849 Y79.968 E0.04730
G1 X106.336 Y79.713 E0.04730
G1 X107.844 Y79.713 E0.04730
G1 X109.306 Y79.964 E0.04651
G1 X110.753 Y80.470 E0.04806
G1 X112.071 Y81.206 E0.04733
G1 X113.244 Y82.154 E0.04730
G1 X114.241 Y83.286 E0.04730
G1 X115.032 Y84.571 E0.04730
G1 X115.585 Y85.947 E0.04650
G1 X115.912 Y87.445 E0.04806
G1 X115.976 Y88.953 E0.04733
G1 X115.792 Y90.390 E0.04542
G1 X115.418 Y90.342 F10800.000
G1 F1200
G1 X114.992 Y91.750 E0.04615
G1 X114.341 Y93.040 E0.04529
G1 X113.483 Y94.201 E0.04529
G1 X112.440 Y95.201 E0.04529
G1 X111.264 Y95.996 E0.04451
G1 X109.927 Y96.605 E0.04604
G1 X108.529 Y96.969 E0.04530
G1 X107.090 Y97.091 E0.04529
G1 X105.651 Y96.969 E0.04529
G1 X104.253 Y96.605 E0.04529
G1 X102.937 Y96.010 E0.04529
G1 X101.740 Y95.201 E0.04529
G1 X100.697 Y94.201 E0.04529
G1 X99.839 Y93.040 E0.04529
G1 X99.199 Y91.773 E0.04451
G1 X98.765 Y90.370 E0.04604
G1 X98.582 Y88.937 E0.04530
G1 X98.643 Y87.494 E0.04529
G1 X98.948 Y86.082 E0.04529
G1 X99.486 Y84.741 E0.04529
G1 X100.243 Y83.512 E0.04529
G1 X101.181 Y82.446 E0.04451
G1 X102.321 Y81.520 E0.04604
G1 X103.582 Y80.815 E0.04530
G1 X104.944 Y80.334 E0.04529
G1 X106.368 Y80.090 E0.04529
G1 X107.812 Y80.090 E0.04529
G1 X109.211 Y80.330 E0.04451
G1 X110.597 Y80.815 E0.04604
G1 X111.859 Y81.520 E0.04530
G1 X112.982 Y82.427 E0.04529
G1 X113.937 Y83.512 E0.04529
G1 X114.694 Y84.741 E0.04529
G1 X115.223 Y86.059 E0.04451
G1 X115.537 Y87.493 E0.04604
G1 X115.598 Y88.937 E0.04530
M73 P1 R71
G1 X115.426 Y90.282 E0.04253
G1 X115.715 Y90.609 F10800.000
G1 X116.270 Y90.174
G1 F1200
G1 X116.114 Y88.953 E0.03861
G1 X116.178 Y87.446 E0.04730
G1 X116.496 Y85.971 E0.04730
G1 X117.058 Y84.571 E0.04730
G1 X117.849 Y83.286 E0.04730
G1 X118.846 Y82.154 E0.04730
G1 X120.019 Y81.206 E0.04730
G1 X121.336 Y80.471 E0.04730
G1 X122.759 Y79.968 E0.04730
G1 X124.246 Y79.713 E0.04730
G1 X125.754 Y79.713 E0.04730
G1 X127.216 Y79.964 E0.04650
G1 X128.663 Y80.470 E0.04806
G1 X129.981 Y81.206 E0.04733
G1 X131.154 Y82.154 E0.04730
G1 X132.151 Y83.286 E0.04730
G1 X132.942 Y84.571 E0.04730
G1 X133.495 Y85.947 E0.04651
G1 X133.822 Y87.445 E0.04806
G1 X133.886 Y88.953 E0.04733
G1 X133.695 Y90.449 E0.04730
G1 X133.253 Y91.892 E0.04730
G1 X132.574 Y93.239 E0.04730
G1 X131.677 Y94.451 E0.04730
G1 X130.588 Y95.495 E0.04730
G1 X129.359 Y96.326 E0.04650
G1 X127.964 Y96.961 E0.04806
G1 X126.503 Y97.342 E0.04733
G1 X125.000 Y97.469 E0.04730
G1 X123.497 Y97.342 E0.04730
G1 X122.037 Y96.961 E0.04730
G1 X120.662 Y96.340 E0.04730
G1 X119.412 Y95.495 E0.04730
G1 X118.323 Y94.451 E0.04730
G1 X117.426 Y93.239 E0.04730
G1 X116.759 Y91.914 E0.04651
G1 X116.306 Y90.450 E0.04806
G1 X116.278 Y90.234 E0.00684
G1 X116.652 Y90.186 F10800.000
G1 F1200
G1 X116.492 Y88.937 E0.03948
G1 X116.553 Y87.494 E0.04529
G1 X116.858 Y86.082 E0.04529
G1 X117.396 Y84.741 E0.04529
G1 X118.153 Y83.512 E0.04529
G1 X119.108 Y82.427 E0.04529
G1 X120.231 Y81.520 E0.04529
G1 X121.492 Y80.815 E0.04529
G1 X122.854 Y80.334 E0.04529
G1 X124.278 Y80.090 E0.04529
G1 X125.722 Y80.090 E0.04529
G1 X127.121 Y80.330 E0.04451
G1 X128.507 Y80.815 E0.04604
G1 X129.769 Y81.520 E0.04530
G1 X130.892 Y82.427 E0.04529
G1 X131.847 Y83.512 E0.04529
G1 X132.604 Y84.741 E0.04529
G1 X133.133 Y86.059 E0.04451
G1 X133.447 Y87.493 E0.04604
G1 X133.508 Y88.937 E0.04530
G1 X133.325 Y90.369 E0.04529
G1 X132.902 Y91.750 E0.04529
G1 X132.251 Y93.040 E0.04529
G1 X131.393 Y94.201 E0.04529
G1 X130.350 Y95.201 E0.04529
G1 X129.174 Y95.996 E0.04451
G1 X127.837 Y96.605 E0.04604
G1 X126.439 Y96.969 E0.04530
G1 X125.000 Y97.091 E0.04529
G1 X123.561 Y96.969 E0.04529
G1 X122.163 Y96.605 E0.04529
G1 X120.847 Y96.010 E0.04529
G1 X119.650 Y95.201 E0.04529
G1 X118.607 Y94.201 E0.04529
G1 X117.749 Y93.040 E0.04529
G1 X117.109 Y91.773 E0.04451
G1 X116.675 Y90.370 E0.04604
G1 X116.659 Y90.245 E0.00394
G1 X116.275 Y90.050 F10800.000
G1 E-0.80000 F2100.00000
G1 Z0.800 F10800.000
G1 X134.024 Y88.953
G1 Z0.200
G1 E0.80000 F2100.00000
G1 F1200
G1 X134.088 Y87.446 E0.04730
G1 X134.406 Y85.971 E0.04730
G1 X134.968 Y84.571 E0.04730
G1 X135.759 Y83.286 E0.04730
G1 X136.756 Y82.154 E0.04730
G1 X137.929 Y81.206 E0.04730
G1 X139.246 Y80.471 E0.04730
G1 X140.669 Y79.968 E0.04730
G1 X142.156 Y79.713 E0.04730
G1 X143.664 Y79.713 E0.04730
G1 X145.126 Y79.964 E0.04650
G1 X146.573 Y80.470 E0.04806
G1 X147.891 Y81.206 E0.04733
G1 X149.064 Y82.154 E0.04730
G1 X150.061 Y83.286 E0.04730
G1 X150.852 Y84.571 E0.04730
G1 X151.405 Y85.947 E0.04651
G1 X151.732 Y87.445 E0.04806
G1 X151.796 Y88.953 E0.04733
G1 X151.605 Y90.449 E0.04730
G1 X151.163 Y91.892 E0.04730
G1 X150.484 Y93.239 E0.04730
G1 X149.587 Y94.451 E0.04730
G1 X148.498 Y95.495 E0.04730
G1 X147.269 Y96.326 E0.04650
G1 X145.874 Y96.961 E0.04806
G1 X144.413 Y97.342 E0.04733
G1 X142.910 Y97.469 E0.04730
G1 X141.407 Y97.342 E0.04730
G1 X139.947 Y96.961 E0.04730
G1 X138.572 Y96.340 E0.04730
G1 X137.322 Y95.495 E0.04730
G1 X136.252 Y94.469 E0.04651
G1 X135.337 Y93.239 E0.04806
G1 X134.657 Y91.892 E0.04733
G1 X134.215 Y90.449 E0.04730
G1 X134.031 Y89.012 E0.04542
G1 X134.405 Y88.964 F10800.000
G1 F1200
G1 X134.463 Y87.494 E0.04615
G1 X134.768 Y86.082 E0.04529
G1 X135.306 Y84.741 E0.04529
G1 X136.063 Y83.512 E0.04529
G1 X137.018 Y82.427 E0.04529
G1 X138.141 Y81.520 E0.04529
G1 X139.402 Y80.815 E0.04529
G1 X140.764 Y80.334 E0.04529
G1 X142.188 Y80.090 E0.04529
G1 X143.632 Y80.090 E0.04529
G1 X145.031 Y80.330 E0.04451
G1 X146.417 Y80.815 E0.04604
G1 X147.679 Y81.520 E0.04530
G1 X148.802 Y82.427 E0.04529
G1 X149.757 Y83.512 E0.04529
G1 X150.514 Y84.741 E0.04529
G1 X151.043 Y86.059 E0.04451
G1 X151.357 Y87.493 E0.04604
G1 X151.418 Y88.937 E0.04530
G1 X151.235 Y90.369 E0.04529
G1 X150.812 Y91.750 E0.04529
G1 X150.161 Y93.040 E0.04529
G1 X149.303 Y94.201 E0.04529
G1 X148.260 Y95.201 E0.04529
G1 X147.084 Y95.996 E0.04451
G1 X145.747 Y96.605 E0.04604
G1 X144.349 Y96.969 E0.04530
G1 X142.910 Y97.091 E0.04529
G1 X141.471 Y96.969 E0.04529
G1 X140.073 Y96.605 E0.04529
G1 X138.757 Y96.010 E0.04529
G1 X137.560 Y95.201 E0.04529
G1 X136.535 Y94.219 E0.04451
G1 X135.659 Y93.040 E0.04604
G1 X135.008 Y91.750 E0.04530
G1 X134.585 Y90.369 E0.04529
G1 X134.413 Y89.024 E0.04253
G1 X134.050 Y88.780 F10800.000
G1 E-0.80000 F2100.00000
G1 Z0.800 F10800.000
G1 X97.125 Y82.575
G1 Z0.200
G1 E0.80000 F2100.00000
G1 F1200
G1 X97.125 Y75.779 E0.21307
G1 X152.875 Y75.779 E1.74802
G1 X152.875 Y101.371 E0.80243
G1 X97.125 Y101.371 E1.74802
G1 X97.125 Y82.635 E0.58748
G1 X96.748 Y82.635 F10800.000
G1 F1200
G1 X96.748 Y75.402 E0.22677
G1 X153.252 Y75.402 E1.77166
G1 X153.252 Y101.748 E0.82607
G1 X96.748 Y101.748 E1.77166
G1 X96.748 Y82.695 E0.59742
G1 X96.984 Y82.312 F10800.000
G1 E-0.80000 F2100.00000
G1 Z0.800 F10800.000
G1 X99.348 Y93.486
G1 Z0.200
G1 E0.80000 F2100.00000
G1 F1200
G1 X97.408 Y91.546 E0.08651
G1 X97.408 Y91.010 E0.01690
G1 X98.756 Y92.358 E0.06010
G1 X98.585 Y92.020 E0.01192
G1 X98.420 Y91.486 E0.01762
G1 X97.408 Y90.474 E0.04515
G1 X97.408 Y89.937 E0.01690
G1 X98.180 Y90.710 E0.03444
G1 X98.118 Y90.510 E0.00659
G1 X98.060 Y90.053 E0.01452
G1 X97.408 Y89.401 E0.02907
G1 X97.408 Y88.865 E0.01690
G1 X97.981 Y89.438 E0.02556
G1 X97.920 Y88.965 E0.01505
G1 X97.925 Y88.847 E0.00373
G1 X97.408 Y88.329 E0.02308
G1 X97.408 Y87.793 E0.01690
G1 X97.947 Y88.332 E0.02406
G1 X97.969 Y87.818 E0.01623
G1 X97.408 Y87.257 E0.02503
G1 X97.408 Y86.720 E0.01690
G1 X98.006 Y87.319 E0.02668
G1 X98.101 Y86.878 E0.01423
G1 X97.408 Y86.184 E0.03092
G1 X97.408 Y85.648 E0.01690
G1 X98.196 Y86.436 E0.03515
G1 X98.291 Y85.995 E0.01423
G1 X97.408 Y85.112 E0.03939
G1 X97.408 Y84.576 E0.01690
G1 X98.431 Y85.598 E0.04561
G1 X98.584 Y85.216 E0.01300
G1 X97.408 Y84.039 E0.05246
G1 X97.408 Y83.503 E0.01690
G1 X98.738 Y84.833 E0.05931
G1 X98.892 Y84.451 E0.01300
G1 X97.408 Y82.967 E0.06617
G1 X97.408 Y82.431 E0.01690
G1 X99.095 Y84.118 E0.07523
G1 X99.299 Y83.786 E0.01229
G1 X97.408 Y81.895 E0.08434
G1 X97.408 Y81.358 E0.01690
G1 X99.504 Y83.454 E0.09345
G1 X99.708 Y83.123 E0.01229
G1 X97.408 Y80.822 E0.10256
G1 X97.408 Y80.286 E0.01690
G1 X99.958 Y82.837 E0.11372
G1 X100.209 Y82.551 E0.01198
G1 X97.408 Y79.750 E0.12491
G1 X97.408 Y79.214 E0.01690
G1 X100.460 Y82.266 E0.13610
G1 X100.711 Y81.981 E0.01198
G1 X97.408 Y78.677 E0.14730
G1 X97.408 Y78.141 E0.01690
G1 X101.005 Y81.739 E0.16040
G1 X101.301 Y81.498 E0.01202
G1 X97.408 Y77.605 E0.17359
G1 X97.408 Y77.069 E0.01690
G1 X101.597 Y81.258 E0.18678
G1 X101.893 Y81.018 E0.01202
G1 X97.408 Y76.533 E0.19997
G1 X97.408 Y76.062 E0.01484
G1 X97.473 Y76.062 E0.00207
G1 X102.228 Y80.816 E0.21198
G1 X102.572 Y80.624 E0.01242
G1 X98.009 Y76.062 E0.20341
G1 X98.546 Y76.062 E0.01690
