; generated by PrusaSlicer 2.2.0+win64 on 2020-10-22 at 18:48:46 UTC

; 

; external perimeters extrusion width = 0.45mm
; perimeters extrusion width = 0.45mm
; infill extrusion width = 0.45mm
; solid infill extrusion width = 0.45mm
; top infill extrusion width = 0.40mm
; support material extrusion width = 0.35mm
; first layer extrusion width = 0.42mm

M73 P0 R233
M201 X9000 Y9000 Z500 E10000 ; sets maximum accelerations, mm/sec^2
M203 X500 Y500 Z12 E120 ; sets maximum feedrates, mm/sec
M204 P2000 R1500 T2000 ; sets acceleration (P, T) and retract acceleration (R), mm/sec^2
M205 X10.00 Y10.00 Z0.20 E4.50 ; sets the jerk limits, mm/sec
M205 S0 T0 ; sets the minimum extruding and travel feed rate, mm/sec
M107
M862.3 P "MK2.5SMMU2S" ; printer model check
M862.1 P0.4 ; nozzle diameter check
M115 U3.9.1 ; tell printer latest fw version
G90 ; use absolute coordinates
M83 ; extruder relative mode
M104 S215 ; set extruder temp
M140 S60 ; set bed temp
Tx
M190 S60 ; wait for bed temp
M109 S215 ; wait for extruder temp
G28 W ; home all without mesh bed level
G80 ; mesh bed leveling

;go outside print area
G1 Y-3.0 F1000.0
G1 Z0.4 F1000.0
; select extruder
Tc
; purge line
G1 X55.0 F2000.0
G1 Z0.3 F1000.0
G92 E0.0
G1 X240.0 E25.0 F2200.0
M73 P0 R233
G1 Y-2.0 F1000.0
G1 X55.0 E25 F1400.0
G1 Z0.20 F1000.0
G1 X5.0 E4.0 F1000.0
G92 E0.0
G21 ; set units to millimeters
G90 ; use absolute coordinates
M83 ; use relative distances for extrusion
M900 K0.06 ; Filament gcode LA 1.5
M900 K30 ; Filament gcode LA 1.0
;BEFORE_LAYER_CHANGE
G92 E0.0
;0.2


G1 E-0.80000 F2100.00000
G1 Z0.600 F10800.000
;AFTER_LAYER_CHANGE
;0.2
G1 X190.382 Y135.693
G1 Z0.200
G1 E0.80000 F2100.00000
M204 S1000
G1 F1200.000
G1 X189.851 Y136.471 E0.02954
G1 X189.196 Y136.924 E0.02496
G1 X188.424 Y137.135 E0.02508
G1 X122.184 Y143.090 E2.08528
G1 X64.852 Y143.092 E1.79762
G1 X64.136 Y143.016 E0.02259
G1 X63.332 Y142.762 E0.02641
G1 X62.688 Y142.401 E0.02317
G1 X62.136 Y141.936 E0.02262
G1 X61.676 Y141.371 E0.02285
G1 X61.291 Y140.635 E0.02603
G1 X61.087 Y139.925 E0.02318
G1 X61.021 Y139.226 E0.02202
G1 X61.021 Y70.753 E2.14690
G1 X61.081 Y70.105 E0.02042
G1 X61.251 Y69.470 E0.02062
G1 X61.531 Y68.863 E0.02094
G1 X61.891 Y68.337 E0.02000
G1 X62.464 Y67.767 E0.02535
G1 X63.228 Y67.286 E0.02829
G1 X64.096 Y66.993 E0.02873
G1 X64.843 Y66.908 E0.02356
G1 X122.088 Y66.908 E1.79488
G1 X188.420 Y72.763 E2.08788
G1 X189.219 Y72.985 E0.02602
G1 X189.893 Y73.469 E0.02602
G1 X190.387 Y74.218 E0.02813
G1 X190.568 Y75.101 E0.02825
G1 X190.568 Y134.769 E1.87085
G1 X190.393 Y135.634 E0.02766
G1 F8640.000
G1 X189.851 Y136.471 E-0.23038
G1 X189.196 Y136.924 E-0.18383
G1 X188.424 Y137.135 E-0.18469
G1 X187.729 Y137.197 E-0.16110
G1 E-0.04000 F2100.00000
G1 Z0.800 F10800.000
G1 X64.829 Y112.113
G1 Z0.200
G1 E0.80000 F2100.00000
G1 F1200.000
G1 X122.153 Y112.113 E1.79736
G1 X122.153 Y139.287 E0.85203
G1 X64.829 Y139.287 E1.79736
G1 X64.829 Y112.173 E0.85015
G1 X65.206 Y112.490 F10800.000
G1 F1200.000
G1 X121.776 Y112.490 E1.77371
G1 X121.776 Y138.910 E0.82838
G1 X65.206 Y138.910 E1.77371
G1 X65.206 Y112.550 E0.82650
G1 X65.058 Y112.118 F10800.000
G1 F8640.000
G1 X68.497 Y112.547 E-0.76000
G1 E-0.04000 F2100.00000
G1 Z0.800 F10800.000
G1 X64.015 Y112.038
G1 Z0.200
G1 E0.80000 F2100.00000
G1 F1200.000
G1 X64.053 Y111.897 E0.00457
G1 X64.168 Y111.676 E0.00783
G1 X64.328 Y111.501 E0.00742
G1 X64.528 Y111.374 E0.00742
G1 X64.766 Y111.299 E0.00783
G1 X64.937 Y111.284 E0.00538
G1 X122.044 Y111.284 E1.79055
G1 X122.228 Y111.300 E0.00577
G1 X122.381 Y111.341 E0.00499
G1 X122.525 Y111.408 E0.00497
G1 X122.655 Y111.499 E0.00497
G1 X122.767 Y111.611 E0.00497
G1 X122.858 Y111.741 E0.00497
G1 X122.925 Y111.885 E0.00497
G1 X122.966 Y112.038 E0.00497
G1 X122.982 Y112.222 E0.00578
G1 X122.982 Y139.178 E0.84521
G1 X122.966 Y139.362 E0.00578
G1 X122.928 Y139.503 E0.00457
G1 X122.813 Y139.724 E0.00783
G1 X122.653 Y139.899 E0.00742
G1 X122.453 Y140.026 E0.00742
G1 X122.215 Y140.101 E0.00783
G1 X122.044 Y140.116 E0.00538
G1 X64.937 Y140.116 E1.79055
G1 X64.753 Y140.100 E0.00578
G1 X64.613 Y140.062 E0.00457
G1 X64.391 Y139.947 E0.00783
G1 X64.216 Y139.787 E0.00742
G1 X64.089 Y139.587 E0.00742
G1 X64.014 Y139.349 E0.00783
G1 X63.999 Y139.178 E0.00538
G1 X64.010 Y112.098 E0.84909
G1 X63.857 Y111.458 F10800.000
G1 F1200.000
G1 X64.084 Y111.210 E0.01054
G1 X64.367 Y111.029 E0.01054
G1 X64.692 Y110.927 E0.01069
G1 X64.921 Y110.907 E0.00719
G1 X122.061 Y110.907 E1.79159
M73 P0 R232
G1 X122.293 Y110.927 E0.00732
G1 X122.511 Y110.985 E0.00706
G1 X122.714 Y111.080 E0.00704
G1 X122.898 Y111.209 E0.00704
G1 X123.057 Y111.368 E0.00704
G1 X123.186 Y111.552 E0.00704
G1 X123.281 Y111.755 E0.00704
G1 X123.339 Y111.972 E0.00704
G1 X123.359 Y112.205 E0.00733
G1 X123.359 Y139.195 E0.84624
G1 X123.339 Y139.428 E0.00733
G1 X123.282 Y139.640 E0.00690
G1 X123.125 Y139.942 E0.01068
G1 X122.898 Y140.190 E0.01053
G1 X122.614 Y140.371 E0.01054
G1 X122.289 Y140.473 E0.01069
G1 X122.061 Y140.493 E0.00719
G1 X64.921 Y140.493 E1.79159
G1 X64.688 Y140.473 E0.00733
G1 X64.475 Y140.416 E0.00690
G1 X64.173 Y140.259 E0.01068
G1 X63.925 Y140.032 E0.01054
G1 X63.745 Y139.748 E0.01054
G1 X63.642 Y139.423 E0.01068
G1 X63.622 Y139.195 E0.00719
G1 X63.622 Y112.205 E0.84624
G1 X63.643 Y111.972 E0.00733
G1 X63.700 Y111.760 E0.00690
G1 X63.829 Y111.511 E0.00880
G1 X64.191 Y111.492 F10800.000
G1 F8640.000
G1 X64.084 Y111.210 E-0.09104
G1 X64.367 Y111.029 E-0.07759
G1 X64.692 Y110.927 E-0.07869
G1 X64.921 Y110.907 E-0.05294
G1 X66.912 Y110.907 E-0.45974
G1 E-0.04000 F2100.00000
G1 Z0.800 F10800.000
G1 X64.112 Y138.749
G1 Z0.200
G1 E0.80000 F2100.00000
G1 F1200.000
G1 X64.546 Y139.182 E0.01923
G1 X64.546 Y138.648 E0.01675
G1 X64.282 Y138.384 E0.01170
G1 X64.282 Y137.851 E0.01675
G1 X64.546 Y138.115 E0.01170
G1 X64.546 Y137.581 E0.01675
G1 X64.282 Y137.317 E0.01170
G1 X64.282 Y136.783 E0.01675
G1 X64.546 Y137.047 E0.01170
G1 X64.546 Y136.513 E0.01675
G1 X64.282 Y136.250 E0.01170
G1 X64.282 Y135.716 E0.01675
G1 X64.546 Y135.980 E0.01170
G1 X64.546 Y135.446 E0.01675
G1 X64.282 Y135.182 E0.01170
G1 X64.282 Y134.649 E0.01675
G1 X64.546 Y134.912 E0.01170
G1 X64.546 Y134.379 E0.01675
G1 X64.282 Y134.115 E0.01170
G1 X64.282 Y133.581 E0.01675
G1 X64.546 Y133.845 E0.01170
G1 X64.546 Y133.311 E0.01675
G1 X64.282 Y133.048 E0.01170
G1 X64.282 Y132.514 E0.01675
G1 X64.546 Y132.778 E0.01170
G1 X64.546 Y132.244 E0.01675
G1 X64.282 Y131.980 E0.01170
G1 X64.282 Y131.446 E0.01675
G1 X64.546 Y131.710 E0.01170
G1 X64.546 Y131.176 E0.01675
G1 X64.282 Y130.913 E0.01170
G1 X64.282 Y130.379 E0.01675
G1 X64.546 Y130.643 E0.01170
G1 X64.546 Y130.109 E0.01675
G1 X64.282 Y129.845 E0.01170
G1 X64.282 Y129.312 E0.01675
G1 X64.546 Y129.575 E0.01170
G1 X64.546 Y129.042 E0.01675
G1 X64.282 Y128.778 E0.01170
G1 X64.282 Y128.244 E0.01675
G1 X64.546 Y128.508 E0.01170
G1 X64.546 Y127.974 E0.01675
G1 X64.282 Y127.711 E0.01170
G1 X64.282 Y127.177 E0.01675
G1 X64.546 Y127.441 E0.01170
G1 X64.546 Y126.907 E0.01675
G1 X64.282 Y126.643 E0.01170
G1 X64.282 Y126.109 E0.01675
G1 X64.546 Y126.373 E0.01170
G1 X64.546 Y125.839 E0.01675
G1 X64.282 Y125.576 E0.01170
G1 X64.282 Y125.042 E0.01675
G1 X64.546 Y125.306 E0.01170
G1 X64.546 Y124.772 E0.01675
G1 X64.282 Y124.508 E0.01170
G1 X64.282 Y123.975 E0.01675
G1 X64.546 Y124.238 E0.01170
G1 X64.546 Y123.705 E0.01675
G1 X64.282 Y123.441 E0.01170
G1 X64.282 Y122.907 E0.01675
G1 X64.546 Y123.171 E0.01170
G1 X64.546 Y122.637 E0.01675
G1 X64.282 Y122.374 E0.01170
G1 X64.282 Y121.840 E0.01675
G1 X64.546 Y122.104 E0.01170
G1 X64.546 Y121.570 E0.01675
G1 X64.282 Y121.306 E0.01170
G1 X64.282 Y120.772 E0.01675
G1 X64.546 Y121.036 E0.01170
G1 X64.546 Y120.502 E0.01675
G1 X64.282 Y120.239 E0.01170
G1 X64.282 Y119.705 E0.01675
G1 X64.546 Y119.969 E0.01170
G1 X64.546 Y119.435 E0.01675
G1 X64.282 Y119.171 E0.01170
G1 X64.282 Y118.638 E0.01675
G1 X64.546 Y118.901 E0.01170
G1 X64.546 Y118.368 E0.01675
G1 X64.282 Y118.104 E0.01170
G1 X64.282 Y117.570 E0.01675
G1 X64.546 Y117.834 E0.01170
G1 X64.546 Y117.300 E0.01675
G1 X64.282 Y117.037 E0.01170
G1 X64.282 Y116.503 E0.01675
G1 X64.546 Y116.767 E0.01170
G1 X64.546 Y116.233 E0.01675
G1 X64.282 Y115.969 E0.01170
G1 X64.282 Y115.435 E0.01675
G1 X64.546 Y115.699 E0.01170
G1 X64.546 Y115.165 E0.01675
G1 X64.282 Y114.902 E0.01170
G1 X64.282 Y114.368 E0.01675
G1 X64.546 Y114.632 E0.01170
G1 X64.546 Y114.098 E0.01675
G1 X64.282 Y113.834 E0.01170
G1 X64.282 Y113.301 E0.01675
G1 X64.546 Y113.564 E0.01170
G1 X64.546 Y113.031 E0.01675
G1 X64.282 Y112.767 E0.01170
G1 X64.282 Y112.234 E0.01672
G1 X64.546 Y112.497 E0.01169
G1 X64.546 Y111.963 E0.01675
G1 X64.411 Y111.829 E0.00596
G1 X64.512 Y111.720 E0.00465
G1 X64.648 Y111.633 E0.00509
G1 X64.725 Y111.609 E0.00251
G1 X64.946 Y111.830 E0.00983
G1 X65.480 Y111.830 E0.01675
G1 X65.217 Y111.567 E0.01169
G1 X65.750 Y111.567 E0.01675
G1 X66.014 Y111.830 E0.01169
G1 X66.547 Y111.830 E0.01675
G1 X66.284 Y111.567 E0.01169
G1 X66.818 Y111.567 E0.01675
G1 X67.081 Y111.830 E0.01169
G1 X67.615 Y111.830 E0.01675
G1 X67.352 Y111.567 E0.01169
G1 X67.885 Y111.567 E0.01675
G1 X68.149 Y111.830 E0.01169
G1 X68.682 Y111.830 E0.01675
G1 X68.419 Y111.567 E0.01169
G1 X68.953 Y111.567 E0.01675
G1 X69.216 Y111.830 E0.01169
G1 X69.750 Y111.830 E0.01675
G1 X69.486 Y111.567 E0.01169
G1 X70.020 Y111.567 E0.01675
G1 X70.283 Y111.830 E0.01169
G1 X70.817 Y111.830 E0.01675
G1 X70.554 Y111.567 E0.01169
G1 X71.087 Y111.567 E0.01675
G1 X71.351 Y111.830 E0.01169
G1 X71.884 Y111.830 E0.01675
G1 X71.621 Y111.567 E0.01169
G1 X72.155 Y111.567 E0.01675
G1 X72.418 Y111.830 E0.01169
G1 X72.952 Y111.830 E0.01675
G1 X72.689 Y111.567 E0.01169
G1 X73.222 Y111.567 E0.01675
G1 X73.486 Y111.830 E0.01169
G1 X74.019 Y111.830 E0.01675
G1 X73.756 Y111.567 E0.01169
G1 X74.290 Y111.567 E0.01675
G1 X74.553 Y111.830 E0.01169
G1 X75.087 Y111.830 E0.01675
G1 X74.823 Y111.567 E0.01169
G1 X75.357 Y111.567 E0.01675
G1 X75.620 Y111.830 E0.01169
G1 X76.154 Y111.830 E0.01675
G1 X75.891 Y111.567 E0.01169
G1 X76.424 Y111.567 E0.01675
G1 X76.688 Y111.830 E0.01169
G1 X77.221 Y111.830 E0.01675
G1 X76.958 Y111.567 E0.01169
G1 X77.492 Y111.567 E0.01675
G1 X77.755 Y111.830 E0.01169
G1 X78.289 Y111.830 E0.01675
G1 X78.025 Y111.567 E0.01169
G1 X78.559 Y111.567 E0.01675
G1 X78.823 Y111.830 E0.01169
G1 X79.356 Y111.830 E0.01675
G1 X79.093 Y111.567 E0.01169
G1 X79.627 Y111.567 E0.01675
G1 X79.890 Y111.830 E0.01169
G1 X80.424 Y111.830 E0.01675
G1 X80.160 Y111.567 E0.01169
G1 X80.694 Y111.567 E0.01675
G1 X80.957 Y111.830 E0.01169
G1 X81.491 Y111.830 E0.01675
G1 X81.228 Y111.567 E0.01169
G1 X81.761 Y111.567 E0.01675
G1 X82.025 Y111.830 E0.01169
G1 X82.558 Y111.830 E0.01675
G1 X82.295 Y111.567 E0.01169
G1 X82.829 Y111.567 E0.01675
G1 X83.092 Y111.830 E0.01169
G1 X83.626 Y111.830 E0.01675
G1 X83.362 Y111.567 E0.01169
G1 X83.896 Y111.567 E0.01675
G1 X84.160 Y111.830 E0.01169
G1 X84.693 Y111.830 E0.01675
G1 X84.430 Y111.567 E0.01169
G1 X84.964 Y111.567 E0.01675
G1 X85.227 Y111.830 E0.01169
G1 X85.761 Y111.830 E0.01675
G1 X85.497 Y111.567 E0.01169
G1 X86.031 Y111.567 E0.01675
G1 X86.294 Y111.830 E0.01169
G1 X86.828 Y111.830 E0.01675
G1 X86.565 Y111.567 E0.01169
G1 X87.098 Y111.567 E0.01675
G1 X87.362 Y111.830 E0.01169
G1 X87.895 Y111.830 E0.01675
G1 X87.632 Y111.567 E0.01169
G1 X88.166 Y111.567 E0.01675
G1 X88.429 Y111.830 E0.01169
G1 X88.963 Y111.830 E0.01675
G1 X88.699 Y111.567 E0.01169
G1 X89.233 Y111.567 E0.01675
G1 X89.496 Y111.830 E0.01169
G1 X90.030 Y111.830 E0.01675
G1 X89.767 Y111.567 E0.01169
G1 X90.301 Y111.567 E0.01675
G1 X90.564 Y111.830 E0.01169
G1 X91.098 Y111.830 E0.01675
G1 X90.834 Y111.567 E0.01169
G1 X91.368 Y111.567 E0.01675
G1 X91.631 Y111.830 E0.01169
G1 X92.165 Y111.830 E0.01675
G1 X91.902 Y111.567 E0.01169
G1 X92.435 Y111.567 E0.01675
G1 X92.699 Y111.830 E0.01169
G1 X93.232 Y111.830 E0.01675
G1 X92.969 Y111.567 E0.01169
G1 X93.503 Y111.567 E0.01675
G1 X93.766 Y111.830 E0.01169
G1 X94.300 Y111.830 E0.01675
G1 X94.036 Y111.567 E0.01169
G1 X94.570 Y111.567 E0.01675
G1 X94.833 Y111.830 E0.01169
G1 X95.367 Y111.830 E0.01675
G1 X95.104 Y111.567 E0.01169
G1 X95.638 Y111.567 E0.01675
G1 X95.901 Y111.830 E0.01169
G1 X96.435 Y111.830 E0.01675
G1 X96.171 Y111.567 E0.01169
G1 X96.705 Y111.567 E0.01675
G1 X96.968 Y111.830 E0.01169
G1 X97.502 Y111.830 E0.01675
G1 X97.239 Y111.567 E0.01169
G1 X97.772 Y111.567 E0.01675
G1 X98.036 Y111.830 E0.01169
G1 X98.569 Y111.830 E0.01675
G1 X98.306 Y111.567 E0.01169
G1 X98.840 Y111.567 E0.01675
G1 X99.103 Y111.830 E0.01169
G1 X99.637 Y111.830 E0.01675
G1 X99.373 Y111.567 E0.01169
G1 X99.907 Y111.567 E0.01675
G1 X100.170 Y111.830 E0.01169
G1 X100.704 Y111.830 E0.01675
G1 X100.441 Y111.567 E0.01169
G1 X100.975 Y111.567 E0.01675
G1 X101.238 Y111.830 E0.01169
G1 X101.772 Y111.830 E0.01675
G1 X101.508 Y111.567 E0.01169
G1 X102.042 Y111.567 E0.01675
G1 X102.305 Y111.830 E0.01169
G1 X102.839 Y111.830 E0.01675
G1 X102.576 Y111.567 E0.01169
G1 X103.109 Y111.567 E0.01675
G1 X103.373 Y111.830 E0.01169
G1 X103.906 Y111.830 E0.01675
G1 X103.643 Y111.567 E0.01169
G1 X104.177 Y111.567 E0.01675
G1 X104.440 Y111.830 E0.01169
G1 X104.974 Y111.830 E0.01675
G1 X104.710 Y111.567 E0.01169
G1 X105.244 Y111.567 E0.01675
G1 X105.507 Y111.830 E0.01169
G1 X106.041 Y111.830 E0.01675
G1 X105.778 Y111.567 E0.01169
G1 X106.312 Y111.567 E0.01675
G1 X106.575 Y111.830 E0.01169
G1 X107.109 Y111.830 E0.01675
G1 X106.845 Y111.567 E0.01169
G1 X107.379 Y111.567 E0.01675
G1 X107.642 Y111.830 E0.01169
G1 X108.176 Y111.830 E0.01675
G1 X107.913 Y111.567 E0.01169
G1 X108.446 Y111.567 E0.01675
G1 X108.710 Y111.830 E0.01169
G1 X109.243 Y111.830 E0.01675
G1 X108.980 Y111.567 E0.01169
G1 X109.514 Y111.567 E0.01675
G1 X109.777 Y111.830 E0.01169
G1 X110.311 Y111.830 E0.01675
G1 X110.047 Y111.567 E0.01169
G1 X110.581 Y111.567 E0.01675
G1 X110.844 Y111.830 E0.01169
G1 X111.378 Y111.830 E0.01675
G1 X111.115 Y111.567 E0.01169
G1 X111.649 Y111.567 E0.01675
G1 X111.912 Y111.830 E0.01169
G1 X112.446 Y111.830 E0.01675
G1 X112.182 Y111.567 E0.01169
G1 X112.716 Y111.567 E0.01675
G1 X112.979 Y111.830 E0.01169
G1 X113.513 Y111.830 E0.01675
G1 X113.250 Y111.567 E0.01169
G1 X113.783 Y111.567 E0.01675
G1 X114.047 Y111.830 E0.01169
G1 X114.580 Y111.830 E0.01675
G1 X114.317 Y111.567 E0.01169
G1 X114.851 Y111.567 E0.01675
G1 X115.114 Y111.830 E0.01169
G1 X115.648 Y111.830 E0.01675
G1 X115.384 Y111.567 E0.01169
G1 X115.918 Y111.567 E0.01675
G1 X116.181 Y111.830 E0.01169
G1 X116.715 Y111.830 E0.01675
G1 X116.452 Y111.567 E0.01169
G1 X116.986 Y111.567 E0.01675
G1 X117.249 Y111.830 E0.01169
G1 X117.783 Y111.830 E0.01675
G1 X117.519 Y111.567 E0.01169
G1 X118.053 Y111.567 E0.01675
G1 X118.316 Y111.830 E0.01169
G1 X118.850 Y111.830 E0.01675
G1 X118.587 Y111.567 E0.01169
G1 X119.120 Y111.567 E0.01675
G1 X119.384 Y111.830 E0.01169
G1 X119.917 Y111.830 E0.01675
G1 X119.654 Y111.567 E0.01169
G1 X120.188 Y111.567 E0.01675
G1 X120.451 Y111.830 E0.01169
G1 X120.985 Y111.830 E0.01675
G1 X120.721 Y111.567 E0.01169
G1 X121.255 Y111.567 E0.01675
G1 X121.518 Y111.830 E0.01169
G1 X122.052 Y111.830 E0.01675
G1 X121.789 Y111.567 E0.01169
G1 X122.032 Y111.567 E0.00763
G1 X122.178 Y111.580 E0.00461
G1 X122.383 Y111.654 E0.00684
G1 X122.472 Y111.716 E0.00339
G1 X122.858 Y112.102 E0.01715
G1 X122.869 Y112.647 F10800.000
G1 F1200.000
G1 X122.436 Y112.214 E0.01923
G1 X122.436 Y112.747 E0.01675
G1 X122.699 Y113.011 E0.01170
G1 X122.699 Y113.545 E0.01675
G1 X122.436 Y113.281 E0.01170
G1 X122.436 Y113.815 E0.01675
G1 X122.699 Y114.078 E0.01170
G1 X122.699 Y114.612 E0.01675
G1 X122.436 Y114.348 E0.01170
G1 X122.436 Y114.882 E0.01675
G1 X122.699 Y115.146 E0.01170
G1 X122.699 Y115.679 E0.01675
G1 X122.436 Y115.416 E0.01170
G1 X122.436 Y115.949 E0.01675
G1 X122.699 Y116.213 E0.01170
G1 X122.699 Y116.747 E0.01675
G1 X122.436 Y116.483 E0.01170
G1 X122.436 Y117.017 E0.01675
G1 X122.699 Y117.281 E0.01170
G1 X122.699 Y117.814 E0.01675
G1 X122.436 Y117.551 E0.01170
G1 X122.436 Y118.084 E0.01675
G1 X122.699 Y118.348 E0.01170
G1 X122.699 Y118.882 E0.01675
G1 X122.436 Y118.618 E0.01170
G1 X122.436 Y119.152 E0.01675
