; generated by PrusaSlicer 2.1.1+win64 on 2020-06-02 at 19:51:50 UTC

; 

; external perimeters extrusion width = 0.45mm
; perimeters extrusion width = 0.45mm
; infill extrusion width = 0.45mm
; solid infill extrusion width = 0.45mm
; top infill extrusion width = 0.40mm
; support material extrusion width = 0.35mm
; first layer extrusion width = 0.42mm

M73 P0 R328
M201 X9000 Y9000 Z500 E10000 ; sets maximum accelerations, mm/sec^2
M203 X500 Y500 Z12 E120 ; sets maximum feedrates, mm/sec
M204 P2000 R1500 T2000 ; sets acceleration (P, T) and retract acceleration (R), mm/sec^2
M205 X10.00 Y10.00 Z0.20 E2.50 ; sets the jerk limits, mm/sec
M205 S0 T0 ; sets the minimum extruding and travel feed rate, mm/sec
M107
M862.3 P "MK2.5SMMU2S" ; printer model check
M862.1 P0.4 ; nozzle diameter check
M115 U3.8.0 ; tell printer latest fw version
G90 ; use absolute coordinates
M83 ; extruder relative mode
M104 S215 ; set extruder temp
M140 S60 ; set bed temp
Tx
M190 S60 ; wait for bed temp
M109 S215 ; wait for extruder temp
G28 W ; home all without mesh bed level
G80 ; mesh bed leveling

G21 ; set units to millimeters

;go outside print area
G1 Y-3.0 F1000.0
G1 Z0.4 F1000.0
; select extruder
Tc
; purge line
G1 X55.0 F2000.0
G1 Z0.3 F1000.0
G92 E0.0
G1 X240.0 E25.0 F2200.0
M73 P0 R328
G1 Y-2.0 F1000.0
G1 X55.0 E25 F1400.0
G1 Z0.20 F1000.0
G1 X5.0 E4.0 F1000.0
G92 E0.0
G21 ; set units to millimeters
G90 ; use absolute coordinates
M83 ; use relative distances for extrusion
M900 K30 ; Filament gcode
;BEFORE_LAYER_CHANGE
G92 E0.0
;0.2


G1 E-0.80000 F2100.00000
G1 Z0.600 F10800.000
;AFTER_LAYER_CHANGE
;0.2
G1 X61.623 Y70.713
G1 Z0.200
G1 E0.80000 F2100.00000
M204 S1000
G1 F1200
G1 X118.947 Y70.713 E1.79736
G1 X118.947 Y97.887 E0.85203
G1 X61.623 Y97.887 E1.79736
G1 X61.623 Y70.773 E0.85015
G1 X62.000 Y71.090 F10800.000
G1 F1200
G1 X118.570 Y71.090 E1.77371
G1 X118.570 Y97.510 E0.82838
G1 X62.000 Y97.510 E1.77371
G1 X62.000 Y71.150 E0.82650
G1 X61.852 Y70.718 F10800.000
G1 E-0.80000 F2100.00000
G1 Z0.800 F10800.000
G1 X60.794 Y89.507
G1 Z0.200
G1 E0.80000 F2100.00000
G1 F1200
G1 X60.794 Y70.822 E0.58588
G1 X60.810 Y70.638 E0.00578
G1 X60.847 Y70.497 E0.00457
G1 X60.963 Y70.276 E0.00783
G1 X61.123 Y70.101 E0.00742
G1 X61.322 Y69.974 E0.00742
G1 X61.561 Y69.899 E0.00783
G1 X61.731 Y69.884 E0.00538
G1 X118.839 Y69.884 E1.79055
G1 X119.022 Y69.900 E0.00577
G1 X119.176 Y69.941 E0.00499
G1 X119.319 Y70.008 E0.00497
G1 X119.449 Y70.099 E0.00497
G1 X119.561 Y70.211 E0.00497
G1 X119.652 Y70.341 E0.00497
G1 X119.719 Y70.485 E0.00497
G1 X119.760 Y70.638 E0.00497
G1 X119.776 Y70.822 E0.00578
G1 X119.776 Y97.778 E0.84521
G1 X119.760 Y97.962 E0.00578
G1 X119.723 Y98.103 E0.00457
G1 X119.607 Y98.324 E0.00783
G1 X119.447 Y98.499 E0.00742
G1 X119.248 Y98.626 E0.00742
G1 X119.009 Y98.701 E0.00783
G1 X118.839 Y98.716 E0.00538
G1 X61.731 Y98.716 E1.79055
G1 X61.548 Y98.700 E0.00578
G1 X61.407 Y98.662 E0.00457
G1 X61.185 Y98.547 E0.00783
G1 X61.011 Y98.387 E0.00742
G1 X60.884 Y98.187 E0.00742
G1 X60.809 Y97.949 E0.00783
G1 X60.794 Y97.778 E0.00538
G1 X60.794 Y89.567 E0.25745
G1 X60.417 Y89.567 F10800.000
G1 F1200
G1 X60.417 Y70.805 E0.58828
G1 X60.437 Y70.572 E0.00733
G1 X60.494 Y70.360 E0.00690
G1 X60.651 Y70.058 E0.01068
G1 X60.878 Y69.810 E0.01054
G1 X61.162 Y69.629 E0.01054
G1 X61.487 Y69.527 E0.01069
G1 X61.715 Y69.507 E0.00719
G1 X118.855 Y69.507 E1.79159
G1 X119.088 Y69.527 E0.00732
G1 X119.305 Y69.585 E0.00706
G1 X119.509 Y69.680 E0.00704
G1 X119.693 Y69.809 E0.00704
G1 X119.851 Y69.968 E0.00704
G1 X119.980 Y70.152 E0.00704
G1 X120.075 Y70.355 E0.00704
G1 X120.133 Y70.572 E0.00704
G1 X120.153 Y70.805 E0.00733
G1 X120.153 Y97.795 E0.84624
G1 X120.133 Y98.028 E0.00733
G1 X120.076 Y98.240 E0.00690
G1 X119.919 Y98.542 E0.01068
G1 X119.692 Y98.790 E0.01054
G1 X119.408 Y98.971 E0.01054
G1 X119.083 Y99.073 E0.01069
G1 X118.855 Y99.093 E0.00719
G1 X61.715 Y99.093 E1.79159
G1 X61.482 Y99.073 E0.00733
G1 X61.269 Y99.016 E0.00690
G1 X60.967 Y98.859 E0.01068
G1 X60.719 Y98.632 E0.01054
G1 X60.539 Y98.348 E0.01054
G1 X60.436 Y98.023 E0.01068
G1 X60.417 Y97.795 E0.00719
G1 X60.417 Y89.627 E0.25608
G1 X60.763 Y89.367 F10800.000
G1 E-0.80000 F2100.00000
G1 Z0.800 F10800.000
G1 X60.907 Y97.348
G1 Z0.200
G1 E0.80000 F2100.00000
G1 F1200
G1 X61.340 Y97.782 E0.01923
G1 X61.340 Y97.248 E0.01675
G1 X61.076 Y96.984 E0.01170
G1 X61.076 Y96.451 E0.01675
G1 X61.340 Y96.715 E0.01170
G1 X61.340 Y96.181 E0.01675
G1 X61.076 Y95.917 E0.01170
G1 X61.076 Y95.383 E0.01675
G1 X61.340 Y95.647 E0.01170
G1 X61.340 Y95.113 E0.01675
G1 X61.076 Y94.850 E0.01170
G1 X61.076 Y94.316 E0.01675
G1 X61.340 Y94.580 E0.01170
G1 X61.340 Y94.046 E0.01675
G1 X61.076 Y93.782 E0.01170
G1 X61.076 Y93.249 E0.01675
G1 X61.340 Y93.512 E0.01170
G1 X61.340 Y92.979 E0.01675
G1 X61.076 Y92.715 E0.01170
G1 X61.076 Y92.181 E0.01675
G1 X61.340 Y92.445 E0.01170
G1 X61.340 Y91.911 E0.01675
G1 X61.076 Y91.647 E0.01170
G1 X61.076 Y91.114 E0.01675
G1 X61.340 Y91.378 E0.01170
G1 X61.340 Y90.844 E0.01675
G1 X61.076 Y90.580 E0.01170
G1 X61.076 Y90.046 E0.01675
G1 X61.340 Y90.310 E0.01170
G1 X61.340 Y89.776 E0.01675
G1 X61.076 Y89.513 E0.01170
G1 X61.076 Y88.979 E0.01675
G1 X61.340 Y89.243 E0.01170
G1 X61.340 Y88.709 E0.01675
G1 X61.076 Y88.445 E0.01170
G1 X61.076 Y87.912 E0.01675
G1 X61.340 Y88.175 E0.01170
G1 X61.340 Y87.642 E0.01675
G1 X61.076 Y87.378 E0.01170
G1 X61.076 Y86.844 E0.01675
G1 X61.340 Y87.108 E0.01170
G1 X61.340 Y86.574 E0.01675
G1 X61.076 Y86.310 E0.01170
G1 X61.076 Y85.777 E0.01675
G1 X61.340 Y86.041 E0.01170
G1 X61.340 Y85.507 E0.01675
G1 X61.076 Y85.243 E0.01170
G1 X61.076 Y84.709 E0.01675
G1 X61.340 Y84.973 E0.01170
G1 X61.340 Y84.439 E0.01675
G1 X61.076 Y84.176 E0.01170
G1 X61.076 Y83.642 E0.01675
G1 X61.340 Y83.906 E0.01170
G1 X61.340 Y83.372 E0.01675
G1 X61.076 Y83.108 E0.01170
G1 X61.076 Y82.575 E0.01675
G1 X61.340 Y82.838 E0.01170
G1 X61.340 Y82.305 E0.01675
G1 X61.076 Y82.041 E0.01170
G1 X61.076 Y81.507 E0.01675
G1 X61.340 Y81.771 E0.01170
G1 X61.340 Y81.237 E0.01675
G1 X61.076 Y80.974 E0.01170
G1 X61.076 Y80.440 E0.01675
G1 X61.340 Y80.704 E0.01170
G1 X61.340 Y80.170 E0.01675
G1 X61.076 Y79.906 E0.01170
G1 X61.076 Y79.372 E0.01675
G1 X61.340 Y79.636 E0.01170
G1 X61.340 Y79.102 E0.01675
G1 X61.076 Y78.839 E0.01170
G1 X61.076 Y78.305 E0.01675
G1 X61.340 Y78.569 E0.01170
G1 X61.340 Y78.035 E0.01675
G1 X61.076 Y77.771 E0.01170
G1 X61.076 Y77.238 E0.01675
G1 X61.340 Y77.501 E0.01170
G1 X61.340 Y76.968 E0.01675
G1 X61.076 Y76.704 E0.01170
G1 X61.076 Y76.170 E0.01675
G1 X61.340 Y76.434 E0.01170
G1 X61.340 Y75.900 E0.01675
G1 X61.076 Y75.637 E0.01170
G1 X61.076 Y75.103 E0.01675
G1 X61.340 Y75.367 E0.01170
G1 X61.340 Y74.833 E0.01675
G1 X61.076 Y74.569 E0.01170
G1 X61.076 Y74.035 E0.01675
G1 X61.340 Y74.299 E0.01170
G1 X61.340 Y73.765 E0.01675
G1 X61.076 Y73.502 E0.01170
G1 X61.076 Y72.968 E0.01675
G1 X61.340 Y73.232 E0.01170
G1 X61.340 Y72.698 E0.01675
G1 X61.076 Y72.434 E0.01170
G1 X61.076 Y71.901 E0.01675
G1 X61.340 Y72.164 E0.01170
G1 X61.340 Y71.631 E0.01675
G1 X61.076 Y71.367 E0.01170
G1 X61.076 Y70.834 E0.01672
G1 X61.340 Y71.097 E0.01169
G1 X61.340 Y70.563 E0.01675
G1 X61.206 Y70.429 E0.00596
G1 X61.306 Y70.320 E0.00465
G1 X61.443 Y70.233 E0.00509
G1 X61.519 Y70.209 E0.00251
G1 X61.741 Y70.430 E0.00984
G1 X62.274 Y70.430 E0.01675
G1 X62.011 Y70.167 E0.01169
G1 X62.545 Y70.167 E0.01675
G1 X62.808 Y70.430 E0.01169
G1 X63.342 Y70.430 E0.01675
G1 X63.078 Y70.167 E0.01169
G1 X63.612 Y70.167 E0.01675
G1 X63.875 Y70.430 E0.01169
G1 X64.409 Y70.430 E0.01675
G1 X64.146 Y70.167 E0.01169
G1 X64.680 Y70.167 E0.01675
G1 X64.943 Y70.430 E0.01169
G1 X65.477 Y70.430 E0.01675
G1 X65.213 Y70.167 E0.01169
G1 X65.747 Y70.167 E0.01675
G1 X66.010 Y70.430 E0.01169
G1 X66.544 Y70.430 E0.01675
G1 X66.281 Y70.167 E0.01169
G1 X66.814 Y70.167 E0.01675
G1 X67.078 Y70.430 E0.01169
G1 X67.611 Y70.430 E0.01675
G1 X67.348 Y70.167 E0.01169
G1 X67.882 Y70.167 E0.01675
G1 X68.145 Y70.430 E0.01169
G1 X68.679 Y70.430 E0.01675
G1 X68.415 Y70.167 E0.01169
G1 X68.949 Y70.167 E0.01675
G1 X69.212 Y70.430 E0.01169
G1 X69.746 Y70.430 E0.01675
G1 X69.483 Y70.167 E0.01169
G1 X70.017 Y70.167 E0.01675
G1 X70.280 Y70.430 E0.01169
G1 X70.814 Y70.430 E0.01675
G1 X70.550 Y70.167 E0.01169
G1 X71.084 Y70.167 E0.01675
G1 X71.347 Y70.430 E0.01169
G1 X71.881 Y70.430 E0.01675
G1 X71.618 Y70.167 E0.01169
G1 X72.151 Y70.167 E0.01675
G1 X72.415 Y70.430 E0.01169
G1 X72.948 Y70.430 E0.01675
G1 X72.685 Y70.167 E0.01169
G1 X73.219 Y70.167 E0.01675
G1 X73.482 Y70.430 E0.01169
G1 X74.016 Y70.430 E0.01675
G1 X73.752 Y70.167 E0.01169
G1 X74.286 Y70.167 E0.01675
G1 X74.549 Y70.430 E0.01169
G1 X75.083 Y70.430 E0.01675
G1 X74.820 Y70.167 E0.01169
G1 X75.354 Y70.167 E0.01675
G1 X75.617 Y70.430 E0.01169
G1 X76.151 Y70.430 E0.01675
G1 X75.887 Y70.167 E0.01169
G1 X76.421 Y70.167 E0.01675
G1 X76.684 Y70.430 E0.01169
G1 X77.218 Y70.430 E0.01675
G1 X76.955 Y70.167 E0.01169
G1 X77.488 Y70.167 E0.01675
G1 X77.752 Y70.430 E0.01169
G1 X78.285 Y70.430 E0.01675
G1 X78.022 Y70.167 E0.01169
G1 X78.556 Y70.167 E0.01675
G1 X78.819 Y70.430 E0.01169
G1 X79.353 Y70.430 E0.01675
G1 X79.089 Y70.167 E0.01169
G1 X79.623 Y70.167 E0.01675
G1 X79.886 Y70.430 E0.01169
G1 X80.420 Y70.430 E0.01675
G1 X80.157 Y70.167 E0.01169
G1 X80.690 Y70.167 E0.01675
G1 X80.954 Y70.430 E0.01169
G1 X81.488 Y70.430 E0.01675
G1 X81.224 Y70.167 E0.01169
G1 X81.758 Y70.167 E0.01675
G1 X82.021 Y70.430 E0.01169
G1 X82.555 Y70.430 E0.01675
G1 X82.292 Y70.167 E0.01169
G1 X82.825 Y70.167 E0.01675
G1 X83.089 Y70.430 E0.01169
G1 X83.622 Y70.430 E0.01675
G1 X83.359 Y70.167 E0.01169
G1 X83.893 Y70.167 E0.01675
G1 X84.156 Y70.430 E0.01169
G1 X84.690 Y70.430 E0.01675
G1 X84.426 Y70.167 E0.01169
G1 X84.960 Y70.167 E0.01675
G1 X85.223 Y70.430 E0.01169
G1 X85.757 Y70.430 E0.01675
G1 X85.494 Y70.167 E0.01169
G1 X86.027 Y70.167 E0.01675
G1 X86.291 Y70.430 E0.01169
G1 X86.825 Y70.430 E0.01675
G1 X86.561 Y70.167 E0.01169
G1 X87.095 Y70.167 E0.01675
G1 X87.358 Y70.430 E0.01169
G1 X87.892 Y70.430 E0.01675
G1 X87.629 Y70.167 E0.01169
G1 X88.162 Y70.167 E0.01675
G1 X88.426 Y70.430 E0.01169
G1 X88.959 Y70.430 E0.01675
G1 X88.696 Y70.167 E0.01169
G1 X89.230 Y70.167 E0.01675
G1 X89.493 Y70.430 E0.01169
G1 X90.027 Y70.430 E0.01675
G1 X89.763 Y70.167 E0.01169
G1 X90.297 Y70.167 E0.01675
G1 X90.560 Y70.430 E0.01169
G1 X91.094 Y70.430 E0.01675
G1 X90.831 Y70.167 E0.01169
G1 X91.364 Y70.167 E0.01675
G1 X91.628 Y70.430 E0.01169
G1 X92.162 Y70.430 E0.01675
G1 X91.898 Y70.167 E0.01169
G1 X92.432 Y70.167 E0.01675
G1 X92.695 Y70.430 E0.01169
G1 X93.229 Y70.430 E0.01675
G1 X92.966 Y70.167 E0.01169
G1 X93.499 Y70.167 E0.01675
G1 X93.763 Y70.430 E0.01169
G1 X94.296 Y70.430 E0.01675
G1 X94.033 Y70.167 E0.01169
G1 X94.567 Y70.167 E0.01675
G1 X94.830 Y70.430 E0.01169
G1 X95.364 Y70.430 E0.01675
G1 X95.100 Y70.167 E0.01169
G1 X95.634 Y70.167 E0.01675
G1 X95.897 Y70.430 E0.01169
G1 X96.431 Y70.430 E0.01675
G1 X96.168 Y70.167 E0.01169
G1 X96.701 Y70.167 E0.01675
G1 X96.965 Y70.430 E0.01169
G1 X97.499 Y70.430 E0.01675
G1 X97.235 Y70.167 E0.01169
G1 X97.769 Y70.167 E0.01675
G1 X98.032 Y70.430 E0.01169
G1 X98.566 Y70.430 E0.01675
G1 X98.303 Y70.167 E0.01169
G1 X98.836 Y70.167 E0.01675
G1 X99.100 Y70.430 E0.01169
G1 X99.633 Y70.430 E0.01675
G1 X99.370 Y70.167 E0.01169
G1 X99.904 Y70.167 E0.01675
G1 X100.167 Y70.430 E0.01169
G1 X100.701 Y70.430 E0.01675
G1 X100.437 Y70.167 E0.01169
G1 X100.971 Y70.167 E0.01675
G1 X101.234 Y70.430 E0.01169
G1 X101.768 Y70.430 E0.01675
G1 X101.505 Y70.167 E0.01169
G1 X102.038 Y70.167 E0.01675
G1 X102.302 Y70.430 E0.01169
G1 X102.835 Y70.430 E0.01675
G1 X102.572 Y70.167 E0.01169
G1 X103.106 Y70.167 E0.01675
G1 X103.369 Y70.430 E0.01169
G1 X103.903 Y70.430 E0.01675
G1 X103.640 Y70.167 E0.01169
G1 X104.173 Y70.167 E0.01675
G1 X104.437 Y70.430 E0.01169
G1 X104.970 Y70.430 E0.01675
G1 X104.707 Y70.167 E0.01169
G1 X105.241 Y70.167 E0.01675
G1 X105.504 Y70.430 E0.01169
G1 X106.038 Y70.430 E0.01675
G1 X105.774 Y70.167 E0.01169
G1 X106.308 Y70.167 E0.01675
G1 X106.571 Y70.430 E0.01169
G1 X107.105 Y70.430 E0.01675
G1 X106.842 Y70.167 E0.01169
G1 X107.375 Y70.167 E0.01675
G1 X107.639 Y70.430 E0.01169
G1 X108.172 Y70.430 E0.01675
G1 X107.909 Y70.167 E0.01169
G1 X108.443 Y70.167 E0.01675
G1 X108.706 Y70.430 E0.01169
G1 X109.240 Y70.430 E0.01675
G1 X108.977 Y70.167 E0.01169
G1 X109.510 Y70.167 E0.01675
G1 X109.774 Y70.430 E0.01169
G1 X110.307 Y70.430 E0.01675
G1 X110.044 Y70.167 E0.01169
G1 X110.578 Y70.167 E0.01675
G1 X110.841 Y70.430 E0.01169
G1 X111.375 Y70.430 E0.01675
G1 X111.111 Y70.167 E0.01169
G1 X111.645 Y70.167 E0.01675
G1 X111.908 Y70.430 E0.01169
G1 X112.442 Y70.430 E0.01675
G1 X112.179 Y70.167 E0.01169
G1 X112.712 Y70.167 E0.01675
G1 X112.976 Y70.430 E0.01169
G1 X113.509 Y70.430 E0.01675
G1 X113.246 Y70.167 E0.01169
G1 X113.780 Y70.167 E0.01675
G1 X114.043 Y70.430 E0.01169
G1 X114.577 Y70.430 E0.01675
G1 X114.314 Y70.167 E0.01169
G1 X114.847 Y70.167 E0.01675
G1 X115.111 Y70.430 E0.01169
G1 X115.644 Y70.430 E0.01675
G1 X115.381 Y70.167 E0.01169
G1 X115.915 Y70.167 E0.01675
G1 X116.178 Y70.430 E0.01169
G1 X116.712 Y70.430 E0.01675
G1 X116.448 Y70.167 E0.01169
G1 X116.982 Y70.167 E0.01675
G1 X117.245 Y70.430 E0.01169
G1 X117.779 Y70.430 E0.01675
G1 X117.516 Y70.167 E0.01169
G1 X118.049 Y70.167 E0.01675
G1 X118.313 Y70.430 E0.01169
G1 X118.846 Y70.430 E0.01675
G1 X118.583 Y70.167 E0.01169
G1 X118.826 Y70.167 E0.00763
G1 X118.973 Y70.180 E0.00461
G1 X119.177 Y70.254 E0.00684
G1 X119.266 Y70.316 E0.00339
G1 X119.652 Y70.702 E0.01715
G1 X119.663 Y71.247 F10800.000
G1 F1200
G1 X119.230 Y70.814 E0.01923
G1 X119.230 Y71.347 E0.01675
G1 X119.494 Y71.611 E0.01170
G1 X119.494 Y72.145 E0.01675
G1 X119.230 Y71.881 E0.01170
G1 X119.230 Y72.415 E0.01675
G1 X119.494 Y72.678 E0.01170
G1 X119.494 Y73.212 E0.01675
G1 X119.230 Y72.948 E0.01170
G1 X119.230 Y73.482 E0.01675
G1 X119.494 Y73.746 E0.01170
G1 X119.494 Y74.279 E0.01675
G1 X119.230 Y74.016 E0.01170
G1 X119.230 Y74.549 E0.01675
G1 X119.494 Y74.813 E0.01170
G1 X119.494 Y75.347 E0.01675
G1 X119.230 Y75.083 E0.01170
G1 X119.230 Y75.617 E0.01675
G1 X119.494 Y75.881 E0.01170
G1 X119.494 Y76.414 E0.01675
G1 X119.230 Y76.151 E0.01170
G1 X119.230 Y76.684 E0.01675
G1 X119.494 Y76.948 E0.01170
G1 X119.494 Y77.482 E0.01675
G1 X119.230 Y77.218 E0.01170
G1 X119.230 Y77.752 E0.01675
G1 X119.494 Y78.015 E0.01170
G1 X119.494 Y78.549 E0.01675
G1 X119.230 Y78.285 E0.01170
G1 X119.230 Y78.819 E0.01675
G1 X119.494 Y79.083 E0.01170
G1 X119.494 Y79.616 E0.01675
G1 X119.230 Y79.353 E0.01170
G1 X119.230 Y79.886 E0.01675
G1 X119.494 Y80.150 E0.01170
G1 X119.494 Y80.684 E0.01675
G1 X119.230 Y80.420 E0.01170
G1 X119.230 Y80.954 E0.01675
G1 X119.494 Y81.218 E0.01170
G1 X119.494 Y81.751 E0.01675
G1 X119.230 Y81.488 E0.01170
G1 X119.230 Y82.021 E0.01675
G1 X119.494 Y82.285 E0.01170
G1 X119.494 Y82.819 E0.01675
G1 X119.230 Y82.555 E0.01170
G1 X119.230 Y83.089 E0.01675
G1 X119.494 Y83.352 E0.01170
G1 X119.494 Y83.886 E0.01675
G1 X119.230 Y83.622 E0.01170
G1 X119.230 Y84.156 E0.01675
G1 X119.494 Y84.420 E0.01170
G1 X119.494 Y84.953 E0.01675
G1 X119.230 Y84.690 E0.01170
G1 X119.230 Y85.223 E0.01675
G1 X119.494 Y85.487 E0.01170
G1 X119.494 Y86.021 E0.01675
G1 X119.230 Y85.757 E0.01170
G1 X119.230 Y86.291 E0.01675
G1 X119.494 Y86.555 E0.01170
G1 X119.494 Y87.088 E0.01675
G1 X119.230 Y86.825 E0.01170
G1 X119.230 Y87.358 E0.01675
G1 X119.494 Y87.622 E0.01170
G1 X119.494 Y88.156 E0.01675
G1 X119.230 Y87.892 E0.01170
G1 X119.230 Y88.426 E0.01675
G1 X119.494 Y88.689 E0.01170
G1 X119.494 Y89.223 E0.01675
G1 X119.230 Y88.959 E0.01170
G1 X119.230 Y89.493 E0.01675
G1 X119.494 Y89.757 E0.01170
G1 X119.494 Y90.290 E0.01675
G1 X119.230 Y90.027 E0.01170
G1 X119.230 Y90.560 E0.01675
G1 X119.494 Y90.824 E0.01170
G1 X119.494 Y91.358 E0.01675
G1 X119.230 Y91.094 E0.01170
G1 X119.230 Y91.628 E0.01675
G1 X119.494 Y91.892 E0.01170
G1 X119.494 Y92.425 E0.01675
G1 X119.230 Y92.161 E0.01170
G1 X119.230 Y92.695 E0.01675
G1 X119.494 Y92.959 E0.01170
G1 X119.494 Y93.493 E0.01675
G1 X119.230 Y93.229 E0.01170
