; generated by PrusaSlicer 2.2.0+win64 on 2020-11-20 at 20:41:53 UTC

; 

; external perimeters extrusion width = 0.45mm
; perimeters extrusion width = 0.45mm
; infill extrusion width = 0.45mm
; solid infill extrusion width = 0.45mm
; top infill extrusion width = 0.40mm
; first layer extrusion width = 0.42mm

M73 P0 R85
M201 X9000 Y9000 Z500 E10000 ; sets maximum accelerations, mm/sec^2
M203 X500 Y500 Z12 E120 ; sets maximum feedrates, mm/sec
M204 P2000 R1500 T2000 ; sets acceleration (P, T) and retract acceleration (R), mm/sec^2
M205 X10.00 Y10.00 Z0.20 E2.50 ; sets the jerk limits, mm/sec
M205 S0 T0 ; sets the minimum extruding and travel feed rate, mm/sec
M107
M862.3 P "MK2.5SMMU2S" ; printer model check
M862.1 P0.4 ; nozzle diameter check
M115 U3.8.0 ; tell printer latest fw version
G90 ; use absolute coordinates
M83 ; extruder relative mode
M104 S215 ; set extruder temp
M140 S60 ; set bed temp
Tx
M190 S60 ; wait for bed temp
M109 S215 ; wait for extruder temp
G28 W ; home all without mesh bed level
G80 ; mesh bed leveling

G21 ; set units to millimeters

;go outside print area
G1 Y-3.0 F1000.0
G1 Z0.4 F1000.0
; select extruder
Tc
; purge line
G1 X55.0 F2000.0
G1 Z0.3 F1000.0
G92 E0.0
G1 X240.0 E25.0 F2200.0
M73 P0 R85
G1 Y-2.0 F1000.0
G1 X55.0 E25 F1400.0
G1 Z0.20 F1000.0
G1 X5.0 E4.0 F1000.0
G92 E0.0
G21 ; set units to millimeters
G90 ; use absolute coordinates
M83 ; use relative distances for extrusion
M900 K0.06 ; Filament gcode LA 1.5
M900 K30 ; Filament gcode LA 1.0
;BEFORE_LAYER_CHANGE
G92 E0.0
;0.2


G1 E-0.80000 F2100.00000
G1 Z0.600 F10800.000
;AFTER_LAYER_CHANGE
;0.2
G1 X72.176 Y93.433
G1 Z0.200
G1 E0.80000 F2100.00000
M204 S1000
G1 F1200.000
G1 X72.586 Y92.724 E0.02567
G1 X72.988 Y92.344 E0.01732
G1 X126.822 Y52.198 E2.10564
G1 X127.456 Y51.886 E0.02213
G1 X128.152 Y51.773 E0.02213
G1 X166.633 Y51.773 E1.20652
G1 X167.338 Y51.881 E0.02237
G1 X167.979 Y52.194 E0.02237
G1 X168.499 Y52.682 E0.02237
G1 X168.850 Y53.303 E0.02237
G1 X177.853 Y80.917 E0.91066
G1 X177.957 Y81.419 E0.01609
G1 X177.968 Y155.880 E2.33467
G1 X177.895 Y156.438 E0.01763
G1 X177.690 Y156.966 E0.01775
G1 X177.367 Y157.431 E0.01775
G1 X176.946 Y157.804 E0.01763
G1 X176.309 Y158.116 E0.02225
G1 X175.604 Y158.227 E0.02237
G1 X127.814 Y158.227 E1.49843
G1 X126.958 Y158.065 E0.02731
G1 X126.397 Y157.753 E0.02012
G1 X72.981 Y117.651 E2.09427
G1 X72.455 Y117.105 E0.02378
G1 X72.147 Y116.482 E0.02178
G1 X72.032 Y115.793 E0.02190
G1 X72.032 Y94.239 E0.67584
G1 X72.166 Y93.492 E0.02379
G1 E-0.80000 F2100.00000
G1 Z0.800 F10800.000
G1 X98.115 Y113.537
G1 Z0.200
G1 E0.80000 F2100.00000
G1 F1200.000
G1 X76.622 Y113.537 E0.67391
G1 X76.622 Y96.463 E0.53535
G1 X110.296 Y96.463 E1.05583
G1 X110.296 Y113.537 E0.53535
G1 X98.175 Y113.537 E0.38004
G1 X98.115 Y113.160 F10800.000
G1 F1200.000
G1 X76.999 Y113.160 E0.66209
G1 X76.999 Y96.840 E0.51170
G1 X109.919 Y96.840 E1.03218
G1 X109.919 Y113.160 E0.51170
G1 X98.175 Y113.160 E0.36821
G1 X98.032 Y113.551 F10800.000
G1 E-0.80000 F2100.00000
G1 Z0.800 F10800.000
G1 X98.115 Y115.163
G1 Z0.200
G1 E0.80000 F2100.00000
G1 F1200.000
G1 X74.996 Y115.163 E0.72489
G1 X74.996 Y94.837 E0.63730
G1 X111.992 Y94.837 E1.15998
G1 X111.992 Y115.163 E0.63730
G1 X98.175 Y115.163 E0.43321
G1 X98.115 Y115.540 F10800.000
G1 F1200.000
G1 X74.619 Y115.540 E0.73671
G1 X74.619 Y94.460 E0.66095
G1 X112.369 Y94.460 E1.18363
G1 X112.369 Y115.540 E0.66095
G1 X98.175 Y115.540 E0.44503
G1 X97.815 Y115.276 F10800.000
G1 E-0.80000 F2100.00000
G1 Z0.800 F10800.000
G1 X76.951 Y115.050
G1 Z0.200
G1 E0.80000 F2100.00000
G1 F1200.000
G1 X75.278 Y113.377 E0.07473
G1 X75.278 Y113.914 E0.01697
G1 X76.244 Y114.880 E0.04315
G1 X75.707 Y114.880 E0.01697
G1 X75.109 Y114.282 E0.02673
G1 E-0.80000 F2100.00000
G1 Z0.800 F10800.000
G1 X108.961 Y94.950
G1 Z0.200
G1 E0.80000 F2100.00000
G1 F1200.000
G1 X110.191 Y96.180 E0.05494
G1 X109.654 Y96.180 E0.01697
G1 X108.594 Y95.120 E0.04736
G1 X108.057 Y95.120 E0.01697
G1 X109.117 Y96.180 E0.04736
G1 X108.580 Y96.180 E0.01697
G1 X107.519 Y95.120 E0.04736
G1 X106.982 Y95.120 E0.01697
G1 X108.042 Y96.180 E0.04736
G1 X107.505 Y96.180 E0.01697
G1 X106.445 Y95.120 E0.04736
G1 X105.908 Y95.120 E0.01697
G1 X106.968 Y96.180 E0.04736
G1 X106.431 Y96.180 E0.01697
G1 X105.371 Y95.120 E0.04736
G1 X104.833 Y95.120 E0.01697
G1 X105.894 Y96.180 E0.04736
G1 X105.356 Y96.180 E0.01697
G1 X104.296 Y95.120 E0.04736
G1 X103.759 Y95.120 E0.01697
G1 X104.819 Y96.180 E0.04736
G1 X104.282 Y96.180 E0.01697
G1 X103.222 Y95.120 E0.04736
G1 X102.685 Y95.120 E0.01697
G1 X103.745 Y96.180 E0.04736
G1 X103.208 Y96.180 E0.01697
G1 X102.147 Y95.120 E0.04736
G1 X101.610 Y95.120 E0.01697
G1 X102.670 Y96.180 E0.04736
G1 X102.133 Y96.180 E0.01697
G1 X101.073 Y95.120 E0.04736
G1 X100.536 Y95.120 E0.01697
G1 X101.596 Y96.180 E0.04736
G1 X101.059 Y96.180 E0.01697
G1 X99.998 Y95.120 E0.04736
G1 X99.461 Y95.120 E0.01697
G1 X100.522 Y96.180 E0.04736
G1 X99.984 Y96.180 E0.01697
G1 X98.924 Y95.120 E0.04736
G1 X98.387 Y95.120 E0.01697
G1 X99.447 Y96.180 E0.04736
G1 X98.910 Y96.180 E0.01697
G1 X97.850 Y95.120 E0.04736
G1 X97.312 Y95.120 E0.01697
G1 X98.373 Y96.180 E0.04736
G1 X97.835 Y96.180 E0.01697
G1 X96.775 Y95.120 E0.04736
G1 X96.238 Y95.120 E0.01697
G1 X97.298 Y96.180 E0.04736
G1 X96.761 Y96.180 E0.01697
G1 X95.701 Y95.120 E0.04736
G1 X95.164 Y95.120 E0.01697
G1 X96.224 Y96.180 E0.04736
G1 X95.687 Y96.180 E0.01697
G1 X94.626 Y95.120 E0.04736
G1 X94.089 Y95.120 E0.01697
G1 X95.149 Y96.180 E0.04736
G1 X94.612 Y96.180 E0.01697
G1 X93.552 Y95.120 E0.04736
G1 X93.015 Y95.120 E0.01697
G1 X94.075 Y96.180 E0.04736
G1 X93.538 Y96.180 E0.01697
G1 X92.477 Y95.120 E0.04736
G1 X91.940 Y95.120 E0.01697
G1 X93.001 Y96.180 E0.04736
G1 X92.463 Y96.180 E0.01697
G1 X91.403 Y95.120 E0.04736
G1 X90.866 Y95.120 E0.01697
G1 X91.926 Y96.180 E0.04736
G1 X91.389 Y96.180 E0.01697
G1 X90.329 Y95.120 E0.04736
G1 X89.791 Y95.120 E0.01697
G1 X90.852 Y96.180 E0.04736
G1 X90.314 Y96.180 E0.01697
G1 X89.254 Y95.120 E0.04736
G1 X88.717 Y95.120 E0.01697
G1 X89.777 Y96.180 E0.04736
G1 X89.240 Y96.180 E0.01697
G1 X88.180 Y95.120 E0.04736
G1 X87.643 Y95.120 E0.01697
G1 X88.703 Y96.180 E0.04736
G1 X88.166 Y96.180 E0.01697
G1 X87.105 Y95.120 E0.04736
G1 X86.568 Y95.120 E0.01697
G1 X87.628 Y96.180 E0.04736
G1 X87.091 Y96.180 E0.01697
G1 X86.031 Y95.120 E0.04736
G1 X85.494 Y95.120 E0.01697
G1 X86.554 Y96.180 E0.04736
G1 X86.017 Y96.180 E0.01697
G1 X84.957 Y95.120 E0.04736
G1 X84.419 Y95.120 E0.01697
G1 X85.480 Y96.180 E0.04736
G1 X84.942 Y96.180 E0.01697
G1 X83.882 Y95.120 E0.04736
G1 X83.345 Y95.120 E0.01697
G1 X84.405 Y96.180 E0.04736
G1 X83.868 Y96.180 E0.01697
G1 X82.808 Y95.120 E0.04736
G1 X82.270 Y95.120 E0.01697
G1 X83.331 Y96.180 E0.04736
G1 X82.793 Y96.180 E0.01697
G1 X81.733 Y95.120 E0.04736
G1 X81.196 Y95.120 E0.01697
G1 X82.256 Y96.180 E0.04736
G1 X81.719 Y96.180 E0.01697
G1 X80.659 Y95.120 E0.04736
G1 X80.122 Y95.120 E0.01697
G1 X81.182 Y96.180 E0.04736
M73 P1 R84
G1 X80.645 Y96.180 E0.01697
G1 X79.584 Y95.120 E0.04736
G1 X79.047 Y95.120 E0.01697
G1 X80.107 Y96.180 E0.04736
G1 X79.570 Y96.180 E0.01697
G1 X78.510 Y95.120 E0.04736
G1 X77.973 Y95.120 E0.01697
G1 X79.033 Y96.180 E0.04736
G1 X78.496 Y96.180 E0.01697
G1 X77.436 Y95.120 E0.04736
G1 X76.898 Y95.120 E0.01697
G1 X77.959 Y96.180 E0.04736
G1 X77.421 Y96.180 E0.01697
G1 X76.361 Y95.120 E0.04736
G1 X75.824 Y95.120 E0.01697
G1 X76.884 Y96.180 E0.04736
G1 X76.347 Y96.180 E0.01697
G1 X75.278 Y95.120 E0.04754
G1 X75.278 Y95.649 E0.01671
G1 X76.339 Y96.709 E0.04736
G1 X76.339 Y97.246 E0.01697
G1 X75.278 Y96.186 E0.04736
G1 X75.278 Y96.723 E0.01697
G1 X76.339 Y97.784 E0.04736
G1 X76.339 Y98.321 E0.01697
G1 X75.278 Y97.261 E0.04736
G1 X75.278 Y97.798 E0.01697
G1 X76.339 Y98.858 E0.04736
G1 X76.339 Y99.395 E0.01697
G1 X75.278 Y98.335 E0.04736
G1 X75.278 Y98.872 E0.01697
G1 X76.339 Y99.932 E0.04736
G1 X76.339 Y100.470 E0.01697
G1 X75.278 Y99.409 E0.04736
G1 X75.278 Y99.947 E0.01697
G1 X76.339 Y101.007 E0.04736
G1 X76.339 Y101.544 E0.01697
G1 X75.278 Y100.484 E0.04736
G1 X75.278 Y101.021 E0.01697
G1 X76.339 Y102.081 E0.04736
G1 X76.339 Y102.618 E0.01697
G1 X75.278 Y101.558 E0.04736
G1 X75.278 Y102.095 E0.01697
G1 X76.339 Y103.156 E0.04736
G1 X76.339 Y103.693 E0.01697
G1 X75.278 Y102.633 E0.04736
G1 X75.278 Y103.170 E0.01697
G1 X76.339 Y104.230 E0.04736
G1 X76.339 Y104.767 E0.01697
G1 X75.278 Y103.707 E0.04736
G1 X75.278 Y104.244 E0.01697
G1 X76.339 Y105.305 E0.04736
G1 X76.339 Y105.842 E0.01697
G1 X75.278 Y104.782 E0.04736
G1 X75.278 Y105.319 E0.01697
G1 X76.339 Y106.379 E0.04736
G1 X76.339 Y106.916 E0.01697
G1 X75.278 Y105.856 E0.04736
G1 X75.278 Y106.393 E0.01697
G1 X76.339 Y107.453 E0.04736
G1 X76.339 Y107.991 E0.01697
G1 X75.278 Y106.930 E0.04736
G1 X75.278 Y107.468 E0.01697
G1 X76.339 Y108.528 E0.04736
G1 X76.339 Y109.065 E0.01697
G1 X75.278 Y108.005 E0.04736
G1 X75.278 Y108.542 E0.01697
G1 X76.339 Y109.602 E0.04736
G1 X76.339 Y110.139 E0.01697
G1 X75.278 Y109.079 E0.04736
G1 X75.278 Y109.616 E0.01697
G1 X76.339 Y110.677 E0.04736
G1 X76.339 Y111.214 E0.01697
G1 X75.278 Y110.154 E0.04736
G1 X75.278 Y110.691 E0.01697
G1 X76.339 Y111.751 E0.04736
G1 X76.339 Y112.288 E0.01697
G1 X75.278 Y111.228 E0.04736
G1 X75.278 Y111.765 E0.01697
G1 X76.339 Y112.826 E0.04736
G1 X76.339 Y113.363 E0.01697
G1 X75.278 Y112.303 E0.04736
G1 X75.278 Y112.840 E0.01697
G1 X77.319 Y114.880 E0.09114
G1 X77.856 Y114.880 E0.01697
G1 X76.796 Y113.820 E0.04736
G1 X77.333 Y113.820 E0.01697
G1 X78.393 Y114.880 E0.04736
G1 X78.931 Y114.880 E0.01697
G1 X77.870 Y113.820 E0.04736
G1 X78.407 Y113.820 E0.01697
G1 X79.468 Y114.880 E0.04736
G1 X80.005 Y114.880 E0.01697
G1 X78.945 Y113.820 E0.04736
G1 X79.482 Y113.820 E0.01697
G1 X80.542 Y114.880 E0.04736
G1 X81.079 Y114.880 E0.01697
G1 X80.019 Y113.820 E0.04736
G1 X80.556 Y113.820 E0.01697
G1 X81.617 Y114.880 E0.04736
G1 X82.154 Y114.880 E0.01697
G1 X81.094 Y113.820 E0.04736
G1 X81.631 Y113.820 E0.01697
G1 X82.691 Y114.880 E0.04736
G1 X83.228 Y114.880 E0.01697
G1 X82.168 Y113.820 E0.04736
G1 X82.705 Y113.820 E0.01697
G1 X83.765 Y114.880 E0.04736
G1 X84.303 Y114.880 E0.01697
G1 X83.242 Y113.820 E0.04736
G1 X83.780 Y113.820 E0.01697
G1 X84.840 Y114.880 E0.04736
G1 X85.377 Y114.880 E0.01697
G1 X84.317 Y113.820 E0.04736
G1 X84.854 Y113.820 E0.01697
G1 X85.914 Y114.880 E0.04736
G1 X86.452 Y114.880 E0.01697
G1 X85.391 Y113.820 E0.04736
G1 X85.928 Y113.820 E0.01697
G1 X86.989 Y114.880 E0.04736
G1 X87.526 Y114.880 E0.01697
G1 X86.466 Y113.820 E0.04736
G1 X87.003 Y113.820 E0.01697
G1 X88.063 Y114.880 E0.04736
G1 X88.600 Y114.880 E0.01697
G1 X87.540 Y113.820 E0.04736
G1 X88.077 Y113.820 E0.01697
G1 X89.138 Y114.880 E0.04736
G1 X89.675 Y114.880 E0.01697
G1 X88.615 Y113.820 E0.04736
G1 X89.152 Y113.820 E0.01697
G1 X90.212 Y114.880 E0.04736
G1 X90.749 Y114.880 E0.01697
G1 X89.689 Y113.820 E0.04736
G1 X90.226 Y113.820 E0.01697
G1 X91.286 Y114.880 E0.04736
G1 X91.824 Y114.880 E0.01697
G1 X90.763 Y113.820 E0.04736
G1 X91.301 Y113.820 E0.01697
G1 X92.361 Y114.880 E0.04736
G1 X92.898 Y114.880 E0.01697
G1 X91.838 Y113.820 E0.04736
G1 X92.375 Y113.820 E0.01697
G1 X93.435 Y114.880 E0.04736
G1 X93.972 Y114.880 E0.01697
G1 X92.912 Y113.820 E0.04736
G1 X93.449 Y113.820 E0.01697
G1 X94.510 Y114.880 E0.04736
G1 X95.047 Y114.880 E0.01697
G1 X93.987 Y113.820 E0.04736
G1 X94.524 Y113.820 E0.01697
G1 X95.584 Y114.880 E0.04736
G1 X96.121 Y114.880 E0.01697
G1 X95.061 Y113.820 E0.04736
G1 X95.598 Y113.820 E0.01697
G1 X96.659 Y114.880 E0.04736
G1 X97.196 Y114.880 E0.01697
G1 X96.136 Y113.820 E0.04736
G1 X96.673 Y113.820 E0.01697
G1 X97.733 Y114.880 E0.04736
G1 X98.270 Y114.880 E0.01697
G1 X97.210 Y113.820 E0.04736
G1 X97.747 Y113.820 E0.01697
G1 X98.807 Y114.880 E0.04736
G1 X99.345 Y114.880 E0.01697
G1 X98.284 Y113.820 E0.04736
G1 X98.822 Y113.820 E0.01697
G1 X99.882 Y114.880 E0.04736
G1 X100.419 Y114.880 E0.01697
G1 X99.359 Y113.820 E0.04736
G1 X99.896 Y113.820 E0.01697
G1 X100.956 Y114.880 E0.04736
G1 X101.493 Y114.880 E0.01697
G1 X100.433 Y113.820 E0.04736
G1 X100.970 Y113.820 E0.01697
G1 X102.031 Y114.880 E0.04736
G1 X102.568 Y114.880 E0.01697
G1 X101.508 Y113.820 E0.04736
G1 X102.045 Y113.820 E0.01697
G1 X103.105 Y114.880 E0.04736
G1 X103.642 Y114.880 E0.01697
G1 X102.582 Y113.820 E0.04736
G1 X103.119 Y113.820 E0.01697
G1 X104.180 Y114.880 E0.04736
G1 X104.717 Y114.880 E0.01697
G1 X103.657 Y113.820 E0.04736
G1 X104.194 Y113.820 E0.01697
G1 X105.254 Y114.880 E0.04736
G1 X105.791 Y114.880 E0.01697
G1 X104.731 Y113.820 E0.04736
G1 X105.268 Y113.820 E0.01697
G1 X106.328 Y114.880 E0.04736
G1 X106.866 Y114.880 E0.01697
G1 X105.805 Y113.820 E0.04736
G1 X106.343 Y113.820 E0.01697
G1 X107.403 Y114.880 E0.04736
G1 X107.940 Y114.880 E0.01697
G1 X106.880 Y113.820 E0.04736
G1 X107.417 Y113.820 E0.01697
G1 X108.477 Y114.880 E0.04736
G1 X109.014 Y114.880 E0.01697
G1 X107.954 Y113.820 E0.04736
G1 X108.491 Y113.820 E0.01697
G1 X109.552 Y114.880 E0.04736
G1 X110.089 Y114.880 E0.01697
G1 X109.029 Y113.820 E0.04736
G1 X109.566 Y113.820 E0.01697
G1 X110.626 Y114.880 E0.04736
G1 X111.163 Y114.880 E0.01697
G1 X110.103 Y113.820 E0.04736
G1 X110.578 Y113.820 E0.01502
G1 X110.578 Y113.758 E0.00195
G1 X111.709 Y114.880 E0.05030
G1 X111.709 Y114.351 E0.01671
G1 X110.578 Y113.221 E0.05049
G1 X110.578 Y112.684 E0.01697
G1 X111.709 Y113.814 E0.05049
G1 X111.709 Y113.277 E0.01697
G1 X110.578 Y112.146 E0.05049
G1 X110.578 Y111.609 E0.01697
G1 X111.709 Y112.740 E0.05049
G1 X111.709 Y112.202 E0.01697
G1 X110.578 Y111.072 E0.05049
G1 X110.578 Y110.535 E0.01697
G1 X111.709 Y111.665 E0.05049
G1 X111.709 Y111.128 E0.01697
G1 X110.578 Y109.998 E0.05049
G1 X110.578 Y109.460 E0.01697
G1 X111.709 Y110.591 E0.05049
G1 X111.709 Y110.053 E0.01697
G1 X110.578 Y108.923 E0.05049
G1 X110.578 Y108.386 E0.01697
G1 X111.709 Y109.516 E0.05049
G1 X111.709 Y108.979 E0.01697
G1 X110.578 Y107.849 E0.05049
G1 X110.578 Y107.312 E0.01697
G1 X111.709 Y108.442 E0.05049
G1 X111.709 Y107.905 E0.01697
G1 X110.578 Y106.774 E0.05049
G1 X110.578 Y106.237 E0.01697
G1 X111.709 Y107.367 E0.05049
G1 X111.709 Y106.830 E0.01697
G1 X110.578 Y105.700 E0.05049
G1 X110.578 Y105.163 E0.01697
G1 X111.709 Y106.293 E0.05049
G1 X111.709 Y105.756 E0.01697
G1 X110.578 Y104.625 E0.05049
G1 X110.578 Y104.088 E0.01697
G1 X111.709 Y105.219 E0.05049
G1 X111.709 Y104.681 E0.01697
G1 X110.578 Y103.551 E0.05049
G1 X110.578 Y103.014 E0.01697
G1 X111.709 Y104.144 E0.05049
G1 X111.709 Y103.607 E0.01697
G1 X110.578 Y102.477 E0.05049
G1 X110.578 Y101.939 E0.01697
G1 X111.709 Y103.070 E0.05049
G1 X111.709 Y102.532 E0.01697
G1 X110.578 Y101.402 E0.05049
G1 X110.578 Y100.865 E0.01697
G1 X111.709 Y101.995 E0.05049
G1 X111.709 Y101.458 E0.01697
G1 X110.578 Y100.328 E0.05049
G1 X110.578 Y99.791 E0.01697
G1 X111.709 Y100.921 E0.05049
G1 X111.709 Y100.384 E0.01697
G1 X110.578 Y99.253 E0.05049
G1 X110.578 Y98.716 E0.01697
G1 X111.709 Y99.846 E0.05049
G1 X111.709 Y99.309 E0.01697
G1 X110.578 Y98.179 E0.05049
G1 X110.578 Y97.642 E0.01697
G1 X111.709 Y98.772 E0.05049
G1 X111.709 Y98.235 E0.01697
G1 X110.578 Y97.104 E0.05049
G1 X110.578 Y96.567 E0.01697
G1 X111.709 Y97.698 E0.05049
G1 X111.709 Y97.160 E0.01697
G1 X109.668 Y95.120 E0.09115
G1 X110.206 Y95.120 E0.01697
G1 X111.709 Y96.623 E0.06715
G1 X111.709 Y96.086 E0.01697
G1 X110.743 Y95.120 E0.04315
G1 X111.280 Y95.120 E0.01697
G1 X111.878 Y95.718 E0.02673
G1 E-0.80000 F2100.00000
G1 Z0.800 F10800.000
G1 X151.706 Y155.263
G1 Z0.200
G1 E0.80000 F2100.00000
G1 F1200.000
G1 X128.408 Y155.263 E0.73049
G1 X128.408 Y122.337 E1.03237
G1 X175.004 Y122.337 E1.46098
G1 X175.004 Y155.263 E1.03237
G1 X151.766 Y155.263 E0.72861
G1 X151.706 Y155.640 F10800.000
G1 F1200.000
G1 X128.031 Y155.640 E0.74231
G1 X128.031 Y121.960 E1.05601
G1 X175.381 Y121.960 E1.48463
G1 X175.381 Y155.640 E1.05601
G1 X151.766 Y155.640 E0.74043
G1 X151.408 Y155.374 F10800.000
G1 E-0.80000 F2100.00000
G1 Z0.800 F10800.000
G1 X174.891 Y123.215
G1 Z0.200
G1 E0.80000 F2100.00000
G1 F1200.000
G1 X174.296 Y122.620 E0.02645
G1 X173.762 Y122.620 E0.01681
G1 X174.722 Y123.580 E0.04268
G1 X174.722 Y124.115 E0.01681
