; generated by PrusaSlicer 2.1.1+win64 on 2019-12-26 at 19:10:10 UTC

; 

; external perimeters extrusion width = 0.45mm
; perimeters extrusion width = 0.45mm
; infill extrusion width = 0.45mm
; solid infill extrusion width = 0.45mm
; top infill extrusion width = 0.40mm
; support material extrusion width = 0.35mm
; first layer extrusion width = 0.42mm

; external perimeters extrusion width = 0.45mm
; perimeters extrusion width = 0.45mm
; infill extrusion width = 0.45mm
; solid infill extrusion width = 0.45mm
; top infill extrusion width = 0.40mm
; support material extrusion width = 0.35mm
; first layer extrusion width = 0.42mm

M73 P0 R158
M201 X9000 Y9000 Z500 E10000 ; sets maximum accelerations, mm/sec^2
M203 X500 Y500 Z12 E120 ; sets maximum feedrates, mm/sec
M204 P2000 R1500 T2000 ; sets acceleration (P, T) and retract acceleration (R), mm/sec^2
M205 X10.00 Y10.00 Z0.20 E2.50 ; sets the jerk limits, mm/sec
M205 S0 T0 ; sets the minimum extruding and travel feed rate, mm/sec
M107
M862.3 P "MK2.5SMMU2S" ; printer model check
M862.1 P0.4 ; nozzle diameter check
M115 U3.8.1 ; tell printer latest fw version
G90 ; use absolute coordinates
M83 ; extruder relative mode
M104 S215 ; set extruder temp
M140 S60 ; set bed temp
M190 S60 ; wait for bed temp
M109 S215 ; wait for extruder temp
G28 W ; home all without mesh bed level
G80 ; mesh bed leveling

; Send the filament type to the MMU2.0 unit.
; E stands for extruder number, F stands for filament type (0: default; 1:flex; 2: PVA)
M403 E0 F0
M403 E1 F0
M403 E2 F0
M403 E3 F0
M403 E4 F0


;go outside print area
G1 Y-3.0 F1000.0
G1 Z0.4 F1000.0
; select extruder
T0
; initial load
G1 X55.0 E29.0 F1073.0
M73 P0 R158
G1 X5.0 E29.0 F1800.0
G1 X55.0 E8.0 F2000.0
G1 Z0.3 F1000.0
G92 E0.0
G1 X240.0 E25.0 F2200.0
G1 Y-2.0 F1000.0
G1 X55.0 E25 F1400.0
G1 Z0.20 F1000.0
G1 X5.0 E4.0 F1000.0
G92 E0.0

G92 E0.0
G21 ; set units to millimeters
G90 ; use absolute coordinates
M83 ; use relative distances for extrusion
T0
M900 K30 ; Filament gcode
G1 Z0.200 F10800.000
;BEFORE_LAYER_CHANGE
G92 E0.0
;0.2


G1 E-0.80000 F2100.00000
G1 Z0.800 F10800.000
G1 Z0.200
;AFTER_LAYER_CHANGE
;0.2
G1 E-2.20000 F2100.00000
G1 Z0.800 F10800.000
G1 X233.000 Y140.000
G1 Z0.200
G1 E3.00000 F2100.00000
;-------------------------------------
; CP WIPE TOWER FIRST LAYER BRIM START
G1  X233.000 Y154.060 E0.8016 F2400
G1  X230.457 Y154.517  F7000
G1  Y139.543 E0.6260 F2100
G1  X169.543 E2.5466
G1  Y154.517 E0.6260
G1  X230.457 E2.5466
G1  X230.914 Y154.974  F7000
G1  Y139.086 E0.6642 F2100
G1  X169.086 E2.5849
G1  Y154.974 E0.6642
G1  X230.914 E2.5849
G1  X231.371 Y155.431  F7000
G1  Y138.629 E0.7025 F2100
G1  X168.629 E2.6231
G1  Y155.431 E0.7025
G1  X231.371 E2.6231
G1  X231.828 Y155.888  F7000
G1  Y138.172 E0.7407 F2100
G1  X168.172 E2.6613
G1  Y155.888 E0.7407
G1  X231.828 E2.6613
G1  X230.000 Y154.060  F7000
G1  X170.000
G1  X230.000
; CP WIPE TOWER FIRST LAYER BRIM END
;-----------------------------------
G1  X229.500 Y140.500  F7200
;--------------------
; CP EMPTY GRID START
; layer #1
G1  X230.000
G1  Y140.000
G1  Y154.060 E0.5344 F1450
G1  X170.000 E2.2804
G1  Y140.000 E0.5344
G1  X230.000 E2.2804
G1  X229.500
G1  Y140.500
G1  Y153.560 E0.4964
G1  X170.500 E2.2424
G1  Y140.500 E0.4964
G1  X229.500 E2.2424
G1  Y153.560
G1  X229.000 Y153.037  E0.0275
G1  X171.000 E2.2044
G1  Y152.513 E0.0199
G1  X229.000 E2.2044
G1  Y151.990 E0.0199
G1  X171.000 E2.2044
M73 P0 R157
G1  Y151.467 E0.0199
G1  X229.000 E2.2044
G1  Y150.943 E0.0199
G1  X171.000 E2.2044
G1  Y150.420 E0.0199
G1  X229.000 E2.2044
G1  Y149.897 E0.0199
G1  X171.000 E2.2044
G1  Y149.373 E0.0199
G1  X229.000 E2.2044
G1  Y148.850 E0.0199
G1  X171.000 E2.2044
G1  Y148.327 E0.0199
G1  X229.000 E2.2044
G1  Y147.803 E0.0199
G1  X171.000 E2.2044
G1  Y147.280 E0.0199
G1  X229.000 E2.2044
G1  Y146.757 E0.0199
G1  X171.000 E2.2044
G1  Y146.233 E0.0199
G1  X229.000 E2.2044
G1  Y145.710 E0.0199
G1  X171.000 E2.2044
G1  Y145.187 E0.0199
G1  X229.000 E2.2044
G1  Y144.663 E0.0199
G1  X171.000 E2.2044
G1  Y144.140 E0.0199
G1  X229.000 E2.2044
G1  Y143.617 E0.0199
G1  X171.000 E2.2044
G1  Y143.093 E0.0199
G1  X229.000 E2.2044
G1  Y142.570 E0.0199
G1  X171.000 E2.2044
G1  Y142.047 E0.0199
G1  X229.000 E2.2044
G1  Y141.523 E0.0199
G1  X171.000 E2.2044
G1  Y141.000 E0.0199
G1  X229.000 E2.2044
G1  X171.000
; CP EMPTY GRID END
;------------------







G1 F8640
G1 X167.709 Y141.000 E-0.76000
G1 E-0.04000 F2100.00000
G1 Z0.800 F10800.000
G1 X154.831 Y134.833
G1 Z0.200
G1 E0.80000 F2100.00000
M204 S1000
G1 F1200
G1 X141.143 Y143.978 E0.51613
G1 X124.998 Y147.189 E0.51613
G1 X108.854 Y143.977 E0.51613
G1 X95.167 Y134.831 E0.51613
G1 X86.022 Y121.143 E0.51613
G1 X82.811 Y104.998 E0.51613
G1 X86.023 Y88.854 E0.51613
G1 X95.169 Y75.167 E0.51613
M73 P1 R156
G1 X108.857 Y66.022 E0.51613
G1 X125.005 Y62.811 E0.51624
G1 X141.146 Y66.023 E0.51602
G1 X154.833 Y75.169 E0.51613
G1 X163.978 Y88.857 E0.51613
G1 X167.189 Y105.002 E0.51613
G1 X163.977 Y121.146 E0.51613
G1 X154.864 Y134.783 E0.51425
G1 F8640
G1 X152.130 Y136.615 E-0.76000
G1 E-0.04000 F2100.00000
G1 Z0.800 F10800.000
G1 X131.498 Y116.624
G1 Z0.200
G1 E0.80000 F2100.00000
G1 F1200
G1 X136.211 Y111.911 E0.20898
G1 X137.203 Y110.055 E0.06600
G1 X137.291 Y109.764 E0.00952
G1 X129.764 Y117.291 E0.33376
G1 X128.233 Y117.756 E0.05016
G1 X137.756 Y108.233 E0.42224
G1 X137.955 Y107.577 E0.02150
G1 X138.021 Y106.901 E0.02129
G1 X126.901 Y118.021 E0.49309
G1 X125.718 Y118.138 E0.03727
G1 X138.138 Y105.718 E0.55072
G1 X138.208 Y105.000 E0.02262
G1 X138.171 Y104.618 E0.01203
G1 X124.618 Y118.171 E0.60095
G1 X123.647 Y118.075 E0.03059
G1 X138.075 Y103.647 E0.63976
G1 X137.980 Y102.676 E0.03059
G1 X122.676 Y117.980 E0.67857
G1 X122.423 Y117.955 E0.00798
G1 X121.818 Y117.771 E0.01982
G1 X137.771 Y101.818 E0.70738
G1 X137.523 Y101.000 E0.02681
G1 X121.000 Y117.523 E0.73266
G1 X120.182 Y117.275 E0.02681
G1 X137.275 Y100.182 E0.75793
G1 X137.203 Y99.945 E0.00774
G1 X136.939 Y99.451 E0.01757
G1 X130.992 Y105.397 E0.26367
G1 X130.459 Y104.864 E0.02365
G1 X136.567 Y98.756 E0.27084
G1 X136.196 Y98.061 E0.02471
G1 X129.926 Y104.331 E0.27802
G1 X129.393 Y103.798 E0.02365
G1 X135.778 Y97.412 E0.28313
G1 X135.297 Y96.827 E0.02376
G1 X128.859 Y103.264 E0.28546
G1 X128.326 Y102.731 E0.02365
G1 X134.816 Y96.241 E0.28779
G1 X134.335 Y95.656 E0.02376
G1 X129.424 Y100.566 E0.21774
G1 X129.046 Y100.189 E0.01675
G1 X127.415 Y101.820 E0.07234
G1 X127.260 Y101.665 E0.00690
G1 X133.749 Y95.175 E0.28775
G1 X133.163 Y94.694 E0.02376
G1 X126.726 Y101.131 E0.28542
G1 X126.193 Y100.598 E0.02365
G1 X132.577 Y94.214 E0.28309
G1 X132.338 Y94.018 E0.00970
G1 X131.927 Y93.798 E0.01463
G1 X125.660 Y100.065 E0.27789
G1 X125.127 Y99.531 E0.02365
G1 X131.232 Y93.426 E0.27072
G1 X130.537 Y93.055 E0.02471
G1 X124.593 Y98.998 E0.26355
G1 X124.152 Y98.557 E0.01955
G1 X118.557 Y104.152 E0.24809
G1 X118.998 Y104.593 E0.01955
G1 X113.055 Y110.537 E0.26355
G1 X113.426 Y111.232 E0.02471
G1 X119.531 Y105.126 E0.27072
G1 X120.065 Y105.660 E0.02365
G1 X113.798 Y111.927 E0.27789
G1 X114.018 Y112.338 E0.01463
G1 X114.214 Y112.577 E0.00970
G1 X120.598 Y106.193 E0.28309
G1 X121.131 Y106.726 E0.02365
G1 X114.694 Y113.163 E0.28542
G1 X115.175 Y113.749 E0.02376
G1 X121.665 Y107.260 E0.28775
G1 X121.820 Y107.415 E0.00690
G1 X120.189 Y109.046 E0.07234
G1 X120.566 Y109.424 E0.01675
G1 X115.656 Y114.335 E0.21774
G1 X116.241 Y114.816 E0.02376
G1 X122.731 Y108.326 E0.28779
G1 X123.264 Y108.859 E0.02365
G1 X116.827 Y115.297 E0.28546
G1 X117.412 Y115.778 E0.02376
G1 X123.798 Y109.393 E0.28313
G1 X124.331 Y109.926 E0.02365
G1 X118.061 Y116.196 E0.27802
G1 X118.756 Y116.567 E0.02471
G1 X124.864 Y110.459 E0.27085
G1 X125.397 Y110.992 E0.02365
G1 X119.326 Y117.064 E0.26923
G1 X112.585 Y109.940 F10800.000
G1 F1200
G1 X129.804 Y92.721 E0.76352
G1 X128.986 Y92.473 E0.02681
G1 X112.473 Y108.986 E0.73221
G1 X112.224 Y108.167 E0.02681
G1 X128.167 Y92.224 E0.70693
G1 X127.577 Y92.045 E0.01935
G1 X127.307 Y92.019 E0.00852
G1 X112.019 Y107.307 E0.67789
G1 X111.923 Y106.336 E0.03059
G1 X126.336 Y91.923 E0.63908
G1 X125.365 Y91.827 E0.03059
G1 X111.827 Y105.365 E0.60026
G1 X111.792 Y105.000 E0.01149
G1 X111.864 Y104.261 E0.02327
G1 X124.261 Y91.864 E0.54971
G1 X123.078 Y91.981 E0.03727
G1 X111.981 Y103.078 E0.49208
G1 X112.045 Y102.423 E0.02064
G1 X112.253 Y101.740 E0.02239
G1 X121.740 Y92.253 E0.42069
G1 X120.209 Y92.717 E0.05016
G1 X112.717 Y100.209 E0.33221
G1 X112.797 Y99.945 E0.00864
G1 X113.811 Y98.049 E0.06743
G1 X118.462 Y93.397 E0.20625
G1 F8640
G1 X116.135 Y95.725 E-0.76000
G1 E-0.04000 F2100.00000
G1 Z0.800 F10800.000
G1 X125.000 Y140.489
G1 Z0.200
G1 E0.80000 F2100.00000
G1 F1200
G1 X111.419 Y137.788 E0.43417
G1 X99.905 Y130.095 E0.43417
G1 X92.212 Y118.581 E0.43417
G1 X89.511 Y105.000 E0.43417
G1 X92.212 Y91.419 E0.43417
G1 X99.905 Y79.905 E0.43417
G1 X111.419 Y72.212 E0.43417
G1 X125.000 Y69.511 E0.43417
G1 X138.581 Y72.212 E0.43417
G1 X150.095 Y79.905 E0.43417
G1 X157.788 Y91.419 E0.43417
G1 X160.489 Y105.000 E0.43417
G1 X157.788 Y118.581 E0.43417
G1 X150.095 Y130.095 E0.43417
G1 X138.581 Y137.788 E0.43417
G1 X125.059 Y140.478 E0.43229
G1 X125.000 Y140.105 F10800.000
G1 F1200
G1 X111.566 Y137.433 E0.42947
G1 X100.177 Y129.823 E0.42947
G1 X92.567 Y118.434 E0.42947
G1 X89.895 Y105.000 E0.42947
G1 X92.567 Y91.566 E0.42947
G1 X100.177 Y80.177 E0.42947
G1 X111.566 Y72.567 E0.42947
G1 X125.000 Y69.895 E0.42947
G1 X138.434 Y72.567 E0.42947
G1 X149.823 Y80.177 E0.42947
M73 P2 R155
G1 X157.433 Y91.566 E0.42947
G1 X160.105 Y105.000 E0.42947
G1 X157.433 Y118.434 E0.42947
G1 X149.823 Y129.823 E0.42947
G1 X138.434 Y137.433 E0.42947
G1 X125.059 Y140.093 E0.42759
G1 X124.800 Y140.451 F10800.000
G1 F8640
G1 X121.830 Y139.457 E-0.76000
G1 E-0.04000 F2100.00000
G1 Z0.800 F10800.000
G1 X125.000 Y144.401
G1 Z0.200
G1 E0.80000 F2100.00000
G1 F1200
G1 X109.922 Y141.402 E0.48203
G1 X97.139 Y132.861 E0.48203
G1 X88.598 Y120.078 E0.48203
G1 X85.599 Y105.000 E0.48203
G1 X88.598 Y89.922 E0.48203
G1 X97.139 Y77.139 E0.48203
G1 X109.922 Y68.598 E0.48203
G1 X125.000 Y65.599 E0.48203
G1 X140.078 Y68.598 E0.48203
G1 X152.861 Y77.139 E0.48203
G1 X161.402 Y89.922 E0.48203
G1 X164.401 Y105.000 E0.48203
G1 X161.402 Y120.078 E0.48203
G1 X152.861 Y132.861 E0.48203
G1 X140.078 Y141.402 E0.48203
G1 X125.059 Y144.390 E0.48015
G1 X125.000 Y144.786 F10800.000
G1 F1200
G1 X109.775 Y141.757 E0.48673
G1 X96.867 Y133.133 E0.48673
G1 X88.243 Y120.225 E0.48673
G1 X85.214 Y105.000 E0.48673
G1 X88.243 Y89.775 E0.48673
G1 X96.867 Y76.867 E0.48673
G1 X109.775 Y68.243 E0.48673
G1 X125.000 Y65.214 E0.48673
G1 X140.225 Y68.243 E0.48673
G1 X153.133 Y76.867 E0.48673
G1 X161.757 Y89.775 E0.48673
G1 X164.786 Y105.000 E0.48673
G1 X161.757 Y120.225 E0.48673
G1 X153.133 Y133.133 E0.48673
G1 X140.225 Y141.757 E0.48673
G1 X125.059 Y144.774 E0.48485
G1 X124.800 Y144.439 F10800.000
G1 F8640
G1 X121.830 Y144.137 E-0.76000
G1 E-0.04000 F2100.00000
G1 Z0.800 F10800.000
G1 X125.000 Y127.110
G1 Z0.200
G1 E0.80000 F2100.00000
G1 F1200
G1 X124.548 Y127.065 E0.01425
G1 X124.113 Y126.934 E0.01425
G1 X123.712 Y126.719 E0.01425
G1 X123.361 Y126.431 E0.01425
G1 X123.073 Y126.080 E0.01425
G1 X122.858 Y125.679 E0.01425
G1 X122.726 Y125.244 E0.01425
G1 X122.682 Y124.792 E0.01425
G1 X122.726 Y124.340 E0.01425
G1 X122.858 Y123.905 E0.01425
G1 X123.073 Y123.504 E0.01425
G1 X123.361 Y123.153 E0.01425
G1 X123.712 Y122.865 E0.01425
G1 X124.114 Y122.650 E0.01429
G1 X124.558 Y122.517 E0.01451
G1 X125.000 Y122.474 E0.01393
G1 X125.452 Y122.518 E0.01425
G1 X125.887 Y122.650 E0.01425
G1 X126.288 Y122.865 E0.01425
G1 X126.639 Y123.153 E0.01425
G1 X126.927 Y123.504 E0.01425
G1 X127.142 Y123.905 E0.01425
G1 X127.274 Y124.340 E0.01425
G1 X127.318 Y124.792 E0.01425
G1 X127.274 Y125.244 E0.01425
G1 X127.142 Y125.679 E0.01425
G1 X126.927 Y126.080 E0.01425
G1 X126.639 Y126.431 E0.01425
G1 X126.288 Y126.719 E0.01425
G1 X125.887 Y126.934 E0.01425
G1 X125.452 Y127.065 E0.01425
G1 X125.060 Y127.104 E0.01237
G1 X125.000 Y126.731 F10800.000
G1 F1200
G1 X124.622 Y126.694 E0.01192
G1 X124.258 Y126.584 E0.01192
G1 X123.923 Y126.404 E0.01192
G1 X123.629 Y126.163 E0.01192
G1 X123.388 Y125.869 E0.01192
G1 X123.208 Y125.534 E0.01192
G1 X123.098 Y125.170 E0.01192
G1 X123.061 Y124.792 E0.01192
G1 X123.098 Y124.414 E0.01192
G1 X123.208 Y124.050 E0.01192
G1 X123.388 Y123.715 E0.01192
G1 X123.629 Y123.421 E0.01192
G1 X123.923 Y123.180 E0.01192
G1 X124.258 Y123.000 E0.01194
G1 X124.631 Y122.889 E0.01219
G1 X125.000 Y122.853 E0.01163
G1 X125.378 Y122.890 E0.01192
G1 X125.742 Y123.000 E0.01192
G1 X126.077 Y123.180 E0.01192
G1 X126.371 Y123.421 E0.01192
G1 X126.612 Y123.715 E0.01192
G1 X126.792 Y124.050 E0.01192
G1 X126.902 Y124.414 E0.01192
G1 X126.939 Y124.792 E0.01192
G1 X126.902 Y125.170 E0.01192
G1 X126.792 Y125.534 E0.01192
G1 X126.612 Y125.869 E0.01192
G1 X126.371 Y126.163 E0.01192
G1 X126.077 Y126.404 E0.01192
G1 X125.742 Y126.584 E0.01192
G1 X125.378 Y126.694 E0.01192
G1 X125.060 Y126.725 E0.01004
G1 X124.810 Y127.060 F10800.000
G1 F8640
G1 X124.622 Y126.694 E-0.10140
G1 X124.258 Y126.584 E-0.08778
G1 X123.923 Y126.404 E-0.08778
G1 X123.629 Y126.163 E-0.08778
G1 X123.388 Y125.869 E-0.08778
G1 X123.208 Y125.534 E-0.08778
G1 X123.098 Y125.170 E-0.08778
G1 X123.061 Y124.792 E-0.08778
G1 X123.080 Y124.602 E-0.04416
G1 E-0.04000 F2100.00000
G1 Z0.800 F10800.000
G1 X125.000 Y119.327
G1 Z0.200
G1 E0.80000 F2100.00000
G1 F1200
G1 X122.205 Y119.052 E0.08806
G1 X119.517 Y118.236 E0.08806
G1 X117.040 Y116.912 E0.08806
G1 X114.869 Y115.131 E0.08806
G1 X113.088 Y112.960 E0.08806
G1 X111.764 Y110.483 E0.08806
G1 X110.948 Y107.795 E0.08806
G1 X110.673 Y105.000 E0.08806
G1 X110.948 Y102.205 E0.08806
G1 X111.764 Y99.517 E0.08806
G1 X113.088 Y97.040 E0.08806
G1 X114.869 Y94.869 E0.08806
G1 X117.040 Y93.088 E0.08806
G1 X119.517 Y91.764 E0.08806
G1 X122.205 Y90.948 E0.08806
G1 X124.976 Y90.675 E0.08731
G1 X127.795 Y90.948 E0.08878
G1 X130.483 Y91.764 E0.08808
G1 X132.960 Y93.088 E0.08806
G1 X135.131 Y94.869 E0.08806
G1 X136.912 Y97.040 E0.08806
G1 X138.236 Y99.517 E0.08806
G1 X139.052 Y102.205 E0.08806
G1 X139.327 Y105.000 E0.08806
G1 X139.052 Y107.795 E0.08806
G1 X138.236 Y110.483 E0.08806
G1 X136.912 Y112.960 E0.08806
G1 X135.131 Y115.131 E0.08806
G1 X132.960 Y116.912 E0.08806
G1 X130.483 Y118.236 E0.08806
G1 X127.795 Y119.052 E0.08806
G1 X125.060 Y119.321 E0.08618
G1 X125.000 Y118.948 F10800.000
G1 F1200
G1 X122.279 Y118.680 E0.08573
G1 X119.662 Y117.886 E0.08573
G1 X117.251 Y116.597 E0.08573
G1 X115.137 Y114.863 E0.08573
G1 X113.403 Y112.749 E0.08573
G1 X112.114 Y110.338 E0.08573
G1 X111.320 Y107.721 E0.08573
G1 X111.052 Y105.000 E0.08573
G1 X111.320 Y102.279 E0.08573
G1 X112.114 Y99.662 E0.08573
G1 X113.403 Y97.251 E0.08573
G1 X115.137 Y95.137 E0.08573
G1 X117.251 Y93.403 E0.08573
G1 X119.662 Y92.114 E0.08573
G1 X122.279 Y91.320 E0.08573
G1 X124.976 Y91.054 E0.08499
G1 X127.721 Y91.320 E0.08646
G1 X130.338 Y92.114 E0.08574
G1 X132.749 Y93.403 E0.08573
G1 X134.863 Y95.137 E0.08573
G1 X136.597 Y97.251 E0.08573
G1 X137.886 Y99.662 E0.08573
G1 X138.680 Y102.279 E0.08573
G1 X138.948 Y105.000 E0.08573
G1 X138.680 Y107.721 E0.08573
G1 X137.886 Y110.338 E0.08573
G1 X136.597 Y112.749 E0.08573
G1 X134.863 Y114.863 E0.08573
G1 X132.749 Y116.597 E0.08573
G1 X130.338 Y117.886 E0.08573
G1 X127.721 Y118.680 E0.08573
G1 X125.060 Y118.942 E0.08385
G1 X124.800 Y119.294 F10800.000
G1 F8640
G1 X122.279 Y118.680 E-0.64495
G1 X121.802 Y118.535 E-0.11505
G1 E-0.04000 F2100.00000
G1 Z0.800 F10800.000
G1 X125.000 Y137.069
G1 Z0.200
G1 E0.80000 F2100.00000
G1 F1200
G1 X112.728 Y134.628 E0.39233
G1 X102.324 Y127.676 E0.39233
G1 X95.372 Y117.272 E0.39233
G1 X92.931 Y105.000 E0.39233
G1 X95.372 Y92.728 E0.39233
G1 X102.324 Y82.324 E0.39233
G1 X112.728 Y75.372 E0.39233
G1 X125.000 Y72.931 E0.39233
G1 X137.272 Y75.372 E0.39233
G1 X147.676 Y82.324 E0.39233
G1 X154.628 Y92.728 E0.39233
G1 X157.069 Y105.000 E0.39233
G1 X154.628 Y117.272 E0.39233
G1 X147.676 Y127.676 E0.39233
G1 X137.272 Y134.628 E0.39233
G1 X125.059 Y137.058 E0.39045
