; generated by PrusaSlicer 2.0.0+ on 2019-08-01 at 15:46:15

; 

; external perimeters extrusion width = 0.45mm
; perimeters extrusion width = 0.45mm
; infill extrusion width = 0.45mm
; solid infill extrusion width = 0.45mm
; top infill extrusion width = 0.40mm
; support material extrusion width = 0.35mm
; first layer extrusion width = 0.42mm

; external perimeters extrusion width = 0.45mm
; perimeters extrusion width = 0.45mm
; infill extrusion width = 0.45mm
; solid infill extrusion width = 0.45mm
; top infill extrusion width = 0.40mm
; support material extrusion width = 0.35mm
; first layer extrusion width = 0.42mm

M73 P0 R22
M201 X9000 Y9000 Z500 E10000 ; sets maximum accelerations, mm/sec^2
M203 X500 Y500 Z12 E120 ; sets maximum feedrates, mm/sec
M204 P2000 R1500 T2000 ; sets acceleration (P, T) and retract acceleration (R), mm/sec^2
M205 X10.00 Y10.00 Z0.20 E2.50 ; sets the jerk limits, mm/sec
M205 S0 T0 ; sets the minimum extruding and travel feed rate, mm/sec
M107
M115 U3.7.2 ; tell printer latest fw version
G90 ; use absolute coordinates
M83 ; extruder relative mode
M104 S215 ; set extruder temp
M140 S60 ; set bed temp
M190 S60 ; wait for bed temp
M109 S215 ; wait for extruder temp
G28 W ; home all without mesh bed level
G80 ; mesh bed leveling
G21 ; set units to millimeters

; Send the filament type to the MMU2.0 unit.
; E stands for extruder number, F stands for filament type (0: default; 1:flex; 2: PVA)
M403 E0 F0
M403 E1 F0
M403 E2 F0
M403 E3 F0
M403 E4 F0


;go outside print area
G1 Y-3.0 F1000.0
G1 Z0.4 F1000.0
; select extruder
T0
; initial load
G1 X55.0 E29.0 F1073.0
M73 P1 R21
G1 X5.0 E29.0 F1800.0
G1 X55.0 E8.0 F2000.0
G1 Z0.3 F1000.0
G92 E0.0
G1 X240.0 E25.0 F2200.0
G1 Y-2.0 F1000.0
G1 X55.0 E25 F1400.0
G1 Z0.20 F1000.0
G1 X5.0 E4.0 F1000.0
G92 E0.0

G92 E0.0
G21 ; set units to millimeters
G90 ; use absolute coordinates
M83 ; use relative distances for extrusion
T0
M900 K30 ; Filament gcode
G1 Z0.200 F10800.000
;BEFORE_LAYER_CHANGE
G92 E0.0
;0.2


G1 E-0.80000 F2100.00000
G1 Z0.800 F10800.000
G1 Z0.200
;AFTER_LAYER_CHANGE
;0.2
M900 K0
G1 E-2.20000 F2100.00000
G1 Z0.800 F10800.000
G1 X233.000 Y140.000
G1 Z0.200
G1 E3.00000 F2100.00000
;-------------------------------------
; CP WIPE TOWER FIRST LAYER BRIM START
G1 X233.000 Y154.060 E0.8016 F2400
G1 X230.457 Y154.517  F7000
G1 Y139.543 E0.6260 F2100
G1 X169.543 E2.5466
G1 Y154.517 E0.6260
G1 X230.457 E2.5466
G1 X230.914 Y154.974  F7000
G1 Y139.086 E0.6642 F2100
G1 X169.086 E2.5849
G1 Y154.974 E0.6642
G1 X230.914 E2.5849
G1 X231.371 Y155.431  F7000
G1 Y138.629 E0.7025 F2100
G1 X168.629 E2.6231
G1 Y155.431 E0.7025
G1 X231.371 E2.6231
G1 X231.828 Y155.888  F7000
G1 Y138.172 E0.7407 F2100
G1 X168.172 E2.6613
G1 Y155.888 E0.7407
G1 X231.828 E2.6613
G1 X230.000 Y154.060  F7000
G1 X170.000
G1 X230.000
; CP WIPE TOWER FIRST LAYER BRIM END
;-----------------------------------

M900 K30 ; Filament gcode
G1 F8640
G1 X226.709 Y154.060 E-0.76000
G1 E-0.04000 F2100.00000
G1 Z0.800 F10800.000
G1 X140.306 Y117.153
G1 Z0.200
G1 E0.80000 F2100.00000
M204 S1000
G1 F1200
G1 X140.275 Y117.229 E0.00256
G1 X139.211 Y118.748 E0.05816
G1 X138.179 Y119.760 E0.04532
G1 X137.011 Y120.562 E0.04442
G1 X135.452 Y121.285 E0.05389
G1 X134.262 Y121.640 E0.03892
G1 X133.047 Y121.867 E0.03877
G1 X130.934 Y122.021 E0.06643
G1 X110.860 Y122.026 E0.62938
G1 X110.181 Y121.927 E0.02152
G1 X109.549 Y121.651 E0.02165
G1 X109.046 Y121.249 E0.02017
G1 X108.660 Y120.739 E0.02005
G1 X108.412 Y120.146 E0.02017
G1 X108.319 Y119.513 E0.02005
G1 X108.319 Y111.281 E0.25811
G1 X108.513 Y90.492 E0.65185
G1 X108.614 Y89.825 E0.02116
G1 X108.888 Y89.204 E0.02128
G1 X109.269 Y88.721 E0.01931
G1 X109.758 Y88.340 E0.01943
G1 X110.321 Y88.089 E0.01931
G1 X110.931 Y87.979 E0.01943
G1 X130.088 Y87.974 E0.60066
G1 X131.895 Y88.018 E0.05669
G1 X134.098 Y88.301 E0.06965
G1 X135.462 Y88.665 E0.04424
G1 X136.862 Y89.252 E0.04761
G1 X138.090 Y90.009 E0.04524
G1 X139.313 Y91.118 E0.05178
G1 X140.298 Y92.458 E0.05214
G1 X141.057 Y94.106 E0.05688
G1 X141.524 Y96.010 E0.06145
G1 X141.680 Y98.064 E0.06460
G1 X141.680 Y111.089 E0.40838
G1 X141.532 Y113.288 E0.06912
G1 X141.135 Y115.138 E0.05931
G1 X140.329 Y117.098 E0.06646
G1 F8640
G1 X140.275 Y117.229 E-0.03272
G1 X139.211 Y118.748 E-0.42829
G1 X138.286 Y119.654 E-0.29899
G1 E-0.04000 F2100.00000
G1 Z0.800 F10800.000
G1 X111.720 Y91.182
G1 Z0.200
G1 E0.80000 F2100.00000
G1 F1200
G1 X130.815 Y91.186 E0.59870
G1 X131.638 Y91.213 E0.02584
G1 X132.525 Y91.289 E0.02790
G1 X133.446 Y91.437 E0.02926
G1 X134.374 Y91.681 E0.03009
G1 X135.279 Y92.049 E0.03064
G1 X136.132 Y92.565 E0.03124
G1 X136.899 Y93.255 E0.03234
G1 X137.547 Y94.140 E0.03440
G1 X138.045 Y95.239 E0.03784
G1 X138.363 Y96.571 E0.04295
G1 X138.475 Y98.155 E0.04977
G1 X138.411 Y99.681 E0.04791
G1 X138.233 Y100.933 E0.03964
G1 X137.953 Y101.944 E0.03289
G1 X137.588 Y102.744 E0.02759
G1 X137.152 Y103.361 E0.02369
G1 X136.664 Y103.820 E0.02099
G1 X136.148 Y104.148 E0.01918
G1 X135.625 Y104.379 E0.01792
G1 X134.395 Y104.753 E0.04031
G1 X135.117 Y104.939 E0.02337
G1 X135.623 Y105.091 E0.01656
G1 X136.144 Y105.309 E0.01773
G1 X136.660 Y105.623 E0.01894
G1 X137.148 Y106.062 E0.02058
G1 X137.586 Y106.652 E0.02301
G1 X137.952 Y107.415 E0.02655
G1 X138.232 Y108.376 E0.03139
G1 X138.411 Y109.562 E0.03760
G1 X138.475 Y111.004 E0.04524
G1 X138.364 Y112.778 E0.05574
G1 X138.048 Y114.268 E0.04776
G1 X137.554 Y115.497 E0.04152
G1 X136.911 Y116.487 E0.03702
G1 X136.150 Y117.260 E0.03403
G1 X135.303 Y117.841 E0.03219
G1 X134.405 Y118.255 E0.03102
G1 X133.486 Y118.531 E0.03008
G1 X132.577 Y118.698 E0.02898
G1 X131.706 Y118.783 E0.02742
G1 X130.904 Y118.814 E0.02517
G1 X130.115 Y118.819 E0.02473
G1 X111.525 Y118.819 E0.58287
G1 X111.525 Y111.939 E0.21572
G1 X129.685 Y111.929 E0.56938
G1 X130.085 Y111.866 E0.01270
G1 X130.272 Y111.803 E0.00619
G1 X130.453 Y111.708 E0.00639
G1 X130.619 Y111.578 E0.00663
G1 X130.770 Y111.404 E0.00721
G1 X130.900 Y111.174 E0.00828
G1 X131.003 Y110.878 E0.00985
G1 X131.072 Y110.504 E0.01191
G1 X131.097 Y110.045 E0.01441
G1 X131.072 Y109.514 E0.01666
G1 X131.002 Y109.079 E0.01383
G1 X130.896 Y108.731 E0.01139
G1 X130.763 Y108.461 E0.00943
G1 X130.611 Y108.258 E0.00797
G1 X130.445 Y108.108 E0.00701
G1 X130.268 Y108.001 E0.00649
G1 X130.083 Y107.928 E0.00625
G1 X129.893 Y107.882 E0.00612
G1 X129.354 Y107.848 E0.01692
G1 X116.342 Y107.848 E0.40800
G1 X116.342 Y101.694 E0.19295
G1 X129.274 Y101.694 E0.40548
G1 X129.753 Y101.662 E0.01505
G1 X130.061 Y101.561 E0.01016
G1 X130.208 Y101.469 E0.00543
G1 X130.346 Y101.340 E0.00592
G1 X130.472 Y101.163 E0.00683
G1 X130.584 Y100.926 E0.00820
G1 X130.673 Y100.620 E0.01001
G1 X130.732 Y100.234 E0.01222
G1 X130.753 Y99.763 E0.01479
G1 X130.732 Y99.292 E0.01479
G1 X130.673 Y98.906 E0.01223
G1 X130.585 Y98.600 E0.01001
G1 X130.474 Y98.363 E0.00820
G1 X130.348 Y98.186 E0.00681
G1 X130.212 Y98.056 E0.00588
G1 X130.068 Y97.964 E0.00536
G1 X129.923 Y97.904 E0.00493
G1 X129.607 Y97.842 E0.01009
G1 X111.720 Y97.832 E0.56084
G1 X111.720 Y91.242 E0.20665
G1 X111.562 Y90.814 F10800.000
G1 F8640
G1 X115.011 Y91.232 E-0.76000
G1 E-0.04000 F2100.00000
G1 Z0.800 F10800.000
G1 X135.209 Y104.788
G1 Z0.200
G1 E0.80000 F2100.00000
G1 F1200
G1 X136.014 Y105.109 E0.02717
G1 X136.763 Y105.340 E0.02457
G1 X137.121 Y105.480 E0.01205
G1 X137.460 Y105.670 E0.01221
G1 X137.779 Y105.939 E0.01308
G1 X138.076 Y106.318 E0.01509
G1 X138.345 Y106.842 E0.01845
G1 X138.574 Y107.543 E0.02314
G1 X138.751 Y108.452 E0.02903
G1 X138.865 Y109.596 E0.03604
G1 X138.906 Y110.998 E0.04397
G1 X138.781 Y112.915 E0.06025
G1 X138.433 Y114.502 E0.05093
G1 X137.899 Y115.792 E0.04379
G1 X137.214 Y116.820 E0.03872
G1 X136.411 Y117.618 E0.03550
G1 X135.522 Y118.219 E0.03366
G1 X134.576 Y118.651 E0.03260
G1 X133.608 Y118.942 E0.03171
G1 X132.651 Y119.120 E0.03052
G1 X131.740 Y119.211 E0.02869
G1 X130.911 Y119.245 E0.02602
G1 X130.198 Y119.250 E0.02236
G1 X111.094 Y119.250 E0.59898
M73 P6 R20
G1 X111.094 Y111.507 E0.24278
G1 X129.654 Y111.501 E0.58192
G1 X129.967 Y111.455 E0.00992
G1 X130.127 Y111.396 E0.00535
G1 X130.272 Y111.307 E0.00535
G1 X130.398 Y111.181 E0.00559
G1 X130.500 Y111.022 E0.00591
G1 X130.574 Y110.832 E0.00641
G1 X130.627 Y110.604 E0.00732
G1 X130.666 Y110.047 E0.01750
G1 X130.628 Y109.365 E0.02143
G1 X130.578 Y109.095 E0.00860
G1 X130.508 Y108.871 E0.00736
G1 X130.414 Y108.685 E0.00655
G1 X130.295 Y108.534 E0.00602
G1 X130.153 Y108.422 E0.00567
G1 X129.991 Y108.346 E0.00562
G1 X129.680 Y108.286 E0.00992
G1 X115.910 Y108.279 E0.43173
G1 X115.910 Y101.262 E0.22003
G1 X129.287 Y101.262 E0.41942
G1 X129.698 Y101.239 E0.01291
G1 X129.950 Y101.140 E0.00851
G1 X130.081 Y101.020 E0.00555
G1 X130.222 Y100.743 E0.00974
G1 X130.270 Y100.543 E0.00645
G1 X130.316 Y100.069 E0.01492
G1 X130.316 Y99.460 E0.01910
G1 X130.299 Y99.195 E0.00834
G1 X130.228 Y98.800 E0.01260
G1 X130.164 Y98.635 E0.00552
G1 X130.079 Y98.502 E0.00497
G1 X129.961 Y98.389 E0.00511
G1 X129.719 Y98.288 E0.00822
G1 X129.457 Y98.265 E0.00827
G1 X111.288 Y98.264 E0.56965
G1 X111.288 Y90.750 E0.23559
G1 X130.113 Y90.750 E0.59024
G1 X131.677 Y90.785 E0.04905
G1 X132.606 Y90.867 E0.02923
G1 X133.579 Y91.028 E0.03093
G1 X134.561 Y91.290 E0.03186
G1 X135.516 Y91.680 E0.03235
G1 X136.412 Y92.222 E0.03282
G1 X137.217 Y92.940 E0.03382
G1 X137.902 Y93.861 E0.03600
G1 X138.435 Y95.018 E0.03992
G1 X138.781 Y96.440 E0.04590
G1 X138.906 Y98.162 E0.05414
G1 X138.865 Y99.649 E0.04664
G1 X138.751 Y100.861 E0.03815
G1 X138.573 Y101.821 E0.03063
G1 X138.343 Y102.561 E0.02429
G1 X138.074 Y103.113 E0.01924
G1 X137.776 Y103.510 E0.01558
G1 X137.456 Y103.792 E0.01336
G1 X137.116 Y103.993 E0.01239
G1 X136.756 Y104.144 E0.01224
G1 X136.004 Y104.410 E0.02502
G1 X135.263 Y104.762 E0.02571
G1 X134.969 Y105.107 F10800.000
G1 F8640
G1 X136.014 Y105.109 E-0.19091
G1 X136.763 Y105.340 E-0.18092
G1 X137.121 Y105.480 E-0.08877
G1 X137.460 Y105.670 E-0.08992
G1 X137.779 Y105.939 E-0.09633
G1 X138.076 Y106.318 E-0.11115
G1 X138.080 Y106.326 E-0.00201
G1 E-0.04000 F2100.00000
G1 Z0.800 F10800.000
G1 X136.954 Y103.834
G1 Z0.200
G1 E0.80000 F2100.00000
G1 F1200
G1 X137.016 Y103.794 E0.00042
G1 X137.159 Y103.687 E0.00159
G1 X137.346 Y103.539 E0.00303
G1 X137.556 Y103.307 E0.00399
G1 X137.852 Y102.885 E0.00657
G1 X138.059 Y102.448 E0.00614
G1 X138.217 Y102.032 E0.00567
G1 X138.299 Y101.754 E0.00370
G1 X138.475 Y100.987 E0.01001
G1 X138.640 Y99.636 E0.00591
G1 X138.690 Y98.167 E0.00638
G1 X138.611 Y97.046 E0.00488
G1 X138.578 Y96.558 F10800.000
G1 F1200
G1 X138.223 Y95.092 E0.00754
G1 X137.736 Y94.026 E0.00586
G1 X137.066 Y93.108 E0.00568
G1 X136.261 Y92.387 E0.00540
G1 X135.378 Y91.857 E0.00514
G1 X134.429 Y91.475 E0.00511
G1 X134.058 Y91.377 F10800.000
G1 F1200
G1 X133.490 Y91.228 E0.00255
G1 X132.936 Y91.138 F10800.000
G1 F1200
G1 X132.534 Y91.075 E0.00175
G1 X132.404 Y91.064 F10800.000
G1 F1200
G1 X131.479 Y90.994 E0.00408
G1 X130.491 Y90.972 F10800.000
G1 F1200
G1 X111.509 Y90.970 E0.09191
G1 X111.509 Y98.043 E0.03425
G1 X119.715 Y98.051 E0.03974
G1 F8640
G1 X116.424 Y98.048 E-0.76000
G1 E-0.04000 F2100.00000
G1 Z0.800 F10800.000
G1 X129.496 Y98.055
G1 Z0.200
G1 E0.80000 F2100.00000
G1 F1200
G1 X129.666 Y98.070 E0.00080
G1 X129.809 Y98.097 F10800.000
G1 F1200
G1 X130.020 Y98.184 E0.00107
G1 F8640
G1 X129.809 Y98.097 E-0.05277
G1 E-0.74723 F2100.00000
G1 Z0.800 F10800.000
G1 X130.530 Y99.541
G1 Z0.200
G1 E0.80000 F2100.00000
G1 F1200
G1 X130.530 Y99.985 E0.00219
G1 X130.522 Y100.157 F10800.000
G1 F1200
G1 X130.511 Y100.268 E0.00048
G1 F8640
G1 X130.522 Y100.157 E-0.02576
G1 E-0.77424 F2100.00000
G1 Z0.800 F10800.000
G1 X130.012 Y101.342
G1 Z0.200
G1 E0.80000 F2100.00000
G1 F1200
G1 X129.766 Y101.440 E0.00123
G1 X129.556 Y101.461 F10800.000
G1 F1200
G1 X129.267 Y101.478 E0.00128
G1 X116.131 Y101.482 E0.05818
G1 X116.126 Y108.036 E0.02903
G1 X116.131 Y108.059 E0.00010
G1 X116.153 Y108.064 E0.00010
G1 X129.351 Y108.067 E0.05845
G1 X129.944 Y108.088 E0.00263
G1 X130.048 Y108.141 F10800.000
G1 F1200
G1 X129.497 Y108.041 E0.00240
G1 F8640
G1 X130.048 Y108.141 E-0.12931
G1 E-0.67069 F2100.00000
G1 Z0.800 F10800.000
G1 X130.845 Y109.440
G1 Z0.200
G1 E0.80000 F2100.00000
G1 F1200
G1 X130.882 Y110.047 E0.00293
G1 X130.841 Y110.586 E0.00260
G1 X130.651 Y111.181 F10800.000
G1 F1200
G1 X130.449 Y111.472 E0.00162
G1 X130.415 Y111.466 F10800.000
G1 F1200
G1 X130.279 Y111.587 E0.00077
G1 X130.402 Y111.508 F10800.000
G1 F1200
G1 X130.038 Y111.656 E0.00176
G1 X130.082 Y111.668 F10800.000
G1 F1200
G1 X130.541 Y111.381 E0.00264
G1 X130.415 Y111.466 F10800.000
G1 F1200
G1 X130.662 Y111.212 E0.00175
G1 F8640
G1 X130.415 Y111.466 E-0.08182
G1 E-0.71818 F2100.00000
G1 Z0.800 F10800.000
G1 X129.429 Y111.715
G1 Z0.200
G1 E0.80000 F2100.00000
G1 F1200
G1 X111.315 Y111.727 E0.08225
G1 X111.315 Y119.030 E0.03316
G1 X130.197 Y119.034 E0.08574
G1 X130.908 Y119.030 E0.00323
G1 X131.720 Y118.997 E0.00369
G1 X132.544 Y118.916 E0.00376
G1 X132.584 Y118.913 F10800.000
G1 F1200
G1 X133.070 Y118.825 E0.00211
G1 X133.521 Y118.743 F10800.000
G1 F1200
G1 X134.482 Y118.455 E0.00460
G1 X135.409 Y118.032 E0.00467
G1 X136.270 Y117.446 E0.00477
G1 X137.080 Y116.627 E0.00528
G1 X137.748 Y115.594 E0.00563
G1 X138.259 Y114.311 E0.00779
G1 X138.271 Y114.243 F10800.000
G1 F1200
G1 X138.577 Y112.795 E0.00737
G1 X138.626 Y112.006 F10800.000
G1 F1200
G1 X138.690 Y110.994 E0.00444
G1 X138.640 Y109.610 E0.00606
G1 X138.473 Y108.319 E0.00570
G1 X138.302 Y107.614 E0.00907
G1 X138.207 Y107.310 E0.00398
G1 X138.066 Y106.958 E0.00474
G1 X137.826 Y106.478 E0.00670
G1 X137.569 Y106.142 E0.00529
G1 X137.339 Y105.897 E0.00420
G1 X137.172 Y105.773 E0.00219
G1 X137.026 Y105.668 E0.00130
M900 K0
G1 F8640
G1 X137.172 Y105.773 E-0.04132
G1 E-2.95868 F2100.00000
G1 Z0.800 F10800.000
G1 X229.750 Y153.810
G1 Z0.200
G1 E3.00000 F2100.00000
;--------------------
; CP TOOLCHANGE START
; toolchange #1
; material : PLA
;--------------------
M220 B
M220 S100
; CP TOOLCHANGE UNLOAD
G1 X229.250 Y153.420 
G1 F1341
G1 X223.671 E0.2816
G1 F1452
G1 X217.626 E0.3051
G1 F1644
G1 X210.785 E0.3453
G1 F1899
G1 X202.881 E0.3990
G1 F2266
G1 X193.449 E0.4761
G1 F2745
G1 X182.025 E0.5767
G1 F3224
G1 X170.750 E0.5691
G1 Y152.640 F7200
G1 F3224
G1 X172.892 E0.1081
G1 F3639
G1 X188.036 E0.7644
G1 F3926
G1 X204.375 E0.8248
G1 F4038
G1 X221.180 E0.8483
G1 E-15.0000 F6000
G1 E-24.5000 F1200
G1 E-7.0000 F600
G1 E-3.5000 F360
M104 S215
G1 Y151.860
G1 X170.750 E20.0000 F488
G1 X221.180 E-20.0000 F434
G1 X170.750 E20.0000 F380
G1 X221.180 E-20.0000 F326
G1 E-35.0000 F2000
G1 Y152.000 F2400
G4 S0
T1
G4 S0
; CP TOOLCHANGE LOAD
G1 E12.0000 F1140
M73 P12 R19
G1 X170.625 E42.0000 F2066
G1 X221.180 E6.0000 F1120
G1 Y152.500
; CP TOOLCHANGE WIPE
G1 X229.000 E0.3507 F800
G1 X229.750 Y152.000  E0.0404
G1 X171.000 E2.6348 F900
G1 X170.250 Y151.500  E0.0404
G1 X229.000 E2.6348 F1100
G1 Y151.000 E0.0224
G1 X171.000 E2.6012 F2100
G1 Y150.500 E0.0224
G1 X229.000 E2.6012 F2125
G1 X229.750 Y150.000  E0.0404
G1 X171.000 E2.6348 F2150
G1 X170.250 Y149.500  E0.0404
G1 X229.000 E2.6348 F2175
G1 Y149.000 E0.0224
G1 X171.000 E2.6012 F2200
G1 Y148.500 E0.0224
G1 X229.000 E2.6012 F2225
G1 X229.750 Y148.000  E0.0404
G1 X171.000 E2.6348 F2250
G1 X170.250 Y147.500  E0.0404
G1 X229.000 E2.6348 F2275
G1 Y147.000 E0.0224
G1 X171.000 E2.6012 F2300
G1 Y146.500 E0.0224
G1 X229.000 E2.6012 F2325
G1 X229.750 Y146.000  E0.0404
G1 X171.000 E2.6348 F2350
G1 X170.250 Y145.500  E0.0404
G1 X229.000 E2.6348 F2375
G1 Y145.000 E0.0224
G1 X171.000 E2.6012 F2400
G1 Y144.500 E0.0224
G1 X229.000 E2.6012
G1 X229.750 Y144.000  E0.0404
G1 X171.000 E2.6348
G1 X170.250 Y143.500  E0.0404
G1 X229.000 E2.6348
G1 Y143.000 E0.0224
G1 X171.000 E2.6012
G1 Y142.500 E0.0224
G1 X229.000 E2.6012
G1 X229.750 Y142.000  E0.0404
G1 X171.000 E2.6348
G1 X170.250 Y141.500  E0.0404
G1 X229.000 E2.6348
G1 Y141.000 E0.0224
G1 X171.000 E2.6012
G1 Y140.500 E0.0224
G1 X229.000 E2.6012
G1 X230.000
G1 Y140.000
G1 Y154.060 E0.5344
G1 X170.000 E2.2804
G1 Y140.000 E0.5344
G1 X230.000 E2.2804
G1 X170.000
M220 R
G1 F6000
G4 S0
G92 E0
