; generated by PrusaSlicer 2.0.0+ on 2019-08-06 at 16:22:41

; 

; external perimeters extrusion width = 0.45mm
; perimeters extrusion width = 0.45mm
; infill extrusion width = 0.45mm
; solid infill extrusion width = 0.45mm
; top infill extrusion width = 0.40mm
; first layer extrusion width = 0.42mm

; external perimeters extrusion width = 0.45mm
; perimeters extrusion width = 0.45mm
; infill extrusion width = 0.45mm
; solid infill extrusion width = 0.45mm
; top infill extrusion width = 0.40mm
; first layer extrusion width = 0.42mm

M73 P0 R31
M201 X9000 Y9000 Z500 E10000 ; sets maximum accelerations, mm/sec^2
M203 X500 Y500 Z12 E120 ; sets maximum feedrates, mm/sec
M204 P2000 R1500 T2000 ; sets acceleration (P, T) and retract acceleration (R), mm/sec^2
M205 X10.00 Y10.00 Z0.20 E2.50 ; sets the jerk limits, mm/sec
M205 S0 T0 ; sets the minimum extruding and travel feed rate, mm/sec
M107
M115 U3.7.2 ; tell printer latest fw version
G90 ; use absolute coordinates
M83 ; extruder relative mode
M104 S215 ; set extruder temp
M140 S60 ; set bed temp
M190 S60 ; wait for bed temp
M109 S215 ; wait for extruder temp
G28 W ; home all without mesh bed level
G80 ; mesh bed leveling
G21 ; set units to millimeters

; Send the filament type to the MMU2.0 unit.
; E stands for extruder number, F stands for filament type (0: default; 1:flex; 2: PVA)
M403 E0 F0
M403 E1 F0
M403 E2 F0
M403 E3 F0
M403 E4 F0


;go outside print area
G1 Y-3.0 F1000.0
G1 Z0.4 F1000.0
; select extruder
T0
; initial load
G1 X55.0 E29.0 F1073.0
M73 P0 R31
G1 X5.0 E29.0 F1800.0
G1 X55.0 E8.0 F2000.0
G1 Z0.3 F1000.0
G92 E0.0
G1 X240.0 E25.0 F2200.0
G1 Y-2.0 F1000.0
G1 X55.0 E25 F1400.0
G1 Z0.20 F1000.0
G1 X5.0 E4.0 F1000.0
G92 E0.0

G92 E0.0
G21 ; set units to millimeters
G90 ; use absolute coordinates
M83 ; use relative distances for extrusion
T0
M900 K30 ; Filament gcode
G1 Z0.200 F10800.000
;BEFORE_LAYER_CHANGE
G92 E0.0
;0.2


G1 E-0.80000 F2100.00000
G1 Z0.800 F10800.000
G1 Z0.200
;AFTER_LAYER_CHANGE
;0.2
M900 K0
G1 E-2.20000 F2100.00000
G1 Z0.800 F10800.000
G1 X233.000 Y140.000
G1 Z0.200
G1 E3.00000 F2100.00000
;-------------------------------------
; CP WIPE TOWER FIRST LAYER BRIM START
G1 X233.000 Y154.060 E0.8016 F2400
G1 X230.457 Y154.517  F7000
G1 Y139.543 E0.6260 F2100
G1 X169.543 E2.5466
G1 Y154.517 E0.6260
G1 X230.457 E2.5466
G1 X230.914 Y154.974  F7000
G1 Y139.086 E0.6642 F2100
G1 X169.086 E2.5849
G1 Y154.974 E0.6642
G1 X230.914 E2.5849
G1 X231.371 Y155.431  F7000
G1 Y138.629 E0.7025 F2100
G1 X168.629 E2.6231
G1 Y155.431 E0.7025
G1 X231.371 E2.6231
G1 X231.828 Y155.888  F7000
G1 Y138.172 E0.7407 F2100
G1 X168.172 E2.6613
G1 Y155.888 E0.7407
G1 X231.828 E2.6613
G1 X230.000 Y154.060  F7000
G1 X170.000
G1 X230.000
; CP WIPE TOWER FIRST LAYER BRIM END
;-----------------------------------

M900 K30 ; Filament gcode
G1 F8640
G1 X226.709 Y154.060 E-0.76000
G1 E-0.04000 F2100.00000
G1 Z0.800 F10800.000
G1 X137.098 Y138.124
G1 Z0.200
G1 E0.80000 F2100.00000
M204 S1000
G1 F1200
G1 X136.815 Y138.723 E0.02078
G1 X136.366 Y139.210 E0.02078
G1 X135.792 Y139.540 E0.02078
G1 X135.141 Y139.684 E0.02089
G1 X114.989 Y139.689 E0.63185
G1 X114.376 Y139.598 E0.01942
G1 X113.756 Y139.301 E0.02157
G1 X113.259 Y138.826 E0.02157
G1 X112.934 Y138.223 E0.02146
G1 X112.812 Y137.546 E0.02157
G1 X112.811 Y72.496 E2.03959
G1 X112.902 Y71.876 E0.01964
G1 X113.183 Y71.280 E0.02066
G1 X113.628 Y70.795 E0.02066
G1 X114.198 Y70.464 E0.02066
G1 X114.844 Y70.317 E0.02078
G1 X135.004 Y70.311 E0.63208
G1 X135.823 Y70.472 E0.02620
G1 X136.526 Y70.931 E0.02631
G1 X137.003 Y71.617 E0.02620
G1 X137.187 Y72.432 E0.02620
G1 X137.189 Y137.504 E2.04028
G1 X137.107 Y138.064 E0.01776
G1 F8640
G1 X136.815 Y138.723 E-0.16630
G1 X136.366 Y139.210 E-0.15300
G1 X135.792 Y139.540 E-0.15300
G1 X135.141 Y139.684 E-0.15384
G1 X134.561 Y139.684 E-0.13386
G1 E-0.04000 F2100.00000
G1 Z0.800 F10800.000
G1 X133.169 Y132.802
G1 Z0.200
G1 E0.80000 F2100.00000
G1 F1200
G1 X129.428 Y133.523 E0.11947
G1 X129.428 Y130.111 E0.10698
G1 X127.409 Y130.111 E0.06330
G1 X127.404 Y131.700 E0.04985
G1 X127.348 Y132.162 E0.01456
G1 X127.277 Y132.419 E0.00838
G1 X127.172 Y132.665 E0.00837
G1 X127.021 Y132.900 E0.00877
G1 X126.822 Y133.113 E0.00914
G1 X126.577 Y133.290 E0.00947
G1 X126.296 Y133.426 E0.00979
G1 X125.983 Y133.518 E0.01023
G1 X125.640 Y133.572 E0.01088
G1 X125.276 Y133.589 E0.01144
G1 X120.281 Y133.577 E0.15661
G1 X119.960 Y133.529 E0.01018
G1 X119.662 Y133.449 E0.00966
G1 X119.379 Y133.332 E0.00962
G1 X119.114 Y133.174 E0.00965
G1 X118.876 Y132.976 E0.00972
G1 X118.670 Y132.740 E0.00983
G1 X118.502 Y132.470 E0.00997
G1 X118.373 Y132.172 E0.01018
G1 X118.283 Y131.850 E0.01049
G1 X118.230 Y131.505 E0.01091
G1 X118.214 Y131.153 E0.01107
G1 X118.214 Y126.849 E0.13493
G1 X120.532 Y126.420 E0.07391
G1 X118.214 Y125.768 E0.07550
G1 X118.214 Y119.778 E0.18780
G1 X121.954 Y118.781 E0.12136
G1 X121.954 Y120.801 E0.06336
G1 X133.168 Y120.801 E0.35161
G1 X133.168 Y124.789 E0.12501
G1 X121.954 Y124.789 E0.35161
G1 X121.954 Y129.734 E0.15507
G1 X123.949 Y129.732 E0.06256
G1 X123.962 Y127.909 E0.05718
G1 X124.048 Y127.433 E0.01514
G1 X124.144 Y127.181 E0.00847
G1 X124.270 Y126.957 E0.00806
G1 X124.434 Y126.754 E0.00818
G1 X124.633 Y126.580 E0.00827
G1 X124.859 Y126.441 E0.00833
G1 X125.107 Y126.339 E0.00841
G1 X125.386 Y126.266 E0.00904
G1 X125.922 Y126.218 E0.01687
G1 X130.883 Y126.230 E0.15555
G1 X131.267 Y126.272 E0.01209
G1 X131.618 Y126.347 E0.01128
G1 X131.948 Y126.464 E0.01098
G1 X132.253 Y126.631 E0.01087
G1 X132.521 Y126.850 E0.01087
G1 X132.743 Y127.118 E0.01090
G1 X132.913 Y127.423 E0.01095
G1 X133.033 Y127.757 E0.01113
G1 X133.111 Y128.116 E0.01151
G1 X133.156 Y128.509 E0.01240
G1 X133.169 Y132.742 E0.13274
G1 X132.791 Y132.491 F10800.000
G1 F1200
G1 X129.805 Y133.066 E0.09536
G1 X129.805 Y129.857 E0.10062
G1 X129.790 Y129.742 E0.00362
G1 X127.228 Y129.733 E0.08032
G1 X127.101 Y129.743 E0.00401
G1 X127.059 Y129.757 E0.00139
G1 X127.047 Y129.783 E0.00090
G1 X127.032 Y129.956 E0.00545
G1 X127.027 Y131.677 E0.05396
G1 X126.977 Y132.088 E0.01299
G1 X126.920 Y132.294 E0.00670
G1 X126.837 Y132.487 E0.00660
G1 X126.722 Y132.668 E0.00671
G1 X126.571 Y132.829 E0.00693
G1 X126.383 Y132.965 E0.00727
G1 X126.160 Y133.073 E0.00778
G1 X125.900 Y133.150 E0.00849
G1 X125.602 Y133.196 E0.00945
G1 X125.268 Y133.212 E0.01050
G1 X120.309 Y133.200 E0.15547
G1 X120.036 Y133.159 E0.00865
G1 X119.784 Y133.092 E0.00820
G1 X119.548 Y132.994 E0.00799
G1 X119.333 Y132.866 E0.00786
G1 X119.141 Y132.706 E0.00784
G1 X118.974 Y132.515 E0.00794
G1 X118.837 Y132.294 E0.00815
G1 X118.729 Y132.046 E0.00849
G1 X118.652 Y131.770 E0.00897
G1 X118.606 Y131.468 E0.00958
G1 X118.591 Y131.144 E0.01017
G1 X118.591 Y127.163 E0.12482
G1 X121.577 Y126.610 E0.09521
G1 X121.577 Y129.967 E0.10525
G1 X121.602 Y130.092 E0.00401
G1 X121.687 Y130.112 E0.00273
G1 X124.225 Y130.109 E0.07958
G1 X124.298 Y130.088 E0.00237
G1 X124.324 Y130.003 E0.00278
G1 X124.339 Y127.944 E0.06458
G1 X124.413 Y127.535 E0.01303
G1 X124.487 Y127.341 E0.00649
G1 X124.584 Y127.169 E0.00619
G1 X124.707 Y127.016 E0.00617
G1 X124.857 Y126.885 E0.00624
G1 X125.031 Y126.778 E0.00640
G1 X125.228 Y126.697 E0.00667
G1 X125.451 Y126.638 E0.00723
G1 X125.938 Y126.595 E0.01535
G1 X130.862 Y126.607 E0.15439
G1 X131.206 Y126.645 E0.01085
G1 X131.515 Y126.711 E0.00991
G1 X131.794 Y126.810 E0.00926
G1 X132.041 Y126.945 E0.00883
G1 X132.254 Y127.119 E0.00863
G1 X132.430 Y127.332 E0.00866
G1 X132.568 Y127.580 E0.00891
G1 X132.670 Y127.862 E0.00940
G1 X132.739 Y128.177 E0.01012
G1 X132.779 Y128.530 E0.01115
G1 X132.791 Y132.431 E0.12230
G1 X132.844 Y132.887 F10800.000
G1 F8640
G1 X129.805 Y133.066 E-0.70496
G1 X129.805 Y132.828 E-0.05504
G1 E-0.04000 F2100.00000
G1 Z0.800 F10800.000
G1 X132.791 Y124.412
G1 Z0.200
G1 E0.80000 F2100.00000
G1 F1200
G1 X121.577 Y124.412 E0.35161
M73 P4 R30
G1 X121.577 Y126.322 E0.05992
G1 X118.591 Y125.482 E0.09726
G1 X118.591 Y120.068 E0.16976
G1 X121.577 Y119.272 E0.09689
G1 X121.577 Y121.179 E0.05979
G1 X132.791 Y121.179 E0.35161
G1 X132.791 Y124.352 E0.09949
G1 X132.958 Y124.775 F10800.000
G1 F8640
G1 X129.499 Y124.369 E-0.76000
G1 E-0.04000 F2100.00000
G1 Z0.800 F10800.000
G1 X133.168 Y119.867
G1 Z0.200
G1 E0.80000 F2100.00000
G1 F1200
G1 X118.214 Y117.165 E0.47647
G1 X118.214 Y113.238 E0.12313
G1 X133.168 Y110.536 E0.47647
G1 X133.168 Y114.522 E0.12498
G1 X131.457 Y114.769 E0.05419
G1 X131.457 Y115.634 E0.02712
G1 X133.168 Y115.881 E0.05419
G1 X133.168 Y119.807 E0.12310
G1 X132.791 Y119.416 F10800.000
G1 F1200
G1 X118.591 Y116.850 E0.45244
G1 X118.591 Y113.553 E0.10337
G1 X132.791 Y110.988 E0.45244
G1 X132.791 Y114.196 E0.10059
G1 X131.080 Y114.443 E0.05419
G1 X131.080 Y115.961 E0.04759
G1 X132.791 Y116.208 E0.05419
G1 X132.791 Y119.356 E0.09871
G1 X132.804 Y119.816 F10800.000
G1 F8640
G1 X129.549 Y118.784 E-0.76000
G1 E-0.04000 F2100.00000
G1 Z0.800 F10800.000
G1 X133.168 Y83.967
G1 Z0.200
G1 E0.80000 F2100.00000
G1 F1200
G1 X133.168 Y87.841 E0.12147
G1 X131.457 Y88.281 E0.05538
G1 X133.168 Y88.281 E0.05363
G1 X133.168 Y92.002 E0.11667
G1 X131.080 Y92.002 E0.06547
G1 X131.218 Y92.013 E0.00433
G1 X131.530 Y92.082 E0.01003
G1 X131.825 Y92.184 E0.00978
G1 X132.108 Y92.327 E0.00997
G1 X132.374 Y92.516 E0.01022
G1 X132.611 Y92.753 E0.01051
G1 X132.812 Y93.034 E0.01084
G1 X132.969 Y93.356 E0.01123
G1 X133.081 Y93.714 E0.01175
G1 X133.147 Y94.106 E0.01245
G1 X133.168 Y94.517 E0.01292
G1 X133.168 Y97.740 E0.10106
G1 X133.147 Y98.152 E0.01292
G1 X133.081 Y98.543 E0.01245
G1 X132.969 Y98.901 E0.01175
G1 X132.812 Y99.223 E0.01123
G1 X132.611 Y99.505 E0.01084
G1 X132.374 Y99.741 E0.01051
G1 X132.108 Y99.930 E0.01022
G1 X131.825 Y100.073 E0.00997
G1 X131.516 Y100.180 E0.01024
G1 X131.074 Y100.255 E0.01407
G1 X133.168 Y100.255 E0.06566
G1 X133.168 Y104.185 E0.12323
G1 X121.954 Y104.185 E0.35161
G1 X121.954 Y105.615 E0.04483
G1 X133.168 Y105.615 E0.35161
G1 X133.168 Y109.602 E0.12501
G1 X121.954 Y109.602 E0.35161
G1 X121.954 Y111.634 E0.06370
G1 X118.214 Y110.581 E0.12182
G1 X118.214 Y104.592 E0.18780
G1 X119.738 Y104.185 E0.04945
G1 X118.214 Y104.185 E0.04778
G1 X118.214 Y100.255 E0.12323
G1 X120.134 Y100.255 E0.06021
G1 X119.960 Y100.230 E0.00552
G1 X119.662 Y100.150 E0.00966
G1 X119.379 Y100.032 E0.00962
G1 X119.114 Y99.875 E0.00965
G1 X118.876 Y99.676 E0.00972
G1 X118.670 Y99.440 E0.00983
G1 X118.502 Y99.170 E0.00997
G1 X118.373 Y98.872 E0.01018
G1 X118.283 Y98.550 E0.01049
G1 X118.230 Y98.206 E0.01091
G1 X118.214 Y97.853 E0.01107
G1 X118.214 Y94.404 E0.10813
G1 X118.230 Y94.052 E0.01107
G1 X118.283 Y93.707 E0.01091
G1 X118.373 Y93.385 E0.01049
G1 X118.502 Y93.087 E0.01018
G1 X118.670 Y92.817 E0.00997
G1 X118.876 Y92.581 E0.00983
G1 X119.114 Y92.383 E0.00972
G1 X119.379 Y92.225 E0.00965
G1 X119.662 Y92.108 E0.00962
G1 X119.960 Y92.028 E0.00966
G1 X120.134 Y92.002 E0.00552
G1 X118.214 Y92.002 E0.06021
G1 X118.214 Y88.336 E0.11496
G1 X119.641 Y87.973 E0.04617
G1 X118.214 Y87.973 E0.04475
G1 X118.214 Y83.967 E0.12561
G1 X133.108 Y83.967 E0.46699
G1 F8640
G1 X133.159 Y87.258 E-0.76000
G1 E-0.04000 F2100.00000
G1 Z0.800 F10800.000
G1 X132.791 Y105.992
G1 Z0.200
G1 E0.80000 F2100.00000
G1 F1200
G1 X132.791 Y109.225 E0.10137
G1 X121.577 Y109.225 E0.35161
G1 X121.577 Y111.136 E0.05992
G1 X118.591 Y110.296 E0.09726
G1 X118.591 Y104.881 E0.16976
G1 X121.577 Y104.085 E0.09689
G1 X121.577 Y105.992 E0.05979
G1 X132.731 Y105.992 E0.34972
G1 X133.190 Y106.015 F10800.000
G1 F8640
G1 X132.791 Y109.225 E-0.74663
G1 X132.733 Y109.225 E-0.01337
G1 E-0.04000 F2100.00000
G1 Z0.800 F10800.000
G1 X132.731 Y103.808
G1 Z0.200
G1 E0.80000 F2100.00000
G1 F1200
G1 X118.591 Y103.808 E0.44335
G1 X118.591 Y100.632 E0.09958
G1 X132.791 Y100.632 E0.44523
G1 X132.791 Y103.808 E0.09958
G1 X132.905 Y104.168 F10800.000
G1 F8640
G1 X129.499 Y103.808 E-0.76000
G1 E-0.04000 F2100.00000
G1 Z0.800 F10800.000
G1 X131.422 Y99.814
G1 Z0.200
G1 E0.80000 F2100.00000
G1 F1200
G1 X130.899 Y99.902 E0.01664
G1 X120.583 Y99.912 E0.32345
G1 X120.305 Y99.899 E0.00873
G1 X120.036 Y99.860 E0.00850
G1 X119.784 Y99.792 E0.00820
G1 X119.548 Y99.694 E0.00799
G1 X119.333 Y99.566 E0.00786
G1 X119.141 Y99.406 E0.00784
G1 X118.974 Y99.215 E0.00794
G1 X118.837 Y98.994 E0.00815
G1 X118.729 Y98.746 E0.00849
G1 X118.652 Y98.470 E0.00897
G1 X118.606 Y98.168 E0.00958
G1 X118.591 Y97.844 E0.01017
G1 X118.591 Y94.413 E0.10758
G1 X118.606 Y94.089 E0.01017
G1 X118.652 Y93.787 E0.00958
G1 X118.729 Y93.511 E0.00897
G1 X118.837 Y93.263 E0.00849
G1 X118.974 Y93.042 E0.00815
G1 X119.141 Y92.851 E0.00794
G1 X119.333 Y92.691 E0.00784
G1 X119.548 Y92.563 E0.00786
G1 X119.784 Y92.465 E0.00799
G1 X120.036 Y92.398 E0.00820
G1 X120.305 Y92.358 E0.00850
G1 X130.631 Y92.345 E0.32378
G1 X131.162 Y92.387 E0.01669
G1 X131.427 Y92.445 E0.00852
G1 X131.677 Y92.532 E0.00830
G1 X131.913 Y92.651 E0.00828
G1 X132.130 Y92.805 E0.00835
G1 X132.323 Y92.997 E0.00853
G1 X132.487 Y93.228 E0.00886
G1 X132.618 Y93.496 E0.00936
G1 X132.713 Y93.802 E0.01005
G1 X132.771 Y94.147 E0.01096
G1 X132.791 Y94.527 E0.01193
G1 X132.791 Y97.731 E0.10046
G1 X132.771 Y98.110 E0.01193
G1 X132.713 Y98.455 E0.01096
G1 X132.618 Y98.761 E0.01005
G1 X132.487 Y99.030 E0.00936
G1 X132.323 Y99.260 E0.00886
G1 X132.130 Y99.452 E0.00853
G1 X131.913 Y99.606 E0.00835
G1 X131.677 Y99.725 E0.00828
G1 X131.479 Y99.794 E0.00658
G1 X131.312 Y100.198 F10800.000
G1 F8640
G1 X130.899 Y99.902 E-0.13623
G1 X128.198 Y99.905 E-0.62377
G1 E-0.04000 F2100.00000
G1 Z0.800 F10800.000
G1 X132.791 Y84.344
G1 Z0.200
G1 E0.80000 F2100.00000
G1 F1200
G1 X132.791 Y87.548 E0.10048
G1 X128.480 Y88.658 E0.13957
G1 X132.791 Y88.658 E0.13517
G1 X132.791 Y91.625 E0.09302
G1 X118.591 Y91.625 E0.44523
G1 X118.591 Y88.629 E0.09394
G1 X122.654 Y87.596 E0.13145
G1 X118.591 Y87.596 E0.12739
G1 X118.591 Y84.344 E0.10196
G1 X132.731 Y84.344 E0.44335
G1 X133.190 Y84.314 F10800.000
G1 F8640
G1 X132.791 Y87.548 E-0.74012
G1 X132.707 Y87.570 E-0.01988
G1 E-0.04000 F2100.00000
G1 Z0.800 F10800.000
G1 X129.428 Y75.794
G1 Z0.200
G1 E0.80000 F2100.00000
G1 F1200
G1 X133.168 Y75.794 E0.11727
G1 X133.168 Y81.624 E0.18282
G1 X129.428 Y81.624 E0.11727
G1 X129.428 Y80.731 E0.02801
G1 X121.954 Y80.731 E0.23434
G1 X121.954 Y82.152 E0.04454
G1 X118.214 Y80.656 E0.12630
G1 X118.214 Y76.725 E0.12324
G1 X129.428 Y76.725 E0.35161
G1 X129.428 Y75.854 E0.02732
G1 X129.805 Y76.171 F10800.000
G1 F1200
G1 X132.791 Y76.171 E0.09362
G1 X132.791 Y81.247 E0.15917
G1 X129.805 Y81.247 E0.09362
G1 X129.805 Y80.354 E0.02801
G1 X121.577 Y80.354 E0.25798
G1 X121.577 Y81.595 E0.03890
G1 X118.591 Y80.400 E0.10083
G1 X118.591 Y77.102 E0.10341
G1 X129.805 Y77.102 E0.35161
G1 X129.805 Y76.231 E0.02732
G1 X129.995 Y75.819 F10800.000
G1 F8640
G1 X132.791 Y76.171 E-0.68959
G1 X132.791 Y76.476 E-0.07041
G1 E-0.04000 F2100.00000
G1 Z0.800 F10800.000
G1 X134.413 Y73.087
G1 Z0.200
G1 E0.80000 F2100.00000
G1 F1200
G1 X134.413 Y136.913 E2.00121
G1 X115.587 Y136.913 E0.59027
G1 X115.587 Y73.087 E2.00121
G1 X134.353 Y73.087 E0.58839
G1 X134.790 Y72.710 F10800.000
G1 F1200
G1 X134.790 Y137.290 E2.02486
G1 X115.210 Y137.290 E0.61392
G1 X115.210 Y72.710 E2.02486
G1 X134.730 Y72.710 E0.61204
G1 X134.751 Y73.108 F10800.000
G1 F8640
G1 X134.733 Y76.001 E-0.76000
G1 E-0.04000 F2100.00000
G1 Z0.800 F10800.000
G1 X128.474 Y114.804
G1 Z0.200
G1 E0.80000 F2100.00000
G1 F1200
G1 X128.474 Y115.599 E0.02493
G1 X125.424 Y115.195 E0.09647
G1 X128.415 Y114.811 E0.09454
G1 X128.128 Y114.604 F10800.000
G1 F8640
G1 X128.474 Y115.599 E-0.18236
G1 X125.994 Y115.271 E-0.57764
G1 E-0.04000 F2100.00000
G1 Z0.800 F10800.000
G1 X129.575 Y96.331
G1 Z0.200
G1 E0.80000 F2100.00000
G1 F1200
G1 X121.808 Y96.339 E0.24354
G1 X121.806 Y95.941 E0.01248
G1 X129.577 Y95.937 E0.24365
G1 X129.575 Y96.271 E0.01048
G1 X129.951 Y96.708 F10800.000
G1 F1200
G1 X121.502 Y96.717 E0.26490
G1 X121.432 Y96.703 E0.00223
G1 X121.427 Y95.588 E0.03496
G1 X121.435 Y95.564 E0.00077
G1 X129.953 Y95.565 E0.26707
G1 X129.951 Y96.648 E0.03394
G1 X129.551 Y96.690 F10800.000
G1 F8640
G1 X126.659 Y96.675 E-0.76000
G1 E-0.04000 F2100.00000
