; generated by PrusaSlicer 2.0.0+ on 2019-08-01 at 15:43:08

; 

; external perimeters extrusion width = 0.45mm
; perimeters extrusion width = 0.45mm
; infill extrusion width = 0.45mm
; solid infill extrusion width = 0.45mm
; top infill extrusion width = 0.40mm
; support material extrusion width = 0.35mm
; first layer extrusion width = 0.42mm

; external perimeters extrusion width = 0.45mm
; perimeters extrusion width = 0.45mm
; infill extrusion width = 0.45mm
; solid infill extrusion width = 0.45mm
; top infill extrusion width = 0.40mm
; support material extrusion width = 0.35mm
; first layer extrusion width = 0.42mm

M73 P0 R25
M201 X9000 Y9000 Z500 E10000 ; sets maximum accelerations, mm/sec^2
M203 X500 Y500 Z12 E120 ; sets maximum feedrates, mm/sec
M204 P2000 R1500 T2000 ; sets acceleration (P, T) and retract acceleration (R), mm/sec^2
M205 X10.00 Y10.00 Z0.20 E2.50 ; sets the jerk limits, mm/sec
M205 S0 T0 ; sets the minimum extruding and travel feed rate, mm/sec
M107
M115 U3.7.2 ; tell printer latest fw version
G90 ; use absolute coordinates
M83 ; extruder relative mode
M104 S215 ; set extruder temp
M140 S60 ; set bed temp
M190 S60 ; wait for bed temp
M109 S215 ; wait for extruder temp
G28 W ; home all without mesh bed level
G80 ; mesh bed leveling
G21 ; set units to millimeters

; Send the filament type to the MMU2.0 unit.
; E stands for extruder number, F stands for filament type (0: default; 1:flex; 2: PVA)
M403 E0 F0
M403 E1 F0
M403 E2 F0
M403 E3 F0
M403 E4 F0


;go outside print area
G1 Y-3.0 F1000.0
G1 Z0.4 F1000.0
; select extruder
T0
; initial load
G1 X55.0 E29.0 F1073.0
M73 P1 R25
G1 X5.0 E29.0 F1800.0
G1 X55.0 E8.0 F2000.0
G1 Z0.3 F1000.0
G92 E0.0
G1 X240.0 E25.0 F2200.0
G1 Y-2.0 F1000.0
G1 X55.0 E25 F1400.0
G1 Z0.20 F1000.0
G1 X5.0 E4.0 F1000.0
G92 E0.0

G92 E0.0
G21 ; set units to millimeters
G90 ; use absolute coordinates
M83 ; use relative distances for extrusion
T0
M900 K30 ; Filament gcode
G1 Z0.200 F10800.000
;BEFORE_LAYER_CHANGE
G92 E0.0
;0.2


G1 E-0.80000 F2100.00000
G1 Z0.800 F10800.000
G1 Z0.200
;AFTER_LAYER_CHANGE
;0.2
M900 K0
G1 E-2.20000 F2100.00000
G1 Z0.800 F10800.000
G1 X233.000 Y140.000
G1 Z0.200
G1 E3.00000 F2100.00000
;-------------------------------------
; CP WIPE TOWER FIRST LAYER BRIM START
G1 X233.000 Y154.060 E0.8016 F2400
G1 X230.457 Y154.517  F7000
G1 Y139.543 E0.6260 F2100
G1 X169.543 E2.5466
G1 Y154.517 E0.6260
G1 X230.457 E2.5466
G1 X230.914 Y154.974  F7000
G1 Y139.086 E0.6642 F2100
G1 X169.086 E2.5849
G1 Y154.974 E0.6642
G1 X230.914 E2.5849
G1 X231.371 Y155.431  F7000
G1 Y138.629 E0.7025 F2100
G1 X168.629 E2.6231
G1 Y155.431 E0.7025
G1 X231.371 E2.6231
G1 X231.828 Y155.888  F7000
G1 Y138.172 E0.7407 F2100
G1 X168.172 E2.6613
G1 Y155.888 E0.7407
G1 X231.828 E2.6613
G1 X230.000 Y154.060  F7000
G1 X170.000
G1 X230.000
; CP WIPE TOWER FIRST LAYER BRIM END
;-----------------------------------

M900 K30 ; Filament gcode
G1 F8640
G1 X226.709 Y154.060 E-0.76000
G1 E-0.04000 F2100.00000
G1 Z0.800 F10800.000
G1 X141.373 Y106.153
G1 Z0.200
G1 E0.80000 F2100.00000
M204 S1000
G1 F1200
G1 X141.045 Y106.651 E0.01869
G1 X140.608 Y107.062 E0.01882
G1 X126.109 Y117.135 E0.55356
G1 X125.433 Y117.450 E0.02337
G1 X124.696 Y117.558 E0.02337
G1 X124.062 Y117.478 E0.02005
G1 X123.463 Y117.242 E0.02017
G1 X112.741 Y111.219 E0.38559
G1 X112.026 Y110.603 E0.02961
G1 X111.633 Y109.919 E0.02472
G1 X111.467 Y109.149 E0.02472
G1 X111.463 Y101.000 E0.25550
G1 X111.542 Y100.369 E0.01992
G1 X111.775 Y99.774 E0.02005
G1 X112.145 Y99.258 E0.01992
G1 X112.635 Y98.846 E0.02005
G1 X123.493 Y92.742 E0.39056
G1 X124.079 Y92.517 E0.01968
G1 X124.702 Y92.442 E0.01968
G1 X125.435 Y92.550 E0.02324
G1 X126.111 Y92.866 E0.02337
G1 X140.610 Y102.939 E0.55355
G1 X141.047 Y103.350 E0.01882
G1 X141.374 Y103.848 E0.01869
G1 X141.578 Y104.409 E0.01869
G1 X141.647 Y105.001 E0.01869
G1 X141.578 Y105.593 E0.01869
G1 X141.394 Y106.097 E0.01681
G1 F8640
G1 X141.045 Y106.651 E-0.15117
G1 X140.608 Y107.062 E-0.13857
G1 X138.936 Y108.224 E-0.47026
G1 E-0.04000 F2100.00000
G1 Z0.800 F10800.000
G1 X134.942 Y105.000
G1 Z0.200
G1 E0.80000 F2100.00000
G1 F1200
G1 X127.059 Y110.477 E0.30097
G1 X127.059 Y106.638 E0.12034
G1 X117.489 Y106.638 E0.30005
G1 X117.489 Y108.413 E0.05564
G1 X114.616 Y108.413 E0.09010
G1 X114.616 Y101.587 E0.21402
G1 X117.489 Y101.587 E0.09010
G1 X117.489 Y103.362 E0.05564
G1 X127.059 Y103.362 E0.30005
G1 X127.059 Y99.523 E0.12034
G1 X134.893 Y104.966 E0.29909
G1 F8640
G1 X132.201 Y106.859 E-0.76000
G1 E-0.04000 F2100.00000
G1 Z0.800 F10800.000
G1 X126.682 Y107.015
G1 Z0.200
G1 E0.80000 F2100.00000
G1 F1200
G1 X117.866 Y107.015 E0.27641
G1 X117.866 Y108.790 E0.05564
G1 X114.239 Y108.790 E0.11374
G1 X114.239 Y101.210 E0.23767
G1 X117.866 Y101.210 E0.11374
G1 X117.866 Y102.985 E0.05564
G1 X126.682 Y102.985 E0.27641
G1 X126.682 Y98.802 E0.13113
G1 X135.603 Y105.000 E0.34060
G1 X126.682 Y111.198 E0.34060
G1 X126.682 Y107.075 E0.12925
G1 X126.457 Y106.685 F10800.000
G1 F8640
G1 X123.391 Y107.053 E-0.76000
G1 E-0.04000 F2100.00000
G1 Z0.800 F10800.000
G1 X127.543 Y110.003
G1 Z0.200
G1 E0.80000 F2100.00000
G1 F1200
G1 X127.342 Y109.801 E0.00910
G1 X127.342 Y109.258 E0.01739
G1 X127.742 Y109.658 E0.01810
G1 X128.063 Y109.435 E0.01250
G1 X127.342 Y108.714 E0.03261
G1 X127.342 Y108.170 E0.01739
G1 X128.384 Y109.212 E0.04712
G1 X128.705 Y108.989 E0.01250
G1 X127.342 Y107.626 E0.06163
G1 X127.342 Y107.082 E0.01739
G1 X129.148 Y108.888 E0.08166
G1 F8640
G1 X127.342 Y107.082 E-0.58966
G1 X127.342 Y107.626 E-0.12558
G1 X127.479 Y107.763 E-0.04476
G1 E-0.04000 F2100.00000
G1 Z0.800 F10800.000
G1 X133.319 Y105.990
G1 Z0.200
G1 E0.80000 F2100.00000
G1 F1200
G1 X127.513 Y100.183 E0.26258
G1 X127.342 Y100.064 E0.00666
G1 X127.342 Y100.556 E0.01572
G1 X132.877 Y106.091 E0.25029
G1 X132.556 Y106.314 E0.01250
G1 X127.342 Y101.100 E0.23578
G1 X127.342 Y101.644 E0.01739
G1 X132.235 Y106.537 E0.22127
G1 X131.914 Y106.760 E0.01250
G1 X127.342 Y102.187 E0.20676
G1 X127.342 Y102.731 E0.01739
G1 X131.593 Y106.982 E0.19224
G1 X131.272 Y107.205 E0.01250
G1 X127.342 Y103.275 E0.17773
G1 X127.342 Y103.644 E0.01181
G1 X127.167 Y103.644 E0.00559
G1 X130.951 Y107.428 E0.17112
G1 X130.630 Y107.651 E0.01250
G1 X126.623 Y103.644 E0.18120
G1 X126.079 Y103.644 E0.01739
G1 X130.309 Y107.874 E0.19128
G1 X129.988 Y108.097 E0.01250
G1 X125.536 Y103.644 E0.20136
G1 X124.992 Y103.644 E0.01739
G1 X129.667 Y108.320 E0.21145
G1 X129.347 Y108.543 E0.01250
G1 X124.448 Y103.644 E0.22153
G1 X123.904 Y103.644 E0.01739
G1 X126.615 Y106.356 E0.12261
M73 P5 R24
G1 X126.071 Y106.356 E0.01739
G1 X123.360 Y103.644 E0.12261
G1 X122.816 Y103.644 E0.01739
G1 X125.528 Y106.356 E0.12261
G1 X124.984 Y106.356 E0.01739
G1 X122.272 Y103.644 E0.12261
G1 X121.729 Y103.644 E0.01739
G1 X124.440 Y106.356 E0.12261
G1 X123.896 Y106.356 E0.01739
G1 X121.185 Y103.644 E0.12261
G1 X120.641 Y103.644 E0.01739
G1 X123.352 Y106.356 E0.12261
G1 X122.808 Y106.356 E0.01739
G1 X120.097 Y103.644 E0.12261
G1 X119.553 Y103.644 E0.01739
G1 X122.264 Y106.356 E0.12261
G1 X121.721 Y106.356 E0.01739
G1 X119.009 Y103.644 E0.12261
G1 X118.465 Y103.644 E0.01739
G1 X121.177 Y106.356 E0.12261
G1 X120.633 Y106.356 E0.01739
G1 X117.752 Y103.475 E0.13028
G1 X117.376 Y103.099 F10800.000
G1 F1200
G1 X116.147 Y101.870 E0.05558
G1 X116.691 Y101.870 E0.01739
G1 X117.376 Y102.555 E0.03099
G1 F8640
G1 X116.691 Y101.870 E-0.22377
G1 X116.147 Y101.870 E-0.12558
G1 X117.376 Y103.099 E-0.40136
G1 E-0.04929 F2100.00000
G1 Z0.800 F10800.000
G1 X120.259 Y106.525
G1 Z0.200
G1 E0.80000 F2100.00000
G1 F1200
G1 X115.603 Y101.870 E0.21053
G1 X115.059 Y101.870 E0.01739
G1 X119.545 Y106.356 E0.20285
G1 X119.001 Y106.356 E0.01739
G1 X114.899 Y102.253 E0.18553
G1 X114.899 Y102.797 E0.01739
G1 X118.457 Y106.356 E0.16094
G1 X117.914 Y106.356 E0.01739
G1 X114.899 Y103.341 E0.13634
G1 X114.899 Y103.884 E0.01739
G1 X117.370 Y106.356 E0.11175
G1 X117.206 Y106.356 E0.00522
G1 X117.206 Y106.736 E0.01217
G1 X114.899 Y104.428 E0.10437
G1 X114.899 Y104.972 E0.01739
G1 X117.206 Y107.280 E0.10437
G1 X117.206 Y107.824 E0.01739
G1 X114.899 Y105.516 E0.10437
G1 X114.899 Y106.060 E0.01739
G1 X116.969 Y108.130 E0.09362
G1 X116.425 Y108.130 E0.01739
G1 X114.899 Y106.604 E0.06903
G1 X114.899 Y107.148 E0.01739
G1 X115.881 Y108.130 E0.04443
G1 X115.337 Y108.130 E0.01739
G1 X114.729 Y107.522 E0.02751
G1 F8640
G1 X115.337 Y108.130 E-0.19865
G1 X115.881 Y108.130 E-0.12558
G1 X114.899 Y107.148 E-0.32084
G1 X114.899 Y106.650 E-0.11493
G1 E-0.04000 F2100.00000
G1 Z0.800 F10800.000
G1 X128.617 Y100.744
G1 Z0.200
G1 E0.80000 F2100.00000
G1 F1200
G1 X133.640 Y105.767 E0.22714
G1 X133.961 Y105.544 F10800.000
G1 F1200
G1 X130.399 Y101.981 E0.16110
G1 F8640
G1 X132.726 Y104.309 E-0.76000
G1 E-0.04000 F2100.00000
G1 Z0.800 F10800.000
G1 X132.180 Y103.219
G1 Z0.200
G1 E0.80000 F2100.00000
G1 F1200
G1 X134.282 Y105.321 E0.09506
M900 K0
G1 F8640
G1 X132.180 Y103.219 E-0.68643
G1 E-2.31357 F2100.00000
G1 Z0.800 F10800.000
G1 X229.750 Y153.810
G1 Z0.200
G1 E3.00000 F2100.00000
;--------------------
; CP TOOLCHANGE START
; toolchange #1
; material : PLA
;--------------------
M220 B
M220 S100
; CP TOOLCHANGE UNLOAD
G1 X229.250 Y153.420 
G1 F1341
G1 X223.671 E0.2816
G1 F1452
G1 X217.626 E0.3051
G1 F1644
G1 X210.785 E0.3453
G1 F1899
G1 X202.881 E0.3990
G1 F2266
G1 X193.449 E0.4761
G1 F2745
G1 X182.025 E0.5767
G1 F3224
G1 X170.750 E0.5691
G1 Y152.640 F7200
G1 F3224
G1 X172.892 E0.1081
G1 F3639
G1 X188.036 E0.7644
G1 F3926
G1 X204.375 E0.8248
G1 F4038
G1 X221.180 E0.8483
G1 E-15.0000 F6000
G1 E-24.5000 F1200
G1 E-7.0000 F600
G1 E-3.5000 F360
M104 S215
G1 Y151.860
G1 X170.750 E20.0000 F488
G1 X221.180 E-20.0000 F434
G1 X170.750 E20.0000 F380
G1 X221.180 E-20.0000 F326
G1 E-35.0000 F2000
G1 Y152.000 F2400
G4 S0
T1
G4 S0
; CP TOOLCHANGE LOAD
G1 E12.0000 F1140
M73 P10 R23
G1 X170.625 E42.0000 F2066
G1 X221.180 E6.0000 F1120
G1 Y152.500
; CP TOOLCHANGE WIPE
G1 X229.000 E0.3507 F800
G1 X229.750 Y152.000  E0.0404
G1 X171.000 E2.6348 F900
G1 X170.250 Y151.500  E0.0404
G1 X229.000 E2.6348 F1100
G1 Y151.000 E0.0224
G1 X171.000 E2.6012 F2100
G1 Y150.500 E0.0224
G1 X229.000 E2.6012 F2125
G1 X229.750 Y150.000  E0.0404
G1 X171.000 E2.6348 F2150
G1 X170.250 Y149.500  E0.0404
G1 X229.000 E2.6348 F2175
G1 Y149.000 E0.0224
G1 X171.000 E2.6012 F2200
G1 Y148.500 E0.0224
G1 X229.000 E2.6012 F2225
G1 X229.750 Y148.000  E0.0404
G1 X171.000 E2.6348 F2250
G1 X170.250 Y147.500  E0.0404
G1 X229.000 E2.6348 F2275
G1 Y147.000 E0.0224
G1 X171.000 E2.6012 F2300
G1 Y146.500 E0.0224
G1 X229.000 E2.6012 F2325
G1 X229.750 Y146.000  E0.0404
G1 X171.000 E2.6348 F2350
G1 X170.250 Y145.500  E0.0404
G1 X229.000 E2.6348 F2375
G1 Y145.000 E0.0224
G1 X171.000 E2.6012 F2400
G1 Y144.500 E0.0224
G1 X229.000 E2.6012
G1 X229.750 Y144.000  E0.0404
G1 X171.000 E2.6348
G1 X170.250 Y143.500  E0.0404
G1 X229.000 E2.6348
G1 Y143.000 E0.0224
G1 X171.000 E2.6012
G1 Y142.500 E0.0224
G1 X229.000 E2.6012
G1 X229.750 Y142.000  E0.0404
G1 X171.000 E2.6348
G1 X170.250 Y141.500  E0.0404
G1 X229.000 E2.6348
G1 Y141.000 E0.0224
G1 X171.000 E2.6012
G1 Y140.500 E0.0224
G1 X229.000 E2.6012
G1 X230.000
G1 Y140.000
G1 Y154.060 E0.5344
G1 X170.000 E2.2804
G1 Y140.000 E0.5344
G1 X230.000 E2.2804
G1 X170.000
M220 R
G1 F6000
G4 S0
G92 E0
; CP TOOLCHANGE END
;------------------



M900 K30 ; Filament gcode
G1 F8640
G1 X166.709 Y140.000 E-0.76000
G1 E-0.04000 F2100.00000
G1 Z0.800 F10800.000
G1 X140.751 Y106.415
G1 Z0.200
G1 E0.80000 F2100.00000
G1 F1200
G1 X140.378 Y106.763 E0.01601
G1 X125.910 Y116.815 E0.55237
G1 X125.330 Y117.088 E0.02010
G1 X124.696 Y117.181 E0.02010
G1 X124.153 Y117.112 E0.01714
G1 X123.642 Y116.910 E0.01726
G1 X112.935 Y110.895 E0.38505
G1 X112.315 Y110.362 E0.02563
G1 X111.981 Y109.773 E0.02123
G1 X111.843 Y109.110 E0.02123
G1 X111.840 Y101.000 E0.25429
G1 X111.908 Y100.457 E0.01714
G1 X112.109 Y99.949 E0.01714
G1 X112.432 Y99.503 E0.01726
G1 X112.853 Y99.154 E0.01714
G1 X123.664 Y93.078 E0.38884
G1 X124.164 Y92.885 E0.01680
G1 X124.699 Y92.819 E0.01692
G1 X125.333 Y92.913 E0.02010
G1 X125.910 Y93.185 E0.01998
G1 X140.378 Y103.237 E0.55237
G1 X140.751 Y103.585 E0.01601
G1 X141.033 Y104.010 E0.01601
G1 X141.210 Y104.489 E0.01601
G1 X141.270 Y105.000 E0.01612
G1 X141.211 Y105.507 E0.01601
G1 X141.034 Y105.990 E0.01612
G1 X140.784 Y106.365 E0.01413
G1 F8640
G1 X140.378 Y106.763 E-0.13140
G1 X138.142 Y108.317 E-0.62861
G1 E-0.04000 F2100.00000
G1 Z0.800 F10800.000
G1 X138.053 Y105.000
G1 Z0.200
G1 E0.80000 F2100.00000
G1 F1200
G1 X125.284 Y113.870 E0.48746
G1 X125.284 Y108.413 E0.17110
G1 X118.663 Y108.413 E0.20760
G1 X118.663 Y107.813 E0.01882
G1 X125.885 Y107.813 E0.22642
G1 X125.885 Y112.722 E0.15393
G1 X137.000 Y105.000 E0.42436
G1 X125.885 Y97.278 E0.42436
M73 P14 R22
G1 X125.885 Y102.187 E0.15393
G1 X118.663 Y102.187 E0.22642
G1 X118.663 Y101.587 E0.01882
G1 X125.284 Y101.587 E0.20760
G1 X125.284 Y96.130 E0.17110
G1 X138.003 Y104.966 E0.48558
G1 F8640
G1 X135.307 Y106.853 E-0.76000
G1 E-0.04000 F2100.00000
G1 Z0.800 F10800.000
G1 X124.907 Y108.790
G1 Z0.200
G1 E0.80000 F2100.00000
G1 F1200
G1 X118.286 Y108.790 E0.20760
G1 X118.286 Y107.435 E0.04247
G1 X126.262 Y107.435 E0.25007
G1 X126.262 Y112.001 E0.14314
G1 X136.339 Y105.000 E0.38474
G1 X126.262 Y97.999 E0.38474
G1 X126.262 Y102.565 E0.14314
G1 X118.286 Y102.565 E0.25007
G1 X118.286 Y101.210 E0.04247
G1 X124.907 Y101.210 E0.20760
G1 X124.907 Y95.409 E0.18189
G1 X138.714 Y105.000 E0.52708
G1 X124.907 Y114.591 E0.52708
G1 X124.907 Y108.850 E0.18001
G1 X124.677 Y108.463 F10800.000
G1 F8640
G1 X121.616 Y108.820 E-0.76000
G1 E-0.04000 F2100.00000
G1 Z0.800 F10800.000
G1 X118.852 Y108.113
G1 Z0.200
G1 E0.80000 F2100.00000
G1 F1200
G1 X125.473 Y108.113 E0.12292
G1 X125.565 Y108.132 E0.00175
G1 X125.585 Y108.224 E0.00175
G1 X125.585 Y113.082 E0.09019
G1 X125.626 Y113.218 E0.00262
G1 X125.760 Y113.174 E0.00262
G1 X137.394 Y105.092 E0.26301
G1 X137.473 Y105.000 E0.00224
G1 X137.394 Y104.908 E0.00224
G1 X125.760 Y96.826 E0.26301
G1 X125.626 Y96.782 E0.00262
G1 X125.585 Y96.918 E0.00262
G1 X125.585 Y101.776 E0.09019
G1 X125.565 Y101.868 E0.00175
G1 X125.473 Y101.887 E0.00175
G1 X118.852 Y101.887 E0.12292
M106 S255
;BEFORE_LAYER_CHANGE
G92 E0.0
;0.4


G1 F8640
G1 X122.143 Y101.887 E-0.76000
G1 E-0.04000 F2100.00000
G1 Z0.800 F10800.000
;AFTER_LAYER_CHANGE
;0.4
M104 S205 ; set temperature
G1 X112.026 Y110.603
G1 Z0.400
G1 E0.80000 F2100.00000
G1 F3000
G1 X111.633 Y109.919 E0.02472
G1 X111.467 Y109.149 E0.02472
G1 X111.463 Y101.000 E0.25550
G1 X111.542 Y100.369 E0.01992
G1 X111.775 Y99.774 E0.02005
G1 X112.145 Y99.258 E0.01992
G1 X112.635 Y98.846 E0.02005
G1 X123.493 Y92.742 E0.39056
G1 X124.079 Y92.517 E0.01968
G1 X124.702 Y92.442 E0.01968
G1 X125.435 Y92.550 E0.02324
G1 X126.111 Y92.866 E0.02337
G1 X140.610 Y102.939 E0.55355
G1 X141.047 Y103.350 E0.01882
G1 X141.374 Y103.848 E0.01869
G1 X141.578 Y104.409 E0.01869
G1 X141.647 Y105.001 E0.01869
G1 X141.578 Y105.593 E0.01869
G1 X141.373 Y106.153 E0.01869
G1 X141.045 Y106.651 E0.01869
G1 X140.608 Y107.062 E0.01882
G1 X126.109 Y117.135 E0.55356
G1 X125.433 Y117.450 E0.02337
G1 X124.696 Y117.558 E0.02337
G1 X124.062 Y117.478 E0.02005
G1 X123.463 Y117.242 E0.02017
G1 X112.741 Y111.219 E0.38559
G1 X112.071 Y110.642 E0.02773
G1 F8640
G1 X111.633 Y109.919 E-0.19514
G1 X111.467 Y109.149 E-0.18202
G1 X111.466 Y107.491 E-0.38284
G1 E-0.04000 F2100.00000
G1 Z1.000 F10800.000
G1 X118.708 Y108.368
G1 Z0.400
G1 E0.80000 F2100.00000
M204 S800
G1 F3000
G1 X118.708 Y107.858 E0.01727
G1 X125.840 Y107.858 E0.24139
G1 X125.840 Y112.808 E0.16756
G1 X137.079 Y105.000 E0.46323
G1 X125.840 Y97.192 E0.46323
G1 X125.840 Y102.142 E0.16756
G1 X118.708 Y102.142 E0.24139
G1 X118.708 Y101.632 E0.01727
G1 X125.329 Y101.632 E0.22411
G1 X125.329 Y96.216 E0.18332
G1 X137.974 Y105.000 E0.52113
G1 X125.329 Y113.784 E0.52113
G1 X125.329 Y108.368 E0.18332
G1 X118.768 Y108.368 E0.22208
M204 S1000
G1 F8640
G1 X118.708 Y107.858 E-0.11865
G1 X121.486 Y107.858 E-0.64135
G1 E-0.04000 F2100.00000
G1 Z1.000 F10800.000
G1 X124.922 Y108.775
G1 Z0.400
