; generated by PrusaSlicer 2.2.0+win64 on 2020-08-18 at 17:00:21 UTC

; 

; external perimeters extrusion width = 0.45mm
; perimeters extrusion width = 0.45mm
; infill extrusion width = 0.45mm
; solid infill extrusion width = 0.45mm
; top infill extrusion width = 0.40mm
; first layer extrusion width = 0.42mm

; external perimeters extrusion width = 0.45mm
; perimeters extrusion width = 0.45mm
; infill extrusion width = 0.45mm
; solid infill extrusion width = 0.45mm
; top infill extrusion width = 0.40mm
; first layer extrusion width = 0.42mm

M73 P0 R29
M201 X9000 Y9000 Z500 E10000 ; sets maximum accelerations, mm/sec^2
M203 X500 Y500 Z12 E120 ; sets maximum feedrates, mm/sec
M204 P2000 R1500 T2000 ; sets acceleration (P, T) and retract acceleration (R), mm/sec^2
M205 X10.00 Y10.00 Z0.20 E4.50 ; sets the jerk limits, mm/sec
M205 S0 T0 ; sets the minimum extruding and travel feed rate, mm/sec
M107
M862.3 P "MK2.5SMMU2S" ; printer model check
M862.1 P0.4 ; nozzle diameter check
M115 U3.9.0 ; tell printer latest fw version
G90 ; use absolute coordinates
M83 ; extruder relative mode
M104 S215 ; set extruder temp
M140 S60 ; set bed temp
M190 S60 ; wait for bed temp
M109 S215 ; wait for extruder temp
G28 W ; home all without mesh bed level
G80 ; mesh bed leveling

; Send the filament type to the MMU2.0 unit.
; E stands for extruder number, F stands for filament type (0: default; 1:flex; 2: PVA)
M403 E0 F0
M403 E1 F0
M403 E2 F0
M403 E3 F0
M403 E4 F0


;go outside print area
G1 Y-3.0 F1000.0
G1 Z0.4 F1000.0
; select extruder
T0
; initial load
G1 X55.0 E29.0 F1073.0
M73 P1 R28
G1 X5.0 E29.0 F1800.0
G1 X55.0 E8.0 F2000.0
G1 Z0.3 F1000.0
G92 E0.0
G1 X240.0 E25.0 F2200.0
G1 Y-2.0 F1000.0
G1 X55.0 E25 F1400.0
G1 Z0.20 F1000.0
G1 X5.0 E4.0 F1000.0
G92 E0.0

G92 E0.0
G21 ; set units to millimeters
G90 ; use absolute coordinates
M83 ; use relative distances for extrusion
T0
M900 K0.06 ; Filament gcode LA 1.5
M900 K30 ; Filament gcode LA 1.0
G1 Z0.200 F10800.000
;BEFORE_LAYER_CHANGE
G92 E0.0
;0.2


G1 E-0.80000 F2100.00000
G1 Z0.800 F10800.000
G1 Z0.200
;AFTER_LAYER_CHANGE
;0.2
G1 E-2.20000 F2100.00000
G1 Z0.800 F10800.000
G1 X155.943 Y131.413
G1 Z0.200
G1 E3.00000 F2100.00000
;-------------------------------------
; CP WIPE TOWER FIRST LAYER BRIM START
G1  X155.943 Y145.473  E0.8016 F2400
G1  X153.400 Y145.930   F7000
G1  Y130.956  E0.6260 F2100
G1  X92.486  E2.5466
G1  Y145.930  E0.6260
G1  X153.400  E2.5466
G1  X153.857 Y146.387   F7000
G1  Y130.499  E0.6642 F2100
G1  X92.029  E2.5849
G1  Y146.387  E0.6642
G1  X153.857  E2.5849
G1  X154.314 Y146.844   F7000
G1  Y130.042  E0.7025 F2100
G1  X91.572  E2.6231
G1  Y146.844  E0.7025
G1  X154.314  E2.6231
G1  X154.771 Y147.301   F7000
G1  Y129.585  E0.7407 F2100
G1  X91.115  E2.6613
G1  Y147.301  E0.7407
G1  X154.771  E2.6613
G1  X152.943 Y145.473   F7000
G1  X92.943 
G1  X152.943 
; CP WIPE TOWER FIRST LAYER BRIM END
;-----------------------------------

G1 F8640.000
G1 X149.652 Y145.473 E-0.76000
G1 E-0.04000 F2100.00000
G1 Z0.800 F10800.000
G1 X155.681 Y149.807
G1 Z0.200
G1 E0.80000 F2100.00000
M204 S1000
G1 F1200.000
G1 X155.039 Y149.907 E0.02036
G1 X90.879 Y149.907 E2.01171
G1 X90.343 Y149.844 E0.01692
G1 X89.835 Y149.662 E0.01692
G1 X89.314 Y149.313 E0.01965
G1 X88.905 Y148.843 E0.01953
G1 X88.632 Y148.283 E0.01953
G1 X88.513 Y147.672 E0.01953
G1 X88.509 Y129.349 E0.57451
G1 X88.583 Y128.768 E0.01835
G1 X112.868 Y59.362 E2.30556
G1 X113.215 Y58.844 E0.01953
G1 X113.687 Y58.432 E0.01965
G1 X114.246 Y58.159 E0.01953
G1 X114.858 Y58.040 E0.01953
G1 X135.004 Y58.036 E0.63166
G1 X135.745 Y58.156 E0.02355
G1 X136.409 Y58.499 E0.02343
G1 X136.934 Y59.031 E0.02343
G1 X137.267 Y59.700 E0.02343
G1 X157.309 Y128.793 E2.25569
G1 X157.377 Y129.348 E0.01752
G1 X157.377 Y147.553 E0.57080
G1 X157.312 Y148.081 E0.01668
G1 X157.132 Y148.582 E0.01668
G1 X156.768 Y149.119 E0.02036
G1 X156.272 Y149.538 E0.02036
G1 X155.735 Y149.783 E0.01848
G1 F8640.000
G1 X155.039 Y149.907 E-0.16331
G1 X152.455 Y149.907 E-0.59669
G1 E-0.04000 F2100.00000
G1 Z0.800 F10800.000
G1 X133.168 Y107.781
G1 Z0.200
G1 E0.80000 F2100.00000
G1 F1200.000
G1 X118.214 Y105.079 E0.47647
G1 X118.214 Y101.151 E0.12313
G1 X133.168 Y98.449 E0.47647
G1 X133.168 Y102.435 E0.12498
G1 X131.457 Y102.683 E0.05419
G1 X131.457 Y103.547 E0.02712
G1 X133.168 Y103.795 E0.05419
G1 X133.168 Y107.721 E0.12310
G1 X132.791 Y107.329 F10800.000
G1 F1200.000
G1 X118.591 Y104.763 E0.45244
G1 X118.591 Y101.467 E0.10337
G1 X132.791 Y98.901 E0.45244
G1 X132.791 Y102.109 E0.10059
M73 P4 R27
G1 X131.080 Y102.356 E0.05419
G1 X131.080 Y103.874 E0.04759
G1 X132.791 Y104.121 E0.05419
G1 X132.791 Y107.269 E0.09871
G1 X132.804 Y107.729 F10800.000
G1 F8640.000
G1 X129.549 Y106.697 E-0.76000
G1 E-0.04000 F2100.00000
G1 Z0.800 F10800.000
G1 X125.213 Y121.502
G1 Z0.200
G1 E0.80000 F2100.00000
G1 F1200.000
G1 X120.281 Y121.490 E0.15463
G1 X119.960 Y121.442 E0.01018
G1 X119.662 Y121.363 E0.00966
G1 X119.379 Y121.245 E0.00962
G1 X119.114 Y121.087 E0.00965
G1 X118.876 Y120.889 E0.00972
G1 X118.670 Y120.653 E0.00983
G1 X118.502 Y120.383 E0.00997
G1 X118.373 Y120.085 E0.01018
G1 X118.283 Y119.763 E0.01049
G1 X118.230 Y119.419 E0.01091
G1 X118.214 Y119.066 E0.01107
G1 X118.214 Y114.762 E0.13493
G1 X120.532 Y114.333 E0.07391
G1 X118.214 Y113.681 E0.07550
G1 X118.214 Y107.691 E0.18780
G1 X121.954 Y106.694 E0.12136
G1 X121.954 Y108.715 E0.06336
G1 X133.168 Y108.715 E0.35161
G1 X133.168 Y112.702 E0.12501
G1 X121.954 Y112.702 E0.35161
G1 X121.954 Y117.647 E0.15507
G1 X123.949 Y117.645 E0.06256
G1 X123.962 Y115.822 E0.05718
G1 X124.048 Y115.346 E0.01514
G1 X124.144 Y115.094 E0.00847
G1 X124.270 Y114.870 E0.00806
G1 X124.434 Y114.667 E0.00818
G1 X124.633 Y114.493 E0.00827
G1 X124.859 Y114.354 E0.00833
G1 X125.107 Y114.252 E0.00841
G1 X125.386 Y114.179 E0.00904
G1 X125.922 Y114.131 E0.01687
G1 X130.883 Y114.143 E0.15555
G1 X131.267 Y114.185 E0.01209
G1 X131.618 Y114.260 E0.01128
G1 X131.948 Y114.377 E0.01098
G1 X132.253 Y114.544 E0.01087
G1 X132.521 Y114.763 E0.01087
G1 X132.743 Y115.031 E0.01090
G1 X132.913 Y115.336 E0.01095
G1 X133.033 Y115.670 E0.01113
G1 X133.111 Y116.029 E0.01151
G1 X133.156 Y116.422 E0.01240
G1 X133.169 Y120.715 E0.13462
G1 X129.428 Y121.436 E0.11947
G1 X129.428 Y118.024 E0.10698
G1 X127.409 Y118.024 E0.06330
G1 X127.404 Y119.614 E0.04985
G1 X127.348 Y120.075 E0.01456
G1 X127.277 Y120.332 E0.00838
G1 X127.172 Y120.578 E0.00837
G1 X127.021 Y120.813 E0.00877
G1 X126.822 Y121.026 E0.00914
G1 X126.577 Y121.204 E0.00947
G1 X126.296 Y121.339 E0.00979
G1 X125.983 Y121.431 E0.01023
G1 X125.640 Y121.485 E0.01088
G1 X125.273 Y121.502 E0.01154
G1 F8640.000
G1 X121.981 Y121.494 E-0.76000
G1 E-0.04000 F2100.00000
G1 Z0.800 F10800.000
G1 X121.577 Y114.236
G1 Z0.200
G1 E0.80000 F2100.00000
G1 F1200.000
G1 X118.591 Y113.395 E0.09726
G1 X118.591 Y107.981 E0.16976
G1 X121.577 Y107.185 E0.09689
G1 X121.577 Y109.092 E0.05979
G1 X132.791 Y109.092 E0.35161
G1 X132.791 Y112.325 E0.10137
G1 X121.577 Y112.325 E0.35161
G1 X121.577 Y114.176 E0.05803
G1 X121.335 Y114.554 F10800.000
G1 F8640.000
G1 X118.591 Y113.395 E-0.71262
G1 X118.591 Y113.190 E-0.04738
G1 E-0.04000 F2100.00000
G1 Z0.800 F10800.000
G1 X125.230 Y121.125
G1 Z0.200
G1 E0.80000 F2100.00000
G1 F1200.000
G1 X120.309 Y121.113 E0.15430
G1 X120.036 Y121.073 E0.00865
G1 X119.784 Y121.005 E0.00820
G1 X119.548 Y120.907 E0.00799
G1 X119.333 Y120.779 E0.00786
G1 X119.141 Y120.619 E0.00784
G1 X118.974 Y120.428 E0.00794
G1 X118.837 Y120.207 E0.00815
G1 X118.729 Y119.959 E0.00849
G1 X118.652 Y119.683 E0.00897
G1 X118.606 Y119.381 E0.00958
G1 X118.591 Y119.057 E0.01017
G1 X118.591 Y115.076 E0.12482
G1 X121.577 Y114.523 E0.09521
G1 X121.577 Y117.880 E0.10525
G1 X121.602 Y118.005 E0.00401
G1 X121.687 Y118.025 E0.00273
G1 X124.225 Y118.022 E0.07958
G1 X124.298 Y118.001 E0.00237
G1 X124.324 Y117.917 E0.00278
G1 X124.339 Y115.857 E0.06458
G1 X124.413 Y115.448 E0.01303
G1 X124.487 Y115.254 E0.00649
G1 X124.584 Y115.082 E0.00619
G1 X124.707 Y114.929 E0.00617
G1 X124.857 Y114.798 E0.00624
G1 X125.031 Y114.691 E0.00640
G1 X125.228 Y114.610 E0.00667
G1 X125.451 Y114.552 E0.00723
G1 X125.938 Y114.509 E0.01535
G1 X130.862 Y114.520 E0.15439
G1 X131.206 Y114.558 E0.01085
G1 X131.515 Y114.624 E0.00991
G1 X131.794 Y114.723 E0.00926
G1 X132.041 Y114.858 E0.00883
G1 X132.254 Y115.032 E0.00863
G1 X132.430 Y115.245 E0.00865
G1 X132.568 Y115.493 E0.00891
G1 X132.670 Y115.775 E0.00940
G1 X132.739 Y116.090 E0.01012
G1 X132.779 Y116.443 E0.01115
G1 X132.791 Y120.404 E0.12418
G1 X129.805 Y120.979 E0.09536
G1 X129.805 Y117.770 E0.10062
G1 X129.790 Y117.655 E0.00362
G1 X127.101 Y117.656 E0.08432
G1 X127.059 Y117.670 E0.00139
G1 X127.047 Y117.696 E0.00090
G1 X127.032 Y117.869 E0.00545
G1 X127.027 Y119.590 E0.05396
G1 X126.977 Y120.001 E0.01299
G1 X126.920 Y120.207 E0.00670
G1 X126.837 Y120.401 E0.00660
G1 X126.722 Y120.581 E0.00671
G1 X126.571 Y120.742 E0.00693
G1 X126.383 Y120.878 E0.00727
G1 X126.160 Y120.986 E0.00778
G1 X125.900 Y121.063 E0.00849
G1 X125.602 Y121.109 E0.00945
G1 X125.290 Y121.124 E0.00980
G1 X125.041 Y121.477 F10800.000
G1 F8640.000
G1 X121.999 Y121.117 E-0.76000
G1 E-0.04000 F2100.00000
G1 Z0.800 F10800.000
G1 X121.954 Y99.547
G1 Z0.200
G1 E0.80000 F2100.00000
G1 F1200.000
G1 X118.214 Y98.494 E0.12182
G1 X118.214 Y92.505 E0.18780
G1 X119.738 Y92.099 E0.04945
G1 X118.214 Y92.099 E0.04778
G1 X118.214 Y88.168 E0.12323
G1 X120.134 Y88.168 E0.06021
G1 X119.960 Y88.143 E0.00552
G1 X119.662 Y88.063 E0.00966
G1 X119.379 Y87.945 E0.00962
G1 X119.114 Y87.788 E0.00965
G1 X118.876 Y87.590 E0.00972
G1 X118.670 Y87.353 E0.00983
G1 X118.502 Y87.083 E0.00997
G1 X118.373 Y86.785 E0.01018
G1 X118.283 Y86.463 E0.01049
G1 X118.230 Y86.119 E0.01091
G1 X118.214 Y85.766 E0.01107
G1 X118.214 Y82.317 E0.10813
G1 X118.230 Y81.965 E0.01107
G1 X118.283 Y81.621 E0.01091
G1 X118.373 Y81.298 E0.01049
G1 X118.502 Y81.000 E0.01018
G1 X118.670 Y80.731 E0.00997
G1 X118.876 Y80.494 E0.00983
G1 X119.114 Y80.296 E0.00972
G1 X119.379 Y80.138 E0.00965
G1 X119.662 Y80.021 E0.00962
G1 X119.960 Y79.941 E0.00966
G1 X120.134 Y79.915 E0.00552
G1 X118.214 Y79.915 E0.06021
G1 X118.214 Y76.249 E0.11496
G1 X119.641 Y75.886 E0.04617
G1 X118.214 Y75.886 E0.04475
G1 X118.214 Y71.880 E0.12561
G1 X133.168 Y71.880 E0.46887
G1 X133.168 Y75.754 E0.12147
G1 X131.457 Y76.194 E0.05538
G1 X133.168 Y76.194 E0.05363
G1 X133.168 Y79.915 E0.11667
G1 X131.080 Y79.915 E0.06547
G1 X131.218 Y79.926 E0.00433
G1 X131.530 Y79.995 E0.01003
G1 X131.825 Y80.097 E0.00978
G1 X132.108 Y80.240 E0.00997
G1 X132.374 Y80.429 E0.01022
G1 X132.611 Y80.666 E0.01051
G1 X132.812 Y80.947 E0.01084
G1 X132.969 Y81.269 E0.01123
G1 X133.081 Y81.627 E0.01175
G1 X133.147 Y82.019 E0.01245
G1 X133.168 Y82.430 E0.01292
G1 X133.168 Y85.653 E0.10106
G1 X133.147 Y86.065 E0.01292
G1 X133.081 Y86.456 E0.01245
G1 X132.969 Y86.814 E0.01175
G1 X132.812 Y87.136 E0.01123
G1 X132.611 Y87.418 E0.01084
G1 X132.374 Y87.654 E0.01051
G1 X132.108 Y87.843 E0.01022
G1 X131.825 Y87.987 E0.00997
G1 X131.516 Y88.093 E0.01024
G1 X131.074 Y88.168 E0.01407
G1 X133.168 Y88.168 E0.06566
G1 X133.168 Y92.099 E0.12323
G1 X121.954 Y92.099 E0.35161
G1 X121.954 Y93.528 E0.04483
G1 X133.168 Y93.528 E0.35161
G1 X133.168 Y97.515 E0.12501
G1 X121.954 Y97.515 E0.35161
G1 X121.954 Y99.487 E0.06182
G1 X121.577 Y99.049 F10800.000
G1 F1200.000
G1 X118.591 Y98.209 E0.09726
G1 X118.591 Y92.795 E0.16976
G1 X121.577 Y91.998 E0.09689
G1 X121.577 Y93.905 E0.05979
G1 X132.791 Y93.905 E0.35161
G1 X132.791 Y97.138 E0.10137
G1 X121.577 Y97.138 E0.35161
G1 X121.577 Y98.989 E0.05803
G1 X121.335 Y99.368 F10800.000
G1 F8640.000
G1 X118.591 Y98.209 E-0.71262
G1 X118.591 Y98.004 E-0.04738
G1 E-0.04000 F2100.00000
G1 Z0.800 F10800.000
G1 X125.000 Y91.721
G1 Z0.200
G1 E0.80000 F2100.00000
G1 F1200.000
G1 X118.591 Y91.721 E0.20095
G1 X118.591 Y88.545 E0.09958
G1 X132.791 Y88.545 E0.44523
G1 X132.791 Y91.721 E0.09958
G1 X125.060 Y91.721 E0.24239
G1 X124.846 Y92.091 F10800.000
G1 F8640.000
G1 X121.769 Y91.721 E-0.76000
G1 E-0.04000 F2100.00000
G1 Z0.800 F10800.000
G1 X124.902 Y87.821
G1 Z0.200
G1 E0.80000 F2100.00000
G1 F1200.000
G1 X120.305 Y87.812 E0.14416
G1 X120.036 Y87.773 E0.00850
G1 X119.784 Y87.705 E0.00820
G1 X119.548 Y87.608 E0.00799
G1 X119.333 Y87.479 E0.00786
G1 X119.141 Y87.319 E0.00784
G1 X118.974 Y87.128 E0.00794
G1 X118.837 Y86.908 E0.00815
G1 X118.729 Y86.659 E0.00849
G1 X118.652 Y86.383 E0.00897
G1 X118.606 Y86.081 E0.00958
G1 X118.591 Y85.757 E0.01017
G1 X118.591 Y82.326 E0.10758
G1 X118.606 Y82.002 E0.01017
G1 X118.652 Y81.700 E0.00958
G1 X118.729 Y81.425 E0.00897
G1 X118.837 Y81.176 E0.00849
G1 X118.974 Y80.956 E0.00815
G1 X119.141 Y80.765 E0.00794
G1 X119.333 Y80.605 E0.00784
G1 X119.548 Y80.476 E0.00786
G1 X119.784 Y80.379 E0.00799
G1 X120.036 Y80.311 E0.00820
G1 X120.305 Y80.271 E0.00850
G1 X120.583 Y80.259 E0.00873
G1 X130.631 Y80.259 E0.31506
G1 X131.162 Y80.300 E0.01669
G1 X131.427 Y80.358 E0.00852
G1 X131.677 Y80.445 E0.00830
G1 X131.913 Y80.564 E0.00828
G1 X132.130 Y80.719 E0.00835
G1 X132.323 Y80.911 E0.00853
G1 X132.487 Y81.141 E0.00886
G1 X132.618 Y81.409 E0.00936
G1 X132.713 Y81.715 E0.01005
G1 X132.771 Y82.060 E0.01096
G1 X132.791 Y82.440 E0.01193
G1 X132.791 Y85.644 E0.10046
G1 X132.771 Y86.024 E0.01193
G1 X132.713 Y86.368 E0.01096
G1 X132.618 Y86.674 E0.01005
G1 X132.487 Y86.943 E0.00936
G1 X132.323 Y87.173 E0.00886
G1 X132.130 Y87.365 E0.00853
G1 X131.913 Y87.520 E0.00835
G1 X131.677 Y87.639 E0.00828
G1 X131.422 Y87.727 E0.00846
G1 X130.899 Y87.816 E0.01664
G1 X124.962 Y87.821 E0.18614
G1 X124.704 Y88.168 F10800.000
G1 F8640.000
G1 X121.671 Y87.815 E-0.76000
G1 E-0.04000 F2100.00000
G1 Z0.800 F10800.000
G1 X125.000 Y79.538
G1 Z0.200
G1 E0.80000 F2100.00000
G1 F1200.000
G1 X118.591 Y79.538 E0.20095
G1 X118.591 Y76.542 E0.09394
G1 X122.654 Y75.509 E0.13145
G1 X118.591 Y75.509 E0.12739
G1 X118.591 Y72.257 E0.10196
G1 X132.791 Y72.257 E0.44523
G1 X132.791 Y75.462 E0.10048
G1 X128.480 Y76.571 E0.13957
G1 X132.791 Y76.571 E0.13517
G1 X132.791 Y79.538 E0.09302
G1 X125.060 Y79.538 E0.24239
G1 X124.843 Y79.906 F10800.000
G1 F8640.000
G1 X121.769 Y79.538 E-0.76000
G1 E-0.04000 F2100.00000
G1 Z0.800 F10800.000
G1 X121.954 Y70.065
G1 Z0.200
G1 E0.80000 F2100.00000
G1 F1200.000
G1 X118.214 Y68.569 E0.12630
G1 X118.214 Y64.638 E0.12324
G1 X129.428 Y64.638 E0.35161
G1 X129.428 Y63.707 E0.02920
G1 X133.168 Y63.707 E0.11727
G1 X133.168 Y69.538 E0.18282
G1 X129.428 Y69.538 E0.11727
G1 X129.428 Y68.644 E0.02801
G1 X121.954 Y68.644 E0.23434
G1 X121.954 Y70.005 E0.04266
G1 X121.577 Y69.508 F10800.000
G1 F1200.000
G1 X118.591 Y68.313 E0.10083
G1 X118.591 Y65.015 E0.10341
G1 X129.805 Y65.015 E0.35161
G1 X129.805 Y64.084 E0.02920
G1 X132.791 Y64.084 E0.09362
G1 X132.791 Y69.160 E0.15917
G1 X129.805 Y69.160 E0.09362
G1 X129.805 Y68.267 E0.02801
G1 X121.577 Y68.267 E0.25798
G1 X121.577 Y69.448 E0.03702
G1 X121.311 Y69.807 F10800.000
G1 F8640.000
G1 X118.591 Y68.313 E-0.73753
G1 X118.591 Y68.216 E-0.02247
G1 E-0.04000 F2100.00000
G1 Z0.800 F10800.000
G1 X125.000 Y124.826
G1 Z0.200
G1 E0.80000 F2100.00000
G1 F1200.000
G1 X115.587 Y124.826 E0.29514
G1 X115.587 Y61.000 E2.00121
G1 X134.413 Y61.000 E0.59027
G1 X134.413 Y124.826 E2.00121
G1 X125.060 Y124.826 E0.29325
G1 X125.000 Y125.203 F10800.000
G1 F1200.000
G1 X115.210 Y125.203 E0.30696
G1 X115.210 Y60.623 E2.02486
G1 X134.790 Y60.623 E0.61392
G1 X134.790 Y125.203 E2.02486
G1 X125.060 Y125.203 E0.30508
G1 X124.664 Y124.986 F10800.000
G1 F8640.000
G1 X121.769 Y125.203 E-0.76000
G1 E-0.04000 F2100.00000
G1 Z0.800 F10800.000
G1 X128.474 Y103.512
G1 Z0.200
G1 E0.80000 F2100.00000
G1 F1200.000
G1 X125.424 Y103.109 E0.09647
G1 X128.474 Y102.717 E0.09642
G1 X128.474 Y103.452 E0.02305
G1 X128.718 Y103.195 F10800.000
G1 F8640.000
G1 X125.424 Y103.109 E-0.70872
G1 X125.645 Y103.080 E-0.05128
G1 E-0.04000 F2100.00000
G1 Z0.800 F10800.000
G1 X124.865 Y84.249
G1 Z0.200
G1 E0.80000 F2100.00000
G1 F1200.000
G1 X121.808 Y84.253 E0.09586
G1 X121.806 Y83.854 E0.01248
G1 X129.577 Y83.850 E0.24365
G1 X129.575 Y84.244 E0.01236
