; generated by PrusaSlicer 2.1.0+ on 2019-11-01 at 16:18:53 UTC

; 

; external perimeters extrusion width = 0.45mm
; perimeters extrusion width = 0.45mm
; infill extrusion width = 0.45mm
; solid infill extrusion width = 0.45mm
; top infill extrusion width = 0.40mm
; support material extrusion width = 0.35mm
; first layer extrusion width = 0.42mm

M73 P0 R110
M201 X9000 Y9000 Z500 E10000 ; sets maximum accelerations, mm/sec^2
M203 X500 Y500 Z12 E120 ; sets maximum feedrates, mm/sec
M204 P2000 R1500 T2000 ; sets acceleration (P, T) and retract acceleration (R), mm/sec^2
M205 X10.00 Y10.00 Z0.20 E2.50 ; sets the jerk limits, mm/sec
M205 S0 T0 ; sets the minimum extruding and travel feed rate, mm/sec
M107
M862.3 P "MK2.5SMMU2S" ; printer model check
M862.1 P0.4 ; nozzle diameter check
M115 U3.8.0 ; tell printer latest fw version
G90 ; use absolute coordinates
M83 ; extruder relative mode
M104 S230 ; set extruder temp
M140 S60 ; set bed temp
Tx
M190 S60 ; wait for bed temp
M109 S230 ; wait for extruder temp
G28 W ; home all without mesh bed level
G80 ; mesh bed leveling

G21 ; set units to millimeters

;go outside print area
G1 Y-3.0 F1000.0
G1 Z0.4 F1000.0
; select extruder
Tc
; purge line
G1 X55.0 F2000.0
G1 Z0.3 F1000.0
G92 E0.0
G1 X240.0 E25.0 F2200.0
M73 P0 R110
G1 Y-2.0 F1000.0
G1 X55.0 E25 F1400.0
G1 Z0.20 F1000.0
G1 X5.0 E4.0 F1000.0
G92 E0.0
G21 ; set units to millimeters
G90 ; use absolute coordinates
M83 ; use relative distances for extrusion
M900 K30 ; Filament gcode
;BEFORE_LAYER_CHANGE
G92 E0.0
;0.2


G1 E-0.80000 F2100.00000
G1 Z0.600 F10800.000
;AFTER_LAYER_CHANGE
;0.2
G1 X119.283 Y142.235
G1 Z0.200
G1 E0.80000 F2100.00000
M204 S1000
G1 F1200
G1 X118.728 Y142.510 E0.01942
G1 X118.118 Y142.618 E0.01942
G1 X108.222 Y142.619 E0.31031
G1 X106.324 Y142.411 E0.05984
G1 X105.573 Y142.118 E0.02529
G1 X105.121 Y141.743 E0.01839
G1 X97.469 Y133.316 E0.35691
G1 X96.422 Y131.910 E0.05497
G1 X95.553 Y130.484 E0.05234
G1 X94.751 Y128.836 E0.05748
G1 X94.181 Y127.333 E0.05039
G1 X93.724 Y125.701 E0.05314
G1 X93.418 Y124.038 E0.05302
G1 X93.269 Y122.434 E0.05051
G1 X93.270 Y120.546 E0.05920
G1 X93.418 Y118.949 E0.05028
G1 X93.726 Y117.276 E0.05337
G1 X94.184 Y115.644 E0.05314
G1 X94.812 Y114.007 E0.05497
G1 X110.945 Y82.530 E1.10901
G1 X111.492 Y81.722 E0.03060
G1 X112.223 Y80.947 E0.03340
G1 X113.068 Y80.305 E0.03329
G1 X113.941 Y79.841 E0.03100
G1 X129.023 Y73.646 E0.51120
G1 X130.973 Y72.979 E0.06463
G1 X133.158 Y72.501 E0.07010
G1 X149.416 Y70.304 E0.51441
G1 X150.416 Y70.239 E0.03143
G1 X151.556 Y70.355 E0.03591
G1 X152.730 Y70.705 E0.03841
G1 X153.549 Y71.098 E0.02848
G1 X154.305 Y71.613 E0.02871
G1 X155.191 Y72.449 E0.03818
G1 X155.855 Y73.364 E0.03546
G1 X156.376 Y74.461 E0.03807
G1 X156.633 Y75.340 E0.02871
G1 X156.754 Y76.240 E0.02848
G1 X156.731 Y77.395 E0.03624
G1 X154.631 Y92.913 E0.49098
G1 X154.279 Y95.051 E0.06792
G1 X153.696 Y97.099 E0.06678
G1 X147.253 Y112.876 E0.53432
G1 X146.773 Y113.836 E0.03368
G1 X146.070 Y114.777 E0.03682
G1 X119.325 Y142.192 E1.20086
G1 E-0.80000 F2100.00000
G1 Z0.800 F10800.000
G1 X118.044 Y140.431
G1 Z0.200
G1 E0.80000 F2100.00000
G1 F1200
G1 X118.044 Y137.329 E0.09725
G1 X117.290 Y137.597 E0.02510
G1 X117.290 Y140.261 E0.08352
G1 X116.536 Y140.261 E0.02365
G1 X116.536 Y137.836 E0.07604
G1 X115.781 Y138.037 E0.02448
G1 X115.781 Y140.261 E0.06972
G1 X115.027 Y140.261 E0.02365
G1 X115.027 Y112.025 E0.88533
G1 X115.781 Y112.340 E0.02563
G1 X115.781 Y130.670 E0.57472
G1 X116.242 Y130.472 E0.01571
G1 X116.536 Y130.300 E0.01067
G1 X116.536 Y112.670 E0.55278
G1 X117.290 Y113.136 E0.02780
G1 X117.290 Y129.858 E0.52429
G1 X117.610 Y129.670 E0.01163
G1 X118.044 Y129.313 E0.01763
G1 X118.044 Y113.662 E0.49073
G1 X118.798 Y114.313 E0.03124
G1 X118.798 Y128.692 E0.45085
G1 X119.552 Y127.848 E0.03549
G1 X119.552 Y115.144 E0.39834
G1 X120.011 Y115.689 E0.02233
G1 X120.306 Y116.179 E0.01794
G1 X120.306 Y126.802 E0.33310
G1 X120.717 Y126.156 E0.02400
G1 X121.061 Y125.360 E0.02720
G1 X121.061 Y117.623 E0.24257
G1 X121.415 Y118.501 E0.02968
G1 X121.768 Y120.038 E0.04943
G1 X121.815 Y120.736 E0.02195
G1 X121.815 Y123.538 E0.08784
G1 X112.765 Y111.419 F10800.000
G1 F1200
G1 X112.765 Y119.497 E0.25330
G1 X112.227 Y119.497 E0.01688
G1 X112.227 Y121.804 E0.07234
G1 X112.011 Y121.804 E0.00677
G1 X112.011 Y111.529 E0.32218
G1 X111.902 Y111.520 E0.00342
G1 X111.256 Y111.572 E0.02030
G1 X111.256 Y121.804 E0.32084
G1 X110.502 Y121.804 E0.02365
G1 X110.502 Y111.631 E0.31897
G1 X110.330 Y111.645 E0.00541
G1 X109.748 Y111.786 E0.01878
G1 X109.748 Y140.261 E0.89282
G1 X110.502 Y140.261 E0.02365
G1 X110.502 Y122.796 E0.54761
G1 X111.256 Y122.796 E0.02365
G1 X111.256 Y140.261 E0.54761
G1 X112.011 Y140.261 E0.02365
G1 X112.011 Y122.796 E0.54761
G1 X112.765 Y122.796 E0.02365
G1 X112.765 Y140.261 E0.54761
G1 X113.519 Y140.261 E0.02365
G1 X113.519 Y111.656 E0.89689
G1 X114.273 Y111.838 E0.02433
G1 X114.273 Y140.431 E0.89649
G1 X108.994 Y140.431 F10800.000
G1 F1200
G1 X108.994 Y111.968 E0.89242
G1 X108.798 Y112.016 E0.00632
G1 X108.240 Y112.249 E0.01896
G1 X108.240 Y130.763 E0.58049
G1 X107.486 Y130.427 E0.02588
G1 X107.486 Y112.564 E0.56009
G1 X107.343 Y112.623 E0.00484
G1 X106.732 Y113.002 E0.02255
G1 X106.732 Y129.985 E0.53250
G1 X106.194 Y129.670 E0.01952
G1 X105.977 Y129.492 E0.00881
G1 X105.977 Y113.474 E0.50221
G1 X105.223 Y114.125 E0.03124
G1 X105.223 Y128.871 E0.46234
G1 X104.977 Y128.668 E0.01000
G1 X104.469 Y128.094 E0.02404
G1 X104.469 Y114.886 E0.41412
G1 X103.793 Y115.689 E0.03290
G1 X103.715 Y115.818 E0.00474
G1 X103.715 Y127.144 E0.35513
G1 X103.087 Y126.156 E0.03670
G1 X102.961 Y125.863 E0.01002
G1 X102.961 Y117.086 E0.27521
G1 X102.389 Y118.501 E0.04787
G1 X102.207 Y119.296 E0.02558
G1 X102.207 Y124.391 E0.15974
G1 E-0.80000 F2100.00000
G1 Z0.800 F10800.000
G1 X106.732 Y137.489
G1 Z0.200
G1 E0.80000 F2100.00000
G1 F1200
G1 X106.732 Y140.261 E0.08690
G1 X107.486 Y140.261 E0.02365
G1 X107.486 Y137.897 E0.07413
G1 X108.240 Y138.092 E0.02442
G1 X108.240 Y140.431 E0.07334
G1 E-0.80000 F2100.00000
G1 Z0.800 F10800.000
G1 X116.188 Y136.777
G1 Z0.200
G1 E0.80000 F2100.00000
G1 F1200
G1 X116.188 Y131.706 E0.15898
G1 X116.745 Y131.467 E0.01900
G1 X118.249 Y130.586 E0.05466
G1 X119.603 Y129.471 E0.05500
G1 X120.782 Y128.130 E0.05600
G1 X121.704 Y126.678 E0.05390
G1 X122.398 Y125.069 E0.05497
G1 X122.831 Y123.370 E0.05497
G1 X122.990 Y121.624 E0.05497
G1 X122.872 Y119.875 E0.05497
G1 X122.480 Y118.166 E0.05497
G1 X121.824 Y116.541 E0.05497
G1 X120.919 Y115.039 E0.05497
G1 X119.789 Y113.698 E0.05497
G1 X118.462 Y112.553 E0.05497
G1 X116.971 Y111.630 E0.05497
G1 X115.354 Y110.955 E0.05497
G1 X113.650 Y110.542 E0.05497
G1 X111.901 Y110.404 E0.05500
G1 X110.121 Y110.550 E0.05600
G1 X108.450 Y110.955 E0.05390
G1 X106.833 Y111.630 E0.05497
G1 X105.342 Y112.553 E0.05497
G1 X104.015 Y113.698 E0.05497
G1 X102.884 Y115.039 E0.05500
G1 X101.968 Y116.572 E0.05600
G1 X101.324 Y118.166 E0.05390
G1 X100.932 Y119.875 E0.05497
G1 X100.814 Y121.624 E0.05497
G1 X100.973 Y123.370 E0.05497
G1 X101.406 Y125.069 E0.05497
G1 X102.100 Y126.678 E0.05497
G1 X103.040 Y128.158 E0.05497
G1 X104.201 Y129.472 E0.05497
G1 X105.555 Y130.586 E0.05497
G1 X107.059 Y131.467 E0.05466
G1 X107.616 Y131.706 E0.01900
G1 X107.616 Y136.773 E0.15885
G1 X106.583 Y136.458 E0.03384
G1 X105.245 Y135.912 E0.04533
G1 X103.961 Y135.247 E0.04533
G1 X102.743 Y134.468 E0.04533
G1 X101.601 Y133.581 E0.04533
G1 X100.544 Y132.595 E0.04533
G1 X99.582 Y131.516 E0.04533
G1 X98.722 Y130.354 E0.04533
G1 X97.970 Y129.119 E0.04533
G1 X97.335 Y127.820 E0.04533
G1 X96.820 Y126.469 E0.04533
G1 X96.430 Y125.077 E0.04533
G1 X96.168 Y123.655 E0.04533
G1 X96.036 Y122.216 E0.04533
G1 X96.036 Y120.770 E0.04533
G1 X96.168 Y119.330 E0.04533
G1 X96.430 Y117.908 E0.04533
G1 X96.820 Y116.516 E0.04533
G1 X97.335 Y115.165 E0.04533
G1 X97.970 Y113.867 E0.04533
G1 X98.722 Y112.632 E0.04533
G1 X99.582 Y111.470 E0.04533
G1 X100.544 Y110.391 E0.04533
G1 X101.601 Y109.404 E0.04533
G1 X102.743 Y108.517 E0.04533
G1 X103.961 Y107.738 E0.04533
G1 X105.245 Y107.073 E0.04533
G1 X106.583 Y106.528 E0.04533
G1 X107.966 Y106.106 E0.04533
G1 X109.382 Y105.812 E0.04533
G1 X110.818 Y105.648 E0.04531
G1 X112.293 Y105.617 E0.04625
G1 X113.706 Y105.713 E0.04442
G1 X115.133 Y105.943 E0.04533
G1 X116.534 Y106.301 E0.04533
G1 X117.896 Y106.785 E0.04533
G1 X119.209 Y107.391 E0.04533
G1 X120.461 Y108.114 E0.04533
G1 X121.642 Y108.948 E0.04533
G1 X122.742 Y109.885 E0.04533
G1 X123.753 Y110.919 E0.04533
G1 X124.665 Y112.041 E0.04533
G1 X125.472 Y113.241 E0.04533
G1 X126.166 Y114.508 E0.04531
G1 X126.751 Y115.862 E0.04625
G1 X127.195 Y117.208 E0.04442
G1 X127.522 Y118.616 E0.04533
G1 X127.718 Y120.049 E0.04533
G1 X127.784 Y121.493 E0.04533
G1 X127.718 Y122.937 E0.04533
G1 X127.522 Y124.369 E0.04533
G1 X127.195 Y125.777 E0.04531
G1 X126.731 Y127.177 E0.04625
G1 X126.166 Y128.477 E0.04442
G1 X125.472 Y129.745 E0.04533
G1 X124.665 Y130.945 E0.04533
G1 X123.753 Y132.066 E0.04533
G1 X122.742 Y133.100 E0.04533
G1 X121.642 Y134.038 E0.04533
G1 X120.461 Y134.871 E0.04533
G1 X119.209 Y135.594 E0.04533
M73 P1 R109
G1 X117.896 Y136.200 E0.04533
G1 X116.531 Y136.686 E0.04542
G1 X116.246 Y136.761 E0.00925
G1 E-0.80000 F2100.00000
G1 Z0.800 F10800.000
G1 X107.993 Y137.275
G1 Z0.200
G1 E0.80000 F2100.00000
G1 F1200
G1 X106.457 Y136.814 E0.05028
G1 X105.086 Y136.255 E0.04641
G1 X103.772 Y135.574 E0.04641
G1 X102.525 Y134.776 E0.04641
G1 X101.356 Y133.869 E0.04641
G1 X100.275 Y132.858 E0.04641
G1 X99.289 Y131.754 E0.04641
G1 X98.408 Y130.565 E0.04641
G1 X97.639 Y129.300 E0.04641
G1 X96.988 Y127.971 E0.04641
G1 X96.461 Y126.588 E0.04641
G1 X96.062 Y125.162 E0.04641
G1 X95.794 Y123.707 E0.04641
G1 X95.659 Y122.233 E0.04641
G1 X95.659 Y120.753 E0.04641
G1 X95.794 Y119.279 E0.04641
G1 X96.062 Y117.823 E0.04641
G1 X96.461 Y116.398 E0.04641
G1 X96.988 Y115.015 E0.04641
G1 X97.639 Y113.686 E0.04641
G1 X98.408 Y112.421 E0.04641
G1 X99.289 Y111.231 E0.04641
G1 X100.275 Y110.127 E0.04641
G1 X101.356 Y109.117 E0.04641
G1 X102.525 Y108.209 E0.04641
G1 X103.772 Y107.411 E0.04641
G1 X105.086 Y106.731 E0.04641
G1 X106.457 Y106.172 E0.04641
G1 X107.873 Y105.740 E0.04641
G1 X109.322 Y105.439 E0.04641
G1 X110.792 Y105.271 E0.04640
G1 X112.301 Y105.239 E0.04733
G1 X113.749 Y105.338 E0.04549
G1 X115.210 Y105.573 E0.04641
G1 X116.644 Y105.940 E0.04641
G1 X118.039 Y106.436 E0.04641
G1 X119.383 Y107.056 E0.04641
G1 X120.664 Y107.796 E0.04641
G1 X121.874 Y108.650 E0.04641
G1 X123.000 Y109.610 E0.04641
G1 X124.035 Y110.668 E0.04641
G1 X124.969 Y111.816 E0.04641
G1 X125.795 Y113.044 E0.04641
G1 X126.505 Y114.343 E0.04640
G1 X127.104 Y115.728 E0.04733
G1 X127.559 Y117.106 E0.04549
G1 X127.893 Y118.548 E0.04641
G1 X128.094 Y120.014 E0.04641
G1 X128.162 Y121.493 E0.04641
G1 X128.094 Y122.971 E0.04641
G1 X127.893 Y124.438 E0.04641
G1 X127.559 Y125.879 E0.04640
G1 X127.083 Y127.312 E0.04733
G1 X126.505 Y128.643 E0.04549
G1 X125.795 Y129.941 E0.04641
G1 X124.969 Y131.169 E0.04641
G1 X124.035 Y132.317 E0.04641
G1 X123.000 Y133.376 E0.04641
G1 X121.874 Y134.336 E0.04641
G1 X120.664 Y135.189 E0.04641
G1 X119.383 Y135.929 E0.04641
G1 X118.039 Y136.550 E0.04641
G1 X116.643 Y137.046 E0.04644
G1 X115.811 Y137.268 E0.02700
G1 X115.811 Y131.458 E0.18216
G1 X116.575 Y131.130 E0.02605
G1 X118.032 Y130.276 E0.05298
G1 X119.340 Y129.199 E0.05310
G1 X120.480 Y127.903 E0.05412
G1 X121.369 Y126.502 E0.05204
G1 X122.040 Y124.947 E0.05309
G1 X122.458 Y123.306 E0.05309
G1 X122.612 Y121.620 E0.05309
G1 X122.498 Y119.930 E0.05309
G1 X122.119 Y118.280 E0.05309
G1 X121.485 Y116.709 E0.05309
G1 X120.612 Y115.259 E0.05309
G1 X119.520 Y113.964 E0.05309
G1 X118.239 Y112.858 E0.05309
G1 X116.798 Y111.967 E0.05309
G1 X115.236 Y111.314 E0.05309
G1 X113.590 Y110.916 E0.05309
G1 X111.902 Y110.782 E0.05310
G1 X110.181 Y110.924 E0.05412
G1 X108.568 Y111.314 E0.05204
G1 X107.006 Y111.967 E0.05309
G1 X105.565 Y112.858 E0.05309
G1 X104.284 Y113.964 E0.05309
G1 X103.192 Y115.259 E0.05310
G1 X102.306 Y116.741 E0.05412
G1 X101.685 Y118.280 E0.05204
G1 X101.306 Y119.930 E0.05309
G1 X101.192 Y121.620 E0.05309
G1 X101.346 Y123.306 E0.05309
G1 X101.764 Y124.947 E0.05309
G1 X102.435 Y126.502 E0.05309
G1 X103.342 Y127.931 E0.05309
G1 X104.464 Y129.200 E0.05309
G1 X105.772 Y130.276 E0.05309
G1 X107.229 Y131.130 E0.05298
G1 X107.993 Y131.458 E0.02605
G1 X107.993 Y137.215 E0.18049
G1 X107.681 Y137.024 F10800.000
G1 E-0.80000 F2100.00000
G1 Z0.800 F10800.000
G1 X104.062 Y135.172
G1 Z0.200
G1 E0.80000 F2100.00000
G1 F1200
G1 X98.249 Y129.359 E0.25999
G1 X97.664 Y128.237 F10800.000
G1 F1200
G1 X104.782 Y135.354 E0.31830
G1 X105.363 Y135.655 E0.02070
G1 X105.798 Y135.833 E0.01486
G1 X97.546 Y127.580 E0.36906
G1 X97.214 Y126.711 E0.02942
G1 X106.702 Y136.198 E0.42430
G1 X107.333 Y136.391 E0.02086
G1 X107.333 Y136.292 E0.00314
G1 X96.959 Y125.917 E0.46396
G1 X96.749 Y125.170 E0.02454
G1 X107.333 Y135.754 E0.47332
G1 X107.333 Y135.216 E0.01701
G1 X96.609 Y124.492 E0.47957
G1 X96.488 Y123.833 E0.02120
G1 X107.333 Y134.678 E0.48500
G1 X107.333 Y134.140 E0.01701
G1 X96.412 Y123.219 E0.48841
G1 X96.358 Y122.627 E0.01879
G1 X107.333 Y133.602 E0.49082
G1 X107.333 Y133.065 E0.01701
G1 X96.319 Y122.051 E0.49256
G1 X96.319 Y121.513 E0.01701
G1 X102.254 Y127.448 E0.26541
G1 X101.943 Y126.599 F10800.000
G1 F1200
G1 X96.319 Y120.975 E0.25150
G1 X96.348 Y120.466 E0.01612
G1 X101.209 Y125.327 E0.21739
G1 X101.137 Y125.160 E0.00574
G1 X100.986 Y124.566 E0.01939
G1 X96.393 Y119.973 E0.20540
G1 X96.438 Y119.480 E0.01565
G1 X100.802 Y123.845 E0.19517
G1 X100.694 Y123.418 E0.01392
G1 X100.671 Y123.176 E0.00768
G1 X96.513 Y119.017 E0.18598
G1 X96.596 Y118.563 E0.01460
G1 X100.618 Y122.584 E0.17982
G1 X100.564 Y121.992 E0.01879
G1 X96.680 Y118.109 E0.17367
G1 X96.788 Y117.679 E0.01403
G1 X100.543 Y121.434 E0.16796
G1 X100.577 Y120.930 E0.01597
G1 X96.905 Y117.259 E0.16421
G1 X97.023 Y116.838 E0.01380
G1 X100.611 Y120.427 E0.16047
G1 X100.645 Y119.923 E0.01597
G1 X97.154 Y116.432 E0.15611
G1 X97.303 Y116.043 E0.01318
G1 X100.734 Y119.473 E0.15343
G1 X100.834 Y119.036 E0.01419
G1 X97.451 Y115.653 E0.15128
G1 X97.601 Y115.265 E0.01316
G1 X100.934 Y118.599 E0.14909
G1 X101.035 Y118.161 E0.01419
G1 X97.778 Y114.904 E0.14567
G1 X97.954 Y114.543 E0.01271
G1 X101.180 Y117.768 E0.14424
G1 X101.334 Y117.385 E0.01307
G1 X98.131 Y114.182 E0.14325
G1 X98.321 Y113.834 E0.01253
G1 X101.489 Y117.002 E0.14167
G1 X101.644 Y116.619 E0.01307
G1 X98.525 Y113.500 E0.13949
G1 X98.728 Y113.165 E0.01238
G1 X101.824 Y116.261 E0.13846
G1 X102.025 Y115.925 E0.01240
G1 X98.931 Y112.831 E0.13836
G1 X99.157 Y112.519 E0.01218
G1 X102.227 Y115.588 E0.13727
G1 X102.428 Y115.251 E0.01240
G1 X99.386 Y112.210 E0.13604
G1 X99.615 Y111.901 E0.01216
G1 X102.629 Y114.915 E0.13481
G1 X102.870 Y114.618 E0.01209
G1 X99.848 Y111.596 E0.13513
G1 X100.102 Y111.312 E0.01205
G1 X103.116 Y114.326 E0.13479
G1 X103.362 Y114.034 E0.01207
G1 X100.355 Y111.028 E0.13445
G1 X100.609 Y110.743 E0.01205
G1 X103.608 Y113.742 E0.13411
G1 X103.861 Y113.457 E0.01205
G1 X100.874 Y110.470 E0.13359
G1 X101.152 Y110.211 E0.01203
G1 X104.150 Y113.208 E0.13406
G1 X104.438 Y112.959 E0.01206
G1 X101.430 Y109.951 E0.13453
G1 X101.708 Y109.691 E0.01203
G1 X104.727 Y112.710 E0.13500
G1 X105.015 Y112.461 E0.01206
G1 X102.004 Y109.449 E0.13467
G1 X102.307 Y109.214 E0.01212
G1 X105.324 Y112.231 E0.13492
G1 X105.656 Y112.026 E0.01236
G1 X102.610 Y108.979 E0.13624
G1 X102.906 Y108.749 E0.01188
G1 X105.988 Y111.820 E0.13760
G1 X106.321 Y111.615 E0.01236
G1 X103.241 Y108.535 E0.13773
G1 X103.569 Y108.325 E0.01231
G1 X106.653 Y111.409 E0.13793
G1 X107.025 Y111.243 E0.01288
G1 X103.897 Y108.115 E0.13991
G1 X104.102 Y107.984 E0.00772
G1 X104.235 Y107.915 E0.00471
G1 X107.405 Y111.085 E0.14177
G1 X107.784 Y110.927 E0.01300
G1 X104.589 Y107.731 E0.14289
G1 X104.943 Y107.548 E0.01262
G1 X108.163 Y110.768 E0.14401
G1 X108.362 Y110.685 E0.00681
G1 X108.568 Y110.635 E0.00671
G1 X105.297 Y107.364 E0.14628
G1 X105.674 Y107.203 E0.01296
G1 X109.001 Y110.530 E0.14879
G1 X109.434 Y110.426 E0.01409
