; generated by PrusaSlicer 2.1.0+ on 2019-10-09 at 17:23:03 UTC

; 

; external perimeters extrusion width = 0.45mm
; perimeters extrusion width = 0.45mm
; infill extrusion width = 0.45mm
; solid infill extrusion width = 0.45mm
; top infill extrusion width = 0.40mm
; first layer extrusion width = 0.42mm

M73 P0 R37
M201 X9000 Y9000 Z500 E10000 ; sets maximum accelerations, mm/sec^2
M203 X500 Y500 Z12 E120 ; sets maximum feedrates, mm/sec
M204 P2000 R1500 T2000 ; sets acceleration (P, T) and retract acceleration (R), mm/sec^2
M205 X10.00 Y10.00 Z0.20 E2.50 ; sets the jerk limits, mm/sec
M205 S0 T0 ; sets the minimum extruding and travel feed rate, mm/sec
M107
M862.3 P "MK2.5SMMU2S" ; printer model check
M862.1 P0.4 ; nozzle diameter check
M115 U3.8.0 ; tell printer latest fw version
G90 ; use absolute coordinates
M83 ; extruder relative mode
M104 S230 ; set extruder temp
M140 S60 ; set bed temp
Tx
M190 S60 ; wait for bed temp
M109 S230 ; wait for extruder temp
G28 W ; home all without mesh bed level
G80 ; mesh bed leveling

G21 ; set units to millimeters

;go outside print area
G1 Y-3.0 F1000.0
G1 Z0.4 F1000.0
; select extruder
Tc
; purge line
G1 X55.0 F2000.0
G1 Z0.3 F1000.0
G92 E0.0
G1 X240.0 E25.0 F2200.0
M73 P0 R37
G1 Y-2.0 F1000.0
G1 X55.0 E25 F1400.0
G1 Z0.20 F1000.0
G1 X5.0 E4.0 F1000.0
G92 E0.0
G21 ; set units to millimeters
G90 ; use absolute coordinates
M83 ; use relative distances for extrusion
M900 K30 ; Filament gcode
;BEFORE_LAYER_CHANGE
G92 E0.0
;0.2


G1 E-0.80000 F2100.00000
G1 Z0.600 F10800.000
;AFTER_LAYER_CHANGE
;0.2
G1 X88.430 Y69.263
G1 Z0.200
G1 E0.80000 F2100.00000
M204 S1000
G1 F1200
G1 X89.305 Y68.183 E0.04359
G1 X91.064 Y66.424 E0.07797
G1 X92.092 Y65.589 E0.04153
G1 X93.231 Y64.793 E0.04359
G1 X94.370 Y64.117 E0.04153
G1 X95.558 Y63.522 E0.04165
G1 X96.844 Y62.994 E0.04359
G1 X99.230 Y62.293 E0.07797
G1 X100.533 Y62.053 E0.04153
G1 X101.915 Y61.900 E0.04359
G1 X103.242 Y61.852 E0.04165
G1 X104.635 Y61.906 E0.04370
G1 X107.100 Y62.261 E0.07809
G1 X148.676 Y70.103 E1.32659
G1 X150.246 Y70.505 E0.05082
G1 X152.921 Y71.503 E0.08950
G1 X154.319 Y72.198 E0.04896
G1 X155.550 Y72.927 E0.04484
G1 X156.907 Y73.869 E0.05182
G1 X158.017 Y74.765 E0.04472
G1 X159.114 Y75.787 E0.04701
G1 X160.133 Y76.882 E0.04690
G1 X161.074 Y78.049 E0.04701
G1 X161.929 Y79.281 E0.04701
G1 X162.693 Y80.567 E0.04690
G1 X163.364 Y81.907 E0.04701
G1 X163.912 Y83.224 E0.04472
G1 X164.434 Y84.793 E0.05182
G1 X164.786 Y86.178 E0.04484
G1 X165.055 Y87.676 E0.04770
G1 X165.211 Y89.138 E0.04610
G1 X165.263 Y90.559 E0.04461
G1 X165.211 Y92.138 E0.04953
G1 X165.051 Y93.625 E0.04690
G1 X164.800 Y95.026 E0.04461
G1 X164.414 Y96.554 E0.04941
G1 X163.912 Y98.050 E0.04950
G1 X163.366 Y99.365 E0.04463
G1 X162.696 Y100.702 E0.04690
G1 X161.888 Y102.056 E0.04942
G1 X161.074 Y103.227 E0.04472
G1 X160.157 Y104.366 E0.04587
G1 X128.888 Y140.047 E1.48755
G1 X127.717 Y141.301 E0.05378
G1 X126.522 Y142.410 E0.05112
G1 X125.157 Y143.505 E0.05487
G1 X123.844 Y144.416 E0.05012
G1 X122.467 Y145.234 E0.05020
G1 X120.966 Y145.991 E0.05272
G1 X119.354 Y146.664 E0.05478
G1 X117.758 Y147.195 E0.05272
G1 X116.129 Y147.611 E0.05272
G1 X114.452 Y147.912 E0.05341
G1 X112.813 Y148.088 E0.05169
G1 X111.213 Y148.146 E0.05020
G1 X109.460 Y148.088 E0.05501
G1 X107.716 Y147.896 E0.05501
G1 X106.140 Y147.611 E0.05020
G1 X104.588 Y147.216 E0.05020
G1 X102.922 Y146.666 E0.05501
G1 X101.303 Y145.991 E0.05501
G1 X99.872 Y145.273 E0.05020
G1 X98.491 Y144.455 E0.05032
G1 X97.048 Y143.458 E0.05501
G1 X95.685 Y142.354 E0.05498
G1 X94.513 Y141.262 E0.05023
G1 X93.375 Y140.039 E0.05238
G1 X92.275 Y138.668 E0.05513
G1 X91.363 Y137.352 E0.05020
G1 X90.545 Y135.976 E0.05020
G1 X89.755 Y134.409 E0.05501
G1 X89.088 Y132.786 E0.05501
G1 X88.583 Y131.267 E0.05020
G1 X88.185 Y129.712 E0.05032
G1 X87.866 Y127.961 E0.05581
G1 X87.690 Y126.311 E0.05203
G1 X84.780 Y81.634 E1.40378
G1 X84.783 Y79.034 E0.08150
G1 X85.165 Y76.393 E0.08369
G1 X85.507 Y75.071 E0.04279
G1 X86.376 Y72.741 E0.07797
G1 X86.996 Y71.493 E0.04371
G1 X87.672 Y70.354 E0.04153
G1 X88.396 Y69.312 E0.03976
G1 E-0.80000 F2100.00000
G1 Z0.800 F10800.000
G1 X111.135 Y145.043
G1 Z0.200
G1 E0.80000 F2100.00000
G1 F1200
G1 X109.680 Y144.991 E0.04566
G1 X108.232 Y144.836 E0.04566
G1 X106.799 Y144.577 E0.04566
G1 X105.388 Y144.217 E0.04566
G1 X104.006 Y143.757 E0.04566
G1 X103.764 Y143.657 E0.00821
G1 X102.661 Y143.200 E0.03745
G1 X101.358 Y142.548 E0.04566
G1 X100.106 Y141.805 E0.04566
G1 X98.910 Y140.974 E0.04566
G1 X97.776 Y140.061 E0.04566
G1 X96.710 Y139.068 E0.04566
G1 X95.718 Y138.003 E0.04566
G1 X94.804 Y136.869 E0.04566
G1 X93.973 Y135.672 E0.04566
G1 X93.230 Y134.420 E0.04566
G1 X92.578 Y133.118 E0.04566
G1 X92.478 Y132.876 E0.00821
G1 X92.021 Y131.772 E0.03745
G1 X91.561 Y130.391 E0.04566
G1 X91.201 Y128.980 E0.04566
G1 X90.943 Y127.547 E0.04566
G1 X90.787 Y126.099 E0.04566
G1 X90.735 Y124.643 E0.04566
G1 X90.787 Y123.188 E0.04566
G1 X90.943 Y121.740 E0.04566
G1 X91.201 Y120.307 E0.04566
G1 X91.561 Y118.896 E0.04566
G1 X92.021 Y117.514 E0.04566
G1 X92.121 Y117.272 E0.00821
G1 X92.578 Y116.169 E0.03745
G1 X93.230 Y114.867 E0.04566
G1 X93.973 Y113.614 E0.04566
G1 X94.804 Y112.418 E0.04566
G1 X95.718 Y111.284 E0.04566
G1 X96.710 Y110.218 E0.04566
G1 X97.776 Y109.226 E0.04566
G1 X97.980 Y109.062 E0.00821
G1 X98.910 Y108.312 E0.03745
G1 X100.106 Y107.482 E0.04566
G1 X101.358 Y106.739 E0.04566
G1 X102.661 Y106.087 E0.04566
G1 X104.006 Y105.530 E0.04566
G1 X105.388 Y105.070 E0.04566
G1 X106.799 Y104.709 E0.04566
G1 X108.232 Y104.451 E0.04566
G1 X109.680 Y104.295 E0.04566
G1 X111.135 Y104.243 E0.04566
G1 X112.590 Y104.295 E0.04566
G1 X114.038 Y104.451 E0.04566
G1 X115.471 Y104.709 E0.04566
G1 X116.882 Y105.070 E0.04566
G1 X118.264 Y105.530 E0.04566
G1 X119.610 Y106.087 E0.04566
G1 X120.912 Y106.739 E0.04566
G1 X122.164 Y107.482 E0.04566
G1 X123.360 Y108.312 E0.04566
G1 X124.494 Y109.226 E0.04566
G1 X125.560 Y110.218 E0.04566
G1 X126.552 Y111.284 E0.04566
G1 X127.466 Y112.418 E0.04566
G1 X128.297 Y113.614 E0.04566
G1 X129.040 Y114.867 E0.04566
G1 X129.692 Y116.169 E0.04566
G1 X130.249 Y117.514 E0.04566
G1 X130.709 Y118.896 E0.04566
G1 X131.069 Y120.307 E0.04566
G1 X131.327 Y121.740 E0.04566
G1 X131.483 Y123.188 E0.04566
G1 X131.535 Y124.643 E0.04566
G1 X131.483 Y126.099 E0.04566
G1 X131.327 Y127.547 E0.04566
G1 X131.281 Y127.804 E0.00821
G1 X131.069 Y128.980 E0.03745
G1 X130.709 Y130.391 E0.04566
G1 X130.249 Y131.772 E0.04566
G1 X129.692 Y133.118 E0.04566
G1 X129.040 Y134.420 E0.04566
G1 X128.297 Y135.672 E0.04566
G1 X127.466 Y136.869 E0.04566
G1 X126.552 Y138.003 E0.04566
G1 X125.560 Y139.068 E0.04566
G1 X124.494 Y140.061 E0.04566
G1 X123.360 Y140.974 E0.04566
G1 X122.164 Y141.805 E0.04566
G1 X120.912 Y142.548 E0.04566
G1 X119.610 Y143.200 E0.04566
G1 X118.264 Y143.757 E0.04566
G1 X116.882 Y144.217 E0.04566
G1 X115.471 Y144.577 E0.04566
G1 X114.038 Y144.836 E0.04566
G1 X112.590 Y144.991 E0.04566
G1 X111.195 Y145.041 E0.04378
G1 X110.935 Y144.697 F10800.000
G1 X111.135 Y144.666
G1 F1200
G1 X109.707 Y144.615 E0.04482
G1 X108.286 Y144.462 E0.04482
G1 X106.879 Y144.208 E0.04482
G1 X105.494 Y143.855 E0.04482
G1 X104.138 Y143.404 E0.04482
G1 X103.908 Y143.309 E0.00779
G1 X102.817 Y142.857 E0.03703
G1 X101.539 Y142.217 E0.04482
G1 X100.310 Y141.488 E0.04482
G1 X99.136 Y140.672 E0.04482
G1 X98.023 Y139.776 E0.04482
G1 X96.977 Y138.802 E0.04482
G1 X96.003 Y137.755 E0.04482
G1 X95.106 Y136.643 E0.04482
G1 X94.291 Y135.468 E0.04482
G1 X93.562 Y134.239 E0.04482
G1 X92.922 Y132.961 E0.04482
G1 X92.827 Y132.732 E0.00779
G1 X92.375 Y131.641 E0.03703
G1 X91.923 Y130.284 E0.04482
G1 X91.570 Y128.899 E0.04481
G1 X91.316 Y127.493 E0.04482
G1 X91.163 Y126.072 E0.04482
G1 X91.112 Y124.643 E0.04482
G1 X91.163 Y123.215 E0.04482
G1 X91.190 Y122.968 E0.00779
G1 X91.316 Y121.794 E0.03703
G1 X91.570 Y120.387 E0.04482
G1 X91.923 Y119.002 E0.04482
G1 X92.375 Y117.646 E0.04482
G1 X92.470 Y117.417 E0.00779
G1 X92.922 Y116.326 E0.03703
G1 X93.562 Y115.047 E0.04482
G1 X94.291 Y113.818 E0.04482
G1 X95.106 Y112.644 E0.04482
G1 X96.003 Y111.531 E0.04481
G1 X96.977 Y110.485 E0.04482
G1 X98.023 Y109.511 E0.04482
G1 X98.216 Y109.355 E0.00779
G1 X99.136 Y108.614 E0.03703
G1 X100.310 Y107.799 E0.04482
G1 X101.539 Y107.070 E0.04482
G1 X102.817 Y106.430 E0.04482
G1 X104.138 Y105.883 E0.04482
G1 X105.494 Y105.432 E0.04482
G1 X106.879 Y105.078 E0.04481
G1 X108.286 Y104.824 E0.04482
G1 X109.707 Y104.672 E0.04482
G1 X111.135 Y104.621 E0.04482
G1 X112.563 Y104.672 E0.04482
G1 X113.985 Y104.824 E0.04482
G1 X115.391 Y105.078 E0.04482
G1 X116.776 Y105.432 E0.04482
G1 X118.132 Y105.883 E0.04482
G1 X119.453 Y106.430 E0.04482
G1 X120.731 Y107.070 E0.04481
G1 X121.960 Y107.799 E0.04482
G1 X123.134 Y108.614 E0.04482
G1 X124.247 Y109.511 E0.04481
G1 X125.293 Y110.485 E0.04482
G1 X126.267 Y111.531 E0.04482
G1 X127.164 Y112.644 E0.04482
G1 X127.979 Y113.818 E0.04482
G1 X128.709 Y115.047 E0.04482
G1 X129.348 Y116.326 E0.04482
G1 X129.895 Y117.646 E0.04482
G1 X130.347 Y119.002 E0.04482
G1 X130.700 Y120.387 E0.04482
G1 X130.954 Y121.794 E0.04482
G1 X131.107 Y123.215 E0.04482
G1 X131.158 Y124.643 E0.04482
G1 X131.107 Y126.072 E0.04482
G1 X130.954 Y127.493 E0.04482
G1 X130.910 Y127.737 E0.00779
G1 X130.700 Y128.899 E0.03703
G1 X130.347 Y130.284 E0.04481
G1 X129.895 Y131.641 E0.04482
G1 X129.348 Y132.961 E0.04482
G1 X128.709 Y134.239 E0.04482
G1 X127.979 Y135.468 E0.04482
G1 X127.164 Y136.643 E0.04482
G1 X126.267 Y137.755 E0.04482
G1 X125.293 Y138.802 E0.04482
G1 X124.247 Y139.776 E0.04482
G1 X123.134 Y140.672 E0.04482
G1 X121.960 Y141.488 E0.04482
G1 X120.731 Y142.217 E0.04482
G1 X119.453 Y142.857 E0.04481
G1 X118.132 Y143.404 E0.04482
G1 X116.776 Y143.855 E0.04482
G1 X115.391 Y144.208 E0.04482
G1 X113.985 Y144.462 E0.04481
G1 X112.563 Y144.615 E0.04482
G1 X111.195 Y144.664 E0.04293
G1 E-0.80000 F2100.00000
G1 Z0.800 F10800.000
G1 X114.048 Y142.591
G1 Z0.200
G1 E0.80000 F2100.00000
G1 F1200
G1 X113.675 Y142.564 E0.01174
G1 X113.311 Y142.474 E0.01174
G1 X112.968 Y142.324 E0.01174
G1 X112.655 Y142.118 E0.01174
G1 X112.381 Y141.862 E0.01174
G1 X112.155 Y141.564 E0.01174
G1 X111.982 Y141.232 E0.01174
G1 X111.867 Y140.875 E0.01174
G1 X111.816 Y140.514 E0.01146
G1 X111.787 Y139.996 E0.01625
G1 X111.795 Y139.651 E0.01082
G1 X111.860 Y139.303 E0.01109
G1 X111.979 Y138.970 E0.01109
G1 X112.150 Y138.661 E0.01109
G1 X112.368 Y138.382 E0.01109
G1 X112.628 Y138.142 E0.01109
G1 X112.923 Y137.947 E0.01109
G1 X113.247 Y137.800 E0.01116
G1 X114.946 Y137.378 E0.05488
G1 X116.264 Y136.907 E0.04390
G1 X117.525 Y136.299 E0.04388
G1 X118.716 Y135.563 E0.04390
G1 X120.104 Y134.497 E0.05488
G1 X120.421 Y134.336 E0.01116
G1 X120.758 Y134.227 E0.01109
G1 X121.085 Y134.177 E0.01039
G1 X121.460 Y134.177 E0.01175
G1 X121.810 Y134.236 E0.01112
G1 X122.145 Y134.350 E0.01109
G1 X122.457 Y134.517 E0.01109
G1 X122.732 Y134.725 E0.01082
G1 X123.118 Y135.071 E0.01625
G1 X123.369 Y135.336 E0.01146
G1 X123.577 Y135.648 E0.01174
G1 X123.729 Y135.991 E0.01174
G1 X123.820 Y136.354 E0.01174
G1 X123.850 Y136.727 E0.01174
G1 X123.816 Y137.100 E0.01174
G1 X123.719 Y137.462 E0.01174
G1 X123.563 Y137.802 E0.01174
G1 X123.351 Y138.111 E0.01174
G1 X123.093 Y138.378 E0.01164
G1 X121.556 Y139.577 E0.06114
G1 X119.902 Y140.604 E0.06104
G1 X118.148 Y141.449 E0.06104
G1 X116.314 Y142.102 E0.06104
G1 X114.418 Y142.556 E0.06114
G1 X114.108 Y142.586 E0.00976
G1 X113.868 Y142.920 F10800.000
G1 X114.053 Y142.970
G1 F1200
G1 X113.615 Y142.938 E0.01375
G1 X113.189 Y142.832 E0.01375
G1 X112.787 Y142.657 E0.01375
G1 X112.421 Y142.416 E0.01375
G1 X112.100 Y142.116 E0.01375
G1 X111.835 Y141.767 E0.01375
G1 X111.632 Y141.378 E0.01375
G1 X111.498 Y140.960 E0.01375
G1 X111.440 Y140.551 E0.01297
G1 X111.410 Y140.002 E0.01723
G1 X111.419 Y139.612 E0.01225
G1 X111.495 Y139.204 E0.01299
G1 X111.635 Y138.815 E0.01299
G1 X111.835 Y138.452 E0.01299
G1 X112.090 Y138.126 E0.01299
G1 X112.394 Y137.845 E0.01299
G1 X112.740 Y137.616 E0.01299
G1 X113.123 Y137.442 E0.01319
G1 X114.837 Y137.017 E0.05537
G1 X116.118 Y136.558 E0.04268
G1 X117.344 Y135.968 E0.04263
G1 X118.501 Y135.252 E0.04268
G1 X119.902 Y134.177 E0.05537
G1 X120.277 Y133.986 E0.01319
G1 X120.671 Y133.859 E0.01299
G1 X121.057 Y133.800 E0.01223
G1 X121.492 Y133.799 E0.01365
G1 X121.903 Y133.869 E0.01308
G1 X122.295 Y134.003 E0.01299
G1 X122.661 Y134.198 E0.01299
G1 X122.972 Y134.434 E0.01225
G1 X123.382 Y134.800 E0.01723
G1 X123.665 Y135.101 E0.01297
G1 X123.908 Y135.466 E0.01375
G1 X124.086 Y135.867 E0.01375
G1 X124.194 Y136.292 E0.01375
G1 X124.228 Y136.730 E0.01375
G1 X124.188 Y137.166 E0.01375
G1 X124.075 Y137.590 E0.01375
G1 X123.892 Y137.989 E0.01375
G1 X123.644 Y138.351 E0.01375
G1 X123.345 Y138.659 E0.01346
G1 X121.772 Y139.887 E0.06259
G1 X120.084 Y140.935 E0.06230
G1 X118.293 Y141.798 E0.06230
G1 X116.421 Y142.464 E0.06230
G1 X114.480 Y142.928 E0.06259
G1 X114.112 Y142.964 E0.01158
G1 E-0.80000 F2100.00000
G1 Z0.800 F10800.000
G1 X114.088 Y143.701
G1 X116.641 Y143.146
G1 X118.582 Y142.448
G1 X120.387 Y141.586
G1 X122.697 Y140.089
G1 X124.562 Y138.405
G1 X125.454 Y136.807
G1 X125.644 Y136.214
G1 X124.904 Y135.624
G1 X125.000 Y134.396
G1 Z0.200
G1 E0.80000 F2100.00000
G1 F1200
G1 X124.633 Y134.324 E0.01174
G1 X124.282 Y134.191 E0.01174
G1 X123.967 Y134.006 E0.01146
G1 X123.545 Y133.706 E0.01625
G1 X123.280 Y133.484 E0.01082
G1 X123.049 Y133.217 E0.01109
G1 X122.863 Y132.916 E0.01109
G1 X122.727 Y132.589 E0.01109
G1 X122.651 Y132.267 E0.01039
G1 X122.620 Y131.893 E0.01175
G1 X122.651 Y131.540 E0.01112
G1 X122.738 Y131.195 E0.01116
G1 X123.468 Y129.604 E0.05488
G1 X123.921 Y128.279 E0.04390
G1 X124.232 Y126.915 E0.04388
G1 X124.399 Y125.525 E0.04390
G1 X124.431 Y123.775 E0.05488
G1 X124.503 Y123.426 E0.01116
G1 X124.628 Y123.095 E0.01109
G1 X124.804 Y122.789 E0.01109
G1 X125.027 Y122.514 E0.01109
G1 X125.291 Y122.278 E0.01109
G1 X125.589 Y122.088 E0.01109
G1 X125.913 Y121.947 E0.01109
G1 X126.248 Y121.863 E0.01082
G1 X126.759 Y121.776 E0.01625
G1 X127.100 Y121.747 E0.01072
G1 X127.495 Y121.777 E0.01244
G1 X127.859 Y121.872 E0.01178
G1 X128.200 Y122.027 E0.01174
G1 X128.510 Y122.237 E0.01174
G1 X128.780 Y122.496 E0.01174
G1 X129.003 Y122.797 E0.01174
G1 X129.172 Y123.131 E0.01174
G1 X129.281 Y123.490 E0.01174
G1 X129.329 Y123.858 E0.01164
G1 X129.308 Y125.808 E0.06114
G1 X129.080 Y127.741 E0.06104
G1 X128.647 Y129.639 E0.06104
G1 X128.014 Y131.479 E0.06104
G1 X127.186 Y133.245 E0.06114
G1 X126.984 Y133.556 E0.01164
G1 X126.745 Y133.814 E0.01100
G1 X126.433 Y134.059 E0.01244
G1 X126.101 Y134.234 E0.01178
G1 X125.745 Y134.350 E0.01174
G1 X125.375 Y134.405 E0.01174
G1 X125.060 Y134.398 E0.00986
G1 X124.779 Y134.698 F10800.000
G1 X124.959 Y134.772
G1 F1200
G1 X124.529 Y134.688 E0.01375
G1 X124.119 Y134.533 E0.01375
G1 X123.762 Y134.323 E0.01297
G1 X123.314 Y134.005 E0.01723
G1 X123.015 Y133.754 E0.01225
G1 X122.744 Y133.441 E0.01299
G1 X122.526 Y133.088 E0.01299
G1 X122.367 Y132.706 E0.01299
G1 X122.277 Y132.326 E0.01223
G1 X122.241 Y131.893 E0.01365
G1 X122.278 Y131.477 E0.01308
G1 X122.381 Y131.069 E0.01319
G1 X123.117 Y129.464 E0.05537
G1 X123.558 Y128.176 E0.04268
G1 X123.860 Y126.850 E0.04263
G1 X124.022 Y125.499 E0.04268
G1 X124.055 Y123.733 E0.05537
G1 X124.139 Y123.321 E0.01319
G1 X124.286 Y122.934 E0.01299
G1 X124.492 Y122.574 E0.01299
G1 X124.753 Y122.253 E0.01299
G1 X125.062 Y121.977 E0.01299
G1 X125.411 Y121.754 E0.01299
G1 X125.791 Y121.589 E0.01299
G1 X126.170 Y121.493 E0.01225
G1 X126.711 Y121.401 E0.01723
G1 X127.098 Y121.369 E0.01216
G1 X127.558 Y121.404 E0.01445
G1 X127.985 Y121.515 E0.01385
G1 X128.385 Y121.696 E0.01375
G1 X128.748 Y121.942 E0.01375
G1 X129.064 Y122.246 E0.01375
G1 X129.325 Y122.599 E0.01375
G1 X129.523 Y122.990 E0.01375
G1 X129.651 Y123.410 E0.01375
G1 X129.706 Y123.836 E0.01346
G1 X129.685 Y125.832 E0.06259
G1 X129.452 Y127.805 E0.06230
G1 X129.010 Y129.742 E0.06230
G1 X128.364 Y131.621 E0.06230
G1 X127.516 Y133.429 E0.06259
G1 X127.282 Y133.789 E0.01346
G1 X127.002 Y134.092 E0.01295
G1 X126.639 Y134.376 E0.01445
