; generated by PrusaSlicer 2.2.0+win64 on 2020-08-21 at 19:44:45 UTC

; 

; external perimeters extrusion width = 0.45mm
; perimeters extrusion width = 0.45mm
; infill extrusion width = 0.45mm
; solid infill extrusion width = 0.45mm
; top infill extrusion width = 0.40mm
; support material extrusion width = 0.35mm
; first layer extrusion width = 0.42mm

M73 P0 R56
M201 X9000 Y9000 Z500 E10000 ; sets maximum accelerations, mm/sec^2
M203 X500 Y500 Z12 E120 ; sets maximum feedrates, mm/sec
M204 P2000 R1500 T2000 ; sets acceleration (P, T) and retract acceleration (R), mm/sec^2
M205 X10.00 Y10.00 Z0.20 E2.50 ; sets the jerk limits, mm/sec
M205 S0 T0 ; sets the minimum extruding and travel feed rate, mm/sec
M107
M862.3 P "MK2.5SMMU2S" ; printer model check
M862.1 P0.4 ; nozzle diameter check
M115 U3.8.0 ; tell printer latest fw version
G90 ; use absolute coordinates
M83 ; extruder relative mode
M104 S215 ; set extruder temp
M140 S60 ; set bed temp
Tx
M190 S60 ; wait for bed temp
M109 S215 ; wait for extruder temp
G28 W ; home all without mesh bed level
G80 ; mesh bed leveling

G21 ; set units to millimeters

;go outside print area
G1 Y-3.0 F1000.0
G1 Z0.4 F1000.0
; select extruder
Tc
; purge line
G1 X55.0 F2000.0
G1 Z0.3 F1000.0
G92 E0.0
G1 X240.0 E25.0 F2200.0
M73 P0 R55
G1 Y-2.0 F1000.0
G1 X55.0 E25 F1400.0
G1 Z0.20 F1000.0
G1 X5.0 E4.0 F1000.0
G92 E0.0
G21 ; set units to millimeters
G90 ; use absolute coordinates
M83 ; use relative distances for extrusion
M900 K0.06 ; Filament gcode LA 1.5
M900 K30 ; Filament gcode LA 1.0
;BEFORE_LAYER_CHANGE
G92 E0.0
;0.2


G1 E-0.80000 F2100.00000
G1 Z0.600 F10800.000
;AFTER_LAYER_CHANGE
;0.2
G1 X129.165 Y46.404
G1 Z0.200
G1 E0.80000 F2100.00000
M204 S1000
G1 F1200.000
G1 X129.929 Y46.909 E0.02872
G1 X182.691 Y99.672 E2.33957
G1 X183.074 Y100.215 E0.02083
G1 X183.292 Y100.842 E0.02083
G1 X183.769 Y105.136 E0.13545
G1 X183.193 Y108.379 E0.10329
G1 X182.971 Y108.925 E0.01846
G1 X182.624 Y109.396 E0.01835
G1 X129.275 Y162.745 E2.36559
G1 X128.668 Y163.162 E0.02308
G1 X127.959 Y163.373 E0.02319
G1 X121.604 Y163.770 E0.19963
G1 X120.776 Y163.570 E0.02673
G1 X120.071 Y163.091 E0.02673
G1 X67.309 Y110.328 E2.33957
G1 X66.926 Y109.785 E0.02083
G1 X66.708 Y109.158 E0.02083
G1 X66.231 Y104.864 E0.13545
G1 X66.807 Y101.621 E0.10329
G1 X67.028 Y101.079 E0.01835
G1 X67.376 Y100.604 E0.01846
G1 X120.725 Y47.255 E2.36559
G1 X121.332 Y46.838 E0.02308
G1 X122.037 Y46.628 E0.02308
G1 X128.266 Y46.227 E0.19571
G1 X129.106 Y46.393 E0.02684
G1 E-0.80000 F2100.00000
G1 Z0.800 F10800.000
G1 X122.357 Y48.983
G1 Z0.200
G1 E0.80000 F2100.00000
G1 F1200.000
G1 X114.781 Y56.559 E0.33592
G1 X115.314 Y57.092 E0.02365
G1 X122.770 Y49.637 E0.33060
G1 X123.303 Y50.170 E0.02365
G1 X115.848 Y57.626 E0.33060
G1 X115.913 Y57.691 E0.00289
G1 X114.282 Y59.322 E0.07234
G1 X114.750 Y59.790 E0.02075
G1 X125.468 Y49.072 E0.47527
G1 X126.001 Y49.605 E0.02365
G1 X115.283 Y60.323 E0.47527
G1 X115.816 Y60.857 E0.02365
G1 X126.535 Y50.138 E0.47527
G1 X126.631 Y50.235 E0.00429
G1 X128.263 Y48.604 E0.07234
G1 X128.699 Y49.040 E0.01936
G1 X114.718 Y63.021 E0.61995
G1 X115.251 Y63.555 E0.02365
G1 X129.232 Y49.574 E0.61995
G1 X129.766 Y50.107 E0.02365
G1 X115.785 Y64.088 E0.61995
G1 X115.913 Y64.216 E0.00569
G1 X114.282 Y65.848 E0.07234
G1 X114.687 Y66.253 E0.01796
G1 X130.299 Y50.640 E0.69228
G1 X130.832 Y51.173 E0.02365
G1 X115.220 Y66.786 E0.69228
G1 X115.753 Y67.319 E0.02365
G1 X131.366 Y51.707 E0.69228
G1 X131.899 Y52.240 E0.02365
G1 X114.655 Y69.484 E0.76462
G1 X115.188 Y70.017 E0.02365
G1 X132.432 Y52.773 E0.76462
G1 X132.965 Y53.306 E0.02365
G1 X115.602 Y70.670 E0.76994
G1 E-0.80000 F2100.00000
G1 Z0.800 F10800.000
G1 X123.519 Y64.171
G1 Z0.200
G1 E0.80000 F2100.00000
G1 F1200.000
G1 X120.159 Y67.532 E0.12135
G1 X120.517 Y67.890 E0.01295
G1 X123.780 Y64.627 E0.11782
G1 X124.138 Y64.986 E0.01295
G1 X120.876 Y68.249 E0.11782
G1 X121.234 Y68.607 E0.01295
G1 X124.497 Y65.344 E0.11782
G1 X124.856 Y65.703 E0.01295
G1 X121.593 Y68.966 E0.11782
G1 X121.737 Y69.110 E0.00522
G1 X120.106 Y70.742 E0.05891
G1 X120.320 Y70.956 E0.00773
G1 X126.845 Y64.430 E0.23564
G1 X127.204 Y64.789 E0.01295
G1 X120.679 Y71.314 E0.23564
G1 X121.037 Y71.673 E0.01295
G1 X127.563 Y65.147 E0.23564
G1 X127.921 Y65.506 E0.01295
G1 X121.396 Y72.031 E0.23564
G1 X121.737 Y72.373 E0.01234
G1 X120.106 Y74.004 E0.05891
G1 X120.123 Y74.021 E0.00061
G1 X126.648 Y67.496 E0.23563
G1 X127.007 Y67.854 E0.01295
G1 X120.481 Y74.380 E0.23563
G1 X120.840 Y74.738 E0.01295
G1 X127.365 Y68.213 E0.23563
G1 X127.724 Y68.571 E0.01295
G1 X121.199 Y75.097 E0.23564
G1 X121.557 Y75.455 E0.01295
G1 X128.083 Y68.930 E0.23564
G1 X128.263 Y69.110 E0.00651
G1 X126.631 Y70.742 E0.05891
G1 X126.810 Y70.920 E0.00644
G1 X120.284 Y77.445 E0.23564
G1 X120.643 Y77.804 E0.01295
G1 X127.168 Y71.279 E0.23564
G1 X127.527 Y71.637 E0.01295
G1 X121.001 Y78.163 E0.23563
G1 X121.360 Y78.521 E0.01295
G1 X127.885 Y71.996 E0.23563
G1 X128.244 Y72.354 E0.01295
G1 X121.719 Y78.880 E0.23564
G1 X121.737 Y78.898 E0.00068
G1 X120.106 Y80.530 E0.05891
G1 X120.446 Y80.870 E0.01227
G1 X126.971 Y74.344 E0.23563
G1 X127.330 Y74.703 E0.01295
G1 X120.804 Y81.228 E0.23563
G1 X121.163 Y81.587 E0.01295
G1 X127.688 Y75.061 E0.23563
G1 X128.047 Y75.420 E0.01295
G1 X121.521 Y81.945 E0.23563
G1 X121.737 Y82.161 E0.00779
G1 X120.106 Y83.792 E0.05891
G1 X120.249 Y83.935 E0.00515
G1 X128.405 Y75.778 E0.29454
G1 X128.764 Y76.137 E0.01295
G1 X120.607 Y84.294 E0.29454
G1 X120.966 Y84.652 E0.01295
G1 X129.123 Y76.495 E0.29454
G1 X129.481 Y76.854 E0.01295
G1 X121.324 Y85.011 E0.29454
G1 X121.683 Y85.369 E0.01295
G1 X129.840 Y77.213 E0.29454
G1 X129.894 Y77.267 E0.00197
G1 X128.263 Y78.898 E0.05891
G1 X128.567 Y79.202 E0.01098
G1 X120.410 Y87.359 E0.29454
G1 X120.769 Y87.718 E0.01295
G1 X128.925 Y79.561 E0.29454
G1 X129.284 Y79.920 E0.01295
G1 X121.127 Y88.076 E0.29454
M73 P2 R54
G1 X121.486 Y88.435 E0.01295
G1 X129.643 Y80.278 E0.29454
G1 X129.894 Y80.530 E0.00908
G1 X128.263 Y82.161 E0.05891
G1 X128.370 Y82.268 E0.00386
G1 X120.213 Y90.425 E0.29454
G1 X120.572 Y90.783 E0.01295
G1 X128.728 Y82.627 E0.29454
G1 X129.087 Y82.985 E0.01295
G1 X120.930 Y91.142 E0.29454
G1 X121.289 Y91.501 E0.01295
G1 X129.445 Y83.344 E0.29454
G1 X129.804 Y83.702 E0.01295
G1 X121.647 Y91.859 E0.29454
G1 X121.737 Y91.949 E0.00325
G1 X120.106 Y93.581 E0.05891
G1 X120.374 Y93.849 E0.00970
G1 X128.531 Y85.692 E0.29454
G1 X128.890 Y86.051 E0.01295
G1 X120.635 Y94.305 E0.29807
G1 X120.142 Y93.860 F10800.000
G1 F1200.000
G1 X113.980 Y100.022 E0.27322
G1 X114.513 Y100.555 E0.02365
G1 X120.555 Y94.513 E0.26790
G1 X121.088 Y95.047 E0.02365
G1 X115.047 Y101.088 E0.26790
G1 X115.580 Y101.622 E0.02365
G1 X119.990 Y97.211 E0.19556
G1 X120.523 Y97.745 E0.02365
G1 X116.113 Y102.155 E0.19556
G1 X116.507 Y102.549 E0.01747
G1 X116.532 Y102.524 E0.00111
G1 X116.811 Y102.524 E0.00874
G1 X121.057 Y98.278 E0.18827
G1 X121.590 Y98.811 E0.02365
G1 X118.811 Y101.590 E0.12322
G1 X119.344 Y102.123 E0.02365
G1 X122.123 Y99.344 E0.12322
G1 X122.657 Y99.878 E0.02365
G1 X119.758 Y102.777 E0.12854
G1 X118.114 Y102.563 F10800.000
G1 F1200.000
G1 X118.707 Y101.970 E0.02142
G1 X119.066 Y102.329 E0.01295
G1 X118.341 Y103.054 E0.02618
G1 X118.341 Y103.281 E0.00580
G1 X118.832 Y103.279 E0.01255
G1 X119.425 Y102.687 E0.02138
G1 X119.783 Y103.046 E0.01295
G1 X119.423 Y103.406 E0.01301
G1 X119.667 Y103.933 F10800.000
G1 F1200.000
G1 X119.993 Y103.607 E0.01445
G1 X118.914 Y103.620 E0.03383
G1 X118.585 Y103.949 E0.01459
G1 E-0.80000 F2100.00000
G1 Z0.800 F10800.000
G1 X115.842 Y103.401
G1 Z0.200
G1 E0.80000 F2100.00000
G1 F1200.000
G1 X116.259 Y102.984 E0.01506
G1 X116.259 Y102.784 E0.00511
G1 X116.000 Y102.526 E0.00934
G1 X115.650 Y102.876 E0.01265
G1 X114.965 Y102.844 E0.01751
G1 X115.642 Y102.167 E0.02445
G1 X115.283 Y101.809 E0.01295
G1 X114.242 Y102.850 E0.03761
G1 X113.444 Y102.931 E0.02047
G1 X114.925 Y101.450 E0.05346
G1 X114.566 Y101.091 E0.01295
G1 X112.485 Y103.172 E0.07514
G1 X111.466 Y103.475 E0.02716
G1 X114.208 Y100.733 E0.09902
G1 X113.849 Y100.374 E0.01295
G1 X110.254 Y103.970 E0.12983
G1 X111.350 Y103.719 F10800.000
G1 F1200.000
G1 X110.761 Y104.308 E0.02610
G1 X111.201 Y104.748 E0.01954
G1 X111.387 Y104.748 E0.00581
G1 X112.657 Y103.478 E0.05631
G1 X113.309 Y103.288 E0.02130
G1 X113.981 Y103.220 E0.02120
G1 X112.284 Y104.918 E0.07528
G1 X113.431 Y104.837 F10800.000
G1 F1200.000
G1 X115.078 Y103.190 E0.07302
G1 X115.651 Y103.219 E0.01799
G1 X115.620 Y103.635 E0.01309
G1 X115.703 Y103.632 E0.00259
G1 X114.234 Y105.101 E0.06513
G1 X116.394 Y106.141 F10800.000
G1 F1200.000
G1 X116.053 Y106.481 E0.01511
G1 X116.950 Y107.718 F10800.000
G1 F1200.000
G1 X117.361 Y107.306 E0.01823
G1 X118.206 Y106.461 F10800.000
G1 F1200.000
G1 X118.438 Y106.230 E0.01025
G1 X119.488 Y106.245 E0.03295
G1 X119.175 Y106.559 E0.01390
G1 X120.205 Y106.926 F10800.000
G1 F1200.000
G1 X120.415 Y106.717 E0.00755
G1 E-0.80000 F2100.00000
G1 Z0.800 F10800.000
G1 X123.058 Y106.942
G1 Z0.200
G1 E0.80000 F2100.00000
G1 F1200.000
G1 X123.654 Y106.346 E0.02643
G1 E-0.80000 F2100.00000
G1 Z0.800 F10800.000
G1 X126.258 Y106.942
G1 Z0.200
G1 E0.80000 F2100.00000
G1 F1200.000
G1 X126.942 Y106.258 E0.03032
G1 E-0.80000 F2100.00000
G1 Z0.800 F10800.000
G1 X129.837 Y106.562
G1 Z0.200
G1 E0.80000 F2100.00000
G1 F1200.000
G1 X130.157 Y106.243 E0.01417
G1 X131.245 Y106.221 E0.03413
G1 X130.912 Y106.553 E0.01474
G1 X131.195 Y108.128 F10800.000
G1 F1200.000
G1 X131.788 Y107.535 E0.02142
G1 X131.659 Y107.406 E0.00466
G1 X131.659 Y106.946 E0.01172
G1 X130.934 Y107.671 E0.02618
G1 X130.575 Y107.313 E0.01295
G1 X131.168 Y106.721 E0.02138
G1 X130.437 Y106.735 E0.01867
G1 X130.119 Y107.052 E0.01146
G1 X130.242 Y107.223 F10800.000
G1 F1200.000
G1 X127.343 Y110.122 E0.12854
G1 X127.877 Y110.656 E0.02365
G1 X130.656 Y107.877 E0.12322
G1 X131.189 Y108.410 E0.02365
G1 X128.410 Y111.189 E0.12322
G1 X128.943 Y111.722 E0.02365
G1 X133.189 Y107.476 E0.18827
G1 X133.468 Y107.476 E0.00874
G1 X133.493 Y107.451 E0.00111
G1 X133.887 Y107.845 E0.01747
G1 X129.477 Y112.255 E0.19556
G1 X130.010 Y112.789 E0.02365
G1 X134.420 Y108.378 E0.19556
G1 X134.953 Y108.912 E0.02365
G1 X128.912 Y114.953 E0.26790
G1 X129.445 Y115.487 E0.02365
G1 X135.487 Y109.445 E0.26790
G1 X136.020 Y109.978 E0.02365
G1 X129.858 Y116.140 E0.27322
G1 E-0.80000 F2100.00000
G1 Z0.800 F10800.000
G1 X136.053 Y109.723
G1 Z0.200
G1 E0.80000 F2100.00000
G1 F1200.000
G1 X139.548 Y106.228 E0.12621
G1 X139.347 Y106.280 E0.00530
G1 X138.899 Y106.339 E0.01155
G1 X138.534 Y106.525 E0.01045
G1 X135.792 Y109.267 E0.09901
G1 X135.434 Y108.908 E0.01295
G1 X137.515 Y106.828 E0.07514
G1 X136.805 Y107.038 E0.01890
G1 X136.556 Y107.069 E0.00641
G1 X135.075 Y108.550 E0.05346
G1 X134.717 Y108.191 E0.01295
G1 X135.758 Y107.150 E0.03761
G1 X135.035 Y107.156 E0.01847
G1 X134.358 Y107.833 E0.02445
G1 X134.000 Y107.474 E0.01295
G1 X134.350 Y107.124 E0.01265
G1 X133.982 Y107.096 E0.00942
G1 X134.008 Y106.749 E0.00890
G1 X133.603 Y107.154 E0.01464
G1 X134.120 Y106.545 F10800.000
G1 F1200.000
G1 X135.597 Y105.069 E0.06546
G1 X136.399 Y105.070 E0.02515
G1 X136.399 Y105.333 E0.00827
G1 X134.757 Y106.975 E0.07280
G1 X137.716 Y105.082 F10800.000
G1 F1200.000
G1 X136.019 Y106.780 E0.07528
G1 X136.691 Y106.712 E0.02120
G1 X137.343 Y106.522 E0.02130
G1 X138.613 Y105.252 E0.05631
G1 X138.799 Y105.252 E0.00581
G1 X139.239 Y105.692 E0.01954
G1 X138.650 Y106.281 E0.02610
G1 E-0.80000 F2100.00000
G1 Z0.800 F10800.000
G1 X120.654 Y123.688
G1 Z0.200
G1 E0.80000 F2100.00000
G1 F1200.000
G1 X124.386 Y119.956 E0.13477
G1 X123.902 Y120.022 E0.01247
G1 X123.838 Y119.788 E0.00620
G1 X120.393 Y123.232 E0.12438
G1 X120.106 Y122.945 E0.01037
G1 X121.737 Y121.313 E0.05891
G1 X121.666 Y121.242 E0.00258
G1 X123.701 Y119.207 E0.07350
G1 X123.661 Y118.899 E0.00793
G1 X123.528 Y118.663 E0.00691
G1 X121.307 Y120.884 E0.08019
G1 X120.949 Y120.525 E0.01295
G1 X123.352 Y118.121 E0.08679
G1 X123.188 Y117.568 E0.01473
G1 X120.590 Y120.166 E0.09382
G1 X120.232 Y119.808 E0.01295
G1 X123.024 Y117.015 E0.10084
G1 X122.949 Y116.742 E0.00725
G1 X122.916 Y116.407 E0.00859
G1 X121.505 Y117.818 E0.05095
G1 X121.146 Y117.459 E0.01295
G1 X122.850 Y115.755 E0.06153
G1 X122.844 Y115.044 E0.01816
G1 X120.787 Y117.101 E0.07426
G1 X120.429 Y116.742 E0.01295
G1 X122.881 Y114.291 E0.08853
G1 X122.904 Y113.982 E0.00790
G1 X123.169 Y114.002 E0.00679
G1 X123.412 Y113.759 E0.00877
G1 X123.450 Y114.015 F10800.000
G1 F1200.000
G1 X123.690 Y113.776 E0.01061
G1 X123.851 Y113.776 E0.00505
G1 X123.909 Y113.956 E0.00595
G1 X124.120 Y114.412 E0.01575
G1 X123.180 Y115.352 E0.04168
G1 X123.187 Y115.688 E0.01053
G1 X123.253 Y116.346 E0.02071
G1 X124.712 Y114.886 E0.06471
G1 X124.932 Y114.935 E0.00704
G1 X124.931 Y115.734 E0.02506
G1 X123.443 Y117.223 E0.06600
G1 X123.687 Y118.045 E0.02690
G1 X124.589 Y117.143 E0.03999
G1 X124.748 Y117.303 E0.00708
G1 X124.748 Y118.050 E0.02343
G1 X123.843 Y118.956 E0.04016
G1 E-0.80000 F2100.00000
G1 Z0.800 F10800.000
G1 X125.136 Y114.904
G1 Z0.200
G1 E0.80000 F2100.00000
G1 F1200.000
G1 X125.854 Y114.185 E0.02596
G1 X125.696 Y114.176 E0.00404
G1 X125.697 Y113.741 E0.01110
G1 X125.582 Y113.741 E0.00295
G1 X125.427 Y113.895 E0.00557
G1 X127.306 Y113.359 F10800.000
G1 F1200.000
G1 X127.718 Y112.948 E0.01823
G1 E-0.80000 F2100.00000
G1 Z0.800 F10800.000
G1 X126.062 Y111.403
G1 Z0.200
G1 E0.80000 F2100.00000
G1 F1200.000
G1 X126.387 Y111.079 E0.01439
G1 X126.393 Y110.007 E0.03362
G1 X126.079 Y110.321 E0.01392
G1 X126.595 Y110.576 F10800.000
G1 F1200.000
G1 X126.954 Y110.217 E0.01296
G1 X127.313 Y110.575 E0.01295
G1 X126.728 Y111.160 E0.02111
G1 X126.724 Y111.659 E0.01274
G1 X126.946 Y111.659 E0.00569
G1 X127.671 Y110.934 E0.02618
G1 X128.030 Y111.293 E0.01295
G1 X127.535 Y111.788 E0.01789
G1 X127.693 Y111.947 E0.00573
G1 X127.693 Y112.095 E0.00379
G1 X127.890 Y111.898 E0.00711
G1 X127.890 Y112.150 E0.00642
G1 X128.389 Y111.651 E0.01800
G1 X128.747 Y112.010 E0.01295
G1 X127.890 Y112.867 E0.03095
G1 X127.890 Y113.453 E0.01498
G1 X127.602 Y113.741 E0.01039
G1 X127.016 Y113.741 E0.01498
G1 X125.273 Y115.483 E0.06292
G1 X125.273 Y116.201 E0.01833
G1 X129.106 Y112.368 E0.13841
G1 X129.464 Y112.727 E0.01295
G1 X125.273 Y116.918 E0.15136
G1 X125.273 Y117.243 E0.00828
G1 X125.090 Y117.316 E0.00502
G1 X125.090 Y117.818 E0.01280
G1 X129.823 Y113.085 E0.17089
G1 X129.894 Y113.157 E0.00258
G1 X128.263 Y114.788 E0.05891
G1 X128.550 Y115.075 E0.01037
G1 X125.090 Y118.535 E0.12493
G1 X125.090 Y119.252 E0.01831
G1 X128.909 Y115.434 E0.13788
G1 X129.267 Y115.792 E0.01295
G1 X121.110 Y123.949 E0.29454
G1 X121.469 Y124.308 E0.01295
G1 X129.626 Y116.151 E0.29454
G1 X129.894 Y116.419 E0.00969
G1 X128.263 Y118.051 E0.05891
G1 X128.353 Y118.141 E0.00325
G1 X120.196 Y126.298 E0.29454
G1 X120.555 Y126.656 E0.01295
G1 X128.711 Y118.499 E0.29454
G1 X129.070 Y118.858 E0.01295
G1 X120.913 Y127.015 E0.29454
G1 X121.272 Y127.373 E0.01295
G1 X129.429 Y119.217 E0.29454
G1 X129.787 Y119.575 E0.01295
G1 X121.630 Y127.732 E0.29454
G1 X121.737 Y127.839 E0.00386
G1 X120.106 Y129.470 E0.05891
G1 X120.357 Y129.722 E0.00908
G1 X128.514 Y121.565 E0.29454
G1 X128.873 Y121.924 E0.01295
G1 X120.716 Y130.080 E0.29454
G1 X121.075 Y130.439 E0.01295
G1 X129.231 Y122.282 E0.29454
G1 X129.590 Y122.641 E0.01295
G1 X121.433 Y130.797 E0.29454
G1 X121.737 Y131.102 E0.01098
G1 X120.106 Y132.733 E0.05891
G1 X120.160 Y132.787 E0.00197
G1 X128.317 Y124.631 E0.29454
G1 X128.676 Y124.989 E0.01295
G1 X120.519 Y133.146 E0.29454
G1 X120.877 Y133.505 E0.01295
G1 X129.034 Y125.348 E0.29454
G1 X129.393 Y125.706 E0.01295
G1 X121.236 Y133.863 E0.29454
G1 X121.595 Y134.222 E0.01295
G1 X129.751 Y126.065 E0.29454
G1 X129.894 Y126.208 E0.00515
G1 X128.263 Y127.839 E0.05891
G1 X128.479 Y128.055 E0.00779
G1 X121.953 Y134.580 E0.23563
G1 X122.312 Y134.939 E0.01295
G1 X128.837 Y128.413 E0.23563
G1 X129.196 Y128.772 E0.01295
G1 X122.670 Y135.297 E0.23564
G1 X123.029 Y135.656 E0.01295
G1 X129.554 Y129.130 E0.23564
G1 X129.894 Y129.470 E0.01227
G1 X128.263 Y131.102 E0.05891
G1 X128.281 Y131.120 E0.00068
