; generated by PrusaSlicer 2.1.0+ on 2019-10-17 at 19:33:00 UTC

; 

; external perimeters extrusion width = 0.45mm
; perimeters extrusion width = 0.45mm
; infill extrusion width = 0.45mm
; solid infill extrusion width = 0.45mm
; top infill extrusion width = 0.40mm
; support material extrusion width = 0.35mm
; first layer extrusion width = 0.42mm

M73 P0 R30
M201 X9000 Y9000 Z500 E10000 ; sets maximum accelerations, mm/sec^2
M203 X500 Y500 Z12 E120 ; sets maximum feedrates, mm/sec
M204 P2000 R1500 T2000 ; sets acceleration (P, T) and retract acceleration (R), mm/sec^2
M205 X10.00 Y10.00 Z0.20 E2.50 ; sets the jerk limits, mm/sec
M205 S0 T0 ; sets the minimum extruding and travel feed rate, mm/sec
M107
M862.3 P "MK2.5SMMU2S" ; printer model check
M862.1 P0.4 ; nozzle diameter check
M115 U3.8.0 ; tell printer latest fw version
G90 ; use absolute coordinates
M83 ; extruder relative mode
M104 S230 ; set extruder temp
M140 S60 ; set bed temp
Tx
M190 S60 ; wait for bed temp
M109 S230 ; wait for extruder temp
G28 W ; home all without mesh bed level
G80 ; mesh bed leveling

G21 ; set units to millimeters

;go outside print area
G1 Y-3.0 F1000.0
G1 Z0.4 F1000.0
; select extruder
Tc
; purge line
G1 X55.0 F2000.0
G1 Z0.3 F1000.0
G92 E0.0
G1 X240.0 E25.0 F2200.0
M73 P0 R30
G1 Y-2.0 F1000.0
G1 X55.0 E25 F1400.0
G1 Z0.20 F1000.0
G1 X5.0 E4.0 F1000.0
G92 E0.0
G21 ; set units to millimeters
G90 ; use absolute coordinates
M83 ; use relative distances for extrusion
M900 K30 ; Filament gcode
;BEFORE_LAYER_CHANGE
G92 E0.0
;0.2


G1 E-0.80000 F2100.00000
G1 Z0.600 F10800.000
;AFTER_LAYER_CHANGE
;0.2
G1 X111.629 Y100.192
G1 Z0.200
G1 E0.80000 F2100.00000
M204 S1000
G1 F1200
G1 X112.130 Y99.711 E0.02177
G1 X119.093 Y95.106 E0.26175
G1 X119.711 Y94.835 E0.02116
G1 X120.378 Y94.734 E0.02116
G1 X139.279 Y94.733 E0.59262
G1 X140.218 Y94.911 E0.02997
G1 X141.024 Y95.418 E0.02985
G1 X141.591 Y96.188 E0.02997
G1 X141.837 Y97.108 E0.02985
G1 X141.836 Y110.525 E0.42070
G1 X141.716 Y111.121 E0.01906
G1 X141.461 Y111.669 E0.01894
G1 X141.085 Y112.142 E0.01894
G1 X140.609 Y112.514 E0.01894
G1 X139.991 Y112.785 E0.02116
G1 X139.324 Y112.885 E0.02116
G1 X120.294 Y112.882 E0.59666
G1 X113.975 Y112.238 E0.19917
G1 X113.488 Y112.074 E0.01610
G1 X113.044 Y111.817 E0.01610
G1 X112.659 Y111.476 E0.01610
G1 X112.350 Y111.066 E0.01610
G1 X112.128 Y110.599 E0.01623
G1 X112.004 Y110.092 E0.01635
G1 X111.086 Y102.055 E0.25364
G1 X111.100 Y101.412 E0.02017
G1 X111.274 Y100.789 E0.02029
G1 X111.598 Y100.243 E0.01989
G1 F8640
G1 X112.130 Y99.711 E-0.17371
G1 X114.248 Y98.311 E-0.58629
G1 E-0.04000 F2100.00000
G1 Z0.800 F10800.000
G1 X113.264 Y111.511
G1 Z0.200
G1 E0.80000 F2100.00000
G1 F1200
G1 X112.660 Y110.849 E0.02810
G1 X112.376 Y110.029 E0.02721
G1 X111.461 Y102.014 E0.25293
G1 X111.474 Y101.456 E0.01749
G1 X111.628 Y100.920 E0.01749
G1 X111.933 Y100.415 E0.01851
G1 X112.362 Y100.009 E0.01851
G1 X119.311 Y95.415 E0.26119
G1 X119.833 Y95.192 E0.01783
G1 X120.392 Y95.111 E0.01771
G1 X139.279 Y95.110 E0.59217
G1 X140.085 Y95.264 E0.02574
G1 X140.776 Y95.702 E0.02563
G1 X141.257 Y96.363 E0.02563
G1 X141.463 Y97.158 E0.02574
G1 X141.462 Y110.473 E0.41749
G1 X141.362 Y110.992 E0.01658
G1 X141.140 Y111.472 E0.01658
G1 X140.809 Y111.885 E0.01658
G1 X140.392 Y112.204 E0.01646
G1 X139.873 Y112.426 E0.01771
G1 X139.310 Y112.508 E0.01783
G1 X120.319 Y112.506 E0.59546
G1 X114.083 Y111.875 E0.19652
G1 X113.319 Y111.535 E0.02622
G1 F8640
G1 X112.660 Y110.849 E-0.21973
G1 X112.376 Y110.029 E-0.20036
G1 X112.209 Y108.566 E-0.33991
G1 E-0.04000 F2100.00000
G1 Z0.800 F10800.000
G1 X118.917 Y108.013
G1 Z0.200
G1 E0.80000 F2100.00000
G1 F1200
G1 X118.917 Y106.966 E0.03281
G1 F8640
G1 X118.917 Y108.013 E-0.24160
G1 E-0.55840 F2100.00000
G1 Z0.800 F10800.000
G1 X120.425 Y110.320
G1 Z0.200
G1 E0.80000 F2100.00000
G1 F1200
G1 X120.425 Y109.481 E0.02629
G1 X121.179 Y109.395 E0.02380
G1 X121.179 Y110.150 E0.02367
G1 X121.933 Y110.150 E0.02365
G1 X121.933 Y97.299 E0.40294
G1 X122.687 Y97.299 E0.02365
G1 X122.687 Y110.150 E0.40294
G1 X123.442 Y110.150 E0.02365
G1 X123.442 Y97.299 E0.40294
G1 X124.196 Y97.299 E0.02365
G1 X124.196 Y110.150 E0.40294
G1 X124.950 Y110.150 E0.02365
G1 X124.950 Y97.299 E0.40294
G1 X125.704 Y97.299 E0.02365
G1 X125.704 Y110.150 E0.40294
G1 X126.458 Y110.150 E0.02365
G1 X126.458 Y97.299 E0.40294
G1 X127.212 Y97.299 E0.02365
G1 X127.212 Y110.150 E0.40294
G1 X127.966 Y110.150 E0.02365
G1 X127.966 Y97.299 E0.40294
G1 X128.721 Y97.299 E0.02365
G1 X128.721 Y110.150 E0.40294
G1 X129.475 Y110.150 E0.02365
G1 X129.475 Y97.299 E0.40294
G1 X130.229 Y97.299 E0.02365
G1 X130.229 Y110.150 E0.40294
G1 X130.983 Y110.150 E0.02365
G1 X130.983 Y97.299 E0.40294
G1 X131.737 Y97.299 E0.02365
G1 X131.737 Y110.150 E0.40294
G1 X132.491 Y110.150 E0.02365
G1 X132.491 Y97.299 E0.40294
G1 X133.246 Y97.299 E0.02365
G1 X133.246 Y110.150 E0.40294
G1 X134.000 Y110.150 E0.02365
G1 X134.000 Y97.299 E0.40294
G1 X134.754 Y97.299 E0.02365
G1 X134.754 Y110.150 E0.40294
G1 X135.508 Y110.150 E0.02365
G1 X135.508 Y97.299 E0.40294
G1 X136.262 Y97.299 E0.02365
G1 X136.262 Y110.150 E0.40294
G1 X137.016 Y110.150 E0.02365
G1 X137.016 Y97.299 E0.40294
G1 X137.771 Y97.299 E0.02365
G1 X137.771 Y110.150 E0.40294
G1 X138.525 Y110.150 E0.02365
G1 X138.525 Y97.299 E0.40294
G1 X139.279 Y97.299 E0.02365
G1 X139.279 Y110.320 E0.40826
G1 X121.179 Y103.985 F10800.000
G1 F1200
G1 X121.179 Y97.299 E0.20963
G1 X120.425 Y97.299 E0.02365
G1 X120.425 Y100.597 E0.10340
G1 X119.671 Y100.683 E0.02380
G1 X119.671 Y99.606 E0.03376
G1 X118.917 Y99.606 E0.02365
G1 X118.917 Y100.769 E0.03646
G1 X118.388 Y100.829 E0.01668
G1 X118.175 Y101.097 E0.01074
G1 X118.431 Y103.341 E0.07079
G1 X118.259 Y103.360 E0.00542
G1 X118.162 Y102.512 E0.02677
G1 X118.162 Y99.436 E0.09644
G1 F8640
G1 X118.162 Y102.512 E-0.71019
G1 X118.187 Y102.726 E-0.04981
G1 E-0.04000 F2100.00000
G1 Z0.800 F10800.000
G1 X119.255 Y101.737
G1 Z0.200
G1 E0.80000 F2100.00000
G1 F1200
G1 X120.076 Y101.644 E0.02589
G1 X120.850 Y108.426 E0.21402
G1 X120.029 Y108.519 E0.02589
G1 X119.746 Y106.035 E0.07839
G1 X115.598 Y106.509 E0.13088
G1 X115.882 Y108.993 E0.07839
G1 X115.061 Y109.086 E0.02589
G1 X114.287 Y102.304 E0.21402
G1 X115.108 Y102.211 E0.02589
G1 X115.391 Y104.695 E0.07839
G1 X119.539 Y104.221 E0.13088
G1 X119.262 Y101.797 E0.07650
G1 F8640
G1 X120.076 Y101.644 E-0.19119
G1 X120.355 Y104.091 E-0.56881
G1 E-0.04000 F2100.00000
G1 Z0.800 F10800.000
G1 X119.414 Y106.453
G1 Z0.200
G1 E0.80000 F2100.00000
G1 F1200
G1 X116.016 Y106.841 E0.10723
G1 X116.299 Y109.324 E0.07839
G1 X114.729 Y109.504 E0.04954
G1 X113.870 Y101.972 E0.23767
G1 X115.440 Y101.793 E0.04954
G1 X115.723 Y104.277 E0.07839
G1 X119.121 Y103.889 E0.10723
G1 X118.838 Y101.406 E0.07839
G1 X120.407 Y101.226 E0.04954
G1 X121.267 Y108.758 E0.23767
G1 X119.697 Y108.937 E0.04954
G1 X119.420 Y106.512 E0.07650
G1 X119.295 Y106.071 F10800.000
G1 F8640
G1 X116.144 Y106.828 E-0.76000
G1 E-0.04000 F2100.00000
G1 Z0.800 F10800.000
G1 X120.033 Y107.555
G1 Z0.200
G1 E0.80000 F2100.00000
G1 F1200
G1 X120.521 Y108.043 E0.02231
G1 X120.451 Y107.423 E0.02015
G1 X120.155 Y107.128 E0.01350
G1 X120.084 Y106.508 E0.02015
G1 X120.573 Y106.996 E0.02231
G1 F8640
G1 X120.084 Y106.508 E-0.15951
G1 X120.155 Y107.128 E-0.14407
G1 X120.451 Y107.423 E-0.09656
G1 X120.521 Y108.043 E-0.14407
G1 X120.033 Y107.555 E-0.15951
G1 E-0.09627 F2100.00000
G1 Z0.800 F10800.000
G1 X120.077 Y102.657
G1 Z0.200
G1 E0.80000 F2100.00000
G1 F1200
G1 X119.589 Y102.168 E0.02231
G1 X119.660 Y102.788 E0.02015
G1 X119.955 Y103.084 E0.01350
G1 X120.026 Y103.704 E0.02015
G1 X119.730 Y103.408 E0.01350
G1 X119.801 Y104.028 E0.02015
G1 X120.097 Y104.324 E0.01350
G1 X120.168 Y104.944 E0.02015
G1 X119.710 Y104.486 E0.02088
G1 X119.217 Y104.543 E0.01602
G1 X120.238 Y105.564 E0.04662
G1 X120.309 Y106.184 E0.02015
G1 X118.724 Y104.599 E0.07236
G1 X118.231 Y104.655 E0.01602
G1 X119.370 Y105.794 E0.05199
G1 X118.877 Y105.850 E0.01602
G1 X117.738 Y104.711 E0.05199
G1 X117.246 Y104.768 E0.01602
G1 X118.384 Y105.906 E0.05199
G1 X117.891 Y105.962 E0.01602
G1 X116.753 Y104.824 E0.05199
G1 X116.260 Y104.880 E0.01602
G1 X117.398 Y106.019 E0.05199
G1 X116.905 Y106.075 E0.01602
G1 X115.613 Y104.783 E0.05899
G1 F8640
G1 X116.905 Y106.075 E-0.42184
G1 X117.398 Y106.019 E-0.11456
G1 X116.713 Y105.334 E-0.22360
G1 E-0.04000 F2100.00000
G1 Z0.800 F10800.000
G1 X115.104 Y103.175
G1 Z0.200
G1 E0.80000 F2100.00000
G1 F1200
G1 X114.616 Y102.687 E0.02231
G1 X114.686 Y103.307 E0.02015
G1 X114.982 Y103.602 E0.01350
G1 X115.053 Y104.222 E0.02015
G1 X114.757 Y103.927 E0.01350
G1 X114.828 Y104.547 E0.02015
G1 X116.412 Y106.131 E0.07236
G1 X115.919 Y106.187 E0.01602
G1 X114.899 Y105.167 E0.04662
G1 X114.969 Y105.787 E0.02015
G1 X115.426 Y106.244 E0.02088
G1 X115.285 Y106.260 E0.00459
G1 X115.336 Y106.702 E0.01438
G1 X115.040 Y106.406 E0.01350
G1 X115.111 Y107.026 E0.02015
G1 X115.407 Y107.322 E0.01350
G1 X115.477 Y107.942 E0.02015
G1 X115.182 Y107.646 E0.01350
G1 X115.252 Y108.266 E0.02015
G1 X115.741 Y108.755 E0.02231
M106 S255
;BEFORE_LAYER_CHANGE
G92 E0.0
;0.4


G1 F8640
G1 X115.252 Y108.266 E-0.15952
G1 X115.182 Y107.646 E-0.14407
G1 X115.477 Y107.942 E-0.09656
G1 X115.407 Y107.322 E-0.14407
G1 X115.111 Y107.026 E-0.09656
G1 X115.052 Y106.513 E-0.11922
G1 E-0.04000 F2100.00000
G1 Z0.800 F10800.000
;AFTER_LAYER_CHANGE
;0.4
G1 X141.591 Y96.188
G1 Z0.400
G1 E0.80000 F2100.00000
G1 F900
G1 X141.837 Y97.108 E0.02985
G1 X141.836 Y110.525 E0.42070
G1 X141.716 Y111.121 E0.01906
G1 X141.461 Y111.669 E0.01894
G1 X141.085 Y112.142 E0.01894
G1 X140.609 Y112.514 E0.01894
G1 X139.991 Y112.785 E0.02116
G1 X139.324 Y112.885 E0.02116
G1 X120.294 Y112.882 E0.59666
G1 X113.975 Y112.238 E0.19917
G1 X113.488 Y112.074 E0.01610
G1 X113.044 Y111.817 E0.01610
G1 X112.659 Y111.476 E0.01610
G1 X112.350 Y111.066 E0.01610
G1 X112.128 Y110.599 E0.01623
G1 X112.004 Y110.092 E0.01635
G1 X111.086 Y102.055 E0.25364
G1 X111.100 Y101.412 E0.02017
G1 X111.274 Y100.789 E0.02029
G1 X111.629 Y100.192 E0.02177
G1 X112.130 Y99.711 E0.02177
G1 X119.093 Y95.106 E0.26175
G1 X119.711 Y94.835 E0.02116
G1 X120.378 Y94.734 E0.02116
G1 X139.279 Y94.733 E0.59262
G1 X140.218 Y94.911 E0.02997
G1 X141.024 Y95.418 E0.02985
G1 X141.556 Y96.140 E0.02809
G1 F8640
G1 X141.837 Y97.108 E-0.23279
G1 X141.837 Y99.391 E-0.52721
G1 E-0.04000 F2100.00000
G1 Z1.000 F10800.000
G1 X120.036 Y101.694
G1 Z0.400
G1 E0.80000 F2100.00000
M204 S800
G1 F900
G1 X120.800 Y108.386 E0.22800
G1 X120.069 Y108.469 E0.02491
G1 X119.785 Y105.986 E0.08462
G1 X115.548 Y106.469 E0.14434
G1 X115.832 Y108.953 E0.08462
G1 X115.101 Y109.036 E0.02491
G1 X114.337 Y102.344 E0.22800
G1 X115.068 Y102.261 E0.02491
G1 X115.352 Y104.744 E0.08462
G1 X118.513 Y104.384 E0.10771
G1 X119.588 Y104.261 E0.03663
G1 X119.305 Y101.777 E0.08462
G1 X119.976 Y101.700 E0.02288
M204 S1000
G1 F8640
G1 X120.379 Y104.967 E-0.76000
G1 E-0.04000 F2100.00000
G1 Z1.000 F10800.000
G1 X119.427 Y106.436
G1 Z0.400
G1 E0.80000 F2100.00000
M204 S800
G1 F900
G1 X115.999 Y106.827 E0.11678
G1 X116.283 Y109.311 E0.08462
G1 X114.743 Y109.487 E0.05247
G1 X113.887 Y101.986 E0.25556
G1 X115.427 Y101.810 E0.05247
G1 X115.710 Y104.294 E0.08462
G1 X119.138 Y103.903 E0.11678
M73 P3 R29
G1 X118.854 Y101.419 E0.08462
G1 X120.394 Y101.243 E0.05247
G1 X121.250 Y108.744 E0.25556
G1 X119.710 Y108.920 E0.05247
G1 X119.434 Y106.496 E0.08259
M204 S1000
G1 X119.309 Y106.054 F10800.000
G1 X119.137 Y105.937
M204 S2000
G1 F900
G1 X120.103 Y104.971 E0.04911
G1 X120.074 Y104.718 E0.00916
G1 X119.702 Y104.760 E0.01345
G1 X118.655 Y105.807 E0.05325
G1 X117.965 Y105.886 E0.02498
G1 X119.243 Y104.608 E0.06500
G1 X118.553 Y104.686 E0.02498
G1 X117.274 Y105.965 E0.06500
G1 X116.584 Y106.044 E0.02498
G1 X117.862 Y104.765 E0.06500
G1 X117.172 Y104.844 E0.02498
G1 X115.894 Y106.122 E0.06500
G1 X115.636 Y106.152 E0.00931
G1 X115.613 Y105.950 E0.00732
G1 X115.435 Y105.970 E0.00646
G1 X116.482 Y104.923 E0.05325
G1 X115.792 Y105.002 E0.02498
G1 X114.869 Y105.924 E0.04693
M204 S1000
G1 X115.160 Y106.309 F10800.000
G1 F900
G1 X115.443 Y108.792 E0.06834
G1 F8640
G1 X115.160 Y106.309 E-0.57725
G1 E-0.22275 F2100.00000
G1 Z1.000 F10800.000
G1 X115.009 Y104.988
G1 Z0.400
G1 E0.80000 F2100.00000
G1 F900
G1 X114.726 Y102.505 E0.06834
G1 F8640
G1 X115.009 Y104.988 E-0.57725
G1 E-0.22275 F2100.00000
G1 Z1.000 F10800.000
G1 X119.694 Y101.938
G1 Z0.400
G1 E0.80000 F2100.00000
G1 F900
G1 X119.977 Y104.421 E0.06834
G1 F8640
G1 X119.694 Y101.938 E-0.57725
G1 E-0.22275 F2100.00000
G1 Z1.000 F10800.000
G1 X120.128 Y105.742
G1 Z0.400
G1 E0.80000 F2100.00000
G1 F900
G1 X120.411 Y108.226 E0.06834
;BEFORE_LAYER_CHANGE
G92 E0.0
;0.446255


G1 F8640
G1 X120.128 Y105.742 E-0.57725
G1 E-0.22275 F2100.00000
G1 Z1.000 F10800.000
;AFTER_LAYER_CHANGE
;0.446255
G1 X136.846 Y107.185
G1 Z0.446
G1 E0.80000 F2100.00000
G1 F900
G1 X122.866 Y107.185 E0.42533
G1 X122.866 Y104.878 E0.07019
G1 X121.417 Y104.878 E0.04409
G1 X136.708 Y104.878 E0.46522
G1 X136.708 Y102.571 E0.07019
G1 X121.153 Y102.571 E0.47323
G1 X122.866 Y102.571 E0.05210
G1 X122.866 Y100.264 E0.07019
G1 X136.846 Y100.264 E0.42533
;BEFORE_LAYER_CHANGE
G92 E0.0
;0.6


G1 F8640
G1 X133.555 Y100.264 E-0.76000
G1 E-0.04000 F2100.00000
G1 Z1.046 F10800.000
;AFTER_LAYER_CHANGE
;0.6
G1 X140.218 Y94.911
G1 Z0.600
G1 E0.80000 F2100.00000
G1 F900
G1 X141.024 Y95.418 E0.02985
G1 X141.591 Y96.188 E0.02997
G1 X141.837 Y97.108 E0.02985
G1 X141.836 Y110.525 E0.42070
G1 X141.716 Y111.121 E0.01906
G1 X141.461 Y111.669 E0.01894
G1 X141.085 Y112.142 E0.01894
G1 X140.609 Y112.514 E0.01894
G1 X139.991 Y112.785 E0.02116
G1 X139.324 Y112.885 E0.02116
G1 X120.294 Y112.882 E0.59666
G1 X113.975 Y112.238 E0.19917
G1 X113.488 Y112.074 E0.01610
G1 X113.044 Y111.817 E0.01610
G1 X112.659 Y111.476 E0.01610
G1 X112.350 Y111.066 E0.01610
G1 X112.128 Y110.599 E0.01623
G1 X112.004 Y110.092 E0.01635
G1 X111.086 Y102.055 E0.25364
G1 X111.100 Y101.412 E0.02017
G1 X111.274 Y100.789 E0.02029
G1 X111.629 Y100.192 E0.02177
G1 X112.130 Y99.711 E0.02177
G1 X119.093 Y95.106 E0.26175
G1 X119.711 Y94.835 E0.02116
G1 X120.378 Y94.734 E0.02116
G1 X139.279 Y94.733 E0.59262
G1 X140.159 Y94.900 E0.02809
G1 F8640
G1 X141.024 Y95.418 E-0.23279
G1 X141.591 Y96.188 E-0.22074
G1 X141.837 Y97.108 E-0.21984
G1 X141.837 Y97.483 E-0.08663
G1 E-0.04000 F2100.00000
G1 Z1.200 F10800.000
G1 X120.036 Y101.694
G1 Z0.600
G1 E0.80000 F2100.00000
M204 S800
G1 F900
G1 X120.800 Y108.386 E0.22800
G1 X120.069 Y108.469 E0.02491
G1 X119.785 Y105.986 E0.08462
G1 X115.548 Y106.469 E0.14434
G1 X115.832 Y108.953 E0.08462
G1 X115.101 Y109.036 E0.02491
G1 X114.337 Y102.344 E0.22800
G1 X115.068 Y102.261 E0.02491
G1 X115.352 Y104.744 E0.08462
G1 X119.588 Y104.261 E0.14434
G1 X119.305 Y101.777 E0.08462
G1 X119.976 Y101.700 E0.02288
M204 S1000
G1 F8640
G1 X120.379 Y104.967 E-0.76000
G1 E-0.04000 F2100.00000
G1 Z1.200 F10800.000
G1 X119.427 Y106.436
G1 Z0.600
G1 E0.80000 F2100.00000
M204 S800
G1 F900
G1 X115.999 Y106.827 E0.11678
G1 X116.283 Y109.311 E0.08462
G1 X114.743 Y109.487 E0.05247
G1 X113.887 Y101.986 E0.25556
G1 X115.427 Y101.810 E0.05247
G1 X115.710 Y104.294 E0.08462
G1 X119.138 Y103.903 E0.11678
G1 X118.854 Y101.419 E0.08462
G1 X120.394 Y101.243 E0.05247
G1 X121.250 Y108.744 E0.25556
G1 X119.710 Y108.920 E0.05247
G1 X119.434 Y106.496 E0.08259
M204 S1000
G1 X119.309 Y106.054 F10800.000
G1 F8640
G1 X116.157 Y106.812 E-0.76000
G1 E-0.04000 F2100.00000
G1 Z1.200 F10800.000
G1 X120.128 Y105.742
G1 Z0.600
G1 E0.80000 F2100.00000
G1 F900
G1 X120.411 Y108.226 E0.06834
G1 F8640
G1 X120.128 Y105.742 E-0.57725
G1 E-0.22275 F2100.00000
G1 Z1.200 F10800.000
G1 X120.344 Y105.473
G1 Z0.600
G1 E0.80000 F2100.00000
M204 S2000
G1 F900
G1 X119.455 Y104.583 E0.04386
G1 X118.923 Y104.644 E0.01867
G1 X119.755 Y105.477 E0.04105
G1 X119.605 Y105.494 E0.00527
G1 X119.628 Y105.696 E0.00709
G1 X119.407 Y105.721 E0.00776
G1 X118.390 Y104.705 E0.05011
G1 X117.858 Y104.766 E0.01867
G1 X118.875 Y105.782 E0.05011
G1 X118.343 Y105.843 E0.01867
G1 X117.326 Y104.826 E0.05011
G1 X116.794 Y104.887 E0.01867
