; generated by PrusaSlicer 2.1.1+win64 on 2019-12-16 at 23:26:32 UTC

; 

; external perimeters extrusion width = 0.45mm
; perimeters extrusion width = 0.45mm
; infill extrusion width = 0.45mm
; solid infill extrusion width = 0.45mm
; top infill extrusion width = 0.40mm
; first layer extrusion width = 0.42mm

M73 P0 R21
M201 X9000 Y9000 Z500 E10000 ; sets maximum accelerations, mm/sec^2
M203 X500 Y500 Z12 E120 ; sets maximum feedrates, mm/sec
M204 P2000 R1500 T2000 ; sets acceleration (P, T) and retract acceleration (R), mm/sec^2
M205 X10.00 Y10.00 Z0.20 E2.50 ; sets the jerk limits, mm/sec
M205 S0 T0 ; sets the minimum extruding and travel feed rate, mm/sec
M107
M862.3 P "MK2.5SMMU2S" ; printer model check
M862.1 P0.4 ; nozzle diameter check
M115 U3.8.0 ; tell printer latest fw version
G90 ; use absolute coordinates
M83 ; extruder relative mode
M104 S215 ; set extruder temp
M140 S60 ; set bed temp
Tx
M190 S60 ; wait for bed temp
M109 S215 ; wait for extruder temp
G28 W ; home all without mesh bed level
G80 ; mesh bed leveling

G21 ; set units to millimeters

;go outside print area
G1 Y-3.0 F1000.0
G1 Z0.4 F1000.0
; select extruder
Tc
; purge line
G1 X55.0 F2000.0
G1 Z0.3 F1000.0
G92 E0.0
G1 X240.0 E25.0 F2200.0
M73 P0 R21
G1 Y-2.0 F1000.0
G1 X55.0 E25 F1400.0
G1 Z0.20 F1000.0
G1 X5.0 E4.0 F1000.0
G92 E0.0
G21 ; set units to millimeters
G90 ; use absolute coordinates
M83 ; use relative distances for extrusion
M900 K30 ; Filament gcode
;BEFORE_LAYER_CHANGE
G92 E0.0
;0.2


G1 E-0.80000 F2100.00000
G1 Z0.600 F10800.000
;AFTER_LAYER_CHANGE
;0.2
G1 X111.950 Y114.955
G1 Z0.200
G1 E0.80000 F2100.00000
M204 S1000
G1 F1200
G1 X111.181 Y114.367 E0.03034
G1 X110.722 Y113.633 E0.02717
G1 X110.533 Y112.791 E0.02704
G1 X110.552 Y102.143 E0.33388
G1 X110.718 Y101.073 E0.03396
G1 X111.163 Y99.809 E0.04202
G1 X111.574 Y99.033 E0.02753
G1 X112.133 Y98.275 E0.02953
G1 X112.983 Y97.425 E0.03768
G1 X113.990 Y96.727 E0.03841
G1 X114.890 Y96.307 E0.03115
G1 X116.348 Y95.919 E0.04729
G1 X132.661 Y95.220 E0.51195
G1 X133.800 Y95.316 E0.03584
G1 X134.905 Y95.601 E0.03579
G1 X135.949 Y96.067 E0.03586
G1 X136.871 Y96.678 E0.03467
G1 X137.733 Y97.486 E0.03704
G1 X138.404 Y98.371 E0.03482
G1 X138.938 Y99.386 E0.03597
G1 X139.230 Y100.261 E0.02891
G1 X139.473 Y101.984 E0.05457
G1 X139.471 Y112.150 E0.31874
G1 X139.397 Y112.658 E0.01610
G1 X139.225 Y113.138 E0.01598
G1 X138.961 Y113.574 E0.01598
G1 X138.617 Y113.949 E0.01598
G1 X137.911 Y114.397 E0.02619
G1 X137.100 Y114.594 E0.02619
G1 X121.632 Y115.224 E0.48537
G1 X112.886 Y115.216 E0.27425
G1 X112.008 Y114.971 E0.02858
G1 X112.115 Y114.616 F10800.000
G1 F1200
G1 X111.446 Y114.098 E0.02653
G1 X111.063 Y113.471 E0.02304
G1 X110.909 Y112.753 E0.02304
G1 X110.928 Y102.176 E0.33163
G1 X111.130 Y101.008 E0.03716
G1 X111.395 Y100.200 E0.02667
G1 X111.799 Y99.398 E0.02815
G1 X112.505 Y98.414 E0.03796
G1 X113.252 Y97.691 E0.03261
G1 X114.190 Y97.047 E0.03567
G1 X115.051 Y96.648 E0.02976
G1 X116.397 Y96.293 E0.04365
G1 X132.661 Y95.597 E0.51040
G1 X133.738 Y95.688 E0.03391
G1 X134.781 Y95.957 E0.03376
G1 X135.768 Y96.397 E0.03388
G1 X136.645 Y96.979 E0.03300
G1 X137.452 Y97.737 E0.03472
G1 X138.090 Y98.579 E0.03311
G1 X138.593 Y99.540 E0.03402
G1 X138.873 Y100.382 E0.02782
G1 X139.096 Y101.993 E0.05100
G1 X139.095 Y112.123 E0.31761
G1 X138.883 Y112.979 E0.02766
G1 X138.347 Y113.684 E0.02777
G1 X137.747 Y114.057 E0.02213
G1 X137.060 Y114.218 E0.02213
G1 X121.630 Y114.847 E0.48422
G1 X112.935 Y114.842 E0.27262
G1 X112.173 Y114.632 E0.02476
G1 E-0.80000 F2100.00000
G1 Z0.800 F10800.000
G1 X132.658 Y111.304
G1 Z0.200
G1 E0.80000 F2100.00000
G1 F1200
G1 X132.417 Y111.304 E0.00756
G1 X131.942 Y111.222 E0.01512
G1 X131.487 Y111.062 E0.01512
G1 X131.066 Y110.827 E0.01512
G1 X130.690 Y110.523 E0.01512
G1 X130.372 Y110.161 E0.01512
G1 X130.119 Y109.751 E0.01512
G1 X129.939 Y109.303 E0.01512
G1 X129.837 Y108.831 E0.01512
G1 X129.817 Y108.350 E0.01512
G1 X129.878 Y107.871 E0.01512
G1 X130.019 Y107.410 E0.01512
G1 X130.237 Y106.979 E0.01512
G1 X130.523 Y106.591 E0.01512
G1 X130.872 Y106.257 E0.01512
G1 X131.271 Y105.987 E0.01512
G1 X131.711 Y105.789 E0.01512
G1 X132.178 Y105.667 E0.01512
G1 X132.639 Y105.628 E0.01451
G1 X133.138 Y105.667 E0.01571
G1 X133.606 Y105.789 E0.01515
G1 X134.045 Y105.987 E0.01512
G1 X134.445 Y106.257 E0.01512
G1 X134.793 Y106.591 E0.01512
G1 X135.080 Y106.979 E0.01512
G1 X135.288 Y107.392 E0.01451
G1 X135.438 Y107.870 E0.01571
G1 X135.500 Y108.350 E0.01515
G1 X135.479 Y108.831 E0.01512
G1 X135.378 Y109.303 E0.01512
G1 X135.198 Y109.751 E0.01512
G1 X134.945 Y110.161 E0.01512
G1 X134.626 Y110.523 E0.01512
G1 X134.251 Y110.827 E0.01512
G1 X133.830 Y111.062 E0.01512
G1 X133.375 Y111.222 E0.01512
G1 X132.899 Y111.304 E0.01512
G1 X132.718 Y111.304 E0.00568
G1 X132.546 Y111.517 F10800.000
G1 E-0.80000 F2100.00000
G1 Z0.800 F10800.000
G1 X132.658 Y105.218
G1 Z0.200
G1 E0.80000 F2100.00000
G1 F1200
G1 X132.387 Y105.218 E0.00849
G1 X131.853 Y105.127 E0.01699
G1 X131.434 Y104.978 E0.01396
G1 X130.876 Y104.687 E0.01973
G1 X130.448 Y104.341 E0.01725
G1 X130.090 Y103.935 E0.01699
G1 X129.806 Y103.473 E0.01699
G1 X129.604 Y102.971 E0.01699
G1 X129.490 Y102.441 E0.01699
G1 X129.467 Y101.900 E0.01699
G1 X129.536 Y101.362 E0.01699
G1 X129.666 Y100.937 E0.01396
G1 X129.933 Y100.367 E0.01973
G1 X130.260 Y99.925 E0.01725
G1 X130.651 Y99.550 E0.01699
G1 X131.100 Y99.246 E0.01699
G1 X131.594 Y99.023 E0.01699
G1 X132.118 Y98.887 E0.01699
G1 X132.562 Y98.849 E0.01396
G1 X133.190 Y98.885 E0.01973
G1 X133.722 Y99.023 E0.01725
G1 X134.216 Y99.246 E0.01699
G1 X134.665 Y99.550 E0.01699
G1 X135.056 Y99.925 E0.01699
G1 X135.378 Y100.360 E0.01699
G1 X135.622 Y100.844 E0.01699
G1 X135.781 Y101.362 E0.01699
G1 X135.850 Y101.900 E0.01699
G1 X135.827 Y102.441 E0.01699
G1 X135.713 Y102.971 E0.01699
G1 X135.511 Y103.473 E0.01699
G1 X135.227 Y103.935 E0.01699
G1 X134.869 Y104.341 E0.01699
G1 X134.447 Y104.682 E0.01699
G1 X133.974 Y104.946 E0.01699
G1 X133.463 Y105.127 E0.01699
G1 X132.929 Y105.218 E0.01699
G1 X132.718 Y105.218 E0.00661
G1 X132.658 Y104.841 F10800.000
G1 F1200
G1 X132.419 Y104.841 E0.00749
G1 X131.949 Y104.760 E0.01498
G1 X131.585 Y104.632 E0.01211
G1 X131.084 Y104.370 E0.01771
G1 X130.710 Y104.068 E0.01507
G1 X130.394 Y103.710 E0.01498
G1 X130.144 Y103.303 E0.01498
G1 X129.966 Y102.860 E0.01498
G1 X129.865 Y102.393 E0.01498
G1 X129.845 Y101.916 E0.01498
G1 X129.905 Y101.442 E0.01498
G1 X130.019 Y101.073 E0.01211
G1 X130.259 Y100.561 E0.01771
G1 X130.544 Y100.175 E0.01507
G1 X130.889 Y99.844 E0.01498
G1 X131.285 Y99.577 E0.01498
G1 X131.720 Y99.380 E0.01498
G1 X132.182 Y99.260 E0.01498
G1 X132.567 Y99.227 E0.01211
G1 X133.131 Y99.259 E0.01771
G1 X133.596 Y99.380 E0.01507
G1 X134.032 Y99.577 E0.01498
G1 X134.427 Y99.844 E0.01498
G1 X134.772 Y100.175 E0.01498
G1 X135.056 Y100.559 E0.01498
G1 X135.271 Y100.985 E0.01498
G1 X135.411 Y101.442 E0.01498
G1 X135.472 Y101.916 E0.01498
G1 X135.451 Y102.393 E0.01498
G1 X135.351 Y102.860 E0.01498
G1 X135.173 Y103.303 E0.01498
G1 X134.922 Y103.710 E0.01498
G1 X134.607 Y104.068 E0.01498
G1 X134.235 Y104.368 E0.01498
G1 X133.818 Y104.601 E0.01498
G1 X133.368 Y104.760 E0.01498
G1 X132.897 Y104.841 E0.01498
G1 X132.718 Y104.841 E0.00561
G1 X132.547 Y105.052 F10800.000
G1 E-0.80000 F2100.00000
G1 Z0.800 F10800.000
G1 X131.449 Y111.448
G1 Z0.200
G1 E0.80000 F2100.00000
G1 F1200
G1 X128.996 Y111.448 E0.07691
G1 X129.002 Y101.843 E0.30117
G1 X129.088 Y101.224 E0.01959
G1 X129.275 Y100.638 E0.01928
G1 X129.557 Y100.090 E0.01934
G1 X129.927 Y99.598 E0.01931
G1 X130.374 Y99.174 E0.01931
G1 X130.886 Y98.832 E0.01931
G1 X131.448 Y98.580 E0.01930
G1 X132.044 Y98.426 E0.01931
G1 X132.658 Y98.374 E0.01931
G1 X133.260 Y98.425 E0.01894
G1 X133.869 Y98.581 E0.01970
G1 X134.430 Y98.832 E0.01927
G1 X134.943 Y99.175 E0.01933
G1 X135.389 Y99.598 E0.01929
G1 X135.759 Y100.090 E0.01931
G1 X136.042 Y100.637 E0.01931
G1 X136.228 Y101.224 E0.01931
G1 X136.316 Y101.851 E0.01983
G1 X136.321 Y102.043 E0.00604
G1 X136.321 Y111.448 E0.29488
G1 X133.868 Y111.448 E0.07692
G1 X133.986 Y111.407 E0.00391
G1 X134.463 Y111.140 E0.01714
G1 X134.888 Y110.797 E0.01714
G1 X135.249 Y110.386 E0.01714
G1 X135.536 Y109.921 E0.01714
G1 X135.739 Y109.414 E0.01714
G1 X135.855 Y108.880 E0.01714
G1 X135.878 Y108.333 E0.01714
G1 X135.808 Y107.789 E0.01720
G1 X135.639 Y107.250 E0.01772
G1 X135.402 Y106.781 E0.01648
G1 X135.077 Y106.341 E0.01714
G1 X134.683 Y105.963 E0.01714
G1 X134.230 Y105.657 E0.01714
G1 X133.732 Y105.432 E0.01714
G1 X133.201 Y105.294 E0.01720
G1 X132.637 Y105.250 E0.01772
G1 X132.114 Y105.294 E0.01648
G1 X131.585 Y105.432 E0.01714
G1 X131.087 Y105.657 E0.01714
G1 X130.634 Y105.963 E0.01714
G1 X130.239 Y106.341 E0.01714
G1 X129.914 Y106.781 E0.01714
G1 X129.668 Y107.269 E0.01714
G1 X129.508 Y107.791 E0.01714
G1 X129.439 Y108.333 E0.01714
G1 X129.462 Y108.880 E0.01714
G1 X129.577 Y109.414 E0.01714
G1 X129.781 Y109.921 E0.01714
G1 X130.067 Y110.386 E0.01714
G1 X130.429 Y110.797 E0.01714
G1 X130.854 Y111.140 E0.01714
G1 X131.392 Y111.428 E0.01914
G1 X132.658 Y111.825 F10800.000
G1 F1200
G1 X128.618 Y111.825 E0.12667
G1 X128.625 Y101.816 E0.31382
G1 X128.719 Y101.140 E0.02140
G1 X128.925 Y100.494 E0.02127
G1 X129.237 Y99.889 E0.02134
G1 X129.645 Y99.346 E0.02130
G1 X130.138 Y98.878 E0.02131
G1 X130.703 Y98.501 E0.02131
G1 X131.323 Y98.223 E0.02130
G1 X131.981 Y98.053 E0.02131
G1 X132.658 Y97.996 E0.02131
G1 X133.323 Y98.052 E0.02092
G1 X133.994 Y98.223 E0.02170
G1 X134.613 Y98.501 E0.02129
G1 X135.179 Y98.879 E0.02132
G1 X135.672 Y99.346 E0.02129
G1 X136.080 Y99.889 E0.02131
G1 X136.391 Y100.493 E0.02131
G1 X136.597 Y101.140 E0.02131
G1 X136.692 Y101.819 E0.02149
G1 X136.698 Y102.038 E0.00687
G1 X136.698 Y111.825 E0.30687
G1 X132.718 Y111.825 E0.12479
G1 X132.341 Y111.582 F10800.000
G1 X132.928 Y111.564
G1 F1200
G1 X132.389 Y111.564 E0.00651
G1 X131.854 Y111.518 E0.00648
G1 X131.634 Y111.480 E0.00497
G1 X132.928 Y111.564 F10800.000
G1 F1200
G1 X133.185 Y111.542 E0.00406
G1 X133.462 Y111.518 E0.00551
G1 X133.682 Y111.480 E0.00497
G1 X135.005 Y110.835 F10800.000
G1 F1200
G1 X135.335 Y111.165 E0.01712
G1 X135.959 Y111.165 E0.02287
G1 X135.417 Y110.624 E0.02809
G1 X135.666 Y110.249 E0.01650
G1 X136.208 Y110.791 E0.02812
G1 X135.980 Y109.731 F10800.000
G1 F1200
G1 X136.023 Y109.510 E0.00479
G1 X136.046 Y109.299 E0.00389
G1 X136.066 Y109.106 E0.00280
G1 X136.087 Y108.913 E0.00214
G1 X136.100 Y108.327 E0.00446
G1 X136.061 Y107.727 E0.00330
G1 X135.981 Y107.203 E0.00808
G1 X136.208 Y107.006 F10800.000
G1 F1200
G1 X134.294 Y105.092 E0.08964
G1 X134.648 Y104.883 E0.01362
G1 X136.038 Y106.273 E0.06509
G1 X136.038 Y105.710 E0.01864
G1 X134.960 Y104.631 E0.05051
G1 X135.065 Y104.546 E0.00448
G1 X135.240 Y104.348 E0.00874
G1 X136.038 Y105.147 E0.03741
G1 X136.038 Y104.584 E0.01864
G1 X135.494 Y104.040 E0.02548
G1 X135.709 Y103.691 E0.01355
G1 X136.208 Y104.191 E0.02338
G1 X135.980 Y103.221 F10800.000
G1 F1200
G1 X136.009 Y103.072 E0.00323
G1 X136.032 Y102.860 E0.00440
G1 X136.053 Y102.669 E0.00322
G1 X136.073 Y102.478 E0.00256
G1 X136.083 Y102.047 E0.00428
G1 X136.084 Y101.894 E0.00128
G1 X135.999 Y101.276 E0.00465
G1 X135.825 Y100.727 E0.00430
G1 X135.574 Y100.236 E0.00411
G1 X135.233 Y99.774 E0.00428
G1 X134.808 Y99.367 E0.00439
G1 X134.326 Y99.042 E0.00434
G1 X133.792 Y98.801 E0.00437
G1 X133.222 Y98.654 E0.00440
G1 X132.658 Y98.615 E0.00421
G1 X132.084 Y98.656 E0.00430
G1 X131.520 Y98.803 E0.00434
G1 X130.984 Y99.045 E0.00439
G1 X130.503 Y99.372 E0.00434
G1 X130.088 Y99.769 E0.00428
G1 X129.756 Y100.214 E0.00415
G1 X129.497 Y100.730 E0.00430
G1 X129.310 Y101.310 E0.00455
G1 X129.234 Y101.886 E0.00433
G1 X129.246 Y102.467 E0.00434
G1 X129.267 Y102.668 E0.00151
G1 X129.342 Y103.234 E0.00927
G1 E-0.80000 F2100.00000
G1 Z0.800 F10800.000
G1 X131.157 Y105.501
G1 Z0.200
G1 E0.80000 F2100.00000
G1 F1200
G1 X129.283 Y103.628 E0.08691
G1 X129.283 Y104.186 E0.01829
G1 X130.685 Y105.587 E0.06503
G1 X130.456 Y105.742 E0.00908
G1 X130.367 Y105.827 E0.00403
G1 X129.283 Y104.743 E0.05030
G1 X129.282 Y105.301 E0.01829
G1 X130.082 Y106.100 E0.03709
G1 X129.835 Y106.412 E0.01303
G1 X129.282 Y105.859 E0.02567
G1 X129.282 Y106.416 E0.01829
G1 X129.740 Y106.875 E0.02127
G1 X129.337 Y107.196 F10800.000
G1 F1200
G1 X129.310 Y107.374 E0.00391
G1 X129.283 Y107.553 E0.00330
G1 X129.256 Y107.731 E0.00270
G1 X129.237 Y108.032 E0.00350
G1 X129.218 Y108.321 E0.00242
G1 X129.230 Y108.905 E0.00309
G1 X129.251 Y109.106 E0.00107
G1 X129.338 Y109.734 E0.00906
G1 X129.581 Y111.335 F10800.000
G1 F1200
G1 X129.279 Y111.033 E0.01606
G1 X129.279 Y110.394 E0.02406
G1 X130.220 Y111.335 E0.05009
G1 E-0.80000 F2100.00000
G1 Z0.800 F10800.000
G1 X117.345 Y111.928
G1 Z0.200
G1 E0.80000 F2100.00000
G1 F1200
G1 X117.104 Y111.928 E0.00756
G1 X116.629 Y111.846 E0.01512
G1 X116.174 Y111.686 E0.01512
G1 X115.753 Y111.450 E0.01512
G1 X115.377 Y111.147 E0.01512
G1 X115.059 Y110.785 E0.01512
G1 X114.806 Y110.374 E0.01512
G1 X114.626 Y109.927 E0.01512
G1 X114.524 Y109.455 E0.01512
G1 X114.504 Y108.973 E0.01512
G1 X114.565 Y108.495 E0.01512
G1 X114.706 Y108.034 E0.01512
G1 X114.924 Y107.603 E0.01512
G1 X115.210 Y107.215 E0.01512
G1 X115.559 Y106.881 E0.01512
G1 X115.958 Y106.611 E0.01512
G1 X116.398 Y106.412 E0.01512
G1 X116.865 Y106.291 E0.01512
G1 X117.326 Y106.252 E0.01451
G1 X117.825 Y106.291 E0.01571
G1 X118.293 Y106.412 E0.01515
G1 X118.732 Y106.611 E0.01512
G1 X119.132 Y106.881 E0.01512
G1 X119.480 Y107.215 E0.01512
G1 X119.767 Y107.603 E0.01512
G1 X119.975 Y108.016 E0.01451
G1 X120.125 Y108.494 E0.01571
G1 X120.187 Y108.973 E0.01515
G1 X120.166 Y109.455 E0.01512
G1 X120.065 Y109.927 E0.01512
G1 X119.885 Y110.374 E0.01512
G1 X119.632 Y110.785 E0.01512
G1 X119.313 Y111.147 E0.01512
G1 X118.938 Y111.450 E0.01512
G1 X118.517 Y111.686 E0.01512
G1 X118.062 Y111.846 E0.01512
G1 X117.586 Y111.928 E0.01512
G1 X117.405 Y111.928 E0.00568
G1 X117.233 Y112.141 F10800.000
G1 E-0.80000 F2100.00000
G1 Z0.800 F10800.000
G1 X117.345 Y105.842
G1 Z0.200
G1 E0.80000 F2100.00000
G1 F1200
G1 X117.074 Y105.842 E0.00849
G1 X116.540 Y105.750 E0.01699
G1 X116.121 Y105.602 E0.01396
G1 X115.563 Y105.311 E0.01973
G1 X115.135 Y104.965 E0.01725
G1 X114.777 Y104.559 E0.01699
G1 X114.493 Y104.097 E0.01699
G1 X114.291 Y103.594 E0.01699
G1 X114.177 Y103.065 E0.01699
G1 X114.154 Y102.523 E0.01699
G1 X114.223 Y101.986 E0.01699
G1 X114.353 Y101.560 E0.01396
G1 X114.620 Y100.991 E0.01973
G1 X114.947 Y100.549 E0.01725
G1 X115.338 Y100.174 E0.01699
G1 X115.787 Y99.870 E0.01699
G1 X116.281 Y99.647 E0.01699
G1 X116.805 Y99.511 E0.01699
G1 X117.249 Y99.473 E0.01396
G1 X117.877 Y99.508 E0.01973
G1 X118.409 Y99.647 E0.01725
G1 X118.903 Y99.870 E0.01699
G1 X119.352 Y100.174 E0.01699
G1 X119.743 Y100.549 E0.01699
G1 X120.065 Y100.984 E0.01699
G1 X120.309 Y101.468 E0.01699
G1 X120.468 Y101.986 E0.01699
G1 X120.537 Y102.523 E0.01699
G1 X120.514 Y103.065 E0.01699
G1 X120.400 Y103.594 E0.01699
G1 X120.198 Y104.097 E0.01699
G1 X119.914 Y104.559 E0.01699
G1 X119.556 Y104.965 E0.01699
G1 X119.134 Y105.306 E0.01699
G1 X118.661 Y105.570 E0.01699
G1 X118.150 Y105.750 E0.01699
G1 X117.616 Y105.842 E0.01699
G1 X117.405 Y105.842 E0.00661
G1 X117.345 Y105.465 F10800.000
G1 F1200
G1 X117.106 Y105.465 E0.00749
G1 X116.636 Y105.384 E0.01498
G1 X116.271 Y105.256 E0.01211
G1 X115.771 Y104.994 E0.01771
G1 X115.397 Y104.692 E0.01507
G1 X115.081 Y104.334 E0.01498
G1 X114.831 Y103.927 E0.01498
G1 X114.653 Y103.484 E0.01498
G1 X114.552 Y103.017 E0.01498
G1 X114.532 Y102.540 E0.01498
G1 X114.592 Y102.066 E0.01498
G1 X114.706 Y101.696 E0.01211
G1 X114.946 Y101.185 E0.01771
G1 X115.231 Y100.799 E0.01507
G1 X115.576 Y100.468 E0.01498
G1 X115.972 Y100.201 E0.01498
G1 X116.407 Y100.004 E0.01498
G1 X116.869 Y99.884 E0.01498
G1 X117.254 Y99.851 E0.01211
G1 X117.818 Y99.883 E0.01771
G1 X118.283 Y100.004 E0.01507
G1 X118.719 Y100.201 E0.01498
G1 X119.114 Y100.468 E0.01498
G1 X119.459 Y100.799 E0.01498
G1 X119.743 Y101.183 E0.01498
G1 X119.958 Y101.609 E0.01498
G1 X120.098 Y102.066 E0.01498
G1 X120.159 Y102.540 E0.01498
