; generated by PrusaSlicer 2.2.0+win64 on 2020-11-03 at 17:56:41 UTC

; 

; external perimeters extrusion width = 0.60mm
; perimeters extrusion width = 0.43mm
; infill extrusion width = 0.45mm
; solid infill extrusion width = 0.70mm
; top infill extrusion width = 0.43mm
; support material extrusion width = 0.37mm
; first layer extrusion width = 0.42mm

M73 P0 R12
M201 X9000 Y9000 Z500 E10000 ; sets maximum accelerations, mm/sec^2
M203 X500 Y500 Z12 E120 ; sets maximum feedrates, mm/sec
M204 P2000 R1500 T2000 ; sets acceleration (P, T) and retract acceleration (R), mm/sec^2
M205 X10.00 Y10.00 Z0.20 E2.50 ; sets the jerk limits, mm/sec
M205 S0 T0 ; sets the minimum extruding and travel feed rate, mm/sec
M107
M862.3 P "MK2.5SMMU2S" ; printer model check
M862.1 P0.4 ; nozzle diameter check
M115 U3.8.0 ; tell printer latest fw version
G90 ; use absolute coordinates
M83 ; extruder relative mode
M104 S215 ; set extruder temp
M140 S60 ; set bed temp
Tx
M190 S60 ; wait for bed temp
M109 S215 ; wait for extruder temp
G28 W ; home all without mesh bed level
G80 ; mesh bed leveling

G21 ; set units to millimeters

;go outside print area
G1 Y-3.0 F1000.0
G1 Z0.4 F1000.0
; select extruder
Tc
; purge line
G1 X55.0 F2000.0
G1 Z0.3 F1000.0
G92 E0.0
G1 X240.0 E25.0 F2200.0
M73 P0 R12
G1 Y-2.0 F1000.0
G1 X55.0 E25 F1400.0
G1 Z0.20 F1000.0
G1 X5.0 E4.0 F1000.0
G92 E0.0
G21 ; set units to millimeters
G90 ; use absolute coordinates
M83 ; use relative distances for extrusion
M900 K0.06 ; Filament gcode LA 1.5
M900 K30 ; Filament gcode LA 1.0
;BEFORE_LAYER_CHANGE
G92 E0.0
;0.2


G1 E-0.80000 F2100.00000
G1 Z0.600 F10800.000
;AFTER_LAYER_CHANGE
;0.2
G1 X95.440 Y82.332
G1 Z0.200
G1 E0.80000 F2100.00000
M204 S1000
G1 F1200.000
G1 X95.891 Y81.995 E0.01763
G1 X96.404 Y81.776 E0.01752
G1 X96.959 Y81.682 E0.01763
G1 X116.812 Y81.679 E0.62246
G1 X153.279 Y86.693 E1.15418
G1 X154.036 Y86.942 E0.02496
G1 X154.664 Y87.424 E0.02484
G1 X155.065 Y88.010 E0.02225
G1 X155.275 Y88.691 E0.02237
G1 X160.377 Y125.653 E1.16989
G1 X160.380 Y126.211 E0.01752
G1 X160.251 Y126.759 E0.01763
G1 X159.999 Y127.257 E0.01752
G1 X159.638 Y127.684 E0.01752
G1 X158.909 Y128.147 E0.02708
G1 X158.063 Y128.320 E0.02708
G1 X127.923 Y128.314 E0.94502
G1 X91.623 Y123.306 E1.14894
G1 X90.871 Y123.058 E0.02484
G1 X90.242 Y122.576 E0.02484
G1 X89.933 Y122.161 E0.01621
G1 X89.721 Y121.690 E0.01621
G1 X89.616 Y121.184 E0.01621
G1 X89.622 Y120.670 E0.01609
G1 X94.723 Y83.716 E1.16966
G1 X94.851 Y83.219 E0.01609
G1 X95.083 Y82.761 E0.01609
G1 X95.402 Y82.378 E0.01563
G1 E-0.80000 F2100.00000
G1 Z0.800 F10800.000
G1 X133.878 Y89.830
G1 Z0.200
G1 E0.80000 F2100.00000
G1 F1200.000
G1 X152.238 Y89.830 E0.57568
G1 X157.115 Y125.157 E1.11815
G1 X129.001 Y125.157 E0.88147
G1 X133.870 Y89.889 E1.11627
G1 X133.549 Y89.453 F10800.000
G1 F1200.000
G1 X152.567 Y89.453 E0.59628
G1 X157.547 Y125.534 E1.14202
G1 X128.569 Y125.534 E0.90861
G1 X133.541 Y89.512 E1.14014
G1 X133.928 Y89.582 F10800.000
G1 E-0.80000 F2100.00000
G1 Z0.800 F10800.000
G1 X129.223 Y124.376
G1 Z0.200
G1 E0.80000 F2100.00000
G1 F1200.000
G1 X129.722 Y124.874 E0.02212
G1 X130.256 Y124.874 E0.01675
G1 X129.439 Y124.057 E0.03626
G1 X129.503 Y123.588 E0.01486
G1 X130.789 Y124.874 E0.05708
G1 X131.323 Y124.874 E0.01675
G1 X129.568 Y123.119 E0.07790
G1 X129.633 Y122.650 E0.01486
G1 X131.857 Y124.874 E0.09872
G1 X132.391 Y124.874 E0.01675
G1 X129.698 Y122.181 E0.11954
G1 X129.762 Y121.712 E0.01486
G1 X132.925 Y124.874 E0.14036
G1 X133.458 Y124.874 E0.01675
G1 X129.827 Y121.243 E0.16118
G1 X129.892 Y120.774 E0.01486
G1 X133.992 Y124.874 E0.18199
G1 X134.526 Y124.874 E0.01675
G1 X129.957 Y120.305 E0.20281
G1 X130.021 Y119.836 E0.01486
G1 X135.060 Y124.874 E0.22363
G1 X135.594 Y124.874 E0.01675
G1 X130.086 Y119.367 E0.24445
G1 X130.151 Y118.897 E0.01486
G1 X136.127 Y124.874 E0.26527
G1 X136.661 Y124.874 E0.01675
G1 X130.216 Y118.428 E0.28609
G1 X130.280 Y117.959 E0.01486
G1 X137.195 Y124.874 E0.30691
G1 X137.729 Y124.874 E0.01675
G1 X130.345 Y117.490 E0.32773
G1 X130.410 Y117.021 E0.01486
G1 X138.263 Y124.874 E0.34855
G1 X138.796 Y124.874 E0.01675
G1 X130.475 Y116.552 E0.36937
G1 X130.539 Y116.083 E0.01486
G1 X139.330 Y124.874 E0.39019
G1 X139.864 Y124.874 E0.01675
G1 X130.604 Y115.614 E0.41101
G1 X130.669 Y115.145 E0.01486
G1 X140.398 Y124.874 E0.43183
G1 X140.932 Y124.874 E0.01675
G1 X130.734 Y114.676 E0.45265
G1 X130.798 Y114.207 E0.01486
G1 X141.465 Y124.874 E0.47347
G1 X141.999 Y124.874 E0.01675
G1 X130.863 Y113.738 E0.49429
G1 X130.928 Y113.269 E0.01486
G1 X142.533 Y124.874 E0.51511
G1 X143.067 Y124.874 E0.01675
G1 X130.993 Y112.800 E0.53593
G1 X131.057 Y112.331 E0.01486
G1 X143.601 Y124.874 E0.55675
G1 X144.134 Y124.874 E0.01675
G1 X131.122 Y111.862 E0.57757
G1 X131.187 Y111.393 E0.01486
G1 X144.668 Y124.874 E0.59839
G1 X145.202 Y124.874 E0.01675
G1 X131.252 Y110.924 E0.61921
G1 X131.316 Y110.454 E0.01486
G1 X145.736 Y124.874 E0.64003
G1 X146.270 Y124.874 E0.01675
G1 X131.381 Y109.985 E0.66085
G1 X131.446 Y109.516 E0.01486
G1 X146.803 Y124.874 E0.68166
G1 X147.337 Y124.874 E0.01675
G1 X131.511 Y109.047 E0.70248
G1 X131.575 Y108.578 E0.01486
G1 X147.871 Y124.874 E0.72330
G1 X148.405 Y124.874 E0.01675
G1 X131.640 Y108.109 E0.74412
G1 X131.705 Y107.640 E0.01486
G1 X148.939 Y124.874 E0.76494
M73 P9 R11
G1 X149.472 Y124.874 E0.01675
G1 X131.770 Y107.171 E0.78576
G1 X131.834 Y106.702 E0.01486
G1 X150.006 Y124.874 E0.80658
G1 X150.540 Y124.874 E0.01675
G1 X131.899 Y106.233 E0.82740
G1 X131.964 Y105.764 E0.01486
G1 X151.074 Y124.874 E0.84822
G1 X151.608 Y124.874 E0.01675
G1 X132.029 Y105.295 E0.86904
G1 X132.093 Y104.826 E0.01486
G1 X152.141 Y124.874 E0.88986
G1 X152.675 Y124.874 E0.01675
G1 X132.158 Y104.357 E0.91068
G1 X132.223 Y103.888 E0.01486
G1 X153.209 Y124.874 E0.93150
G1 X153.743 Y124.874 E0.01675
G1 X132.288 Y103.419 E0.95232
G1 X132.352 Y102.950 E0.01486
G1 X154.277 Y124.874 E0.97314
G1 X154.811 Y124.874 E0.01675
G1 X132.417 Y102.480 E0.99396
G1 X132.482 Y102.011 E0.01486
G1 X155.344 Y124.874 E1.01478
G1 X155.878 Y124.874 E0.01675
G1 X132.547 Y101.542 E1.03560
G1 X132.611 Y101.073 E0.01486
G1 X156.412 Y124.874 E1.05642
G1 X156.790 Y124.874 E0.01187
G1 X156.765 Y124.693 E0.00572
G1 X132.676 Y100.604 E1.06922
G1 X132.741 Y100.135 E0.01486
G1 X156.680 Y124.074 E1.06256
G1 X156.594 Y123.455 E0.01962
G1 X132.806 Y99.666 E1.05589
G1 X132.870 Y99.197 E0.01486
G1 X156.509 Y122.836 E1.04922
G1 X156.423 Y122.216 E0.01962
G1 X132.935 Y98.728 E1.04255
G1 X133.000 Y98.259 E0.01486
G1 X156.338 Y121.597 E1.03588
G1 X156.252 Y120.978 E0.01962
G1 X133.065 Y97.790 E1.02921
G1 X133.129 Y97.321 E0.01486
G1 X156.167 Y120.358 E1.02255
G1 X156.081 Y119.739 E0.01962
G1 X133.194 Y96.852 E1.01588
G1 X133.259 Y96.383 E0.01486
G1 X155.996 Y119.120 E1.00921
G1 X155.910 Y118.501 E0.01962
G1 X133.323 Y95.914 E1.00254
G1 X133.388 Y95.445 E0.01486
G1 X155.825 Y117.881 E0.99587
G1 X155.739 Y117.262 E0.01962
G1 X133.453 Y94.976 E0.98921
G1 X133.518 Y94.507 E0.01486
G1 X155.654 Y116.643 E0.98254
G1 X155.568 Y116.023 E0.01962
G1 X133.582 Y94.037 E0.97587
G1 X133.647 Y93.568 E0.01486
G1 X155.483 Y115.404 E0.96920
G1 X155.397 Y114.785 E0.01962
G1 X133.712 Y93.099 E0.96253
G1 X133.777 Y92.630 E0.01486
G1 X155.312 Y114.166 E0.95586
G1 X155.226 Y113.546 E0.01962
G1 X133.841 Y92.161 E0.94920
G1 X133.906 Y91.692 E0.01486
G1 X155.141 Y112.927 E0.94253
G1 X155.056 Y112.308 E0.01962
G1 X133.971 Y91.223 E0.93586
G1 X134.036 Y90.754 E0.01486
G1 X154.970 Y111.688 E0.92919
G1 X154.885 Y111.069 E0.01962
G1 X134.100 Y90.285 E0.92252
G1 X134.124 Y90.113 E0.00546
G1 X134.462 Y90.113 E0.01060
G1 X154.799 Y110.450 E0.90268
G1 X154.714 Y109.830 E0.01962
G1 X134.996 Y90.113 E0.87519
M73 P17 R10
G1 X135.530 Y90.113 E0.01675
G1 X154.628 Y109.211 E0.84770
G1 X154.543 Y108.592 E0.01962
G1 X136.063 Y90.113 E0.82021
G1 X136.597 Y90.113 E0.01675
G1 X154.457 Y107.973 E0.79273
G1 X154.372 Y107.353 E0.01962
G1 X137.131 Y90.113 E0.76524
G1 X137.665 Y90.113 E0.01675
G1 X154.286 Y106.734 E0.73775
G1 X154.201 Y106.115 E0.01962
G1 X138.199 Y90.113 E0.71026
G1 X138.733 Y90.113 E0.01675
G1 X154.115 Y105.495 E0.68277
G1 X154.030 Y104.876 E0.01962
G1 X139.266 Y90.113 E0.65529
G1 X139.800 Y90.113 E0.01675
G1 X153.944 Y104.257 E0.62780
G1 X153.859 Y103.638 E0.01962
G1 X140.334 Y90.113 E0.60031
G1 X140.868 Y90.113 E0.01675
G1 X153.773 Y103.018 E0.57282
G1 X153.688 Y102.399 E0.01962
G1 X141.402 Y90.113 E0.54534
G1 X141.935 Y90.113 E0.01675
G1 X153.602 Y101.780 E0.51785
G1 X153.517 Y101.160 E0.01962
G1 X142.469 Y90.113 E0.49036
G1 X143.003 Y90.113 E0.01675
G1 X153.431 Y100.541 E0.46287
G1 X153.346 Y99.922 E0.01962
G1 X143.537 Y90.113 E0.43538
G1 X144.071 Y90.113 E0.01675
G1 X153.260 Y99.303 E0.40790
G1 X153.175 Y98.683 E0.01962
G1 X144.604 Y90.113 E0.38041
G1 X145.138 Y90.113 E0.01675
G1 X153.089 Y98.064 E0.35292
G1 X153.004 Y97.445 E0.01962
G1 X145.672 Y90.113 E0.32543
G1 X146.206 Y90.113 E0.01675
G1 X152.918 Y96.825 E0.29794
G1 X152.833 Y96.206 E0.01962
G1 X146.740 Y90.113 E0.27046
G1 X147.273 Y90.113 E0.01675
G1 X152.747 Y95.587 E0.24297
G1 X152.662 Y94.968 E0.01962
G1 X147.807 Y90.113 E0.21548
G1 X148.341 Y90.113 E0.01675
G1 X152.576 Y94.348 E0.18799
G1 X152.491 Y93.729 E0.01962
G1 X148.875 Y90.113 E0.16051
G1 X149.409 Y90.113 E0.01675
G1 X152.405 Y93.110 E0.13302
G1 X152.320 Y92.490 E0.01962
G1 X149.942 Y90.113 E0.10553
G1 X150.476 Y90.113 E0.01675
G1 X152.234 Y91.871 E0.07804
G1 X152.149 Y91.252 E0.01962
G1 X151.010 Y90.113 E0.05055
G1 X151.544 Y90.113 E0.01675
G1 X152.262 Y90.831 E0.03189
G1 E-0.80000 F2100.00000
G1 Z0.800 F10800.000
G1 X116.122 Y84.843
G1 Z0.200
G1 E0.80000 F2100.00000
G1 F1200.000
G1 X120.998 Y120.170 E1.11814
G1 X92.885 Y120.170 E0.88146
G1 X97.762 Y84.843 E1.11814
G1 X116.062 Y84.843 E0.57379
G1 X116.450 Y84.466 F10800.000
G1 F1200.000
G1 X121.431 Y120.547 E1.14201
G1 X92.453 Y120.547 E0.90860
G1 X97.433 Y84.466 E1.14201
G1 X116.390 Y84.466 E0.59440
G1 X116.409 Y84.864 F10800.000
G1 E-0.80000 F2100.00000
G1 Z0.800 F10800.000
G1 X93.107 Y119.388
G1 Z0.200
G1 E0.80000 F2100.00000
G1 F1200.000
G1 X93.606 Y119.887 E0.02212
G1 X94.139 Y119.887 E0.01675
G1 X93.323 Y119.070 E0.03626
G1 X93.387 Y118.601 E0.01486
G1 X94.673 Y119.887 E0.05708
G1 X95.207 Y119.887 E0.01675
G1 X93.452 Y118.132 E0.07790
G1 X93.517 Y117.663 E0.01486
G1 X95.741 Y119.887 E0.09871
G1 X96.275 Y119.887 E0.01675
G1 X93.582 Y117.194 E0.11953
G1 X93.646 Y116.725 E0.01486
G1 X96.808 Y119.887 E0.14035
G1 X97.342 Y119.887 E0.01675
G1 X93.711 Y116.256 E0.16117
G1 X93.776 Y115.787 E0.01486
G1 X97.876 Y119.887 E0.18199
G1 X98.410 Y119.887 E0.01675
G1 X93.841 Y115.317 E0.20281
G1 X93.905 Y114.848 E0.01486
G1 X98.944 Y119.887 E0.22363
G1 X99.477 Y119.887 E0.01675
G1 X93.970 Y114.379 E0.24445
G1 X94.035 Y113.910 E0.01486
G1 X100.011 Y119.887 E0.26527
G1 X100.545 Y119.887 E0.01675
G1 X94.100 Y113.441 E0.28609
G1 X94.164 Y112.972 E0.01486
G1 X101.079 Y119.887 E0.30690
G1 X101.613 Y119.887 E0.01675
G1 X94.229 Y112.503 E0.32772
G1 X94.294 Y112.034 E0.01486
G1 X102.146 Y119.887 E0.34854
G1 X102.680 Y119.887 E0.01675
G1 X94.359 Y111.565 E0.36936
G1 X94.423 Y111.096 E0.01486
G1 X103.214 Y119.887 E0.39018
G1 X103.748 Y119.887 E0.01675
G1 X94.488 Y110.627 E0.41100
G1 X94.553 Y110.158 E0.01486
G1 X104.282 Y119.887 E0.43182
G1 X104.815 Y119.887 E0.01675
G1 X94.618 Y109.689 E0.45264
G1 X94.682 Y109.220 E0.01486
G1 X105.349 Y119.887 E0.47346
G1 X105.883 Y119.887 E0.01675
G1 X94.747 Y108.751 E0.49428
G1 X94.812 Y108.282 E0.01486
G1 X106.417 Y119.887 E0.51510
G1 X106.951 Y119.887 E0.01675
G1 X94.877 Y107.813 E0.53591
G1 X94.941 Y107.344 E0.01486
G1 X107.484 Y119.887 E0.55673
G1 X108.018 Y119.887 E0.01675
G1 X95.006 Y106.875 E0.57755
G1 X95.071 Y106.406 E0.01486
G1 X108.552 Y119.887 E0.59837
G1 X109.086 Y119.887 E0.01675
G1 X95.136 Y105.936 E0.61919
G1 X95.200 Y105.467 E0.01486
G1 X109.620 Y119.887 E0.64001
G1 X110.153 Y119.887 E0.01675
G1 X95.265 Y104.998 E0.66083
G1 X95.330 Y104.529 E0.01486
G1 X110.687 Y119.887 E0.68165
G1 X111.221 Y119.887 E0.01675
G1 X95.395 Y104.060 E0.70247
G1 X95.459 Y103.591 E0.01486
G1 X111.755 Y119.887 E0.72329
G1 X112.289 Y119.887 E0.01675
G1 X95.524 Y103.122 E0.74410
G1 X95.589 Y102.653 E0.01486
G1 X112.822 Y119.887 E0.76492
M73 P25 R9
G1 X113.356 Y119.887 E0.01675
G1 X95.654 Y102.184 E0.78574
G1 X95.718 Y101.715 E0.01486
G1 X113.890 Y119.887 E0.80656
G1 X114.424 Y119.887 E0.01675
G1 X95.783 Y101.246 E0.82738
G1 X95.848 Y100.777 E0.01486
G1 X114.958 Y119.887 E0.84820
G1 X115.491 Y119.887 E0.01675
G1 X95.912 Y100.308 E0.86902
G1 X95.977 Y99.839 E0.01486
G1 X116.025 Y119.887 E0.88984
G1 X116.559 Y119.887 E0.01675
G1 X96.042 Y99.370 E0.91066
G1 X96.107 Y98.901 E0.01486
G1 X117.093 Y119.887 E0.93148
G1 X117.627 Y119.887 E0.01675
G1 X96.171 Y98.432 E0.95230
G1 X96.236 Y97.963 E0.01486
G1 X118.160 Y119.887 E0.97311
G1 X118.694 Y119.887 E0.01675
G1 X96.301 Y97.494 E0.99393
G1 X96.366 Y97.024 E0.01486
G1 X119.228 Y119.887 E1.01475
G1 X119.762 Y119.887 E0.01675
G1 X96.430 Y96.555 E1.03557
G1 X96.495 Y96.086 E0.01486
G1 X120.296 Y119.887 E1.05639
G1 X120.674 Y119.887 E0.01187
G1 X120.649 Y119.706 E0.00572
G1 X96.560 Y95.617 E1.06920
G1 X96.625 Y95.148 E0.01486
G1 X120.563 Y119.087 E1.06253
G1 X120.478 Y118.468 E0.01962
G1 X96.689 Y94.679 E1.05586
G1 X96.754 Y94.210 E0.01486
G1 X120.392 Y117.848 E1.04919
G1 X120.307 Y117.229 E0.01962
G1 X96.819 Y93.741 E1.04252
G1 X96.884 Y93.272 E0.01486
G1 X120.221 Y116.610 E1.03586
G1 X120.136 Y115.991 E0.01962
G1 X96.948 Y92.803 E1.02919
G1 X97.013 Y92.334 E0.01486
G1 X120.050 Y115.371 E1.02252
G1 X119.965 Y114.752 E0.01962
G1 X97.078 Y91.865 E1.01585
G1 X97.143 Y91.396 E0.01486
G1 X119.879 Y114.133 E1.00918
G1 X119.794 Y113.513 E0.01962
G1 X97.207 Y90.927 E1.00251
G1 X97.272 Y90.458 E0.01486
G1 X119.708 Y112.894 E0.99585
G1 X119.623 Y112.275 E0.01962
G1 X97.337 Y89.989 E0.98918
G1 X97.402 Y89.520 E0.01486
G1 X119.538 Y111.656 E0.98251
G1 X119.452 Y111.036 E0.01962
G1 X97.466 Y89.051 E0.97584
G1 X97.531 Y88.582 E0.01486
G1 X119.367 Y110.417 E0.96917
G1 X119.281 Y109.798 E0.01962
G1 X97.596 Y88.113 E0.96251
G1 X97.661 Y87.643 E0.01486
G1 X119.196 Y109.178 E0.95584
G1 X119.110 Y108.559 E0.01962
G1 X97.725 Y87.174 E0.94917
G1 X97.790 Y86.705 E0.01486
G1 X119.025 Y107.940 E0.94250
G1 X118.939 Y107.321 E0.01962
G1 X97.855 Y86.236 E0.93583
G1 X97.920 Y85.767 E0.01486
G1 X118.854 Y106.701 E0.92917
G1 X118.768 Y106.082 E0.01962
G1 X97.984 Y85.298 E0.92250
G1 X98.008 Y85.126 E0.00546
G1 X98.346 Y85.126 E0.01060
G1 X118.683 Y105.463 E0.90265
G1 X118.597 Y104.843 E0.01962
G1 X98.880 Y85.126 E0.87517
M73 P33 R8
G1 X99.414 Y85.126 E0.01675
G1 X118.512 Y104.224 E0.84768
G1 X118.426 Y103.605 E0.01962
G1 X99.947 Y85.126 E0.82019
G1 X100.481 Y85.126 E0.01675
G1 X118.341 Y102.986 E0.79270
G1 X118.255 Y102.366 E0.01962
G1 X101.015 Y85.126 E0.76522
G1 X101.549 Y85.126 E0.01675
G1 X118.170 Y101.747 E0.73773
G1 X118.084 Y101.128 E0.01962
G1 X102.083 Y85.126 E0.71024
G1 X102.616 Y85.126 E0.01675
G1 X117.999 Y100.508 E0.68276
G1 X117.913 Y99.889 E0.01962
G1 X103.150 Y85.126 E0.65527
G1 X103.684 Y85.126 E0.01675
G1 X117.828 Y99.270 E0.62778
G1 X117.742 Y98.651 E0.01962
G1 X104.218 Y85.126 E0.60030
G1 X104.752 Y85.126 E0.01675
G1 X117.657 Y98.031 E0.57281
G1 X117.571 Y97.412 E0.01962
G1 X105.285 Y85.126 E0.54532
G1 X105.819 Y85.126 E0.01675
G1 X117.486 Y96.793 E0.51783
G1 X117.400 Y96.173 E0.01962
G1 X106.353 Y85.126 E0.49035
G1 X106.887 Y85.126 E0.01675
G1 X117.315 Y95.554 E0.46286
G1 X117.229 Y94.935 E0.01962
G1 X107.421 Y85.126 E0.43537
G1 X107.954 Y85.126 E0.01675
G1 X117.144 Y94.316 E0.40789
G1 X117.058 Y93.696 E0.01962
G1 X108.488 Y85.126 E0.38040
G1 X109.022 Y85.126 E0.01675
G1 X116.973 Y93.077 E0.35291
G1 X116.888 Y92.458 E0.01962
G1 X109.556 Y85.126 E0.32542
G1 X110.090 Y85.126 E0.01675
G1 X116.802 Y91.839 E0.29794
G1 X116.717 Y91.219 E0.01962
G1 X110.623 Y85.126 E0.27045
G1 X111.157 Y85.126 E0.01675
G1 X116.631 Y90.600 E0.24296
G1 X116.546 Y89.981 E0.01962
G1 X111.691 Y85.126 E0.21548
G1 X112.225 Y85.126 E0.01675
G1 X116.460 Y89.361 E0.18799
G1 X116.375 Y88.742 E0.01962
