; generated by PrusaSlicer 2.1.1+win64 on 2020-07-07 at 20:44:22 UTC

; 

; external perimeters extrusion width = 0.45mm
; perimeters extrusion width = 0.45mm
; infill extrusion width = 0.45mm
; solid infill extrusion width = 0.45mm
; top infill extrusion width = 0.40mm
; first layer extrusion width = 0.42mm

M73 P0 R22
M201 X9000 Y9000 Z500 E10000 ; sets maximum accelerations, mm/sec^2
M203 X500 Y500 Z12 E120 ; sets maximum feedrates, mm/sec
M204 P2000 R1500 T2000 ; sets acceleration (P, T) and retract acceleration (R), mm/sec^2
M205 X10.00 Y10.00 Z0.20 E4.50 ; sets the jerk limits, mm/sec
M205 S0 T0 ; sets the minimum extruding and travel feed rate, mm/sec
M107
M862.3 P "MK2.5SMMU2S" ; printer model check
M862.1 P0.4 ; nozzle diameter check
M115 U3.8.1 ; tell printer latest fw version
G90 ; use absolute coordinates
M83 ; extruder relative mode
M104 S215 ; set extruder temp
M140 S60 ; set bed temp
Tx
M190 S60 ; wait for bed temp
M109 S215 ; wait for extruder temp
G28 W ; home all without mesh bed level
G80 ; mesh bed leveling

;go outside print area
G1 Y-3.0 F1000.0
G1 Z0.4 F1000.0
; select extruder
Tc
; purge line
G1 X55.0 F2000.0
G1 Z0.3 F1000.0
G92 E0.0
G1 X240.0 E25.0 F2200.0
M73 P0 R22
G1 Y-2.0 F1000.0
G1 X55.0 E25 F1400.0
G1 Z0.20 F1000.0
G1 X5.0 E4.0 F1000.0
G92 E0.0
G21 ; set units to millimeters
G90 ; use absolute coordinates
M83 ; use relative distances for extrusion
M900 K30 ; Filament gcode
;BEFORE_LAYER_CHANGE
G92 E0.0
;0.2


G1 E-0.80000 F2100.00000
G1 Z0.600 F10800.000
;AFTER_LAYER_CHANGE
;0.2
G1 X122.651 Y87.627
G1 Z0.200
G1 E0.80000 F2100.00000
M204 S1000
G1 F1200
G1 X123.475 Y88.171 E0.03095
G1 X132.715 Y98.115 E0.42564
G1 X133.110 Y98.682 E0.02165
G1 X133.312 Y99.218 E0.01795
G1 X133.390 Y99.789 E0.01808
G1 X133.383 Y110.348 E0.33105
G1 X133.193 Y111.137 E0.02545
G1 X132.764 Y111.830 E0.02557
G1 X123.335 Y121.957 E0.43383
G1 X122.724 Y122.341 E0.02263
G1 X122.026 Y122.541 E0.02275
G1 X118.977 Y122.558 E0.09560
G1 X118.098 Y122.328 E0.02851
G1 X117.356 Y121.809 E0.02839
G1 X116.839 Y121.061 E0.02851
G1 X116.616 Y120.184 E0.02839
G1 X116.617 Y89.802 E0.95258
G1 X116.757 Y89.142 E0.02116
G1 X117.066 Y88.538 E0.02128
G1 X117.520 Y88.039 E0.02116
G1 X118.089 Y87.676 E0.02116
G1 X119.003 Y87.440 E0.02961
G1 X121.679 Y87.434 E0.08389
G1 X122.592 Y87.616 E0.02919
G1 X122.512 Y87.978 F10800.000
G1 F1200
G1 X123.219 Y88.449 E0.02664
G1 X132.438 Y98.371 E0.42467
G1 X132.780 Y98.866 E0.01885
G1 X132.949 Y99.321 E0.01521
G1 X133.013 Y99.805 E0.01532
G1 X133.007 Y110.322 E0.32973
G1 X132.843 Y110.997 E0.02179
G1 X132.473 Y111.590 E0.02191
G1 X123.091 Y121.669 E0.43174
G1 X122.554 Y122.004 E0.01987
G1 X121.946 Y122.172 E0.01976
G1 X119.003 Y122.182 E0.09227
G1 X118.251 Y121.984 E0.02439
G1 X117.615 Y121.535 E0.02439
G1 X117.177 Y120.893 E0.02439
G1 X116.991 Y120.137 E0.02439
G1 X116.993 Y89.828 E0.95032
G1 X117.118 Y89.252 E0.01851
G1 X117.395 Y88.726 E0.01862
G1 X117.803 Y88.295 E0.01862
G1 X118.309 Y87.990 E0.01851
G1 X119.060 Y87.815 E0.02417
G1 X121.679 Y87.811 E0.08212
G1 X122.453 Y87.966 E0.02476
G1 F8640
G1 X123.219 Y88.449 E-0.20910
G1 X124.843 Y90.197 E-0.55090
G1 E-0.04000 F2100.00000
G1 Z0.800 F10800.000
G1 X125.000 Y108.737
G1 Z0.200
G1 E0.80000 F2100.00000
G1 F1200
G1 X123.088 Y108.737 E0.05995
G1 X123.088 Y101.263 E0.23435
G1 X129.412 Y101.263 E0.19829
G1 X129.412 Y108.737 E0.23435
G1 X125.060 Y108.737 E0.13646
G1 X125.000 Y108.360 F10800.000
G1 F1200
G1 X123.465 Y108.360 E0.04813
G1 X123.465 Y101.640 E0.21070
G1 X129.035 Y101.640 E0.17464
G1 X129.035 Y108.360 E0.21070
G1 X125.060 Y108.360 E0.12463
G1 X124.928 Y108.754 F10800.000
G1 F8640
G1 X123.465 Y108.360 E-0.36829
G1 X123.465 Y106.664 E-0.39171
G1 E-0.04000 F2100.00000
G1 Z0.800 F10800.000
G1 X121.088 Y119.413
G1 Z0.200
G1 E0.80000 F2100.00000
G1 F1200
G1 X119.762 Y119.413 E0.04157
G1 X119.762 Y90.587 E0.90381
G1 X121.088 Y90.587 E0.04157
G1 X121.088 Y94.873 E0.13438
G1 X121.155 Y95.724 E0.02677
G1 X121.360 Y96.577 E0.02750
G1 X121.695 Y97.387 E0.02750
G1 X122.153 Y98.135 E0.02750
G1 X122.723 Y98.802 E0.02750
G1 X123.390 Y99.372 E0.02750
G1 X124.138 Y99.830 E0.02750
G1 X124.948 Y100.165 E0.02750
G1 X125.801 Y100.370 E0.02750
G1 X126.652 Y100.437 E0.02677
G1 X130.238 Y100.437 E0.11244
G1 X130.238 Y109.563 E0.28613
G1 X126.652 Y109.563 E0.11244
G1 X125.800 Y109.630 E0.02678
G1 X124.942 Y109.837 E0.02770
G1 X124.138 Y110.170 E0.02728
G1 X123.390 Y110.628 E0.02750
G1 X122.723 Y111.198 E0.02750
G1 X122.153 Y111.865 E0.02751
G1 X121.693 Y112.619 E0.02770
G1 X121.360 Y113.423 E0.02728
G1 X121.155 Y114.276 E0.02750
G1 X121.088 Y115.127 E0.02677
G1 X121.088 Y119.353 E0.13250
G1 X121.465 Y119.790 F10800.000
G1 F1200
G1 X119.385 Y119.790 E0.06522
G1 X119.385 Y90.210 E0.92746
G1 X121.465 Y90.210 E0.06522
G1 X121.465 Y94.858 E0.14574
G1 X121.529 Y95.665 E0.02538
G1 X121.719 Y96.460 E0.02564
G1 X122.032 Y97.216 E0.02564
G1 X122.459 Y97.913 E0.02564
G1 X122.991 Y98.534 E0.02564
G1 X123.612 Y99.066 E0.02564
G1 X124.309 Y99.493 E0.02564
G1 X125.065 Y99.806 E0.02564
G1 X125.860 Y99.996 E0.02564
G1 X126.667 Y100.060 E0.02538
G1 X130.615 Y100.060 E0.12379
G1 X130.615 Y109.940 E0.30978
G1 X126.667 Y109.940 E0.12379
G1 X125.860 Y110.004 E0.02538
G1 X125.059 Y110.197 E0.02584
G1 X124.309 Y110.507 E0.02543
G1 X123.612 Y110.934 E0.02564
G1 X122.991 Y111.466 E0.02564
G1 X122.459 Y112.087 E0.02564
G1 X122.030 Y112.791 E0.02584
G1 X121.719 Y113.540 E0.02543
G1 X121.529 Y114.335 E0.02564
G1 X121.465 Y115.142 E0.02538
G1 X121.465 Y119.730 E0.14386
G1 X121.119 Y119.589 F10800.000
G1 F8640
G1 X119.385 Y119.790 E-0.48048
G1 X119.385 Y118.579 E-0.27952
G1 E-0.04000 F2100.00000
G1 Z0.800 F10800.000
G1 X119.875 Y118.525
G1 Z0.200
G1 E0.80000 F2100.00000
G1 F1200
G1 X120.480 Y119.130 E0.02722
G1 X120.805 Y119.130 E0.01035
G1 X120.805 Y118.914 E0.00688
G1 X120.045 Y118.154 E0.03422
G1 X120.045 Y117.612 E0.01723
G1 X120.805 Y118.373 E0.03422
G1 X120.805 Y117.831 E0.01723
G1 X120.045 Y117.071 E0.03422
G1 X120.045 Y116.530 E0.01723
G1 X120.805 Y117.290 E0.03422
G1 X120.805 Y116.749 E0.01723
G1 X120.045 Y115.988 E0.03422
G1 X120.045 Y115.447 E0.01723
G1 X120.805 Y116.207 E0.03422
G1 X120.805 Y115.666 E0.01723
G1 X120.045 Y114.906 E0.03422
G1 X120.045 Y114.364 E0.01723
G1 X120.805 Y115.125 E0.03422
G1 X120.844 Y114.622 E0.01604
G1 X120.045 Y113.823 E0.03597
G1 X120.045 Y113.282 E0.01723
G1 X120.898 Y114.135 E0.03840
G1 X121.003 Y113.698 E0.01429
G1 X120.045 Y112.740 E0.04312
G1 X120.045 Y112.199 E0.01723
G1 X121.117 Y113.271 E0.04824
G1 X121.275 Y112.888 E0.01319
G1 X120.045 Y111.658 E0.05538
G1 X120.045 Y111.116 E0.01723
G1 X121.434 Y112.505 E0.06252
G1 X121.637 Y112.167 E0.01255
G1 X120.045 Y110.575 E0.07168
G1 X120.045 Y110.033 E0.01723
G1 X121.843 Y111.831 E0.08092
G1 X121.924 Y111.699 E0.00495
G1 X122.075 Y111.522 E0.00740
G1 X120.045 Y109.492 E0.09137
G1 X120.045 Y108.951 E0.01723
G1 X122.324 Y111.230 E0.10259
G1 X122.582 Y110.947 E0.01220
G1 X120.045 Y108.409 E0.11421
G1 X120.045 Y107.868 E0.01723
G1 X122.874 Y110.697 E0.12735
G1 X123.166 Y110.448 E0.01222
G1 X120.045 Y107.327 E0.14050
G1 X120.045 Y106.785 E0.01723
G1 X123.617 Y110.357 E0.16077
G1 F8640
G1 X121.289 Y108.030 E-0.76000
G1 E-0.04000 F2100.00000
G1 Z0.800 F10800.000
G1 X124.154 Y101.150
G1 Z0.200
G1 E0.80000 F2100.00000
G1 F1200
G1 X120.045 Y97.041 E0.18496
G1 X120.045 Y97.582 E0.01723
G1 X123.443 Y100.980 E0.15295
G1 X122.901 Y100.980 E0.01723
G1 X120.045 Y98.124 E0.12858
G1 X120.045 Y98.665 E0.01723
G1 X122.805 Y101.425 E0.12425
G1 X122.805 Y101.967 E0.01723
G1 X120.045 Y99.206 E0.12425
G1 X120.045 Y99.748 E0.01723
G1 X122.805 Y102.508 E0.12425
G1 X122.805 Y103.049 E0.01723
G1 X120.045 Y100.289 E0.12425
G1 X120.045 Y100.830 E0.01723
G1 X122.805 Y103.591 E0.12425
G1 X122.805 Y104.132 E0.01723
G1 X120.045 Y101.372 E0.12425
G1 X120.045 Y101.913 E0.01723
G1 X122.805 Y104.673 E0.12425
G1 X122.805 Y105.215 E0.01723
G1 X120.045 Y102.454 E0.12425
G1 X120.045 Y102.996 E0.01723
G1 X122.805 Y105.756 E0.12425
G1 X122.805 Y106.297 E0.01723
G1 X120.045 Y103.537 E0.12425
G1 X120.045 Y104.079 E0.01723
G1 X122.805 Y106.839 E0.12425
G1 X122.805 Y107.380 E0.01723
G1 X120.045 Y104.620 E0.12425
G1 X120.045 Y105.161 E0.01723
G1 X122.805 Y107.922 E0.12425
G1 X122.805 Y108.463 E0.01723
G1 X120.045 Y105.703 E0.12425
G1 X120.045 Y106.244 E0.01723
G1 X123.829 Y110.028 E0.17033
G1 X124.009 Y109.918 E0.00672
G1 X124.186 Y109.844 E0.00611
G1 X123.362 Y109.020 E0.03710
G1 X123.903 Y109.020 E0.01723
G1 X124.569 Y109.685 E0.02996
G1 X124.854 Y109.568 E0.00981
G1 X124.966 Y109.541 E0.00366
G1 X124.445 Y109.020 E0.02344
G1 X124.986 Y109.020 E0.01723
G1 X125.402 Y109.435 E0.01870
G1 X125.850 Y109.342 E0.01458
G1 X125.528 Y109.020 E0.01452
G1 X126.069 Y109.020 E0.01723
G1 X126.352 Y109.303 E0.01274
G1 X126.871 Y109.280 E0.01652
G1 X126.610 Y109.020 E0.01172
G1 X127.152 Y109.020 E0.01723
G1 X127.412 Y109.280 E0.01172
G1 X127.953 Y109.280 E0.01723
G1 X127.693 Y109.020 E0.01172
G1 X128.234 Y109.020 E0.01723
G1 X128.495 Y109.280 E0.01172
G1 X129.036 Y109.280 E0.01723
G1 X128.776 Y109.020 E0.01172
G1 X129.317 Y109.020 E0.01723
G1 X129.577 Y109.280 E0.01172
G1 X129.955 Y109.280 E0.01203
G1 X129.955 Y109.117 E0.00521
G1 X129.695 Y108.856 E0.01172
G1 X129.695 Y108.315 E0.01723
G1 X129.955 Y108.575 E0.01172
G1 X129.955 Y108.034 E0.01723
G1 X129.695 Y107.774 E0.01172
G1 X129.695 Y107.232 E0.01723
G1 X129.955 Y107.493 E0.01172
G1 X129.955 Y106.951 E0.01723
G1 X129.695 Y106.691 E0.01172
G1 X129.695 Y106.150 E0.01723
G1 X129.955 Y106.410 E0.01172
G1 X129.955 Y105.868 E0.01723
G1 X129.695 Y105.608 E0.01172
G1 X129.695 Y105.067 E0.01723
G1 X129.955 Y105.327 E0.01172
G1 X129.955 Y104.786 E0.01723
G1 X129.695 Y104.525 E0.01172
G1 X129.695 Y103.984 E0.01723
G1 X129.955 Y104.244 E0.01172
G1 X129.955 Y103.703 E0.01723
G1 X129.695 Y103.443 E0.01172
G1 X129.695 Y102.901 E0.01723
G1 X129.955 Y103.162 E0.01172
G1 X129.955 Y102.620 E0.01723
G1 X129.695 Y102.360 E0.01172
G1 X129.695 Y101.819 E0.01723
G1 X129.955 Y102.079 E0.01172
G1 X129.955 Y101.538 E0.01723
G1 X129.137 Y100.720 E0.03681
G1 X129.679 Y100.720 E0.01723
G1 X130.125 Y101.166 E0.02008
G1 F8640
G1 X129.679 Y100.720 E-0.14566
G1 X129.137 Y100.720 E-0.12500
G1 X129.955 Y101.538 E-0.26703
G1 X129.955 Y102.079 E-0.12500
G1 X129.695 Y101.819 E-0.08499
G1 X129.695 Y101.872 E-0.01232
G1 E-0.04000 F2100.00000
G1 Z0.800 F10800.000
G1 X129.026 Y101.150
G1 Z0.200
G1 E0.80000 F2100.00000
G1 F1200
G1 X128.596 Y100.720 E0.01935
G1 X128.055 Y100.720 E0.01723
G1 X128.315 Y100.980 E0.01172
G1 X127.774 Y100.980 E0.01723
G1 X127.513 Y100.720 E0.01172
G1 X126.972 Y100.720 E0.01723
G1 X127.232 Y100.980 E0.01172
G1 X126.691 Y100.980 E0.01723
G1 X126.413 Y100.702 E0.01252
G1 X125.825 Y100.656 E0.01876
G1 X126.150 Y100.980 E0.01461
G1 X125.608 Y100.980 E0.01723
G1 X125.127 Y100.499 E0.02165
G1 X124.860 Y100.435 E0.00874
G1 X124.282 Y100.196 E0.01991
G1 X125.067 Y100.980 E0.03531
G1 X124.525 Y100.980 E0.01723
G1 X120.045 Y96.500 E0.20169
G1 X120.045 Y95.958 E0.01723
G1 X121.329 Y97.243 E0.05781
G1 X121.090 Y96.665 E0.01991
G1 X121.026 Y96.398 E0.00874
G1 X120.045 Y95.417 E0.04415
G1 X120.045 Y94.875 E0.01723
G1 X120.869 Y95.700 E0.03711
G1 X120.823 Y95.112 E0.01876
G1 X120.045 Y94.334 E0.03503
G1 X120.045 Y93.793 E0.01723
G1 X120.805 Y94.553 E0.03422
G1 X120.805 Y94.012 E0.01723
G1 X120.045 Y93.251 E0.03422
G1 X120.045 Y92.710 E0.01723
G1 X120.805 Y93.470 E0.03422
G1 X120.805 Y92.929 E0.01723
G1 X120.045 Y92.169 E0.03422
G1 X120.045 Y91.627 E0.01723
G1 X120.805 Y92.388 E0.03422
G1 X120.805 Y91.846 E0.01723
G1 X120.045 Y91.086 E0.03422
G1 X120.045 Y90.870 E0.00688
G1 X120.370 Y90.870 E0.01035
G1 X120.975 Y91.475 E0.02722
M106 S255
;BEFORE_LAYER_CHANGE
G92 E0.0
;0.4


G1 F8640
G1 X120.370 Y90.870 E-0.19747
G1 X120.045 Y90.870 E-0.07510
G1 X120.045 Y91.086 E-0.04990
G1 X120.805 Y91.846 E-0.24826
G1 X120.805 Y92.388 E-0.12500
G1 X120.608 Y92.191 E-0.06427
G1 E-0.04000 F2100.00000
G1 Z0.800 F10800.000
;AFTER_LAYER_CHANGE
;0.4
M104 S210 ; set temperature
G1 X122.651 Y87.627
G1 Z0.400
G1 E0.80000 F2100.00000
G1 F1448
G1 X123.475 Y88.171 E0.03095
G1 X132.715 Y98.115 E0.42564
G1 X133.110 Y98.682 E0.02165
G1 X133.312 Y99.218 E0.01795
G1 X133.390 Y99.789 E0.01808
G1 X133.383 Y110.348 E0.33105
G1 X133.193 Y111.137 E0.02545
G1 X132.764 Y111.830 E0.02557
G1 X123.335 Y121.957 E0.43383
G1 X122.724 Y122.341 E0.02263
G1 X122.026 Y122.541 E0.02275
G1 X118.977 Y122.558 E0.09560
G1 X118.098 Y122.328 E0.02851
G1 X117.356 Y121.809 E0.02839
G1 X116.839 Y121.061 E0.02851
G1 X116.616 Y120.184 E0.02839
G1 X116.617 Y89.802 E0.95258
G1 X116.757 Y89.142 E0.02116
G1 X117.066 Y88.538 E0.02128
G1 X117.520 Y88.039 E0.02116
G1 X118.089 Y87.676 E0.02116
G1 X119.003 Y87.440 E0.02961
G1 X121.679 Y87.434 E0.08389
G1 X122.592 Y87.616 E0.02919
G1 F8640
G1 X123.475 Y88.171 E-0.24080
G1 X125.005 Y89.818 E-0.51920
G1 E-0.04000 F2100.00000
G1 Z1.000 F10800.000
G1 X125.000 Y108.782
G1 Z0.400
G1 E0.80000 F2100.00000
M204 S800
G1 F1448
G1 X123.043 Y108.782 E0.06624
G1 X123.043 Y101.218 E0.25604
G1 X129.457 Y101.218 E0.21711
G1 X129.457 Y108.782 E0.25604
G1 X125.060 Y108.782 E0.14884
M204 S1000
G1 X125.000 Y108.375 F10800.000
M204 S800
G1 F1448
G1 X123.450 Y108.375 E0.05247
G1 X123.450 Y101.625 E0.22848
G1 X129.050 Y101.625 E0.18955
G1 X129.050 Y108.375 E0.22848
G1 X125.060 Y108.375 E0.13506
M204 S1000
G1 X124.928 Y108.769 F10800.000
G1 F8640
G1 X123.450 Y108.375 E-0.37175
G1 X123.450 Y106.694 E-0.38825
G1 E-0.04000 F2100.00000
G1 Z1.000 F10800.000
G1 X121.043 Y119.368
G1 Z0.400
G1 E0.80000 F2100.00000
M204 S800
G1 F1448
G1 X119.807 Y119.368 E0.04183
G1 X119.807 Y90.632 E0.97267
G1 X121.043 Y90.632 E0.04183
G1 X121.043 Y94.875 E0.14361
G1 X121.110 Y95.731 E0.02908
G1 X121.317 Y96.591 E0.02993
G1 X121.655 Y97.408 E0.02993
G1 X122.117 Y98.162 E0.02993
G1 X122.691 Y98.834 E0.02993
G1 X123.363 Y99.408 E0.02993
G1 X124.117 Y99.870 E0.02993
G1 X124.934 Y100.208 E0.02993
G1 X125.794 Y100.415 E0.02993
G1 X126.650 Y100.482 E0.02908
G1 X130.193 Y100.482 E0.11992
G1 X130.193 Y109.518 E0.30585
G1 X126.650 Y109.518 E0.11992
G1 X125.792 Y109.585 E0.02912
G1 X124.915 Y109.800 E0.03058
G1 X124.117 Y110.130 E0.02922
G1 X123.363 Y110.592 E0.02993
G1 X122.690 Y111.167 E0.02997
G1 X122.106 Y111.856 E0.03058
G1 X121.655 Y112.592 E0.02922
G1 X121.317 Y113.409 E0.02993
G1 X121.110 Y114.269 E0.02993
G1 X121.043 Y115.125 E0.02908
G1 X121.043 Y119.308 E0.14158
M204 S1000
G1 X121.450 Y119.775 F10800.000
M204 S800
G1 F1448
G1 X119.400 Y119.775 E0.06939
G1 X119.400 Y90.225 E1.00023
G1 X121.450 Y90.225 E0.06939
G1 X121.450 Y94.859 E0.15685
G1 X121.514 Y95.667 E0.02746
G1 X121.705 Y96.465 E0.02776
G1 X122.019 Y97.222 E0.02776
G1 X122.447 Y97.922 E0.02776
G1 X122.980 Y98.545 E0.02776
G1 X123.603 Y99.078 E0.02776
G1 X124.303 Y99.506 E0.02776
G1 X125.060 Y99.820 E0.02776
G1 X125.858 Y100.011 E0.02776
G1 X126.666 Y100.075 E0.02746
G1 X130.600 Y100.075 E0.13316
G1 X130.600 Y109.925 E0.33341
G1 X126.666 Y109.925 E0.13316
G1 X125.857 Y109.989 E0.02747
G1 X125.042 Y110.188 E0.02841
G1 X124.303 Y110.494 E0.02708
G1 X123.603 Y110.922 E0.02776
G1 X122.980 Y111.455 E0.02777
G1 X122.437 Y112.096 E0.02841
G1 X122.019 Y112.778 E0.02708
G1 X121.705 Y113.535 E0.02776
G1 X121.514 Y114.333 E0.02776
G1 X121.450 Y115.141 E0.02746
G1 X121.450 Y119.715 E0.15482
M204 S1000
G1 X121.104 Y119.574 F10800.000
G1 F8640
G1 X119.400 Y119.775 E-0.47355
G1 X119.400 Y118.534 E-0.28645
G1 E-0.04000 F2100.00000
G1 Z1.000 F10800.000
G1 X120.092 Y119.246
G1 Z0.400
G1 E0.80000 F2100.00000
M204 S2000
G1 F1448
G1 X120.738 Y118.600 E0.03113
G1 X120.738 Y118.020 E0.01976
G1 X120.112 Y118.646 E0.03014
G1 X120.112 Y118.066 E0.01976
G1 X120.738 Y117.441 E0.03014
G1 X120.738 Y116.861 E0.01976
G1 X120.112 Y117.486 E0.03014
G1 X120.112 Y116.907 E0.01976
G1 X120.738 Y116.281 E0.03014
G1 X120.738 Y115.702 E0.01976
G1 X120.112 Y116.327 E0.03014
G1 X120.112 Y115.747 E0.01976
G1 X120.738 Y115.122 E0.03014
G1 X120.786 Y114.493 E0.02149
G1 X120.112 Y115.167 E0.03249
G1 X120.112 Y114.588 E0.01976
G1 X120.912 Y113.788 E0.03853
