; generated by PrusaSlicer 2.1.1+win64 on 2020-01-07 at 16:24:27 UTC

; 

; external perimeters extrusion width = 0.45mm
; perimeters extrusion width = 0.45mm
; infill extrusion width = 0.45mm
; solid infill extrusion width = 0.45mm
; top infill extrusion width = 0.40mm
; first layer extrusion width = 0.42mm

M73 P0 R35
M201 X9000 Y9000 Z500 E10000 ; sets maximum accelerations, mm/sec^2
M203 X500 Y500 Z12 E120 ; sets maximum feedrates, mm/sec
M204 P2000 R1500 T2000 ; sets acceleration (P, T) and retract acceleration (R), mm/sec^2
M205 X10.00 Y10.00 Z0.20 E2.50 ; sets the jerk limits, mm/sec
M205 S0 T0 ; sets the minimum extruding and travel feed rate, mm/sec
M107
M862.3 P "MK2.5SMMU2S" ; printer model check
M862.1 P0.4 ; nozzle diameter check
M115 U3.8.0 ; tell printer latest fw version
G90 ; use absolute coordinates
M83 ; extruder relative mode
M104 S215 ; set extruder temp
M140 S60 ; set bed temp
Tx
M190 S60 ; wait for bed temp
M109 S215 ; wait for extruder temp
G28 W ; home all without mesh bed level
G80 ; mesh bed leveling

G21 ; set units to millimeters

;go outside print area
G1 Y-3.0 F1000.0
G1 Z0.4 F1000.0
; select extruder
Tc
; purge line
G1 X55.0 F2000.0
G1 Z0.3 F1000.0
G92 E0.0
G1 X240.0 E25.0 F2200.0
M73 P0 R34
G1 Y-2.0 F1000.0
G1 X55.0 E25 F1400.0
G1 Z0.20 F1000.0
G1 X5.0 E4.0 F1000.0
G92 E0.0
G21 ; set units to millimeters
G90 ; use absolute coordinates
M83 ; use relative distances for extrusion
M900 K30 ; Filament gcode
;BEFORE_LAYER_CHANGE
G92 E0.0
;0.2


G1 E-0.80000 F2100.00000
G1 Z0.600 F10800.000
;AFTER_LAYER_CHANGE
;0.2
G1 X97.325 Y64.704
G1 Z0.200
G1 E0.80000 F2100.00000
M204 S1000
G1 F1200
G1 X98.290 Y63.533 E0.04757
G1 X99.838 Y62.064 E0.06692
G1 X101.059 Y61.162 E0.04757
G1 X102.921 Y60.111 E0.06704
G1 X104.321 Y59.535 E0.04746
G1 X106.371 Y58.970 E0.06669
G1 X107.824 Y58.754 E0.04604
G1 X109.268 Y58.683 E0.04535
G1 X140.718 Y58.682 E0.98609
G1 X142.171 Y58.754 E0.04562
G1 X143.566 Y58.959 E0.04421
G1 X145.735 Y59.554 E0.07051
G1 X147.078 Y60.111 E0.04558
G1 X148.326 Y60.775 E0.04432
G1 X150.201 Y62.097 E0.07192
G1 X151.246 Y63.047 E0.04428
G1 X152.224 Y64.127 E0.04570
G1 X153.092 Y65.297 E0.04570
G1 X153.819 Y66.506 E0.04421
G1 X154.749 Y68.601 E0.07188
G1 X155.157 Y69.954 E0.04432
G1 X155.436 Y71.351 E0.04467
G1 X155.603 Y73.565 E0.06960
G1 X155.603 Y136.458 E1.97198
G1 X155.531 Y137.889 E0.04493
G1 X155.317 Y139.335 E0.04581
G1 X154.963 Y140.749 E0.04570
G1 X154.476 Y142.111 E0.04535
G1 X153.819 Y143.494 E0.04803
G1 X152.672 Y145.299 E0.06704
G1 X151.277 Y146.921 E0.06708
G1 X150.122 Y147.968 E0.04890
G1 X148.368 Y149.200 E0.06720
G1 X146.458 Y150.165 E0.06708
G1 X144.990 Y150.690 E0.04890
G1 X142.920 Y151.153 E0.06651
G1 X140.724 Y151.318 E0.06902
G1 X109.232 Y151.317 E0.98743
G1 X107.821 Y151.245 E0.04428
G1 X106.380 Y151.031 E0.04570
G1 X104.966 Y150.677 E0.04570
G1 X103.604 Y150.191 E0.04535
G1 X101.674 Y149.225 E0.06765
G1 X100.374 Y148.355 E0.04906
G1 X98.754 Y146.953 E0.06715
G1 X97.328 Y145.300 E0.06845
G1 X96.179 Y143.491 E0.06720
G1 X95.510 Y142.077 E0.04906
G1 X94.842 Y140.042 E0.06715
G1 X94.469 Y137.887 E0.06857
G1 X94.397 Y136.432 E0.04570
G1 X94.397 Y73.538 E1.97198
G1 X94.469 Y72.111 E0.04482
G1 X94.683 Y70.665 E0.04581
G1 X95.037 Y69.251 E0.04570
G1 X95.524 Y67.889 E0.04535
G1 X96.181 Y66.505 E0.04803
G1 X97.293 Y64.755 E0.06504
G1 E-0.80000 F2100.00000
G1 Z0.800 F10800.000
G1 X108.535 Y102.003
G1 Z0.200
G1 E0.80000 F2100.00000
G1 F1200
G1 X109.141 Y101.914 E0.01919
G1 X109.739 Y101.944 E0.01879
G1 X110.326 Y102.091 E0.01898
G1 X110.874 Y102.350 E0.01899
G1 X111.361 Y102.711 E0.01899
G1 X111.767 Y103.159 E0.01899
G1 X112.079 Y103.679 E0.01899
G1 X112.283 Y104.249 E0.01899
G1 X112.372 Y104.848 E0.01899
G1 X112.342 Y105.453 E0.01899
G1 X112.195 Y106.041 E0.01899
G1 X111.936 Y106.589 E0.01899
G1 X111.575 Y107.075 E0.01899
G1 X111.126 Y107.482 E0.01899
G1 X110.607 Y107.793 E0.01899
G1 X110.036 Y107.997 E0.01899
G1 X109.437 Y108.086 E0.01899
G1 X108.832 Y108.056 E0.01899
G1 X108.245 Y107.909 E0.01899
G1 X107.697 Y107.650 E0.01899
G1 X107.210 Y107.289 E0.01899
G1 X106.804 Y106.841 E0.01899
G1 X106.492 Y106.321 E0.01899
G1 X106.288 Y105.751 E0.01899
G1 X106.199 Y105.152 E0.01899
G1 X106.229 Y104.547 E0.01899
G1 X106.376 Y103.959 E0.01899
G1 X106.635 Y103.411 E0.01899
G1 X106.996 Y102.925 E0.01899
G1 X107.445 Y102.518 E0.01899
G1 X107.964 Y102.207 E0.01899
G1 X108.479 Y102.023 E0.01712
G1 X108.606 Y102.378 F10800.000
G1 F1200
G1 X109.159 Y102.292 E0.01755
G1 X109.683 Y102.318 E0.01647
G1 X110.199 Y102.447 E0.01666
G1 X110.679 Y102.675 E0.01666
G1 X111.106 Y102.991 E0.01666
G1 X111.463 Y103.385 E0.01666
G1 X111.736 Y103.841 E0.01666
G1 X111.915 Y104.341 E0.01666
G1 X111.993 Y104.867 E0.01666
G1 X111.967 Y105.398 E0.01666
G1 X111.838 Y105.913 E0.01666
G1 X111.611 Y106.394 E0.01666
G1 X111.294 Y106.821 E0.01666
G1 X110.900 Y107.178 E0.01666
G1 X110.445 Y107.451 E0.01666
G1 X109.944 Y107.630 E0.01666
G1 X109.419 Y107.708 E0.01666
G1 X108.888 Y107.682 E0.01666
G1 X108.372 Y107.553 E0.01666
G1 X107.892 Y107.325 E0.01666
G1 X107.465 Y107.009 E0.01666
G1 X107.108 Y106.615 E0.01666
G1 X106.835 Y106.159 E0.01666
G1 X106.656 Y105.659 E0.01666
G1 X106.578 Y105.133 E0.01666
G1 X106.604 Y104.602 E0.01666
G1 X106.733 Y104.087 E0.01666
G1 X106.960 Y103.606 E0.01666
G1 X107.277 Y103.179 E0.01666
G1 X107.671 Y102.822 E0.01666
G1 X108.126 Y102.549 E0.01666
G1 X108.549 Y102.398 E0.01408
G1 X108.714 Y101.993 F10800.000
G1 E-0.80000 F2100.00000
G1 Z0.800 F10800.000
G1 X106.041 Y93.334
G1 Z0.200
G1 E0.80000 F2100.00000
G1 F1200
G1 X106.922 Y93.120 E0.02844
G1 X107.508 Y93.018 E0.01864
G1 X108.098 Y92.946 E0.01864
G1 X108.691 Y92.902 E0.01864
G1 X109.286 Y92.887 E0.01864
G1 X109.849 Y92.901 E0.01769
G1 X110.473 Y92.946 E0.01962
G1 X111.063 Y93.018 E0.01862
G1 X111.649 Y93.120 E0.01864
G1 X112.229 Y93.250 E0.01864
G1 X112.802 Y93.409 E0.01864
G1 X113.366 Y93.595 E0.01864
G1 X113.921 Y93.809 E0.01864
G1 X114.464 Y94.050 E0.01864
G1 X114.995 Y94.318 E0.01864
G1 X115.513 Y94.611 E0.01864
G1 X116.015 Y94.929 E0.01864
G1 X116.501 Y95.271 E0.01864
G1 X116.970 Y95.637 E0.01864
G1 X117.420 Y96.025 E0.01864
G1 X117.850 Y96.435 E0.01864
G1 X118.260 Y96.866 E0.01864
G1 X118.649 Y97.316 E0.01864
G1 X119.015 Y97.784 E0.01864
G1 X119.357 Y98.271 E0.01864
G1 X119.675 Y98.773 E0.01864
G1 X119.968 Y99.290 E0.01864
G1 X120.235 Y99.821 E0.01864
G1 X120.476 Y100.365 E0.01864
G1 X120.690 Y100.919 E0.01864
G1 X120.877 Y101.484 E0.01864
G1 X121.035 Y102.057 E0.01864
G1 X121.165 Y102.637 E0.01864
G1 X121.267 Y103.223 E0.01864
G1 X121.340 Y103.813 E0.01864
G1 X121.384 Y104.406 E0.01864
G1 X121.398 Y105.000 E0.01864
G1 X121.384 Y105.594 E0.01864
G1 X121.340 Y106.187 E0.01864
G1 X121.267 Y106.777 E0.01864
G1 X121.165 Y107.363 E0.01864
G1 X121.035 Y107.943 E0.01864
G1 X120.877 Y108.516 E0.01864
G1 X120.690 Y109.081 E0.01864
G1 X120.476 Y109.635 E0.01864
G1 X120.235 Y110.179 E0.01864
G1 X119.968 Y110.710 E0.01864
G1 X119.675 Y111.227 E0.01864
G1 X119.357 Y111.729 E0.01864
G1 X119.015 Y112.216 E0.01864
G1 X118.649 Y112.684 E0.01864
G1 X118.260 Y113.134 E0.01864
G1 X117.850 Y113.565 E0.01864
G1 X117.420 Y113.975 E0.01864
G1 X116.970 Y114.363 E0.01864
G1 X116.501 Y114.729 E0.01864
G1 X116.015 Y115.071 E0.01864
G1 X115.513 Y115.389 E0.01864
G1 X114.995 Y115.682 E0.01864
G1 X114.464 Y115.950 E0.01864
G1 X113.921 Y116.191 E0.01864
G1 X113.366 Y116.405 E0.01864
G1 X112.802 Y116.591 E0.01864
G1 X112.229 Y116.750 E0.01864
G1 X111.649 Y116.880 E0.01864
G1 X111.063 Y116.982 E0.01864
G1 X110.473 Y117.054 E0.01864
G1 X109.880 Y117.098 E0.01864
G1 X109.285 Y117.113 E0.01864
G1 X108.691 Y117.098 E0.01864
G1 X108.098 Y117.054 E0.01864
G1 X107.508 Y116.982 E0.01864
G1 X106.922 Y116.880 E0.01864
G1 X106.342 Y116.750 E0.01864
G1 X105.769 Y116.591 E0.01864
G1 X105.205 Y116.405 E0.01864
G1 X104.650 Y116.191 E0.01864
G1 X104.107 Y115.950 E0.01864
G1 X103.576 Y115.682 E0.01864
G1 X103.058 Y115.389 E0.01864
G1 X102.556 Y115.071 E0.01864
G1 X102.070 Y114.729 E0.01864
G1 X101.601 Y114.363 E0.01864
G1 X101.151 Y113.975 E0.01864
G1 X100.720 Y113.565 E0.01864
G1 X100.311 Y113.134 E0.01864
G1 X99.922 Y112.684 E0.01864
G1 X99.556 Y112.216 E0.01864
G1 X99.214 Y111.729 E0.01864
G1 X98.896 Y111.227 E0.01864
G1 X98.603 Y110.710 E0.01864
G1 X98.336 Y110.179 E0.01864
G1 X98.095 Y109.635 E0.01864
G1 X97.881 Y109.081 E0.01864
G1 X97.694 Y108.516 E0.01864
G1 X97.536 Y107.943 E0.01864
G1 X97.405 Y107.363 E0.01864
G1 X97.304 Y106.777 E0.01864
G1 X97.231 Y106.187 E0.01864
G1 X97.187 Y105.594 E0.01864
G1 X97.173 Y105.000 E0.01864
G1 X97.187 Y104.406 E0.01864
G1 X97.231 Y103.813 E0.01864
G1 X97.304 Y103.223 E0.01864
G1 X97.405 Y102.637 E0.01864
G1 X97.536 Y102.057 E0.01864
G1 X97.694 Y101.484 E0.01864
G1 X97.881 Y100.919 E0.01864
G1 X98.095 Y100.365 E0.01864
G1 X98.336 Y99.821 E0.01864
G1 X98.603 Y99.290 E0.01864
G1 X98.896 Y98.773 E0.01864
G1 X99.214 Y98.270 E0.01864
G1 X99.556 Y97.784 E0.01864
G1 X99.922 Y97.316 E0.01864
G1 X100.311 Y96.866 E0.01864
G1 X100.721 Y96.435 E0.01864
G1 X101.151 Y96.025 E0.01864
G1 X101.601 Y95.637 E0.01864
G1 X102.070 Y95.271 E0.01864
G1 X102.556 Y94.929 E0.01864
G1 X103.058 Y94.611 E0.01864
G1 X103.576 Y94.317 E0.01864
G1 X104.107 Y94.050 E0.01864
G1 X104.650 Y93.809 E0.01864
G1 X105.205 Y93.595 E0.01864
G1 X105.983 Y93.350 E0.02558
G1 X105.882 Y92.986 F10800.000
G1 F1200
G1 X106.849 Y92.750 E0.03119
G1 X107.453 Y92.645 E0.01922
G1 X108.061 Y92.570 E0.01922
G1 X108.673 Y92.525 E0.01922
G1 X109.286 Y92.510 E0.01922
G1 X109.867 Y92.524 E0.01825
G1 X110.510 Y92.570 E0.02020
G1 X111.118 Y92.645 E0.01921
G1 X111.722 Y92.750 E0.01922
G1 X112.320 Y92.884 E0.01922
G1 X112.911 Y93.048 E0.01922
G1 X113.493 Y93.240 E0.01922
G1 X114.065 Y93.461 E0.01922
G1 X114.626 Y93.709 E0.01922
G1 X115.173 Y93.985 E0.01922
G1 X115.707 Y94.287 E0.01922
G1 X116.225 Y94.615 E0.01922
G1 X116.726 Y94.968 E0.01922
G1 X117.209 Y95.345 E0.01922
G1 X117.673 Y95.746 E0.01922
G1 X118.117 Y96.168 E0.01922
G1 X118.540 Y96.612 E0.01922
G1 X118.940 Y97.076 E0.01922
G1 X119.317 Y97.560 E0.01922
G1 X119.670 Y98.061 E0.01922
G1 X119.998 Y98.579 E0.01922
G1 X120.301 Y99.112 E0.01922
G1 X120.576 Y99.660 E0.01922
G1 X120.825 Y100.220 E0.01922
G1 X121.045 Y100.792 E0.01922
G1 X121.238 Y101.374 E0.01922
G1 X121.401 Y101.965 E0.01922
G1 X121.535 Y102.563 E0.01922
G1 X121.640 Y103.167 E0.01922
G1 X121.715 Y103.776 E0.01922
G1 X121.760 Y104.387 E0.01922
G1 X121.775 Y105.000 E0.01922
G1 X121.760 Y105.613 E0.01922
G1 X121.715 Y106.224 E0.01922
G1 X121.640 Y106.833 E0.01922
G1 X121.535 Y107.437 E0.01922
G1 X121.401 Y108.035 E0.01922
G1 X121.238 Y108.626 E0.01922
G1 X121.045 Y109.208 E0.01922
G1 X120.825 Y109.780 E0.01922
G1 X120.576 Y110.340 E0.01922
G1 X120.301 Y110.888 E0.01922
G1 X119.998 Y111.421 E0.01922
G1 X119.670 Y111.939 E0.01922
G1 X119.317 Y112.440 E0.01922
G1 X118.940 Y112.924 E0.01922
G1 X118.540 Y113.388 E0.01922
G1 X118.117 Y113.832 E0.01922
G1 X117.673 Y114.254 E0.01922
G1 X117.209 Y114.655 E0.01922
G1 X116.726 Y115.032 E0.01922
G1 X116.225 Y115.385 E0.01922
G1 X115.707 Y115.713 E0.01922
G1 X115.173 Y116.015 E0.01922
G1 X114.626 Y116.291 E0.01922
G1 X114.065 Y116.539 E0.01922
G1 X113.493 Y116.760 E0.01922
G1 X112.911 Y116.952 E0.01922
G1 X112.320 Y117.116 E0.01922
G1 X111.722 Y117.250 E0.01922
G1 X111.118 Y117.355 E0.01922
G1 X110.510 Y117.430 E0.01922
G1 X109.898 Y117.475 E0.01922
G1 X109.285 Y117.490 E0.01922
G1 X108.673 Y117.475 E0.01922
G1 X108.061 Y117.430 E0.01922
G1 X107.453 Y117.355 E0.01922
G1 X106.849 Y117.250 E0.01922
G1 X106.251 Y117.116 E0.01922
G1 X105.660 Y116.952 E0.01922
G1 X105.078 Y116.760 E0.01922
G1 X104.506 Y116.539 E0.01922
G1 X103.945 Y116.291 E0.01922
G1 X103.398 Y116.015 E0.01922
G1 X102.864 Y115.713 E0.01922
G1 X102.346 Y115.385 E0.01922
G1 X101.845 Y115.032 E0.01922
G1 X101.362 Y114.655 E0.01922
G1 X100.898 Y114.254 E0.01922
G1 X100.454 Y113.832 E0.01922
G1 X100.031 Y113.388 E0.01922
G1 X99.631 Y112.924 E0.01922
G1 X99.253 Y112.440 E0.01922
G1 X98.900 Y111.939 E0.01922
G1 X98.573 Y111.421 E0.01922
G1 X98.270 Y110.888 E0.01922
G1 X97.995 Y110.340 E0.01922
G1 X97.746 Y109.780 E0.01922
G1 X97.526 Y109.208 E0.01922
G1 X97.333 Y108.626 E0.01922
G1 X97.170 Y108.035 E0.01922
G1 X97.036 Y107.437 E0.01922
G1 X96.931 Y106.833 E0.01922
G1 X96.856 Y106.224 E0.01922
G1 X96.811 Y105.613 E0.01922
G1 X96.796 Y105.000 E0.01922
G1 X96.811 Y104.387 E0.01922
G1 X96.856 Y103.776 E0.01922
G1 X96.931 Y103.167 E0.01922
G1 X97.036 Y102.563 E0.01922
G1 X97.170 Y101.965 E0.01922
G1 X97.333 Y101.374 E0.01922
G1 X97.526 Y100.792 E0.01922
G1 X97.746 Y100.220 E0.01922
G1 X97.995 Y99.660 E0.01922
G1 X98.270 Y99.112 E0.01922
G1 X98.573 Y98.579 E0.01922
G1 X98.901 Y98.061 E0.01922
G1 X99.253 Y97.560 E0.01922
G1 X99.631 Y97.076 E0.01922
G1 X100.031 Y96.612 E0.01922
G1 X100.454 Y96.168 E0.01922
G1 X100.898 Y95.746 E0.01922
G1 X101.362 Y95.345 E0.01922
G1 X101.845 Y94.968 E0.01922
G1 X102.346 Y94.615 E0.01922
G1 X102.864 Y94.287 E0.01922
G1 X103.398 Y93.985 E0.01922
G1 X103.945 Y93.709 E0.01922
G1 X104.506 Y93.461 E0.01922
G1 X105.078 Y93.240 E0.01922
G1 X105.825 Y93.002 E0.02457
G1 X106.168 Y93.267 F10800.000
G1 E-0.80000 F2100.00000
G1 Z0.800 F10800.000
G1 X114.837 Y94.365
G1 Z0.200
G1 E0.80000 F2100.00000
G1 F1200
G1 X119.921 Y99.448 E0.22808
G1 X120.391 Y100.458 F10800.000
G1 F1200
G1 X114.156 Y94.223 E0.27973
G1 X113.248 Y93.854 E0.03111
G1 X120.432 Y101.038 E0.32232
G1 X120.677 Y101.823 E0.02610
G1 X112.462 Y93.608 E0.36856
G1 X111.746 Y93.432 E0.02340
G1 X120.854 Y102.539 E0.40862
G1 X120.976 Y103.202 E0.02137
G1 X111.084 Y93.309 E0.44384
G1 X110.465 Y93.230 E0.01980
G1 X121.056 Y103.821 E0.47518
G1 X121.100 Y104.404 E0.01857
G1 X109.883 Y93.187 E0.50327
G1 X109.327 Y93.171 E0.01763
G1 X121.114 Y104.958 E0.52884
G1 X121.103 Y105.487 E0.01678
G1 X108.799 Y93.182 E0.55207
G1 X108.292 Y93.215 E0.01611
G1 X121.071 Y105.994 E0.57333
G1 X121.019 Y106.481 E0.01556
G1 X107.804 Y93.267 E0.59288
G1 X107.333 Y93.336 E0.01509
G1 X120.950 Y106.952 E0.61091
G1 X120.866 Y107.407 E0.01469
G1 X106.878 Y93.420 E0.62757
G1 X106.437 Y93.519 E0.01433
G1 X120.767 Y107.848 E0.64290
G1 X120.651 Y108.272 E0.01394
G1 X106.014 Y93.635 E0.65671
G1 X105.602 Y93.762 E0.01369
G1 X120.523 Y108.684 E0.66948
G1 X120.385 Y109.085 E0.01347
G1 X105.200 Y93.900 E0.68129
G1 X104.811 Y94.050 E0.01324
G1 X120.235 Y109.475 E0.69203
G1 X120.071 Y109.851 E0.01301
G1 X104.435 Y94.214 E0.70155
G1 X104.068 Y94.386 E0.01287
G1 X119.899 Y110.218 E0.71029
G1 X119.718 Y110.577 E0.01275
G1 X103.709 Y94.567 E0.71829
G1 X103.364 Y94.762 E0.01256
G1 X110.428 Y101.826 E0.31692
G1 X109.722 Y101.660 E0.02301
G1 X103.027 Y94.965 E0.30037
G1 X102.698 Y95.175 E0.01240
G1 X109.154 Y101.631 E0.28967
G1 X108.679 Y101.696 E0.01521
G1 X102.381 Y95.398 E0.28256
G1 X102.072 Y95.628 E0.01223
G1 X108.248 Y101.805 E0.27712
G1 X107.851 Y101.947 E0.01339
G1 X101.769 Y95.865 E0.27286
G1 X101.480 Y96.115 E0.01214
G1 X107.512 Y102.148 E0.27067
M73 P3 R33
G1 X107.276 Y102.290 E0.00876
G1 X107.191 Y102.366 E0.00361
G1 X101.197 Y96.372 E0.26894
G1 X100.920 Y96.635 E0.01211
G1 X106.908 Y102.623 E0.26865
G1 X106.785 Y102.734 E0.00526
G1 X106.655 Y102.910 E0.00693
G1 X100.657 Y96.911 E0.26911
G1 X100.401 Y97.194 E0.01212
G1 X106.426 Y103.219 E0.27032
G1 X106.244 Y103.577 E0.01273
G1 X100.151 Y97.484 E0.27338
G1 X99.914 Y97.786 E0.01219
G1 X106.085 Y103.958 E0.27689
G1 X105.977 Y104.389 E0.01411
G1 X99.683 Y98.096 E0.28237
G1 X99.460 Y98.412 E0.01229
G1 X105.929 Y104.881 E0.29025
G1 X105.915 Y105.166 E0.00902
G1 X105.958 Y105.449 E0.00910
G1 X99.250 Y98.742 E0.30093
G1 X99.048 Y99.079 E0.01247
G1 X106.137 Y106.168 E0.31808
G1 E-0.80000 F2100.00000
G1 Z0.800 F10800.000
G1 X108.143 Y108.174
G1 Z0.200
G1 E0.80000 F2100.00000
G1 F1200
G1 X115.207 Y115.238 E0.31692
G1 X115.544 Y115.035 E0.01247
G1 X108.849 Y108.340 E0.30037
G1 X109.416 Y108.368 E0.01802
G1 X115.873 Y114.825 E0.28970
G1 X116.190 Y114.602 E0.01229
G1 X109.892 Y108.305 E0.28255
G1 X110.105 Y108.273 E0.00684
G1 X110.322 Y108.195 E0.00731
G1 X116.499 Y114.372 E0.27712
