; generated by PrusaSlicer 2.1.0+win64 on 2019-11-22 at 20:45:02 UTC

; 

; external perimeters extrusion width = 0.45mm
; perimeters extrusion width = 0.45mm
; infill extrusion width = 0.45mm
; solid infill extrusion width = 0.45mm
; top infill extrusion width = 0.40mm
; support material extrusion width = 0.35mm
; first layer extrusion width = 0.42mm

M73 P0 R154
M201 X9000 Y9000 Z500 E10000 ; sets maximum accelerations, mm/sec^2
M203 X500 Y500 Z12 E120 ; sets maximum feedrates, mm/sec
M204 P2000 R1500 T2000 ; sets acceleration (P, T) and retract acceleration (R), mm/sec^2
M205 X10.00 Y10.00 Z0.20 E2.50 ; sets the jerk limits, mm/sec
M205 S0 T0 ; sets the minimum extruding and travel feed rate, mm/sec
M107
M862.3 P "MK2.5SMMU2S" ; printer model check
M862.1 P0.4 ; nozzle diameter check
M115 U3.8.0 ; tell printer latest fw version
G90 ; use absolute coordinates
M83 ; extruder relative mode
M104 S215 ; set extruder temp
M140 S60 ; set bed temp
Tx
M190 S60 ; wait for bed temp
M109 S215 ; wait for extruder temp
G28 W ; home all without mesh bed level
G80 ; mesh bed leveling

G21 ; set units to millimeters

;go outside print area
G1 Y-3.0 F1000.0
G1 Z0.4 F1000.0
; select extruder
Tc
; purge line
G1 X55.0 F2000.0
G1 Z0.3 F1000.0
G92 E0.0
G1 X240.0 E25.0 F2200.0
M73 P0 R154
G1 Y-2.0 F1000.0
G1 X55.0 E25 F1400.0
G1 Z0.20 F1000.0
G1 X5.0 E4.0 F1000.0
G92 E0.0
G21 ; set units to millimeters
G90 ; use absolute coordinates
M83 ; use relative distances for extrusion
M900 K30 ; Filament gcode
;BEFORE_LAYER_CHANGE
G92 E0.0
;0.2


G1 E-0.80000 F2100.00000
G1 Z0.600 F10800.000
;AFTER_LAYER_CHANGE
;0.2
G1 X112.321 Y70.222
G1 Z0.200
G1 E0.80000 F2100.00000
M204 S1000
G1 F1200
G1 X112.792 Y69.741 E0.02112
G1 X113.702 Y69.206 E0.03309
G1 X114.422 Y69.028 E0.02326
G1 X136.673 Y69.022 E0.69765
G1 X137.496 Y69.183 E0.02631
G1 X138.198 Y69.642 E0.02631
G1 X139.146 Y70.679 E0.04404
G1 X139.370 Y71.186 E0.01737
G1 X139.459 Y71.729 E0.01726
G1 X139.291 Y137.166 E2.05175
G1 X139.187 Y137.824 E0.02089
G1 X138.894 Y138.415 E0.02066
G1 X138.191 Y139.242 E0.03405
G1 X137.601 Y139.604 E0.02168
G1 X136.925 Y139.764 E0.02179
G1 X114.665 Y139.770 E0.69793
G1 X114.004 Y139.665 E0.02100
G1 X113.311 Y139.295 E0.02462
G1 X112.351 Y138.355 E0.04215
G1 X112.015 Y137.896 E0.01783
G1 X111.808 Y137.370 E0.01771
G1 X111.414 Y129.268 E0.25434
G1 X111.413 Y81.638 E1.49341
G1 X111.916 Y71.372 E0.32226
G1 X112.018 Y70.824 E0.01749
G1 X112.294 Y70.276 E0.01923
G1 E-0.80000 F2100.00000
G1 Z0.800 F10800.000
G1 X137.272 Y71.810
G1 Z0.200
G1 E0.80000 F2100.00000
G1 F1200
G1 X136.673 Y71.211 E0.02658
G1 X135.911 Y71.211 E0.02389
G1 X137.102 Y72.403 E0.05284
G1 X137.102 Y73.164 E0.02389
G1 X135.149 Y71.211 E0.08662
G1 X134.387 Y71.211 E0.02389
G1 X137.102 Y73.926 E0.12040
G1 X137.102 Y74.688 E0.02389
G1 X133.625 Y71.211 E0.15418
G1 X132.863 Y71.211 E0.02389
G1 X137.102 Y75.450 E0.18796
G1 X137.102 Y76.212 E0.02389
G1 X132.102 Y71.211 E0.22174
G1 X131.340 Y71.211 E0.02389
G1 X137.102 Y76.974 E0.25552
G1 X137.102 Y77.735 E0.02389
G1 X130.578 Y71.211 E0.28930
G1 X129.816 Y71.211 E0.02389
G1 X137.102 Y78.497 E0.32308
G1 X137.102 Y79.259 E0.02389
G1 X129.054 Y71.211 E0.35686
G1 X128.293 Y71.211 E0.02389
G1 X137.102 Y80.021 E0.39064
G1 X137.102 Y80.783 E0.02389
G1 X127.531 Y71.211 E0.42442
G1 X126.769 Y71.211 E0.02389
G1 X137.102 Y81.544 E0.45820
G1 X137.102 Y82.306 E0.02389
G1 X126.007 Y71.211 E0.49198
G1 X125.245 Y71.211 E0.02389
G1 X137.102 Y83.068 E0.52576
G1 X137.102 Y83.830 E0.02389
G1 X124.484 Y71.211 E0.55954
G1 X123.722 Y71.211 E0.02389
G1 X137.102 Y84.592 E0.59332
G1 X137.102 Y85.354 E0.02389
G1 X122.960 Y71.211 E0.62710
G1 X122.198 Y71.211 E0.02389
G1 X137.102 Y86.115 E0.66088
G1 X137.102 Y86.877 E0.02389
G1 X121.436 Y71.211 E0.69466
G1 X120.674 Y71.211 E0.02389
G1 X137.102 Y87.639 E0.72844
G1 X137.102 Y88.401 E0.02389
G1 X119.913 Y71.211 E0.76222
G1 X119.151 Y71.211 E0.02389
G1 X137.102 Y89.163 E0.79600
G1 X137.102 Y89.924 E0.02389
G1 X118.389 Y71.211 E0.82978
G1 X117.627 Y71.211 E0.02389
G1 X137.102 Y90.686 E0.86356
G1 X137.102 Y91.448 E0.02389
G1 X116.865 Y71.211 E0.89734
G1 X116.104 Y71.211 E0.02389
G1 X137.102 Y92.210 E0.93113
G1 X137.102 Y92.972 E0.02389
G1 X115.342 Y71.211 E0.96491
G1 X114.580 Y71.211 E0.02389
G1 X137.102 Y93.734 E0.99869
G1 X137.102 Y94.495 E0.02389
G1 X114.102 Y71.494 E1.01990
G1 X114.102 Y72.256 E0.02389
G1 X137.102 Y95.257 E1.01990
G1 X137.102 Y96.019 E0.02389
G1 X114.102 Y73.018 E1.01990
G1 X114.102 Y73.780 E0.02389
G1 X137.102 Y96.781 E1.01990
G1 X137.102 Y97.543 E0.02389
G1 X114.102 Y74.542 E1.01990
G1 X114.102 Y75.303 E0.02389
G1 X137.102 Y98.304 E1.01990
G1 X137.102 Y99.066 E0.02389
G1 X114.102 Y76.065 E1.01990
G1 X114.102 Y76.827 E0.02389
G1 X137.102 Y99.828 E1.01990
M73 P0 R152
G1 X137.102 Y100.590 E0.02389
G1 X114.102 Y77.589 E1.01990
G1 X114.102 Y78.351 E0.02389
G1 X137.102 Y101.352 E1.01990
G1 X137.102 Y102.113 E0.02389
G1 X114.102 Y79.113 E1.01990
G1 X114.102 Y79.874 E0.02389
G1 X137.102 Y102.875 E1.01990
G1 X137.102 Y103.637 E0.02389
G1 X114.102 Y80.636 E1.01990
G1 X114.102 Y80.893 E0.00806
G1 X113.849 Y81.146 E0.01119
G1 X137.102 Y104.399 E1.03109
G1 X137.102 Y105.161 E0.02389
G1 X113.602 Y81.660 E1.04207
G1 X113.602 Y82.422 E0.02389
G1 X137.102 Y105.923 E1.04207
G1 X137.102 Y106.684 E0.02389
G1 X113.602 Y83.183 E1.04207
G1 X113.602 Y83.945 E0.02389
G1 X137.102 Y107.446 E1.04207
G1 X137.102 Y108.208 E0.02389
G1 X113.602 Y84.707 E1.04207
G1 X113.602 Y85.469 E0.02389
G1 X137.102 Y108.970 E1.04207
G1 X137.102 Y109.732 E0.02389
G1 X113.602 Y86.231 E1.04207
G1 X113.602 Y86.993 E0.02389
G1 X137.102 Y110.493 E1.04207
G1 X137.102 Y111.255 E0.02389
G1 X113.602 Y87.754 E1.04207
G1 X113.602 Y88.516 E0.02389
G1 X137.102 Y112.017 E1.04207
G1 X137.102 Y112.779 E0.02389
G1 X113.602 Y89.278 E1.04207
G1 X113.602 Y90.040 E0.02389
G1 X137.102 Y113.541 E1.04207
G1 X137.102 Y114.303 E0.02389
G1 X113.602 Y90.802 E1.04207
G1 X113.602 Y91.563 E0.02389
G1 X137.102 Y115.064 E1.04207
G1 X137.102 Y115.826 E0.02389
G1 X113.602 Y92.325 E1.04207
G1 X113.602 Y93.087 E0.02389
G1 X137.102 Y116.588 E1.04207
G1 X137.102 Y117.350 E0.02389
G1 X113.602 Y93.849 E1.04207
G1 X113.602 Y94.611 E0.02389
G1 X137.102 Y118.112 E1.04207
G1 X137.102 Y118.873 E0.02389
G1 X113.602 Y95.373 E1.04207
G1 X113.602 Y96.134 E0.02389
G1 X137.102 Y119.635 E1.04207
G1 X137.102 Y120.397 E0.02389
G1 X113.602 Y96.896 E1.04207
G1 X113.602 Y97.658 E0.02389
G1 X137.102 Y121.159 E1.04207
G1 X137.102 Y121.921 E0.02389
G1 X113.602 Y98.420 E1.04207
G1 X113.602 Y99.182 E0.02389
G1 X137.102 Y122.683 E1.04207
G1 X137.102 Y123.444 E0.02389
G1 X113.602 Y99.943 E1.04207
G1 X113.602 Y100.705 E0.02389
G1 X137.102 Y124.206 E1.04207
G1 X137.102 Y124.968 E0.02389
G1 X113.602 Y101.467 E1.04207
G1 X113.602 Y102.229 E0.02389
G1 X137.102 Y125.730 E1.04207
G1 X137.102 Y126.492 E0.02389
G1 X113.602 Y102.991 E1.04207
G1 X113.602 Y103.753 E0.02389
G1 X137.102 Y127.253 E1.04207
M73 P1 R151
G1 X137.102 Y128.015 E0.02389
G1 X113.602 Y104.514 E1.04207
G1 X113.602 Y105.276 E0.02389
G1 X137.102 Y128.777 E1.04207
G1 X137.102 Y129.539 E0.02389
G1 X113.602 Y106.038 E1.04207
G1 X113.602 Y106.800 E0.02389
G1 X137.102 Y130.301 E1.04207
G1 X137.102 Y131.063 E0.02389
G1 X113.602 Y107.562 E1.04207
G1 X113.602 Y108.323 E0.02389
G1 X137.102 Y131.824 E1.04207
G1 X137.102 Y132.586 E0.02389
G1 X113.602 Y109.085 E1.04207
G1 X113.602 Y109.847 E0.02389
G1 X137.102 Y133.348 E1.04207
G1 X137.102 Y134.110 E0.02389
G1 X113.602 Y110.609 E1.04207
G1 X113.602 Y111.371 E0.02389
G1 X137.102 Y134.872 E1.04207
G1 X137.102 Y135.633 E0.02389
G1 X113.602 Y112.133 E1.04207
G1 X113.602 Y112.894 E0.02389
G1 X137.102 Y136.395 E1.04207
G1 X137.102 Y137.157 E0.02389
G1 X113.602 Y113.656 E1.04207
G1 X113.602 Y114.418 E0.02389
G1 X136.765 Y137.582 E1.02712
G1 X136.003 Y137.582 E0.02389
G1 X113.602 Y115.180 E0.99334
G1 X113.602 Y115.942 E0.02389
G1 X135.242 Y137.582 E0.95956
G1 X134.480 Y137.582 E0.02389
G1 X113.602 Y116.703 E0.92578
G1 X113.602 Y117.465 E0.02389
G1 X133.718 Y137.582 E0.89199
G1 X132.956 Y137.582 E0.02389
G1 X113.602 Y118.227 E0.85821
G1 X113.602 Y118.989 E0.02389
G1 X132.194 Y137.582 E0.82443
G1 X131.432 Y137.582 E0.02389
G1 X113.602 Y119.751 E0.79065
G1 X113.602 Y120.513 E0.02389
G1 X130.671 Y137.582 E0.75687
G1 X129.909 Y137.582 E0.02389
G1 X113.602 Y121.274 E0.72309
G1 X113.602 Y122.036 E0.02389
G1 X129.147 Y137.582 E0.68931
G1 X128.385 Y137.582 E0.02389
G1 X113.602 Y122.798 E0.65553
G1 X113.602 Y123.560 E0.02389
G1 X127.623 Y137.582 E0.62175
G1 X126.862 Y137.582 E0.02389
G1 X113.602 Y124.322 E0.58797
G1 X113.602 Y125.083 E0.02389
G1 X126.100 Y137.582 E0.55419
G1 X125.338 Y137.582 E0.02389
G1 X113.602 Y125.845 E0.52041
G1 X113.602 Y126.607 E0.02389
G1 X124.576 Y137.582 E0.48663
G1 X123.814 Y137.582 E0.02389
G1 X113.602 Y127.369 E0.45285
G1 X113.602 Y128.131 E0.02389
G1 X123.053 Y137.582 E0.41907
G1 X122.291 Y137.582 E0.02389
G1 X113.602 Y128.893 E0.38529
G1 X113.602 Y129.206 E0.00984
G1 X114.102 Y129.706 E0.02217
G1 X114.102 Y130.154 E0.01404
G1 X121.529 Y137.582 E0.32934
G1 X120.767 Y137.582 E0.02389
G1 X114.102 Y130.916 E0.29556
G1 X114.102 Y131.678 E0.02389
G1 X120.005 Y137.582 E0.26178
G1 X119.243 Y137.582 E0.02389
G1 X114.102 Y132.440 E0.22800
G1 X114.102 Y133.202 E0.02389
G1 X118.482 Y137.582 E0.19422
G1 X117.720 Y137.582 E0.02389
G1 X114.102 Y133.963 E0.16044
G1 X114.102 Y134.725 E0.02389
G1 X116.958 Y137.582 E0.12666
G1 X116.196 Y137.582 E0.02389
G1 X114.102 Y135.487 E0.09288
G1 X114.102 Y136.249 E0.02389
G1 X115.434 Y137.582 E0.05910
G1 X114.673 Y137.582 E0.02389
G1 X113.932 Y136.841 E0.03284
M106 S255
;BEFORE_LAYER_CHANGE
G92 E0.0
;0.5


G1 E-0.80000 F2100.00000
G1 Z0.800 F10800.000
;AFTER_LAYER_CHANGE
;0.5
M104 S210 ; set temperature
G1 X114.004 Y139.665
G1 Z0.500
G1 E0.80000 F2100.00000
G1 F3000
G1 X113.311 Y139.295 E0.03483
G1 X112.351 Y138.355 E0.05962
G1 X112.015 Y137.896 E0.02522
G1 X111.808 Y137.370 E0.02506
G1 X111.414 Y129.268 E0.35980
G1 X111.413 Y81.638 E2.11263
G1 X111.916 Y71.372 E0.45588
G1 X112.018 Y70.824 E0.02474
G1 X112.321 Y70.222 E0.02987
G1 X112.792 Y69.741 E0.02987
G1 X113.702 Y69.206 E0.04681
G1 X114.422 Y69.028 E0.03291
G1 X136.673 Y69.022 E0.98693
G1 X137.496 Y69.183 E0.03722
G1 X138.198 Y69.642 E0.03722
G1 X139.146 Y70.679 E0.06229
G1 X139.370 Y71.186 E0.02457
G1 X139.459 Y71.729 E0.02441
G1 X139.291 Y137.166 E2.90247
G1 X139.187 Y137.824 E0.02955
G1 X138.894 Y138.415 E0.02923
G1 X138.191 Y139.242 E0.04817
G1 X137.601 Y139.604 E0.03067
G1 X136.925 Y139.764 E0.03083
G1 X114.665 Y139.770 E0.98732
G1 X114.063 Y139.675 E0.02705
G1 E-0.80000 F2100.00000
G1 Z1.100 F10800.000
G1 X116.567 Y135.255
G1 Z0.500
G1 E0.80000 F2100.00000
G1 F3000
G1 X116.567 Y128.195 E0.25149
G1 X118.374 Y128.195 E0.06438
G1 X118.374 Y135.117 E0.24656
G1 X120.181 Y135.117 E0.06438
G1 X120.181 Y131.502 E0.12875
G1 X121.988 Y131.502 E0.06438
G1 X121.988 Y135.117 E0.12875
G1 X123.795 Y135.117 E0.06438
G1 X123.795 Y131.502 E0.12875
G1 X125.602 Y131.502 E0.06438
G1 X125.602 Y135.117 E0.12875
G1 X127.409 Y135.117 E0.06438
G1 X127.409 Y131.502 E0.12875
G1 X129.216 Y131.502 E0.06438
G1 X129.216 Y135.117 E0.12875
G1 X131.023 Y135.117 E0.06438
G1 X131.023 Y131.502 E0.12875
G1 X132.830 Y131.502 E0.06437
G1 X132.830 Y128.195 E0.11781
G1 X132.830 Y135.255 E0.25149
G1 X134.637 Y135.255 F10800.000
G1 F3000
G1 X134.637 Y73.676 E2.19369
G1 X132.830 Y73.676 E0.06438
G1 X132.830 Y82.404 E0.31094
G1 X132.830 Y77.290 E0.18219
G1 X131.023 Y77.290 E0.06437
G1 X131.023 Y73.676 E0.12875
G1 X129.216 Y73.676 E0.06438
G1 X129.216 Y77.290 E0.12875
G1 X127.409 Y77.290 E0.06438
G1 X127.409 Y73.676 E0.12875
G1 X125.602 Y73.676 E0.06438
G1 X125.602 Y77.290 E0.12875
G1 X123.795 Y77.290 E0.06438
G1 X123.795 Y73.676 E0.12875
G1 X121.988 Y73.676 E0.06438
G1 X121.988 Y77.290 E0.12875
G1 X120.181 Y77.290 E0.06438
G1 X120.181 Y73.676 E0.12875
G1 X118.374 Y73.676 E0.06438
G1 X118.374 Y82.404 E0.31094
G1 X116.567 Y82.404 E0.06438
G1 X116.567 Y73.538 E0.31586
G1 E-0.80000 F2100.00000
G1 Z1.100 F10800.000
G1 X116.567 Y82.573
G1 Z0.500
G1 E0.80000 F2100.00000
G1 F3000
G1 X116.567 Y127.888 E1.61431
M73 P2 R150
G1 X117.074 Y127.888 E0.01806
G1 X117.074 Y82.711 E1.60939
G1 X117.581 Y82.711 E0.01806
G1 X117.581 Y127.888 E1.60939
G1 X118.088 Y127.888 E0.01806
G1 X118.088 Y82.711 E1.60939
G1 X118.595 Y82.711 E0.01806
G1 X118.595 Y127.888 E1.60939
G1 X119.102 Y127.888 E0.01806
G1 X119.102 Y82.711 E1.60939
G1 X119.609 Y82.711 E0.01806
G1 X119.609 Y127.888 E1.60939
G1 X120.116 Y127.888 E0.01806
G1 X120.116 Y82.711 E1.60939
G1 X120.623 Y82.711 E0.01806
G1 X120.623 Y127.888 E1.60939
G1 X121.130 Y127.888 E0.01806
G1 X121.130 Y82.711 E1.60939
G1 X121.637 Y82.711 E0.01806
G1 X121.637 Y127.888 E1.60939
G1 X122.144 Y127.888 E0.01806
G1 X122.144 Y82.711 E1.60939
G1 X122.652 Y82.711 E0.01806
G1 X122.652 Y127.888 E1.60939
G1 X123.159 Y127.888 E0.01806
G1 X123.159 Y82.711 E1.60939
G1 X123.666 Y82.711 E0.01806
G1 X123.666 Y127.888 E1.60939
G1 X124.173 Y127.888 E0.01806
G1 X124.173 Y82.711 E1.60939
G1 X124.680 Y82.711 E0.01806
G1 X124.680 Y127.888 E1.60939
G1 X125.187 Y127.888 E0.01806
G1 X125.187 Y82.711 E1.60939
G1 X125.694 Y82.711 E0.01806
G1 X125.694 Y127.888 E1.60939
G1 X126.201 Y127.888 E0.01806
G1 X126.201 Y82.711 E1.60939
G1 X126.708 Y82.711 E0.01806
G1 X126.708 Y127.888 E1.60939
G1 X127.215 Y127.888 E0.01806
G1 X127.215 Y82.711 E1.60939
G1 X127.722 Y82.711 E0.01806
G1 X127.722 Y127.888 E1.60939
G1 X128.229 Y127.888 E0.01806
G1 X128.229 Y82.711 E1.60939
G1 X128.736 Y82.711 E0.01806
G1 X128.736 Y127.888 E1.60939
G1 X129.244 Y127.888 E0.01806
G1 X129.244 Y82.711 E1.60939
G1 X129.751 Y82.711 E0.01806
G1 X129.751 Y127.888 E1.60939
G1 X130.258 Y127.888 E0.01806
G1 X130.258 Y82.711 E1.60939
G1 X130.765 Y82.711 E0.01806
G1 X130.765 Y127.888 E1.60939
G1 X131.272 Y127.888 E0.01806
G1 X131.272 Y82.711 E1.60939
G1 X131.779 Y82.711 E0.01806
G1 X131.779 Y127.888 E1.60939
G1 X132.286 Y127.888 E0.01806
G1 X132.286 Y82.711 E1.60939
G1 X132.793 Y82.711 E0.01806
G1 X132.793 Y128.027 E1.61431
;BEFORE_LAYER_CHANGE
G92 E0.0
;0.7


G1 E-0.80000 F2100.00000
G1 Z1.100 F10800.000
;AFTER_LAYER_CHANGE
;0.7
G1 X132.793 Y126.219
G1 Z0.700
G1 E0.80000 F2100.00000
G1 F1216
G1 X132.793 Y124.274 E0.04967
G1 X132.286 Y124.274 E0.01295
G1 X132.286 Y126.081 E0.04614
G1 X131.779 Y126.081 E0.01295
G1 X131.779 Y124.274 E0.04614
G1 X131.489 Y124.274 E0.00740
G1 X131.489 Y125.538 E0.03227
G1 X131.272 Y125.755 E0.00784
G1 X131.272 Y126.081 E0.00832
G1 X130.765 Y126.081 E0.01295
G1 X130.765 Y125.826 E0.00652
G1 X130.258 Y125.826 E0.01295
G1 X130.258 Y126.081 E0.00652
G1 X129.751 Y126.081 E0.01295
G1 X129.751 Y125.826 E0.00652
G1 X129.244 Y125.826 E0.01295
G1 X129.244 Y126.219 E0.01005
G1 E-0.80000 F2100.00000
G1 Z1.300 F10800.000
G1 X134.776 Y131.503
G1 Z0.700
G1 E0.80000 F2100.00000
G1 F1216
G1 X116.567 Y131.503 E0.46495
G1 X116.567 Y133.310 E0.04614
G1 X134.637 Y133.310 E0.46142
G1 X134.637 Y135.117 E0.04614
G1 X116.428 Y135.117 E0.46495
G1 E-0.80000 F2100.00000
G1 Z1.300 F10800.000
G1 X118.595 Y126.219
G1 Z0.700
G1 E0.80000 F2100.00000
G1 F1216
G1 X118.595 Y125.622 E0.01525
G1 X118.799 Y125.826 E0.00736
G1 X119.102 Y125.826 E0.00775
G1 X119.102 Y126.081 E0.00652
G1 X119.609 Y126.081 E0.01295
G1 X119.609 Y125.826 E0.00652
G1 X120.116 Y125.826 E0.01295
G1 X120.116 Y126.219 E0.01005
G1 E-0.80000 F2100.00000
G1 Z1.300 F10800.000
G1 X118.595 Y86.464
G1 Z0.700
G1 E0.80000 F2100.00000
G1 F1216
G1 X118.595 Y82.711 E0.09581
G1 X119.102 Y82.711 E0.01295
G1 X119.102 Y84.174 E0.03735
G1 X119.609 Y84.174 E0.01295
G1 X119.609 Y82.711 E0.03735
G1 X120.116 Y82.711 E0.01295
G1 X120.116 Y84.312 E0.04088
G1 E-0.80000 F2100.00000
G1 Z1.300 F10800.000
G1 X129.244 Y84.312
G1 Z0.700
G1 E0.80000 F2100.00000
G1 F1216
G1 X129.244 Y82.711 E0.04088
G1 X129.751 Y82.711 E0.01295
G1 X129.751 Y84.174 E0.03735
G1 X130.258 Y84.174 E0.01295
G1 X130.258 Y82.711 E0.03735
G1 X130.765 Y82.711 E0.01295
G1 X130.765 Y84.174 E0.03735
G1 X131.201 Y84.174 E0.01115
G1 X131.272 Y84.245 E0.00255
G1 X131.272 Y82.711 E0.03915
G1 X131.779 Y82.711 E0.01295
