; generated by PrusaSlicer 2.1.0+win64 on 2019-11-22 at 18:22:14 UTC

; 

; external perimeters extrusion width = 0.45mm
; perimeters extrusion width = 0.45mm
; infill extrusion width = 0.45mm
; solid infill extrusion width = 0.45mm
; top infill extrusion width = 0.40mm
; support material extrusion width = 0.35mm
; first layer extrusion width = 0.42mm

M73 P0 R295
M201 X9000 Y9000 Z500 E10000 ; sets maximum accelerations, mm/sec^2
M203 X500 Y500 Z12 E120 ; sets maximum feedrates, mm/sec
M204 P2000 R1500 T2000 ; sets acceleration (P, T) and retract acceleration (R), mm/sec^2
M205 X10.00 Y10.00 Z0.20 E2.50 ; sets the jerk limits, mm/sec
M205 S0 T0 ; sets the minimum extruding and travel feed rate, mm/sec
M107
M862.3 P "MK2.5SMMU2S" ; printer model check
M862.1 P0.4 ; nozzle diameter check
M115 U3.8.0 ; tell printer latest fw version
G90 ; use absolute coordinates
M83 ; extruder relative mode
M104 S215 ; set extruder temp
M140 S60 ; set bed temp
Tx
M190 S60 ; wait for bed temp
M109 S215 ; wait for extruder temp
G28 W ; home all without mesh bed level
G80 ; mesh bed leveling

G21 ; set units to millimeters

;go outside print area
G1 Y-3.0 F1000.0
G1 Z0.4 F1000.0
; select extruder
Tc
; purge line
G1 X55.0 F2000.0
G1 Z0.3 F1000.0
G92 E0.0
G1 X240.0 E25.0 F2200.0
M73 P0 R295
G1 Y-2.0 F1000.0
G1 X55.0 E25 F1400.0
G1 Z0.20 F1000.0
G1 X5.0 E4.0 F1000.0
G92 E0.0
G21 ; set units to millimeters
G90 ; use absolute coordinates
M83 ; use relative distances for extrusion
M900 K30 ; Filament gcode
;BEFORE_LAYER_CHANGE
G92 E0.0
;0.2


G1 E-0.80000 F2100.00000
G1 Z0.600 F10800.000
;AFTER_LAYER_CHANGE
;0.2
G1 X178.041 Y36.723
G1 Z0.200
G1 E0.80000 F2100.00000
M204 S1000
G1 F1200
G1 X178.584 Y37.419 E0.02766
G1 X212.488 Y109.241 E2.49023
G1 X212.572 Y109.836 E0.01885
G1 X212.572 Y155.381 E1.42803
G1 X212.465 Y156.057 E0.02146
G1 X212.212 Y156.582 E0.01828
G1 X211.830 Y157.023 E0.01828
G1 X211.345 Y157.347 E0.01828
G1 X210.792 Y157.531 E0.01828
G1 X103.583 Y177.358 E3.41848
G1 X101.750 Y177.391 E0.05748
G1 X100.847 Y177.236 E0.02872
G1 X99.998 Y176.815 E0.02970
G1 X99.348 Y176.215 E0.02776
G1 X37.959 Y105.270 E2.94157
G1 X37.694 Y104.886 E0.01464
G1 X37.497 Y104.384 E0.01692
G1 X37.428 Y103.849 E0.01692
G1 X37.428 Y61.669 E1.32252
G1 X37.535 Y61.000 E0.02123
G1 X37.739 Y60.552 E0.01544
G1 X38.040 Y60.158 E0.01555
G1 X38.423 Y59.842 E0.01555
G1 X38.863 Y59.621 E0.01544
G1 X126.501 Y28.423 E2.91675
G1 X127.106 Y28.334 E0.01919
G1 X149.209 Y28.334 E0.69302
G1 X149.805 Y28.417 E0.01885
G1 X177.268 Y36.298 E0.89587
G1 X177.989 Y36.694 E0.02577
G1 E-0.80000 F2100.00000
G1 Z0.800 F10800.000
G1 X147.133 Y142.690
G1 Z0.200
G1 E0.80000 F2100.00000
G1 F1200
G1 X144.809 Y142.418 E0.07338
G1 X142.610 Y141.618 E0.07337
G1 X140.654 Y140.332 E0.07338
G1 X139.049 Y138.629 E0.07337
G1 X137.879 Y136.603 E0.07337
G1 X137.207 Y134.361 E0.07337
G1 X137.071 Y132.025 E0.07337
G1 X137.478 Y129.720 E0.07337
G1 X138.405 Y127.572 E0.07337
G1 X139.802 Y125.695 E0.07337
G1 X141.595 Y124.190 E0.07338
G1 X143.686 Y123.140 E0.07337
G1 X145.963 Y122.600 E0.07338
G1 X148.303 Y122.600 E0.07337
G1 X150.580 Y123.140 E0.07337
G1 X152.671 Y124.190 E0.07337
G1 X154.464 Y125.695 E0.07337
G1 X155.861 Y127.572 E0.07337
G1 X156.788 Y129.720 E0.07337
G1 X157.194 Y132.025 E0.07337
G1 X157.058 Y134.361 E0.07337
G1 X156.387 Y136.603 E0.07337
G1 X155.217 Y138.629 E0.07337
G1 X153.611 Y140.332 E0.07337
G1 X151.656 Y141.618 E0.07338
G1 X149.457 Y142.418 E0.07337
G1 X147.193 Y142.683 E0.07149
G1 X147.133 Y142.310 F10800.000
G1 F1200
G1 X144.896 Y142.048 E0.07061
G1 X142.780 Y141.278 E0.07061
G1 X140.898 Y140.041 E0.07061
G1 X139.353 Y138.403 E0.07061
G1 X138.227 Y136.453 E0.07061
G1 X137.581 Y134.295 E0.07061
G1 X137.450 Y132.047 E0.07061
G1 X137.842 Y129.829 E0.07061
G1 X138.734 Y127.761 E0.07061
G1 X140.078 Y125.955 E0.07061
G1 X141.803 Y124.508 E0.07061
G1 X143.816 Y123.497 E0.07060
G1 X146.007 Y122.978 E0.07061
G1 X148.259 Y122.978 E0.07061
G1 X150.450 Y123.497 E0.07061
G1 X152.463 Y124.508 E0.07061
G1 X154.188 Y125.955 E0.07061
G1 X155.533 Y127.761 E0.07061
G1 X156.424 Y129.829 E0.07061
G1 X156.815 Y132.047 E0.07061
G1 X156.685 Y134.295 E0.07061
G1 X156.039 Y136.453 E0.07061
G1 X154.913 Y138.403 E0.07061
G1 X153.367 Y140.041 E0.07061
G1 X151.486 Y141.278 E0.07061
G1 X149.370 Y142.048 E0.07061
G1 X147.193 Y142.303 E0.06872
G1 X146.933 Y142.656 F10800.000
G1 E-0.80000 F2100.00000
G1 Z0.800 F10800.000
G1 X159.783 Y154.794
G1 Z0.200
G1 E0.80000 F2100.00000
G1 F1200
G1 X109.770 Y154.794 E1.56812
G1 X109.770 Y110.428 E1.39106
G1 X209.796 Y110.428 E3.13625
G1 X209.796 Y154.794 E1.39106
G1 X159.843 Y154.794 E1.56624
M73 P0 R294
G1 X159.783 Y155.171 F10800.000
G1 F1200
G1 X109.393 Y155.171 E1.57995
G1 X109.393 Y110.051 E1.41471
G1 X210.173 Y110.051 E3.15989
G1 X210.173 Y155.171 E1.41471
G1 X159.843 Y155.171 E1.57807
G1 X159.505 Y154.883 F10800.000
G1 E-0.80000 F2100.00000
G1 Z0.800 F10800.000
G1 X154.917 Y154.681
G1 Z0.200
G1 E0.80000 F2100.00000
G1 F1200
G1 X141.389 Y141.153 E0.59996
G1 X142.354 Y141.585 F10800.000
G1 F1200
G1 X155.280 Y154.511 E0.57330
G1 X155.814 Y154.511 E0.01673
G1 X143.571 Y142.268 E0.54299
G1 X144.410 Y142.574 E0.02799
G1 X156.347 Y154.511 E0.52945
G1 X156.881 Y154.511 E0.01673
G1 X145.107 Y142.737 E0.52218
G1 X145.711 Y142.808 E0.01907
G1 X157.414 Y154.511 E0.51905
G1 X157.947 Y154.511 E0.01673
G1 X146.315 Y142.879 E0.51592
G1 X146.919 Y142.949 E0.01907
G1 X158.481 Y154.511 E0.51279
G1 X159.014 Y154.511 E0.01673
G1 X147.441 Y142.938 E0.51328
G1 X147.919 Y142.882 E0.01508
G1 X159.548 Y154.511 E0.51575
G1 X160.081 Y154.511 E0.01673
G1 X148.396 Y142.827 E0.51823
G1 X148.874 Y142.771 E0.01508
G1 X160.614 Y154.511 E0.52070
G1 X161.148 Y154.511 E0.01673
G1 X149.352 Y142.715 E0.52318
G1 X149.523 Y142.695 E0.00541
G1 X149.774 Y142.604 E0.00837
G1 X161.681 Y154.511 E0.52812
G1 X162.215 Y154.511 E0.01673
G1 X150.165 Y142.461 E0.53443
G1 X150.556 Y142.319 E0.01305
G1 X162.748 Y154.511 E0.54074
G1 X163.281 Y154.511 E0.01673
G1 X150.947 Y142.177 E0.54705
G1 X151.338 Y142.034 E0.01305
G1 X163.815 Y154.511 E0.55337
G1 X164.348 Y154.511 E0.01673
G1 X151.729 Y141.892 E0.55968
G1 X152.060 Y141.690 E0.01217
G1 X164.881 Y154.511 E0.56863
G1 X165.415 Y154.511 E0.01673
G1 X152.382 Y141.478 E0.57802
G1 X152.704 Y141.267 E0.01208
G1 X165.948 Y154.511 E0.58740
G1 X166.482 Y154.511 E0.01673
G1 X153.026 Y141.055 E0.59679
G1 X153.348 Y140.844 E0.01208
G1 X167.015 Y154.511 E0.60617
G1 X167.548 Y154.511 E0.01673
G1 X153.669 Y140.632 E0.61556
G1 X153.794 Y140.550 E0.00470
G1 X153.953 Y140.382 E0.00723
G1 X168.082 Y154.511 E0.62665
G1 X168.615 Y154.511 E0.01673
G1 X154.212 Y140.108 E0.63882
G1 X154.471 Y139.833 E0.01183
G1 X169.149 Y154.511 E0.65099
G1 X169.682 Y154.511 E0.01673
G1 X154.729 Y139.559 E0.66317
G1 X154.988 Y139.284 E0.01183
G1 X170.215 Y154.511 E0.67534
G1 X170.749 Y154.511 E0.01673
G1 X155.247 Y139.010 E0.68751
G1 X155.446 Y138.799 E0.00906
G1 X155.491 Y138.720 E0.00287
G1 X171.282 Y154.511 E0.70035
G1 X171.816 Y154.511 E0.01673
G1 X155.687 Y138.382 E0.71534
G1 X155.882 Y138.044 E0.01225
G1 X172.349 Y154.511 E0.73034
G1 X172.882 Y154.511 E0.01673
G1 X156.077 Y137.706 E0.74534
G1 X156.272 Y137.368 E0.01225
G1 X173.416 Y154.511 E0.76034
G1 X173.949 Y154.511 E0.01673
G1 X156.467 Y137.030 E0.77533
G1 X156.658 Y136.686 E0.01231
G1 X174.482 Y154.511 E0.79056
G1 X175.016 Y154.511 E0.01673
G1 X156.780 Y136.276 E0.80877
G1 X156.903 Y135.865 E0.01344
G1 X175.549 Y154.511 E0.82698
G1 X176.083 Y154.511 E0.01673
G1 X157.026 Y135.455 E0.84518
G1 X157.149 Y135.044 E0.01344
G1 X176.616 Y154.511 E0.86339
G1 X177.149 Y154.511 E0.01673
G1 X157.272 Y134.634 E0.88159
G1 X157.339 Y134.410 E0.00731
G1 X157.352 Y134.181 E0.00722
G1 X177.683 Y154.511 E0.90169
M73 P0 R293
G1 X178.216 Y154.511 E0.01673
G1 X157.382 Y133.676 E0.92405
G1 X157.411 Y133.172 E0.01583
G1 X178.750 Y154.511 E0.94640
G1 X179.283 Y154.511 E0.01673
G1 X157.440 Y132.668 E0.96876
G1 X157.470 Y132.164 E0.01583
G1 X179.816 Y154.511 E0.99112
G1 X180.350 Y154.511 E0.01673
G1 X157.400 Y131.561 E1.01787
G1 X157.286 Y130.914 E0.02062
G1 X180.883 Y154.511 E1.04659
G1 X181.417 Y154.511 E0.01673
G1 X157.171 Y130.266 E1.07531
G1 X157.048 Y129.609 E0.02095
G1 X181.950 Y154.511 E1.10443
G1 X182.483 Y154.511 E0.01673
G1 X156.644 Y128.671 E1.14603
G1 X156.239 Y127.734 E0.03203
G1 X183.186 Y154.681 E1.19515
G1 E-0.80000 F2100.00000
G1 Z0.800 F10800.000
G1 X152.467 Y123.961
G1 Z0.200
G1 E0.80000 F2100.00000
G1 F1200
G1 X139.216 Y110.711 E0.58767
G1 X139.750 Y110.711 E0.01673
G1 X183.550 Y154.511 E1.94261
G1 X184.083 Y154.511 E0.01673
G1 X140.283 Y110.711 E1.94261
G1 X140.816 Y110.711 E0.01673
G1 X184.617 Y154.511 E1.94261
G1 X185.150 Y154.511 E0.01673
G1 X141.350 Y110.711 E1.94261
G1 X141.883 Y110.711 E0.01673
G1 X185.684 Y154.511 E1.94261
G1 X186.217 Y154.511 E0.01673
G1 X142.417 Y110.711 E1.94261
G1 X142.950 Y110.711 E0.01673
G1 X186.750 Y154.511 E1.94261
G1 X187.284 Y154.511 E0.01673
G1 X143.483 Y110.711 E1.94261
G1 X144.017 Y110.711 E0.01673
G1 X187.817 Y154.511 E1.94261
G1 X188.351 Y154.511 E0.01673
G1 X144.550 Y110.711 E1.94261
G1 X145.084 Y110.711 E0.01673
G1 X188.884 Y154.511 E1.94261
G1 X189.417 Y154.511 E0.01673
G1 X145.617 Y110.711 E1.94261
G1 X146.150 Y110.711 E0.01673
G1 X189.951 Y154.511 E1.94261
G1 X190.484 Y154.511 E0.01673
G1 X146.684 Y110.711 E1.94261
M73 P1 R292
G1 X147.217 Y110.711 E0.01673
G1 X191.018 Y154.511 E1.94261
G1 X191.551 Y154.511 E0.01673
G1 X147.751 Y110.711 E1.94261
G1 X148.284 Y110.711 E0.01673
G1 X192.084 Y154.511 E1.94261
G1 X192.618 Y154.511 E0.01673
G1 X148.817 Y110.711 E1.94261
G1 X149.351 Y110.711 E0.01673
G1 X193.151 Y154.511 E1.94261
G1 X193.684 Y154.511 E0.01673
G1 X149.884 Y110.711 E1.94261
G1 X150.417 Y110.711 E0.01673
G1 X194.218 Y154.511 E1.94261
G1 X194.751 Y154.511 E0.01673
G1 X150.951 Y110.711 E1.94261
G1 X151.484 Y110.711 E0.01673
G1 X195.285 Y154.511 E1.94261
G1 X195.818 Y154.511 E0.01673
G1 X152.018 Y110.711 E1.94261
G1 X152.551 Y110.711 E0.01673
G1 X196.351 Y154.511 E1.94261
G1 X196.885 Y154.511 E0.01673
G1 X153.084 Y110.711 E1.94261
G1 X153.618 Y110.711 E0.01673
G1 X197.418 Y154.511 E1.94261
G1 X197.952 Y154.511 E0.01673
G1 X154.151 Y110.711 E1.94261
G1 X154.685 Y110.711 E0.01673
G1 X198.485 Y154.511 E1.94261
G1 X199.018 Y154.511 E0.01673
G1 X155.218 Y110.711 E1.94261
G1 X155.751 Y110.711 E0.01673
G1 X199.552 Y154.511 E1.94261
G1 X200.085 Y154.511 E0.01673
G1 X156.285 Y110.711 E1.94261
G1 X156.818 Y110.711 E0.01673
G1 X200.619 Y154.511 E1.94261
G1 X201.152 Y154.511 E0.01673
G1 X157.352 Y110.711 E1.94261
M73 P1 R291
G1 X157.885 Y110.711 E0.01673
G1 X201.685 Y154.511 E1.94261
G1 X202.219 Y154.511 E0.01673
G1 X158.418 Y110.711 E1.94261
G1 X158.952 Y110.711 E0.01673
G1 X202.752 Y154.511 E1.94261
G1 X203.285 Y154.511 E0.01673
G1 X159.485 Y110.711 E1.94261
G1 X160.018 Y110.711 E0.01673
G1 X203.819 Y154.511 E1.94261
G1 X204.352 Y154.511 E0.01673
G1 X160.552 Y110.711 E1.94261
G1 X161.085 Y110.711 E0.01673
G1 X204.886 Y154.511 E1.94261
G1 X205.419 Y154.511 E0.01673
G1 X161.619 Y110.711 E1.94261
G1 X162.152 Y110.711 E0.01673
G1 X205.952 Y154.511 E1.94261
G1 X206.486 Y154.511 E0.01673
G1 X162.685 Y110.711 E1.94261
G1 X163.219 Y110.711 E0.01673
G1 X207.019 Y154.511 E1.94261
G1 X207.553 Y154.511 E0.01673
G1 X163.752 Y110.711 E1.94261
G1 X164.286 Y110.711 E0.01673
G1 X208.086 Y154.511 E1.94261
G1 X208.619 Y154.511 E0.01673
G1 X164.819 Y110.711 E1.94261
G1 X165.352 Y110.711 E0.01673
G1 X209.153 Y154.511 E1.94261
G1 X209.513 Y154.511 E0.01131
G1 X209.513 Y154.338 E0.00542
G1 X165.886 Y110.711 E1.93495
G1 X166.419 Y110.711 E0.01673
G1 X209.513 Y153.805 E1.91129
G1 X209.513 Y153.272 E0.01673
G1 X166.953 Y110.711 E1.88763
G1 X167.486 Y110.711 E0.01673
G1 X209.513 Y152.738 E1.86398
G1 X209.513 Y152.205 E0.01673
G1 X168.019 Y110.711 E1.84032
M73 P1 R290
G1 X168.553 Y110.711 E0.01673
G1 X209.513 Y151.671 E1.81667
G1 X209.513 Y151.138 E0.01673
G1 X169.086 Y110.711 E1.79301
G1 X169.619 Y110.711 E0.01673
G1 X209.513 Y150.605 E1.76935
G1 X209.513 Y150.071 E0.01673
G1 X170.153 Y110.711 E1.74570
G1 X170.686 Y110.711 E0.01673
G1 X209.513 Y149.538 E1.72204
G1 X209.513 Y149.004 E0.01673
G1 X171.220 Y110.711 E1.69838
G1 X171.753 Y110.711 E0.01673
G1 X209.513 Y148.471 E1.67473
G1 X209.513 Y147.938 E0.01673
G1 X172.286 Y110.711 E1.65107
G1 X172.820 Y110.711 E0.01673
G1 X209.513 Y147.404 E1.62741
G1 X209.513 Y146.871 E0.01673
G1 X173.353 Y110.711 E1.60376
G1 X173.887 Y110.711 E0.01673
G1 X209.513 Y146.338 E1.58010
G1 X209.513 Y145.804 E0.01673
G1 X174.420 Y110.711 E1.55644
G1 X174.953 Y110.711 E0.01673
G1 X209.513 Y145.271 E1.53279
G1 X209.513 Y144.737 E0.01673
G1 X175.487 Y110.711 E1.50913
G1 X176.020 Y110.711 E0.01673
G1 X209.513 Y144.204 E1.48547
G1 X209.513 Y143.671 E0.01673
G1 X176.554 Y110.711 E1.46182
G1 X177.087 Y110.711 E0.01673
G1 X209.513 Y143.137 E1.43816
G1 X209.513 Y142.604 E0.01673
G1 X177.620 Y110.711 E1.41450
G1 X178.154 Y110.711 E0.01673
G1 X209.513 Y142.070 E1.39085
G1 X209.513 Y141.537 E0.01673
G1 X178.687 Y110.711 E1.36719
G1 X179.220 Y110.711 E0.01673
G1 X209.513 Y141.004 E1.34353
G1 X209.513 Y140.470 E0.01673
G1 X179.754 Y110.711 E1.31988
G1 X180.287 Y110.711 E0.01673
G1 X209.513 Y139.937 E1.29622
G1 X209.513 Y139.403 E0.01673
G1 X180.821 Y110.711 E1.27256
G1 X181.354 Y110.711 E0.01673
G1 X209.513 Y138.870 E1.24891
M73 P2 R289
G1 X209.513 Y138.337 E0.01673
G1 X181.887 Y110.711 E1.22525
G1 X182.421 Y110.711 E0.01673
G1 X209.513 Y137.803 E1.20159
G1 X209.513 Y137.270 E0.01673
G1 X182.954 Y110.711 E1.17794
G1 X183.488 Y110.711 E0.01673
G1 X209.513 Y136.737 E1.15428
G1 X209.513 Y136.203 E0.01673
G1 X184.021 Y110.711 E1.13062
G1 X184.554 Y110.711 E0.01673
G1 X209.513 Y135.670 E1.10697
G1 X209.513 Y135.136 E0.01673
G1 X185.088 Y110.711 E1.08331
G1 X185.621 Y110.711 E0.01673
G1 X209.513 Y134.603 E1.05965
G1 X209.513 Y134.070 E0.01673
G1 X186.155 Y110.711 E1.03600
G1 X186.688 Y110.711 E0.01673
G1 X209.513 Y133.536 E1.01234
G1 X209.513 Y133.003 E0.01673
G1 X187.221 Y110.711 E0.98868
G1 X187.755 Y110.711 E0.01673
G1 X209.513 Y132.469 E0.96503
G1 X209.513 Y131.936 E0.01673
G1 X188.288 Y110.711 E0.94137
G1 X188.821 Y110.711 E0.01673
G1 X209.513 Y131.403 E0.91771
G1 X209.513 Y130.869 E0.01673
G1 X189.355 Y110.711 E0.89406
G1 X189.888 Y110.711 E0.01673
G1 X209.513 Y130.336 E0.87040
G1 X209.513 Y129.802 E0.01673
G1 X190.422 Y110.711 E0.84674
G1 X190.955 Y110.711 E0.01673
G1 X209.513 Y129.269 E0.82309
G1 X209.513 Y128.736 E0.01673
G1 X191.488 Y110.711 E0.79943
G1 X192.022 Y110.711 E0.01673
G1 X209.513 Y128.202 E0.77578
G1 X209.513 Y127.669 E0.01673
G1 X192.555 Y110.711 E0.75212
G1 X193.089 Y110.711 E0.01673
G1 X209.513 Y127.135 E0.72846
G1 X209.513 Y126.602 E0.01673
G1 X193.622 Y110.711 E0.70481
G1 X194.155 Y110.711 E0.01673
G1 X209.513 Y126.069 E0.68115
G1 X209.513 Y125.535 E0.01673
G1 X194.689 Y110.711 E0.65749
G1 X195.222 Y110.711 E0.01673
G1 X209.513 Y125.002 E0.63384
G1 X209.513 Y124.469 E0.01673
G1 X195.756 Y110.711 E0.61018
G1 X196.289 Y110.711 E0.01673
G1 X209.513 Y123.935 E0.58652
G1 X209.513 Y123.402 E0.01673
G1 X196.822 Y110.711 E0.56287
G1 X197.356 Y110.711 E0.01673
G1 X209.513 Y122.868 E0.53921
G1 X209.513 Y122.335 E0.01673
G1 X197.889 Y110.711 E0.51555
G1 X198.422 Y110.711 E0.01673
G1 X209.513 Y121.802 E0.49190
G1 X209.513 Y121.268 E0.01673
G1 X198.956 Y110.711 E0.46824
G1 X199.489 Y110.711 E0.01673
G1 X209.513 Y120.735 E0.44458
G1 X209.513 Y120.201 E0.01673
G1 X200.023 Y110.711 E0.42093
G1 X200.556 Y110.711 E0.01673
G1 X209.513 Y119.668 E0.39727
G1 X209.513 Y119.135 E0.01673
G1 X201.089 Y110.711 E0.37361
G1 X201.623 Y110.711 E0.01673
G1 X209.513 Y118.601 E0.34996
G1 X209.513 Y118.068 E0.01673
G1 X202.156 Y110.711 E0.32630
G1 X202.690 Y110.711 E0.01673
G1 X209.513 Y117.534 E0.30264
G1 X209.513 Y117.001 E0.01673
G1 X203.223 Y110.711 E0.27899
G1 X203.756 Y110.711 E0.01673
G1 X209.513 Y116.468 E0.25533
G1 X209.513 Y115.934 E0.01673
G1 X204.290 Y110.711 E0.23167
G1 X204.823 Y110.711 E0.01673
G1 X209.513 Y115.401 E0.20802
G1 X209.513 Y114.868 E0.01673
G1 X205.357 Y110.711 E0.18436
