; generated by PrusaSlicer 2.1.0+win64 on 2019-11-07 at 20:11:37 UTC

; 

; external perimeters extrusion width = 0.60mm
; perimeters extrusion width = 0.43mm
; infill extrusion width = 0.45mm
; solid infill extrusion width = 0.70mm
; top infill extrusion width = 0.43mm
; first layer extrusion width = 0.42mm

M73 P0 R153
M201 X9000 Y9000 Z500 E10000 ; sets maximum accelerations, mm/sec^2
M203 X500 Y500 Z12 E120 ; sets maximum feedrates, mm/sec
M204 P2000 R1500 T2000 ; sets acceleration (P, T) and retract acceleration (R), mm/sec^2
M205 X10.00 Y10.00 Z0.20 E2.50 ; sets the jerk limits, mm/sec
M205 S0 T0 ; sets the minimum extruding and travel feed rate, mm/sec
M107
M862.3 P "MK2.5SMMU2S" ; printer model check
M862.1 P0.4 ; nozzle diameter check
M115 U3.8.0 ; tell printer latest fw version
G90 ; use absolute coordinates
M83 ; extruder relative mode
M104 S215 ; set extruder temp
M140 S60 ; set bed temp
Tx
M190 S60 ; wait for bed temp
M109 S215 ; wait for extruder temp
G28 W ; home all without mesh bed level
G80 ; mesh bed leveling

G21 ; set units to millimeters

;go outside print area
G1 Y-3.0 F1000.0
G1 Z0.4 F1000.0
; select extruder
Tc
; purge line
G1 X55.0 F2000.0
G1 Z0.3 F1000.0
G92 E0.0
G1 X240.0 E25.0 F2200.0
M73 P0 R153
G1 Y-2.0 F1000.0
G1 X55.0 E25 F1400.0
G1 Z0.20 F1000.0
G1 X5.0 E4.0 F1000.0
G92 E0.0
G21 ; set units to millimeters
G90 ; use absolute coordinates
M83 ; use relative distances for extrusion
M900 K30 ; Filament gcode
;BEFORE_LAYER_CHANGE
G92 E0.0
;0.2


G1 E-0.80000 F2100.00000
G1 Z0.600 F10800.000
;AFTER_LAYER_CHANGE
;0.2
G1 X83.627 Y50.829
G1 Z0.200
G1 E0.80000 F2100.00000
M204 S1000
G1 F1200
G1 X83.938 Y50.380 E0.01714
G1 X84.349 Y50.024 E0.01703
G1 X84.834 Y49.779 E0.01703
G1 X85.368 Y49.662 E0.01714
G1 X96.543 Y49.653 E0.35040
G1 X172.379 Y49.752 E2.37777
G1 X172.864 Y49.813 E0.01532
G1 X173.323 Y49.980 E0.01532
G1 X173.734 Y50.245 E0.01532
G1 X174.073 Y50.591 E0.01521
G1 X174.376 Y51.111 E0.01885
G1 X174.525 Y51.697 E0.01896
G1 X183.587 Y135.882 E2.65482
G1 X183.593 Y158.235 E0.70087
G1 X183.525 Y158.705 E0.01487
G1 X183.356 Y159.152 E0.01498
G1 X183.094 Y159.551 E0.01498
G1 X182.754 Y159.882 E0.01487
G1 X182.125 Y160.226 E0.02247
G1 X181.415 Y160.347 E0.02259
G1 X68.587 Y160.347 E3.53765
G1 X68.098 Y160.290 E0.01544
G1 X67.631 Y160.124 E0.01555
G1 X67.216 Y159.859 E0.01544
G1 X66.871 Y159.507 E0.01544
G1 X66.527 Y158.878 E0.02247
G1 X66.406 Y158.176 E0.02236
G1 X66.406 Y107.947 E1.57489
G1 X66.482 Y107.380 E0.01794
G1 X83.610 Y50.887 E1.85092
G1 E-0.80000 F2100.00000
G1 Z0.800 F10800.000
G1 X86.154 Y108.537
G1 Z0.200
G1 E0.80000 F2100.00000
G1 F1200
G1 X86.590 Y108.537 E0.01365
G1 X86.590 Y129.467 E0.65625
G1 X86.154 Y129.467 E0.01365
G1 X86.154 Y108.597 E0.65436
G1 E-0.80000 F2100.00000
G1 Z0.800 F10800.000
G1 X90.008 Y124.462
G1 Z0.200
G1 E0.80000 F2100.00000
G1 F1200
G1 X95.935 Y124.462 E0.18584
G1 X95.951 Y129.467 E0.15693
G1 X90.008 Y129.467 E0.18635
G1 X90.008 Y124.522 E0.15505
G1 E-0.80000 F2100.00000
G1 Z0.800 F10800.000
G1 X90.008 Y113.542
G1 Z0.200
G1 E0.80000 F2100.00000
G1 F1200
G1 X90.008 Y108.537 E0.15693
G1 X95.953 Y108.537 E0.18641
G1 X95.940 Y113.542 E0.15693
G1 X90.068 Y113.542 E0.18411
G1 E-0.80000 F2100.00000
G1 Z0.800 F10800.000
G1 X89.631 Y108.846
G1 Z0.200
G1 E0.80000 F2100.00000
G1 F1200
G1 X86.967 Y108.846 E0.08353
G1 X86.967 Y129.159 E0.63692
G1 X89.631 Y129.159 E0.08353
G1 X89.631 Y124.085 E0.15909
G1 X96.311 Y124.085 E0.20945
G1 X96.330 Y129.845 E0.18057
G1 X85.777 Y129.845 E0.33086
G1 X85.777 Y108.160 E0.67989
G1 X96.330 Y108.160 E0.33088
G1 X96.330 Y112.328 E0.13067
G1 X96.313 Y113.919 E0.04991
G1 X89.631 Y113.919 E0.20950
G1 X89.631 Y108.906 E0.15721
G1 X89.510 Y108.464 F10800.000
G1 X89.819 Y108.503
G1 F1200
G1 X86.778 Y108.503 E0.07791
G1 X86.372 Y108.726 F10800.000
G1 F1200
G1 X86.372 Y129.279 E0.09965
G1 X86.778 Y129.502 F10800.000
G1 F1200
G1 X89.819 Y129.502 E0.07791
G1 X90.121 Y128.559 F10800.000
G1 F1200
G1 X90.747 Y129.185 E0.02891
G1 X91.302 Y129.185 E0.01815
G1 X90.291 Y128.173 E0.04674
G1 X90.291 Y127.617 E0.01815
G1 X91.858 Y129.185 E0.07240
G1 X92.414 Y129.185 E0.01815
G1 X90.291 Y127.062 E0.09806
G1 X90.291 Y126.506 E0.01815
G1 X92.969 Y129.185 E0.12373
G1 X93.525 Y129.185 E0.01815
G1 X90.291 Y125.951 E0.14939
G1 X90.291 Y125.395 E0.01815
G1 X94.080 Y129.185 E0.17505
G1 X94.636 Y129.185 E0.01815
G1 X90.291 Y124.840 E0.20072
G1 X90.291 Y124.745 E0.00308
G1 X90.752 Y124.745 E0.01507
G1 X95.191 Y129.185 E0.20507
G1 X95.668 Y129.185 E0.01556
G1 X95.667 Y129.105 E0.00259
G1 X91.307 Y124.745 E0.20141
G1 X91.863 Y124.745 E0.01815
G1 X95.666 Y128.548 E0.17566
G1 X95.664 Y127.991 E0.01821
G1 X92.419 Y124.745 E0.14991
G1 X92.974 Y124.745 E0.01815
G1 X95.662 Y127.433 E0.12416
G1 X95.660 Y126.876 E0.01821
G1 X93.530 Y124.745 E0.09842
G1 X94.085 Y124.745 E0.01815
G1 X95.658 Y126.318 E0.07267
G1 X95.657 Y125.761 E0.01821
G1 X94.641 Y124.745 E0.04692
G1 X95.196 Y124.745 E0.01815
G1 X95.825 Y125.374 E0.02904
G1 E-0.80000 F2100.00000
G1 Z0.800 F10800.000
G1 X90.121 Y112.632
G1 Z0.200
G1 E0.80000 F2100.00000
G1 F1200
G1 X90.748 Y113.260 E0.02903
G1 X91.305 Y113.260 E0.01821
G1 X90.291 Y112.245 E0.04693
G1 X90.291 Y111.689 E0.01821
G1 X91.861 Y113.260 E0.07268
G1 X92.418 Y113.260 E0.01821
G1 X90.291 Y111.132 E0.09843
G1 X90.291 Y110.576 E0.01821
G1 X92.974 Y113.260 E0.12418
G1 X93.531 Y113.260 E0.01821
G1 X90.291 Y110.019 E0.14993
G1 X90.291 Y109.463 E0.01821
G1 X94.087 Y113.260 E0.17568
G1 X94.644 Y113.260 E0.01821
G1 X90.291 Y108.906 E0.20144
G1 X90.291 Y108.820 E0.00282
G1 X90.761 Y108.820 E0.01539
G1 X95.200 Y113.260 E0.20543
G1 X95.658 Y113.260 E0.01497
G1 X95.658 Y113.161 E0.00323
G1 X91.318 Y108.820 E0.20085
G1 X91.874 Y108.820 E0.01821
G1 X95.660 Y112.606 E0.17517
G1 X95.661 Y112.051 E0.01816
G1 X92.431 Y108.820 E0.14949
G1 X92.987 Y108.820 E0.01821
G1 X95.663 Y111.496 E0.12381
G1 X95.664 Y110.941 E0.01816
G1 X93.544 Y108.820 E0.09813
G1 X94.100 Y108.820 E0.01821
G1 X95.666 Y110.386 E0.07246
G1 X95.667 Y109.831 E0.01816
G1 X94.657 Y108.820 E0.04678
G1 X95.213 Y108.820 E0.01821
G1 X95.838 Y109.445 E0.02893
G1 E-0.80000 F2100.00000
G1 Z0.800 F10800.000
G1 X69.617 Y108.537
G1 Z0.200
G1 E0.80000 F2100.00000
G1 F1200
G1 X69.617 Y129.467 E0.65625
G1 X69.181 Y129.467 E0.01365
G1 X69.181 Y108.537 E0.65625
G1 X69.557 Y108.537 E0.01177
G1 E-0.80000 F2100.00000
G1 Z0.800 F10800.000
G1 X73.035 Y124.462
G1 Z0.200
G1 E0.80000 F2100.00000
G1 F1200
G1 X78.962 Y124.462 E0.18584
G1 X78.978 Y129.467 E0.15693
G1 X73.035 Y129.467 E0.18635
G1 X73.035 Y124.522 E0.15505
G1 E-0.80000 F2100.00000
G1 Z0.800 F10800.000
G1 X73.035 Y113.542
G1 Z0.200
G1 E0.80000 F2100.00000
G1 F1200
G1 X73.035 Y108.537 E0.15693
G1 X78.980 Y108.537 E0.18641
G1 X78.967 Y113.542 E0.15693
G1 X73.095 Y113.542 E0.18411
G1 E-0.80000 F2100.00000
M73 P0 R152
G1 Z0.800 F10800.000
G1 X72.658 Y108.846
G1 Z0.200
G1 E0.80000 F2100.00000
G1 F1200
G1 X69.994 Y108.846 E0.08353
G1 X69.994 Y129.159 E0.63692
G1 X72.658 Y129.159 E0.08353
G1 X72.658 Y124.085 E0.15909
G1 X79.338 Y124.085 E0.20945
G1 X79.357 Y129.845 E0.18057
G1 X68.804 Y129.845 E0.33086
G1 X68.804 Y108.160 E0.67989
G1 X79.357 Y108.160 E0.33088
G1 X79.357 Y112.328 E0.13067
G1 X79.340 Y113.919 E0.04991
G1 X72.658 Y113.919 E0.20950
G1 X72.658 Y108.906 E0.15721
G1 X72.537 Y108.464 F10800.000
G1 X72.846 Y108.503
G1 F1200
G1 X69.805 Y108.503 E0.07791
G1 X69.399 Y108.726 F10800.000
G1 F1200
G1 X69.399 Y129.279 E0.09965
G1 X69.805 Y129.502 F10800.000
G1 F1200
G1 X72.846 Y129.502 E0.07791
G1 X73.148 Y128.559 F10800.000
G1 F1200
G1 X73.774 Y129.185 E0.02891
G1 X74.329 Y129.185 E0.01815
G1 X73.318 Y128.173 E0.04674
G1 X73.318 Y127.617 E0.01815
G1 X74.885 Y129.185 E0.07240
G1 X75.441 Y129.185 E0.01815
G1 X73.318 Y127.062 E0.09806
G1 X73.318 Y126.506 E0.01815
G1 X75.996 Y129.185 E0.12373
G1 X76.552 Y129.185 E0.01815
G1 X73.318 Y125.951 E0.14939
G1 X73.318 Y125.395 E0.01815
G1 X77.107 Y129.185 E0.17505
G1 X77.663 Y129.185 E0.01815
G1 X73.318 Y124.840 E0.20072
G1 X73.318 Y124.745 E0.00308
G1 X73.779 Y124.745 E0.01507
G1 X78.218 Y129.185 E0.20507
G1 X78.695 Y129.185 E0.01556
G1 X78.694 Y129.105 E0.00259
G1 X74.334 Y124.745 E0.20141
G1 X74.890 Y124.745 E0.01815
G1 X78.693 Y128.548 E0.17566
G1 X78.691 Y127.991 E0.01821
G1 X75.446 Y124.745 E0.14991
G1 X76.001 Y124.745 E0.01815
G1 X78.689 Y127.433 E0.12416
G1 X78.687 Y126.876 E0.01821
G1 X76.557 Y124.745 E0.09842
G1 X77.112 Y124.745 E0.01815
G1 X78.685 Y126.318 E0.07267
G1 X78.684 Y125.761 E0.01821
G1 X77.668 Y124.745 E0.04692
G1 X78.223 Y124.745 E0.01815
G1 X78.852 Y125.374 E0.02904
G1 E-0.80000 F2100.00000
G1 Z0.800 F10800.000
G1 X73.148 Y112.632
G1 Z0.200
G1 E0.80000 F2100.00000
G1 F1200
G1 X73.775 Y113.260 E0.02903
G1 X74.332 Y113.260 E0.01821
G1 X73.318 Y112.245 E0.04693
G1 X73.318 Y111.689 E0.01821
G1 X74.888 Y113.260 E0.07268
G1 X75.445 Y113.260 E0.01821
G1 X73.318 Y111.132 E0.09843
G1 X73.318 Y110.576 E0.01821
G1 X76.001 Y113.260 E0.12418
G1 X76.558 Y113.260 E0.01821
G1 X73.318 Y110.019 E0.14993
G1 X73.318 Y109.463 E0.01821
G1 X77.114 Y113.260 E0.17568
G1 X77.671 Y113.260 E0.01821
G1 X73.318 Y108.906 E0.20144
G1 X73.318 Y108.820 E0.00282
G1 X73.788 Y108.820 E0.01539
G1 X78.227 Y113.260 E0.20543
G1 X78.685 Y113.260 E0.01497
G1 X78.685 Y113.161 E0.00323
G1 X74.344 Y108.820 E0.20085
G1 X74.901 Y108.820 E0.01821
G1 X78.687 Y112.606 E0.17517
G1 X78.688 Y112.051 E0.01816
G1 X75.457 Y108.820 E0.14949
G1 X76.014 Y108.820 E0.01821
G1 X78.690 Y111.496 E0.12381
G1 X78.691 Y110.941 E0.01816
G1 X76.570 Y108.820 E0.09813
G1 X77.127 Y108.820 E0.01821
G1 X78.693 Y110.386 E0.07246
G1 X78.694 Y109.831 E0.01816
G1 X77.683 Y108.820 E0.04678
G1 X78.240 Y108.820 E0.01821
G1 X78.865 Y109.445 E0.02893
G1 E-0.80000 F2100.00000
G1 Z0.800 F10800.000
G1 X69.617 Y136.642
G1 Z0.200
G1 E0.80000 F2100.00000
G1 F1200
G1 X69.617 Y157.572 E0.65625
G1 X69.181 Y157.572 E0.01365
G1 X69.181 Y136.642 E0.65625
G1 X69.557 Y136.642 E0.01177
G1 E-0.80000 F2100.00000
G1 Z0.800 F10800.000
G1 X73.035 Y152.567
G1 Z0.200
G1 E0.80000 F2100.00000
G1 F1200
G1 X78.962 Y152.567 E0.18584
G1 X78.978 Y157.572 E0.15693
G1 X73.035 Y157.572 E0.18635
G1 X73.035 Y152.627 E0.15505
G1 E-0.80000 F2100.00000
G1 Z0.800 F10800.000
G1 X73.035 Y141.647
G1 Z0.200
G1 E0.80000 F2100.00000
G1 F1200
G1 X73.035 Y136.642 E0.15693
G1 X78.980 Y136.642 E0.18641
G1 X78.967 Y141.647 E0.15693
G1 X73.095 Y141.647 E0.18411
G1 E-0.80000 F2100.00000
G1 Z0.800 F10800.000
G1 X72.658 Y136.950
G1 Z0.200
G1 E0.80000 F2100.00000
G1 F1200
G1 X69.994 Y136.950 E0.08353
G1 X69.994 Y157.263 E0.63692
G1 X72.658 Y157.263 E0.08353
G1 X72.658 Y152.190 E0.15909
G1 X79.338 Y152.190 E0.20945
G1 X79.357 Y157.949 E0.18057
G1 X68.804 Y157.949 E0.33086
G1 X68.804 Y136.265 E0.67989
G1 X79.357 Y136.265 E0.33088
G1 X79.357 Y140.432 E0.13067
G1 X79.340 Y142.024 E0.04991
G1 X72.658 Y142.024 E0.20950
G1 X72.658 Y137.010 E0.15721
G1 X72.537 Y136.568 F10800.000
G1 X72.846 Y136.607
G1 F1200
G1 X69.805 Y136.607 E0.07791
G1 X69.399 Y136.830 F10800.000
G1 F1200
G1 X69.399 Y157.383 E0.09965
G1 X69.805 Y157.606 F10800.000
G1 F1200
G1 X72.846 Y157.606 E0.07791
G1 X73.148 Y156.663 F10800.000
G1 F1200
G1 X73.774 Y157.289 E0.02891
G1 X74.329 Y157.289 E0.01815
G1 X73.318 Y156.277 E0.04674
G1 X73.318 Y155.722 E0.01815
G1 X74.885 Y157.289 E0.07240
G1 X75.441 Y157.289 E0.01815
G1 X73.318 Y155.166 E0.09806
G1 X73.318 Y154.610 E0.01815
G1 X75.996 Y157.289 E0.12373
G1 X76.552 Y157.289 E0.01815
G1 X73.318 Y154.055 E0.14939
G1 X73.318 Y153.499 E0.01815
G1 X77.107 Y157.289 E0.17505
G1 X77.663 Y157.289 E0.01815
G1 X73.318 Y152.944 E0.20072
G1 X73.318 Y152.849 E0.00308
G1 X73.779 Y152.849 E0.01507
G1 X78.218 Y157.289 E0.20507
G1 X78.695 Y157.289 E0.01556
G1 X78.694 Y157.209 E0.00259
G1 X74.334 Y152.849 E0.20141
G1 X74.890 Y152.849 E0.01815
G1 X78.693 Y156.652 E0.17566
G1 X78.691 Y156.095 E0.01821
G1 X75.446 Y152.849 E0.14991
G1 X76.001 Y152.849 E0.01815
G1 X78.689 Y155.537 E0.12416
G1 X78.687 Y154.980 E0.01821
G1 X76.557 Y152.849 E0.09842
G1 X77.112 Y152.849 E0.01815
G1 X78.685 Y154.423 E0.07267
G1 X78.684 Y153.865 E0.01821
G1 X77.668 Y152.849 E0.04692
G1 X78.223 Y152.849 E0.01815
G1 X78.852 Y153.478 E0.02904
G1 E-0.80000 F2100.00000
G1 Z0.800 F10800.000
G1 X73.148 Y140.736
G1 Z0.200
G1 E0.80000 F2100.00000
G1 F1200
G1 X73.775 Y141.364 E0.02903
G1 X74.332 Y141.364 E0.01821
G1 X73.318 Y140.350 E0.04693
G1 X73.318 Y139.793 E0.01821
G1 X74.888 Y141.364 E0.07268
G1 X75.445 Y141.364 E0.01821
G1 X73.318 Y139.237 E0.09843
G1 X73.318 Y138.680 E0.01821
G1 X76.001 Y141.364 E0.12418
G1 X76.558 Y141.364 E0.01821
G1 X73.318 Y138.124 E0.14993
G1 X73.318 Y137.567 E0.01821
G1 X77.114 Y141.364 E0.17568
G1 X77.671 Y141.364 E0.01821
G1 X73.318 Y137.011 E0.20144
G1 X73.318 Y136.924 E0.00282
G1 X73.788 Y136.924 E0.01539
G1 X78.227 Y141.364 E0.20543
G1 X78.685 Y141.364 E0.01497
G1 X78.685 Y141.265 E0.00323
G1 X74.344 Y136.924 E0.20085
G1 X74.901 Y136.924 E0.01821
G1 X78.687 Y140.710 E0.17517
G1 X78.688 Y140.155 E0.01816
G1 X75.457 Y136.924 E0.14949
G1 X76.014 Y136.924 E0.01821
G1 X78.690 Y139.600 E0.12381
G1 X78.691 Y139.045 E0.01816
G1 X76.570 Y136.924 E0.09813
G1 X77.127 Y136.924 E0.01821
G1 X78.693 Y138.490 E0.07246
G1 X78.694 Y137.935 E0.01816
G1 X77.683 Y136.924 E0.04678
G1 X78.240 Y136.924 E0.01821
G1 X78.865 Y137.550 E0.02893
G1 E-0.80000 F2100.00000
G1 Z0.800 F10800.000
G1 X86.154 Y136.642
G1 Z0.200
G1 E0.80000 F2100.00000
G1 F1200
G1 X86.590 Y136.642 E0.01365
G1 X86.590 Y157.572 E0.65625
G1 X86.154 Y157.572 E0.01365
G1 X86.154 Y136.702 E0.65436
G1 E-0.80000 F2100.00000
G1 Z0.800 F10800.000
G1 X90.008 Y152.567
G1 Z0.200
G1 E0.80000 F2100.00000
G1 F1200
G1 X95.935 Y152.567 E0.18584
G1 X95.951 Y157.572 E0.15693
G1 X90.008 Y157.572 E0.18635
G1 X90.008 Y152.627 E0.15505
G1 E-0.80000 F2100.00000
G1 Z0.800 F10800.000
G1 X90.008 Y141.647
G1 Z0.200
G1 E0.80000 F2100.00000
G1 F1200
G1 X90.008 Y136.642 E0.15693
G1 X95.953 Y136.642 E0.18641
G1 X95.940 Y141.647 E0.15693
G1 X90.068 Y141.647 E0.18411
G1 E-0.80000 F2100.00000
G1 Z0.800 F10800.000
G1 X89.631 Y136.950
G1 Z0.200
G1 E0.80000 F2100.00000
G1 F1200
G1 X86.967 Y136.950 E0.08353
G1 X86.967 Y157.263 E0.63692
G1 X89.631 Y157.263 E0.08353
G1 X89.631 Y152.190 E0.15909
G1 X96.311 Y152.190 E0.20945
G1 X96.330 Y157.949 E0.18057
G1 X85.777 Y157.949 E0.33086
G1 X85.777 Y136.265 E0.67989
G1 X96.330 Y136.265 E0.33088
G1 X96.330 Y140.432 E0.13067
G1 X96.313 Y142.024 E0.04991
G1 X89.631 Y142.024 E0.20950
G1 X89.631 Y137.010 E0.15721
G1 X89.510 Y136.568 F10800.000
G1 X89.819 Y136.607
G1 F1200
G1 X86.778 Y136.607 E0.07791
G1 X86.372 Y136.830 F10800.000
G1 F1200
G1 X86.372 Y157.383 E0.09965
G1 X86.778 Y157.606 F10800.000
G1 F1200
G1 X89.819 Y157.606 E0.07791
G1 X90.121 Y156.663 F10800.000
G1 F1200
G1 X90.747 Y157.289 E0.02891
G1 X91.302 Y157.289 E0.01815
G1 X90.291 Y156.277 E0.04674
G1 X90.291 Y155.722 E0.01815
G1 X91.858 Y157.289 E0.07240
G1 X92.414 Y157.289 E0.01815
G1 X90.291 Y155.166 E0.09806
G1 X90.291 Y154.610 E0.01815
G1 X92.969 Y157.289 E0.12373
G1 X93.525 Y157.289 E0.01815
G1 X90.291 Y154.055 E0.14939
G1 X90.291 Y153.499 E0.01815
G1 X94.080 Y157.289 E0.17505
G1 X94.636 Y157.289 E0.01815
G1 X90.291 Y152.944 E0.20072
G1 X90.291 Y152.849 E0.00308
G1 X90.752 Y152.849 E0.01507
G1 X95.191 Y157.289 E0.20507
G1 X95.668 Y157.289 E0.01556
G1 X95.667 Y157.209 E0.00259
G1 X91.307 Y152.849 E0.20141
G1 X91.863 Y152.849 E0.01815
G1 X95.666 Y156.652 E0.17566
G1 X95.664 Y156.095 E0.01821
G1 X92.419 Y152.849 E0.14991
G1 X92.974 Y152.849 E0.01815
G1 X95.662 Y155.537 E0.12416
G1 X95.660 Y154.980 E0.01821
G1 X93.530 Y152.849 E0.09842
G1 X94.085 Y152.849 E0.01815
G1 X95.658 Y154.423 E0.07267
G1 X95.657 Y153.865 E0.01821
G1 X94.641 Y152.849 E0.04692
G1 X95.196 Y152.849 E0.01815
G1 X95.825 Y153.478 E0.02904
G1 E-0.80000 F2100.00000
G1 Z0.800 F10800.000
G1 X90.121 Y140.736
G1 Z0.200
G1 E0.80000 F2100.00000
G1 F1200
G1 X90.748 Y141.364 E0.02903
G1 X91.305 Y141.364 E0.01821
G1 X90.291 Y140.350 E0.04693
G1 X90.291 Y139.793 E0.01821
G1 X91.861 Y141.364 E0.07268
G1 X92.418 Y141.364 E0.01821
G1 X90.291 Y139.237 E0.09843
