; generated by PrusaSlicer 2.1.0+win64 on 2019-11-07 at 20:10:32 UTC

; 

; external perimeters extrusion width = 0.60mm
; perimeters extrusion width = 0.43mm
; infill extrusion width = 0.45mm
; solid infill extrusion width = 0.70mm
; top infill extrusion width = 0.43mm
; first layer extrusion width = 0.42mm

M73 P0 R132
M201 X9000 Y9000 Z500 E10000 ; sets maximum accelerations, mm/sec^2
M203 X500 Y500 Z12 E120 ; sets maximum feedrates, mm/sec
M204 P2000 R1500 T2000 ; sets acceleration (P, T) and retract acceleration (R), mm/sec^2
M205 X10.00 Y10.00 Z0.20 E2.50 ; sets the jerk limits, mm/sec
M205 S0 T0 ; sets the minimum extruding and travel feed rate, mm/sec
M107
M862.3 P "MK2.5SMMU2S" ; printer model check
M862.1 P0.4 ; nozzle diameter check
M115 U3.8.0 ; tell printer latest fw version
G90 ; use absolute coordinates
M83 ; extruder relative mode
M104 S215 ; set extruder temp
M140 S60 ; set bed temp
Tx
M190 S60 ; wait for bed temp
M109 S215 ; wait for extruder temp
G28 W ; home all without mesh bed level
G80 ; mesh bed leveling

G21 ; set units to millimeters

;go outside print area
G1 Y-3.0 F1000.0
G1 Z0.4 F1000.0
; select extruder
Tc
; purge line
G1 X55.0 F2000.0
G1 Z0.3 F1000.0
G92 E0.0
G1 X240.0 E25.0 F2200.0
M73 P0 R132
G1 Y-2.0 F1000.0
G1 X55.0 E25 F1400.0
G1 Z0.20 F1000.0
G1 X5.0 E4.0 F1000.0
G92 E0.0
G21 ; set units to millimeters
G90 ; use absolute coordinates
M83 ; use relative distances for extrusion
M900 K30 ; Filament gcode
;BEFORE_LAYER_CHANGE
G92 E0.0
;0.2


G1 E-0.80000 F2100.00000
G1 Z0.600 F10800.000
;AFTER_LAYER_CHANGE
;0.2
G1 X76.553 Y65.085
G1 Z0.200
G1 E0.80000 F2100.00000
M204 S1000
G1 F1200
G1 X76.934 Y64.432 E0.02372
G1 X77.274 Y64.107 E0.01475
G1 X77.673 Y63.864 E0.01464
G1 X78.114 Y63.711 E0.01464
G1 X78.582 Y63.656 E0.01475
G1 X146.701 Y63.655 E2.13583
G1 X147.585 Y63.843 E0.02833
G1 X148.317 Y64.372 E0.02833
G1 X173.041 Y92.506 E1.17433
G1 X173.360 Y92.985 E0.01805
G1 X173.524 Y93.446 E0.01532
G1 X173.583 Y93.927 E0.01521
G1 X173.583 Y116.078 E0.69451
G1 X173.445 Y116.818 E0.02360
G1 X173.066 Y117.464 E0.02349
G1 X148.329 Y145.614 E1.17500
G1 X147.868 Y146.005 E0.01896
G1 X147.317 Y146.255 E0.01896
G1 X146.700 Y146.345 E0.01953
G1 X78.591 Y146.344 E2.13552
G1 X77.847 Y146.209 E0.02372
G1 X77.193 Y145.828 E0.02372
G1 X76.867 Y145.484 E0.01487
G1 X76.621 Y145.079 E0.01487
G1 X76.469 Y144.630 E0.01487
G1 X76.417 Y144.162 E0.01475
G1 X76.417 Y65.829 E2.45606
G1 X76.542 Y65.144 E0.02183
G1 E-0.80000 F2100.00000
G1 Z0.800 F10800.000
G1 X104.555 Y98.254
G1 Z0.200
G1 E0.80000 F2100.00000
G1 F1200
G1 X111.357 Y98.259 E0.21329
G1 X111.357 Y99.917 E0.05197
G1 X117.972 Y99.917 E0.20740
G1 X117.972 Y94.843 E0.15909
G1 X120.615 Y94.843 E0.08288
G1 X120.615 Y115.157 E0.63692
G1 X117.972 Y115.157 E0.08288
G1 X117.972 Y110.083 E0.15909
G1 X111.357 Y110.083 E0.20740
G1 X111.357 Y111.741 E0.05197
G1 X104.555 Y111.746 E0.21329
G1 X104.555 Y98.314 E0.42115
G1 X104.493 Y97.859 F10800.000
G1 E-0.80000 F2100.00000
G1 Z0.800 F10800.000
G1 X111.734 Y97.883
G1 Z0.200
G1 E0.80000 F2100.00000
G1 F1200
G1 X104.177 Y97.877 E0.23693
G1 X104.177 Y112.123 E0.44669
G1 X111.734 Y112.117 E0.23693
G1 X111.734 Y110.460 E0.05196
G1 X117.595 Y110.460 E0.18375
G1 X117.595 Y115.465 E0.15693
G1 X103.890 Y115.465 E0.42970
G1 X103.890 Y94.535 E0.65624
G1 X117.595 Y94.535 E0.42970
G1 X117.595 Y99.540 E0.15693
G1 X111.734 Y99.540 E0.18375
G1 X111.734 Y97.943 E0.05008
G1 E-0.80000 F2100.00000
G1 Z0.800 F10800.000
G1 X120.992 Y94.535
G1 Z0.200
G1 E0.80000 F2100.00000
G1 F1200
G1 X121.413 Y94.535 E0.01319
G1 X121.413 Y115.465 E0.65624
G1 X120.992 Y115.465 E0.01319
G1 X120.992 Y94.595 E0.65436
G1 X121.790 Y94.158 F10800.000
G1 F1200
G1 X121.790 Y115.842 E0.67989
G1 X103.513 Y115.842 E0.57307
G1 X103.513 Y94.158 E0.67989
G1 X121.730 Y94.158 E0.57119
G1 X121.697 Y94.547 F10800.000
G1 X120.804 Y94.501
G1 F1200
G1 X117.783 Y94.501 E0.07739
G1 X117.482 Y95.417 F10800.000
G1 F1200
G1 X116.882 Y94.818 E0.02679
G1 X116.345 Y94.818 E0.01700
G1 X117.312 Y95.785 E0.04325
G1 X117.312 Y96.323 E0.01700
G1 X115.807 Y94.818 E0.06729
G1 X115.269 Y94.818 E0.01700
G1 X117.312 Y96.861 E0.09133
G1 X117.312 Y97.398 E0.01700
G1 X114.731 Y94.818 E0.11537
G1 X114.194 Y94.818 E0.01700
G1 X117.312 Y97.936 E0.13942
G1 X117.312 Y98.474 E0.01700
G1 X113.656 Y94.818 E0.16346
G1 X113.118 Y94.818 E0.01700
G1 X117.312 Y99.011 E0.18750
G1 X117.312 Y99.257 E0.00777
G1 X117.020 Y99.257 E0.00923
G1 X112.581 Y94.818 E0.19849
G1 X112.043 Y94.818 E0.01700
G1 X116.482 Y99.257 E0.19849
G1 X115.944 Y99.257 E0.01700
G1 X111.505 Y94.818 E0.19849
G1 X110.967 Y94.818 E0.01700
G1 X115.407 Y99.257 E0.19849
G1 X114.869 Y99.257 E0.01700
G1 X110.430 Y94.818 E0.19849
G1 X109.892 Y94.818 E0.01700
G1 X114.331 Y99.257 E0.19849
G1 X113.794 Y99.257 E0.01700
G1 X109.354 Y94.818 E0.19849
G1 X108.817 Y94.818 E0.01700
G1 X111.598 Y97.600 E0.12438
G1 X111.060 Y97.599 E0.01701
G1 X108.279 Y94.818 E0.12436
G1 X107.741 Y94.818 E0.01700
G1 X110.522 Y97.599 E0.12434
G1 X109.984 Y97.598 E0.01701
G1 X107.203 Y94.818 E0.12432
G1 X106.666 Y94.818 E0.01700
G1 X109.446 Y97.598 E0.12431
G1 X108.908 Y97.598 E0.01701
G1 X106.128 Y94.818 E0.12429
G1 X105.590 Y94.818 E0.01700
G1 X108.370 Y97.597 E0.12427
G1 X107.831 Y97.597 E0.01701
G1 X105.053 Y94.818 E0.12425
G1 X104.515 Y94.818 E0.01700
G1 X107.293 Y97.596 E0.12423
G1 X106.755 Y97.596 E0.01701
G1 X104.173 Y95.013 E0.11547
G1 X104.173 Y95.551 E0.01700
G1 X106.217 Y97.596 E0.09140
G1 X105.679 Y97.595 E0.01701
G1 X104.173 Y96.089 E0.06734
G1 X104.173 Y96.627 E0.01700
G1 X105.141 Y97.595 E0.04328
G1 X104.603 Y97.594 E0.01701
G1 X104.003 Y96.995 E0.02681
G1 E-0.80000 F2100.00000
G1 Z0.800 F10800.000
G1 X111.847 Y98.924
G1 Z0.200
G1 E0.80000 F2100.00000
G1 F1200
G1 X112.180 Y99.257 E0.01490
G1 X112.718 Y99.257 E0.01700
G1 X112.017 Y98.556 E0.03136
G1 X112.017 Y98.018 E0.01700
G1 X113.426 Y99.427 E0.06298
G1 E-0.80000 F2100.00000
G1 Z0.800 F10800.000
G1 X117.482 Y111.344
G1 Z0.200
G1 E0.80000 F2100.00000
G1 F1200
G1 X116.880 Y110.743 E0.02697
G1 X116.341 Y110.743 E0.01709
G1 X117.312 Y111.714 E0.04353
G1 X117.312 Y112.253 E0.01709
G1 X115.802 Y110.743 E0.06771
G1 X115.262 Y110.743 E0.01709
G1 X117.312 Y112.792 E0.09188
G1 X117.312 Y113.331 E0.01709
G1 X114.723 Y110.743 E0.11606
G1 X114.184 Y110.743 E0.01709
G1 X117.312 Y113.871 E0.14023
G1 X117.312 Y114.410 E0.01709
G1 X113.645 Y110.743 E0.16440
G1 X113.106 Y110.743 E0.01709
G1 X117.312 Y114.949 E0.18858
G1 X117.312 Y115.182 E0.00739
G1 X117.006 Y115.182 E0.00970
G1 X112.567 Y110.743 E0.19903
G1 X112.027 Y110.743 E0.01709
G1 X116.467 Y115.182 E0.19903
G1 X115.927 Y115.182 E0.01709
G1 X112.017 Y111.272 E0.17533
G1 X112.017 Y111.811 E0.01709
G1 X115.388 Y115.182 E0.15115
G1 X114.849 Y115.182 E0.01709
G1 X112.017 Y112.350 E0.12698
G1 X112.017 Y112.400 E0.00158
G1 X111.528 Y112.400 E0.01550
G1 X114.310 Y115.182 E0.12472
G1 X113.771 Y115.182 E0.01709
G1 X110.989 Y112.401 E0.12470
G1 X110.451 Y112.401 E0.01708
G1 X113.231 Y115.182 E0.12468
G1 X112.692 Y115.182 E0.01709
G1 X109.912 Y112.402 E0.12466
G1 X109.373 Y112.402 E0.01708
G1 X112.153 Y115.182 E0.12464
G1 X111.614 Y115.182 E0.01709
G1 X108.834 Y112.402 E0.12463
G1 X108.295 Y112.403 E0.01708
G1 X111.075 Y115.182 E0.12461
G1 X110.536 Y115.182 E0.01709
G1 X107.757 Y112.403 E0.12459
G1 X107.218 Y112.404 E0.01708
G1 X109.996 Y115.182 E0.12457
G1 X109.457 Y115.182 E0.01709
G1 X106.679 Y112.404 E0.12455
G1 X106.140 Y112.405 E0.01708
G1 X108.918 Y115.182 E0.12453
G1 X108.379 Y115.182 E0.01709
G1 X105.602 Y112.405 E0.12451
G1 X105.063 Y112.405 E0.01708
G1 X107.840 Y115.182 E0.12449
G1 X107.300 Y115.182 E0.01709
G1 X104.524 Y112.406 E0.12447
G1 X104.173 Y112.406 E0.01114
G1 X104.173 Y112.594 E0.00595
G1 X106.761 Y115.182 E0.11605
G1 X106.222 Y115.182 E0.01709
G1 X104.173 Y113.133 E0.09188
G1 X104.173 Y113.672 E0.01709
G1 X105.683 Y115.182 E0.06770
M73 P0 R131
G1 X105.144 Y115.182 E0.01709
G1 X104.173 Y114.211 E0.04353
G1 X104.173 Y114.750 E0.01709
G1 X104.774 Y115.352 E0.02696
G1 E-0.80000 F2100.00000
G1 Z0.800 F10800.000
G1 X117.783 Y115.499
G1 Z0.200
G1 E0.80000 F2100.00000
G1 F1200
G1 X120.804 Y115.499 E0.07739
G1 E-0.80000 F2100.00000
G1 Z0.800 F10800.000
G1 X129.252 Y111.746
G1 Z0.200
G1 E0.80000 F2100.00000
G1 F1200
G1 X129.252 Y98.254 E0.42303
G1 X136.054 Y98.259 E0.21329
G1 X136.054 Y99.917 E0.05197
G1 X142.669 Y99.917 E0.20740
G1 X142.669 Y94.843 E0.15909
G1 X145.312 Y94.843 E0.08288
G1 X145.312 Y115.157 E0.63692
G1 X142.669 Y115.157 E0.08288
G1 X142.669 Y110.083 E0.15909
G1 X136.054 Y110.083 E0.20740
G1 X136.054 Y111.741 E0.05197
G1 X129.312 Y111.746 E0.21141
G1 X128.853 Y111.778 F10800.000
G1 E-0.80000 F2100.00000
G1 Z0.800 F10800.000
G1 X136.431 Y97.883
G1 Z0.200
G1 E0.80000 F2100.00000
G1 F1200
G1 X128.875 Y97.877 E0.23693
G1 X128.875 Y112.123 E0.44669
G1 X136.431 Y112.117 E0.23693
G1 X136.431 Y110.460 E0.05196
G1 X142.292 Y110.460 E0.18375
G1 X142.292 Y115.465 E0.15693
G1 X128.587 Y115.465 E0.42970
G1 X128.587 Y94.535 E0.65624
G1 X142.292 Y94.535 E0.42970
G1 X142.292 Y99.540 E0.15693
G1 X136.431 Y99.540 E0.18375
G1 X136.431 Y97.943 E0.05008
G1 E-0.80000 F2100.00000
G1 Z0.800 F10800.000
G1 X145.689 Y94.535
G1 Z0.200
G1 E0.80000 F2100.00000
G1 F1200
G1 X146.110 Y94.535 E0.01319
G1 X146.110 Y115.465 E0.65624
G1 X145.689 Y115.465 E0.01319
G1 X145.689 Y94.595 E0.65436
G1 X146.487 Y94.158 F10800.000
G1 F1200
G1 X146.487 Y115.842 E0.67989
G1 X128.210 Y115.842 E0.57307
G1 X128.210 Y94.158 E0.67989
G1 X146.427 Y94.158 E0.57119
G1 X146.395 Y94.547 F10800.000
G1 X145.501 Y94.501
G1 F1200
G1 X142.480 Y94.501 E0.07739
G1 X142.179 Y95.417 F10800.000
G1 F1200
G1 X141.579 Y94.818 E0.02679
G1 X141.042 Y94.818 E0.01700
G1 X142.009 Y95.785 E0.04325
G1 X142.009 Y96.323 E0.01700
G1 X140.504 Y94.818 E0.06729
G1 X139.966 Y94.818 E0.01700
G1 X142.009 Y96.861 E0.09133
G1 X142.009 Y97.398 E0.01700
G1 X139.429 Y94.818 E0.11537
G1 X138.891 Y94.818 E0.01700
G1 X142.009 Y97.936 E0.13942
G1 X142.009 Y98.474 E0.01700
G1 X138.353 Y94.818 E0.16346
G1 X137.815 Y94.818 E0.01700
G1 X142.009 Y99.011 E0.18750
G1 X142.009 Y99.257 E0.00777
G1 X141.717 Y99.257 E0.00923
G1 X137.278 Y94.818 E0.19849
G1 X136.740 Y94.818 E0.01700
G1 X141.179 Y99.257 E0.19849
G1 X140.642 Y99.257 E0.01700
G1 X136.202 Y94.818 E0.19849
G1 X135.665 Y94.818 E0.01700
G1 X140.104 Y99.257 E0.19849
G1 X139.566 Y99.257 E0.01700
G1 X135.127 Y94.818 E0.19849
G1 X134.589 Y94.818 E0.01700
G1 X139.028 Y99.257 E0.19849
G1 X138.491 Y99.257 E0.01700
G1 X134.051 Y94.818 E0.19849
G1 X133.514 Y94.818 E0.01700
G1 X136.296 Y97.600 E0.12438
G1 X135.757 Y97.599 E0.01701
G1 X132.976 Y94.818 E0.12436
G1 X132.438 Y94.818 E0.01700
G1 X135.219 Y97.599 E0.12434
G1 X134.681 Y97.598 E0.01701
G1 X131.901 Y94.818 E0.12432
G1 X131.363 Y94.818 E0.01700
G1 X134.143 Y97.598 E0.12431
G1 X133.605 Y97.598 E0.01701
G1 X130.825 Y94.818 E0.12429
G1 X130.287 Y94.818 E0.01700
G1 X133.067 Y97.597 E0.12427
G1 X132.529 Y97.597 E0.01701
G1 X129.750 Y94.818 E0.12425
G1 X129.212 Y94.818 E0.01700
G1 X131.990 Y97.596 E0.12423
G1 X131.452 Y97.596 E0.01701
G1 X128.870 Y95.013 E0.11547
G1 X128.870 Y95.551 E0.01700
G1 X130.914 Y97.596 E0.09140
G1 X130.376 Y97.595 E0.01701
G1 X128.870 Y96.089 E0.06734
G1 X128.870 Y96.627 E0.01700
G1 X129.838 Y97.595 E0.04328
G1 X129.300 Y97.594 E0.01701
G1 X128.700 Y96.995 E0.02681
G1 E-0.80000 F2100.00000
G1 Z0.800 F10800.000
G1 X136.544 Y98.924
G1 Z0.200
G1 E0.80000 F2100.00000
G1 F1200
G1 X136.878 Y99.257 E0.01490
G1 X137.415 Y99.257 E0.01700
G1 X136.714 Y98.556 E0.03136
G1 X136.714 Y98.018 E0.01700
G1 X138.123 Y99.427 E0.06298
G1 E-0.80000 F2100.00000
G1 Z0.800 F10800.000
G1 X142.179 Y111.344
G1 Z0.200
G1 E0.80000 F2100.00000
G1 F1200
G1 X141.577 Y110.743 E0.02697
G1 X141.038 Y110.743 E0.01709
G1 X142.009 Y111.714 E0.04353
G1 X142.009 Y112.253 E0.01709
G1 X140.499 Y110.743 E0.06771
G1 X139.960 Y110.743 E0.01709
G1 X142.009 Y112.792 E0.09188
G1 X142.009 Y113.331 E0.01709
G1 X139.420 Y110.743 E0.11606
G1 X138.881 Y110.743 E0.01709
G1 X142.009 Y113.871 E0.14023
G1 X142.009 Y114.410 E0.01709
G1 X138.342 Y110.743 E0.16440
G1 X137.803 Y110.743 E0.01709
G1 X142.009 Y114.949 E0.18858
G1 X142.009 Y115.182 E0.00739
G1 X141.703 Y115.182 E0.00970
G1 X137.264 Y110.743 E0.19903
G1 X136.724 Y110.743 E0.01709
G1 X141.164 Y115.182 E0.19903
G1 X140.625 Y115.182 E0.01709
G1 X136.714 Y111.272 E0.17533
G1 X136.714 Y111.811 E0.01709
G1 X140.085 Y115.182 E0.15115
G1 X139.546 Y115.182 E0.01709
G1 X136.714 Y112.350 E0.12698
G1 X136.714 Y112.400 E0.00158
G1 X136.225 Y112.400 E0.01550
G1 X139.007 Y115.182 E0.12472
G1 X138.468 Y115.182 E0.01709
G1 X135.686 Y112.401 E0.12470
G1 X135.148 Y112.401 E0.01708
G1 X137.929 Y115.182 E0.12468
G1 X137.389 Y115.182 E0.01709
G1 X134.609 Y112.402 E0.12466
G1 X134.070 Y112.402 E0.01708
G1 X136.850 Y115.182 E0.12464
G1 X136.311 Y115.182 E0.01709
G1 X133.531 Y112.402 E0.12463
G1 X132.993 Y112.403 E0.01708
G1 X135.772 Y115.182 E0.12461
G1 X135.233 Y115.182 E0.01709
G1 X132.454 Y112.403 E0.12459
G1 X131.915 Y112.404 E0.01708
G1 X134.693 Y115.182 E0.12457
G1 X134.154 Y115.182 E0.01709
G1 X131.376 Y112.404 E0.12455
G1 X130.837 Y112.405 E0.01708
G1 X133.615 Y115.182 E0.12453
G1 X133.076 Y115.182 E0.01709
G1 X130.299 Y112.405 E0.12451
G1 X129.760 Y112.405 E0.01708
G1 X132.537 Y115.182 E0.12449
G1 X131.998 Y115.182 E0.01709
G1 X129.221 Y112.406 E0.12447
G1 X128.870 Y112.406 E0.01114
G1 X128.870 Y112.594 E0.00595
G1 X131.458 Y115.182 E0.11605
G1 X130.919 Y115.182 E0.01709
G1 X128.870 Y113.133 E0.09188
G1 X128.870 Y113.672 E0.01709
G1 X130.380 Y115.182 E0.06770
G1 X129.841 Y115.182 E0.01709
G1 X128.870 Y114.211 E0.04353
G1 X128.870 Y114.750 E0.01709
G1 X129.471 Y115.352 E0.02696
G1 E-0.80000 F2100.00000
G1 Z0.800 F10800.000
G1 X142.480 Y115.499
G1 Z0.200
G1 E0.80000 F2100.00000
G1 F1200
G1 X145.501 Y115.499 E0.07739
G1 E-0.80000 F2100.00000
G1 Z0.800 F10800.000
G1 X153.949 Y111.746
G1 Z0.200
G1 E0.80000 F2100.00000
G1 F1200
G1 X153.949 Y98.254 E0.42303
G1 X160.751 Y98.259 E0.21329
G1 X160.751 Y99.917 E0.05197
G1 X167.366 Y99.917 E0.20740
G1 X167.366 Y94.843 E0.15909
G1 X170.009 Y94.843 E0.08288
G1 X170.009 Y115.157 E0.63692
G1 X167.366 Y115.157 E0.08288
G1 X167.366 Y110.083 E0.15909
G1 X160.751 Y110.083 E0.20740
G1 X160.751 Y111.741 E0.05197
G1 X154.009 Y111.746 E0.21141
G1 X153.550 Y111.778 F10800.000
G1 E-0.80000 F2100.00000
G1 Z0.800 F10800.000
G1 X161.128 Y97.883
G1 Z0.200
G1 E0.80000 F2100.00000
G1 F1200
G1 X153.572 Y97.877 E0.23693
G1 X153.572 Y112.123 E0.44669
G1 X161.128 Y112.117 E0.23693
G1 X161.128 Y110.460 E0.05196
G1 X166.989 Y110.460 E0.18375
G1 X166.989 Y115.465 E0.15693
G1 X153.284 Y115.465 E0.42970
G1 X153.284 Y94.535 E0.65624
G1 X166.989 Y94.535 E0.42970
G1 X166.989 Y99.540 E0.15693
G1 X161.128 Y99.540 E0.18375
G1 X161.128 Y97.943 E0.05008
G1 E-0.80000 F2100.00000
G1 Z0.800 F10800.000
G1 X170.386 Y94.535
G1 Z0.200
G1 E0.80000 F2100.00000
G1 F1200
G1 X170.807 Y94.535 E0.01319
G1 X170.807 Y115.465 E0.65624
G1 X170.386 Y115.465 E0.01319
G1 X170.386 Y94.595 E0.65436
G1 X171.184 Y94.158 F10800.000
G1 F1200
G1 X171.184 Y115.842 E0.67989
G1 X152.907 Y115.842 E0.57307
G1 X152.907 Y94.158 E0.67989
G1 X171.124 Y94.158 E0.57119
G1 X171.092 Y94.547 F10800.000
G1 X170.198 Y94.501
G1 F1200
G1 X167.177 Y94.501 E0.07739
G1 X166.876 Y95.417 F10800.000
G1 F1200
G1 X166.277 Y94.818 E0.02679
G1 X165.739 Y94.818 E0.01700
G1 X166.706 Y95.785 E0.04325
G1 X166.706 Y96.323 E0.01700
G1 X165.201 Y94.818 E0.06729
G1 X164.663 Y94.818 E0.01700
G1 X166.706 Y96.861 E0.09133
G1 X166.706 Y97.398 E0.01700
G1 X164.126 Y94.818 E0.11537
G1 X163.588 Y94.818 E0.01700
G1 X166.706 Y97.936 E0.13942
G1 X166.706 Y98.474 E0.01700
G1 X163.050 Y94.818 E0.16346
G1 X162.513 Y94.818 E0.01700
G1 X166.706 Y99.011 E0.18750
G1 X166.706 Y99.257 E0.00777
G1 X166.414 Y99.257 E0.00923
G1 X161.975 Y94.818 E0.19849
G1 X161.437 Y94.818 E0.01700
G1 X165.876 Y99.257 E0.19849
G1 X165.339 Y99.257 E0.01700
G1 X160.899 Y94.818 E0.19849
G1 X160.362 Y94.818 E0.01700
G1 X164.801 Y99.257 E0.19849
G1 X164.263 Y99.257 E0.01700
G1 X159.824 Y94.818 E0.19849
G1 X159.286 Y94.818 E0.01700
