; generated by PrusaSlicer 2.1.1+win64 on 2020-04-24 at 22:18:59 UTC

; 

; external perimeters extrusion width = 0.45mm
; perimeters extrusion width = 0.45mm
; infill extrusion width = 0.45mm
; solid infill extrusion width = 0.45mm
; top infill extrusion width = 0.40mm
; first layer extrusion width = 0.42mm

M73 P0 R10
M201 X9000 Y9000 Z500 E10000 ; sets maximum accelerations, mm/sec^2
M203 X500 Y500 Z12 E120 ; sets maximum feedrates, mm/sec
M204 P2000 R1500 T2000 ; sets acceleration (P, T) and retract acceleration (R), mm/sec^2
M205 X10.00 Y10.00 Z0.20 E2.50 ; sets the jerk limits, mm/sec
M205 S0 T0 ; sets the minimum extruding and travel feed rate, mm/sec
M107
M862.3 P "MK2.5SMMU2S" ; printer model check
M862.1 P0.4 ; nozzle diameter check
M115 U3.8.0 ; tell printer latest fw version
G90 ; use absolute coordinates
M83 ; extruder relative mode
M104 S215 ; set extruder temp
M140 S60 ; set bed temp
Tx
M190 S60 ; wait for bed temp
M109 S215 ; wait for extruder temp
G28 W ; home all without mesh bed level
G80 ; mesh bed leveling

G21 ; set units to millimeters

;go outside print area
G1 Y-3.0 F1000.0
G1 Z0.4 F1000.0
; select extruder
Tc
; purge line
G1 X55.0 F2000.0
G1 Z0.3 F1000.0
G92 E0.0
G1 X240.0 E25.0 F2200.0
M73 P1 R10
G1 Y-2.0 F1000.0
G1 X55.0 E25 F1400.0
G1 Z0.20 F1000.0
G1 X5.0 E4.0 F1000.0
G92 E0.0
G21 ; set units to millimeters
G90 ; use absolute coordinates
M83 ; use relative distances for extrusion
M900 K30 ; Filament gcode
;BEFORE_LAYER_CHANGE
G92 E0.0
;0.2


G1 E-0.80000 F2100.00000
G1 Z0.600 F10800.000
;AFTER_LAYER_CHANGE
;0.2
G1 X106.344 Y96.383
G1 Z0.200
G1 E0.80000 F2100.00000
M204 S1000
G1 F1200
G1 X106.822 Y95.837 E0.02275
G1 X107.364 Y95.462 E0.02066
G1 X107.925 Y95.251 E0.01882
G1 X108.521 Y95.176 E0.01882
G1 X141.457 Y95.175 E1.03268
G1 X142.373 Y95.346 E0.02924
G1 X143.169 Y95.833 E0.02924
G1 X143.779 Y96.599 E0.03070
G1 X144.064 Y97.524 E0.03034
G1 X144.042 Y104.076 E0.20543
G1 X143.873 Y104.651 E0.01882
G1 X143.578 Y105.169 E0.01869
G1 X143.131 Y105.646 E0.02048
G1 X142.634 Y105.982 E0.01882
G1 X117.493 Y114.779 E0.83515
G1 X108.230 Y114.811 E0.29042
G1 X107.621 Y114.659 E0.01968
G1 X107.064 Y114.362 E0.01980
G1 X106.561 Y113.904 E0.02133
G1 X106.209 Y113.389 E0.01956
G1 X106.001 Y112.839 E0.01845
G1 X105.923 Y112.260 E0.01832
G1 X105.921 Y97.636 E0.45851
G1 X106.050 Y96.982 E0.02091
G1 X106.317 Y96.437 E0.01903
G1 X106.654 Y96.601 F10800.000
G1 F1200
G1 X107.081 Y96.111 E0.02040
G1 X107.554 Y95.788 E0.01794
G1 X108.026 Y95.614 E0.01578
G1 X108.526 Y95.553 E0.01578
G1 X141.456 Y95.552 E1.03252
G1 X142.246 Y95.701 E0.02518
G1 X142.925 Y96.122 E0.02507
G1 X143.453 Y96.788 E0.02663
G1 X143.691 Y97.588 E0.02620
G1 X143.676 Y103.981 E0.20045
G1 X143.534 Y104.487 E0.01646
G1 X143.275 Y104.944 E0.01646
G1 X142.881 Y105.364 E0.01809
G1 X142.444 Y105.656 E0.01646
G1 X117.429 Y114.407 E0.83092
G1 X108.301 Y114.440 E0.28620
G1 X107.770 Y114.312 E0.01714
G1 X107.283 Y114.055 E0.01726
G1 X106.839 Y113.649 E0.01886
G1 X106.536 Y113.199 E0.01703
G1 X106.363 Y112.734 E0.01555
G1 X106.300 Y112.245 E0.01544
G1 X106.297 Y97.674 E0.45687
G1 X106.406 Y97.109 E0.01805
G1 X106.627 Y96.655 E0.01583
G1 E-0.80000 F2100.00000
G1 Z0.800 F10800.000
G1 X113.362 Y111.003
G1 Z0.200
G1 E0.80000 F2100.00000
G1 F1200
G1 X112.762 Y111.062 E0.01891
G1 X112.161 Y111.003 E0.01891
G1 X111.584 Y110.828 E0.01891
G1 X111.052 Y110.544 E0.01891
G1 X110.586 Y110.161 E0.01891
G1 X110.203 Y109.695 E0.01891
G1 X109.919 Y109.163 E0.01891
G1 X109.744 Y108.586 E0.01891
G1 X109.685 Y107.986 E0.01891
G1 X109.744 Y107.385 E0.01891
G1 X109.919 Y106.808 E0.01891
G1 X110.203 Y106.276 E0.01891
G1 X110.586 Y105.810 E0.01891
G1 X111.052 Y105.427 E0.01891
G1 X111.584 Y105.143 E0.01891
G1 X112.161 Y104.968 E0.01891
G1 X112.761 Y104.909 E0.01890
G1 X113.362 Y104.968 E0.01892
G1 X113.939 Y105.143 E0.01891
G1 X114.471 Y105.427 E0.01891
G1 X114.937 Y105.810 E0.01891
G1 X115.320 Y106.276 E0.01891
G1 X115.604 Y106.808 E0.01891
G1 X115.779 Y107.385 E0.01891
G1 X115.838 Y107.986 E0.01891
G1 X115.779 Y108.586 E0.01891
G1 X115.604 Y109.163 E0.01891
G1 X115.320 Y109.695 E0.01891
G1 X114.937 Y110.161 E0.01891
G1 X114.471 Y110.544 E0.01891
G1 X113.939 Y110.828 E0.01891
G1 X113.419 Y110.986 E0.01703
G1 X113.288 Y110.632 F10800.000
G1 F1200
G1 X112.762 Y110.683 E0.01658
G1 X112.235 Y110.632 E0.01658
G1 X111.729 Y110.478 E0.01658
G1 X111.263 Y110.229 E0.01658
G1 X110.854 Y109.893 E0.01658
G1 X110.518 Y109.484 E0.01658
G1 X110.269 Y109.018 E0.01658
G1 X110.116 Y108.512 E0.01658
G1 X110.064 Y107.986 E0.01658
G1 X110.116 Y107.459 E0.01658
G1 X110.269 Y106.953 E0.01658
G1 X110.518 Y106.487 E0.01658
G1 X110.854 Y106.078 E0.01658
G1 X111.263 Y105.742 E0.01658
G1 X111.729 Y105.493 E0.01658
G1 X112.235 Y105.340 E0.01658
G1 X112.761 Y105.288 E0.01658
G1 X113.288 Y105.340 E0.01659
G1 X113.794 Y105.493 E0.01658
G1 X114.260 Y105.742 E0.01658
G1 X114.669 Y106.078 E0.01658
G1 X115.005 Y106.487 E0.01658
G1 X115.254 Y106.953 E0.01658
G1 X115.408 Y107.459 E0.01658
G1 X115.459 Y107.986 E0.01658
G1 X115.408 Y108.512 E0.01658
G1 X115.254 Y109.018 E0.01658
G1 X115.005 Y109.484 E0.01658
G1 X114.669 Y109.893 E0.01658
G1 X114.260 Y110.229 E0.01658
G1 X113.794 Y110.478 E0.01658
G1 X113.345 Y110.614 E0.01470
G1 X113.159 Y111.010 F10800.000
G1 E-0.80000 F2100.00000
G1 Z0.800 F10800.000
G1 X116.454 Y111.678
G1 Z0.200
G1 E0.80000 F2100.00000
G1 F1200
G1 X109.069 Y111.678 E0.23156
G1 X109.069 Y98.328 E0.41857
G1 X140.926 Y98.328 E0.99885
G1 X140.926 Y103.119 E0.15024
G1 X116.858 Y103.119 E0.75462
G1 X116.454 Y103.524 E0.01792
G1 X116.454 Y111.618 E0.25379
G1 X116.831 Y112.055 F10800.000
G1 F1200
G1 X108.692 Y112.055 E0.25521
G1 X108.692 Y97.951 E0.44222
G1 X141.303 Y97.951 E1.02250
G1 X141.303 Y103.496 E0.17388
G1 X117.015 Y103.496 E0.76154
G1 X116.831 Y103.680 E0.00813
G1 X116.831 Y111.995 E0.26071
G1 X116.486 Y111.852 F10800.000
G1 E-0.80000 F2100.00000
G1 Z0.800 F10800.000
G1 X116.341 Y109.632
G1 Z0.200
G1 E0.80000 F2100.00000
G1 F1200
G1 X115.893 Y109.184 E0.02056
G1 X115.867 Y109.272 E0.00296
G1 X115.714 Y109.557 E0.01050
G1 X116.171 Y110.015 E0.02099
G1 X116.171 Y110.566 E0.01790
G1 X115.512 Y109.907 E0.03027
G1 X115.263 Y110.210 E0.01272
G1 X116.171 Y111.118 E0.04168
G1 X116.171 Y111.395 E0.00897
G1 X115.896 Y111.395 E0.00893
G1 X114.987 Y110.486 E0.04171
G1 X114.684 Y110.735 E0.01272
G1 X115.344 Y111.395 E0.03030
G1 X114.793 Y111.395 E0.01791
G1 X114.335 Y110.937 E0.02100
G1 X114.048 Y111.091 E0.01056
G1 X113.962 Y111.117 E0.00289
G1 X114.410 Y111.565 E0.02056
G1 X113.495 Y111.335 F10800.000
G1 F1200
G1 X113.134 Y111.352 E0.00884
G1 X112.773 Y111.370 E0.00799
G1 X112.028 Y111.335 E0.01476
G1 X111.644 Y111.565 F10800.000
G1 F1200
G1 X109.352 Y109.272 E0.10589
G1 X109.352 Y109.828 E0.01814
G1 X110.919 Y111.395 E0.07239
G1 X110.363 Y111.395 E0.01814
G1 X109.352 Y110.383 E0.04673
G1 X109.352 Y110.939 E0.01814
G1 X109.977 Y111.565 E0.02891
G1 E-0.80000 F2100.00000
G1 Z0.800 F10800.000
G1 X109.412 Y108.717
G1 Z0.200
G1 E0.80000 F2100.00000
G1 F1200
G1 X109.377 Y107.974 E0.01475
G1 X109.394 Y107.614 E0.00799
G1 X109.412 Y107.254 E0.00883
G1 X109.182 Y106.359 F10800.000
G1 F1200
G1 X109.625 Y106.802 E0.01986
G1 X109.656 Y106.699 E0.00340
G1 X109.797 Y106.436 E0.00947
G1 X109.352 Y105.990 E0.01997
G1 X109.352 Y105.451 E0.01706
G1 X109.990 Y106.090 E0.02861
G1 X110.233 Y105.794 E0.01212
G1 X109.352 Y104.913 E0.03948
G1 X109.352 Y104.374 E0.01706
G1 X110.496 Y105.518 E0.05124
G1 X110.792 Y105.275 E0.01212
G1 X109.352 Y103.835 E0.06449
G1 X109.352 Y103.297 E0.01706
G1 X111.123 Y105.069 E0.07935
G1 X111.474 Y104.881 E0.01260
G1 X109.352 Y102.758 E0.09507
G1 X109.352 Y102.220 E0.01706
G1 X111.887 Y104.756 E0.11356
G1 X112.106 Y104.689 E0.00723
G1 X112.337 Y104.666 E0.00736
G1 X109.352 Y101.681 E0.13370
G1 X109.352 Y101.142 E0.01706
G1 X112.842 Y104.633 E0.15630
G1 X113.446 Y104.698 E0.01923
G1 X109.352 Y100.604 E0.18334
G1 X109.352 Y100.065 E0.01706
G1 X114.304 Y105.017 E0.22177
G1 E-0.80000 F2100.00000
G1 Z0.800 F10800.000
G1 X115.730 Y106.443
G1 Z0.200
G1 E0.80000 F2100.00000
G1 F1200
G1 X116.171 Y106.885 E0.01978
G1 X116.171 Y106.347 E0.01706
G1 X109.352 Y99.527 E0.30542
G1 X109.352 Y98.988 E0.01706
G1 X116.171 Y105.808 E0.30542
G1 X116.171 Y105.269 E0.01706
G1 X109.513 Y98.611 E0.29820
G1 X110.051 Y98.611 E0.01706
G1 X116.171 Y104.731 E0.27408
G1 X116.171 Y104.192 E0.01706
G1 X110.590 Y98.611 E0.24996
G1 X111.128 Y98.611 E0.01706
G1 X116.171 Y103.654 E0.22584
G1 X116.171 Y103.406 E0.00783
G1 X116.317 Y103.261 E0.00652
G1 X111.667 Y98.611 E0.20825
G1 X112.206 Y98.611 E0.01706
G1 X116.586 Y102.991 E0.19619
G1 X116.741 Y102.837 E0.00693
G1 X116.970 Y102.837 E0.00725
G1 X112.744 Y98.611 E0.18925
G1 X113.283 Y98.611 E0.01706
G1 X117.509 Y102.837 E0.18925
G1 X118.047 Y102.837 E0.01706
G1 X113.821 Y98.611 E0.18925
G1 X114.360 Y98.611 E0.01706
G1 X118.586 Y102.837 E0.18925
G1 X119.125 Y102.837 E0.01706
G1 X114.899 Y98.611 E0.18925
G1 X115.437 Y98.611 E0.01706
G1 X119.663 Y102.837 E0.18925
G1 X120.202 Y102.837 E0.01706
G1 X115.976 Y98.611 E0.18925
G1 X116.514 Y98.611 E0.01706
G1 X120.740 Y102.837 E0.18925
G1 X121.279 Y102.837 E0.01706
G1 X117.053 Y98.611 E0.18925
G1 X117.591 Y98.611 E0.01706
G1 X121.817 Y102.837 E0.18925
G1 X122.356 Y102.837 E0.01706
G1 X118.130 Y98.611 E0.18925
G1 X118.669 Y98.611 E0.01706
G1 X122.895 Y102.837 E0.18925
G1 X123.433 Y102.837 E0.01706
G1 X119.207 Y98.611 E0.18925
G1 X119.746 Y98.611 E0.01706
G1 X123.972 Y102.837 E0.18925
G1 X124.510 Y102.837 E0.01706
G1 X120.284 Y98.611 E0.18925
G1 X120.823 Y98.611 E0.01706
G1 X125.049 Y102.837 E0.18925
G1 X125.588 Y102.837 E0.01706
G1 X121.362 Y98.611 E0.18925
G1 X121.900 Y98.611 E0.01706
G1 X126.126 Y102.837 E0.18925
G1 X126.665 Y102.837 E0.01706
G1 X122.439 Y98.611 E0.18925
G1 X122.977 Y98.611 E0.01706
G1 X127.203 Y102.837 E0.18925
G1 X127.742 Y102.837 E0.01706
G1 X123.516 Y98.611 E0.18925
G1 X124.055 Y98.611 E0.01706
G1 X128.281 Y102.837 E0.18925
G1 X128.819 Y102.837 E0.01706
G1 X124.593 Y98.611 E0.18925
G1 X125.132 Y98.611 E0.01706
G1 X129.358 Y102.837 E0.18925
G1 X129.896 Y102.837 E0.01706
G1 X125.670 Y98.611 E0.18925
G1 X126.209 Y98.611 E0.01706
G1 X130.435 Y102.837 E0.18925
G1 X130.973 Y102.837 E0.01706
G1 X126.747 Y98.611 E0.18925
G1 X127.286 Y98.611 E0.01706
G1 X131.512 Y102.837 E0.18925
G1 X132.051 Y102.837 E0.01706
G1 X127.825 Y98.611 E0.18925
G1 X128.363 Y98.611 E0.01706
G1 X132.589 Y102.837 E0.18925
G1 X133.128 Y102.837 E0.01706
G1 X128.902 Y98.611 E0.18925
G1 X129.440 Y98.611 E0.01706
G1 X133.666 Y102.837 E0.18925
G1 X134.205 Y102.837 E0.01706
G1 X129.979 Y98.611 E0.18925
G1 X130.518 Y98.611 E0.01706
G1 X134.744 Y102.837 E0.18925
G1 X135.282 Y102.837 E0.01706
G1 X131.056 Y98.611 E0.18925
G1 X131.595 Y98.611 E0.01706
G1 X135.821 Y102.837 E0.18925
G1 X136.359 Y102.837 E0.01706
G1 X132.133 Y98.611 E0.18925
G1 X132.672 Y98.611 E0.01706
G1 X136.898 Y102.837 E0.18925
G1 X137.437 Y102.837 E0.01706
G1 X133.211 Y98.611 E0.18925
G1 X133.749 Y98.611 E0.01706
G1 X137.975 Y102.837 E0.18925
G1 X138.514 Y102.837 E0.01706
G1 X134.288 Y98.611 E0.18925
G1 X134.826 Y98.611 E0.01706
G1 X139.052 Y102.837 E0.18925
G1 X139.591 Y102.837 E0.01706
G1 X135.365 Y98.611 E0.18925
G1 X135.903 Y98.611 E0.01706
G1 X140.129 Y102.837 E0.18925
G1 X140.643 Y102.837 E0.01626
G1 X140.643 Y102.812 E0.00079
G1 X136.442 Y98.611 E0.18814
G1 X136.981 Y98.611 E0.01706
G1 X140.643 Y102.273 E0.16402
G1 X140.643 Y101.734 E0.01706
G1 X137.519 Y98.611 E0.13990
G1 X138.058 Y98.611 E0.01706
G1 X140.643 Y101.196 E0.11578
G1 X140.643 Y100.657 E0.01706
G1 X138.596 Y98.611 E0.09166
G1 X139.135 Y98.611 E0.01706
G1 X140.643 Y100.119 E0.06754
G1 X140.643 Y99.580 E0.01706
G1 X139.674 Y98.611 E0.04342
G1 X140.212 Y98.611 E0.01706
G1 X140.813 Y99.211 E0.02690
G1 E-0.80000 F2100.00000
G1 Z0.800 F10800.000
G1 X116.111 Y107.254
G1 Z0.200
G1 E0.80000 F2100.00000
G1 F1200
G1 X116.146 Y107.997 E0.01475
G1 X116.129 Y108.357 E0.00799
G1 X116.111 Y108.717 E0.00883
M106 S255
;BEFORE_LAYER_CHANGE
G92 E0.0
;0.4


G1 E-0.80000 F2100.00000
G1 Z0.800 F10800.000
;AFTER_LAYER_CHANGE
;0.4
M104 S210 ; set temperature
G1 X117.493 Y114.779
G1 Z0.400
G1 E0.80000 F2100.00000
G1 F2355
G1 X108.230 Y114.811 E0.29042
G1 X107.621 Y114.659 E0.01968
M73 P11 R9
G1 X107.064 Y114.362 E0.01980
G1 X106.561 Y113.904 E0.02133
G1 X106.209 Y113.389 E0.01956
G1 X106.001 Y112.839 E0.01845
G1 X105.923 Y112.260 E0.01832
G1 X105.921 Y97.636 E0.45851
G1 X106.050 Y96.982 E0.02091
G1 X106.344 Y96.383 E0.02091
G1 X106.822 Y95.837 E0.02275
G1 X107.364 Y95.462 E0.02066
G1 X107.925 Y95.251 E0.01882
G1 X108.521 Y95.176 E0.01882
G1 X141.457 Y95.175 E1.03268
G1 X142.373 Y95.346 E0.02924
G1 X143.169 Y95.833 E0.02924
G1 X143.779 Y96.599 E0.03070
G1 X144.064 Y97.524 E0.03034
G1 X144.042 Y104.076 E0.20543
G1 X143.873 Y104.651 E0.01882
G1 X143.578 Y105.169 E0.01869
G1 X143.131 Y105.646 E0.02048
G1 X142.634 Y105.982 E0.01882
G1 X117.549 Y114.759 E0.83327
G1 E-0.80000 F2100.00000
G1 Z1.000 F10800.000
G1 X113.371 Y111.048
G1 Z0.400
G1 E0.80000 F2100.00000
M204 S800
G1 F1500
G1 X112.762 Y111.108 E0.02072
G1 X112.152 Y111.048 E0.02072
G1 X111.567 Y110.870 E0.02072
G1 X111.027 Y110.581 E0.02072
G1 X110.554 Y110.193 E0.02072
G1 X110.166 Y109.720 E0.02072
G1 X109.877 Y109.180 E0.02072
G1 X109.700 Y108.595 E0.02072
G1 X109.640 Y107.986 E0.02072
G1 X109.700 Y107.377 E0.02072
G1 X109.877 Y106.791 E0.02072
G1 X110.166 Y106.251 E0.02072
G1 X110.554 Y105.778 E0.02072
G1 X111.027 Y105.390 E0.02072
G1 X111.567 Y105.101 E0.02072
G1 X112.152 Y104.924 E0.02072
G1 X112.728 Y104.867 E0.01957
G1 X113.367 Y104.923 E0.02172
G1 X113.956 Y105.101 E0.02084
G1 X114.496 Y105.390 E0.02072
G1 X114.969 Y105.778 E0.02072
G1 X115.357 Y106.251 E0.02072
G1 X115.646 Y106.791 E0.02072
G1 X115.824 Y107.377 E0.02072
G1 X115.883 Y107.986 E0.02072
G1 X115.824 Y108.595 E0.02072
G1 X115.646 Y109.180 E0.02072
G1 X115.357 Y109.720 E0.02072
G1 X114.969 Y110.193 E0.02072
G1 X114.496 Y110.581 E0.02072
G1 X113.956 Y110.870 E0.02072
G1 X113.428 Y111.030 E0.01868
M204 S1000
G1 X113.291 Y110.646 F10800.000
M204 S800
G1 F1500
G1 X112.762 Y110.698 E0.01800
G1 X112.232 Y110.646 E0.01800
G1 X111.723 Y110.492 E0.01800
G1 X111.254 Y110.241 E0.01800
G1 X110.843 Y109.904 E0.01800
G1 X110.506 Y109.493 E0.01800
G1 X110.255 Y109.024 E0.01800
G1 X110.101 Y108.515 E0.01800
G1 X110.049 Y107.986 E0.01800
G1 X110.101 Y107.456 E0.01800
G1 X110.255 Y106.947 E0.01800
G1 X110.506 Y106.478 E0.01800
G1 X110.843 Y106.067 E0.01800
G1 X111.254 Y105.730 E0.01800
G1 X111.723 Y105.479 E0.01800
G1 X112.232 Y105.325 E0.01800
G1 X112.730 Y105.276 E0.01693
G1 X113.290 Y105.324 E0.01901
G1 X113.800 Y105.479 E0.01805
G1 X114.269 Y105.730 E0.01800
G1 X114.680 Y106.067 E0.01800
G1 X115.017 Y106.478 E0.01800
G1 X115.268 Y106.947 E0.01800
G1 X115.422 Y107.456 E0.01800
G1 X115.474 Y107.986 E0.01800
G1 X115.422 Y108.515 E0.01800
G1 X115.268 Y109.024 E0.01800
G1 X115.017 Y109.493 E0.01800
G1 X114.680 Y109.904 E0.01800
G1 X114.269 Y110.241 E0.01800
G1 X113.800 Y110.492 E0.01800
G1 X113.348 Y110.629 E0.01597
M204 S1000
G1 X113.162 Y111.025 F10800.000
G1 E-0.80000 F2100.00000
G1 Z1.000 F10800.000
G1 X116.409 Y111.633
G1 Z0.400
G1 E0.80000 F2100.00000
M204 S800
G1 F2355
G1 X109.114 Y111.633 E0.24694
G1 X109.114 Y98.373 E0.44883
G1 X140.881 Y98.373 E1.07528
G1 X140.881 Y103.074 E0.15914
G1 X116.840 Y103.074 E0.81376
G1 X116.409 Y103.505 E0.02061
G1 X116.409 Y111.573 E0.27308
M204 S1000
G1 X116.816 Y112.040 F10800.000
M204 S800
G1 F2355
G1 X108.707 Y112.040 E0.27450
G1 X108.707 Y97.966 E0.47639
G1 X141.288 Y97.966 E1.10283
G1 X141.288 Y103.481 E0.18670
G1 X117.008 Y103.481 E0.82183
G1 X116.816 Y103.673 E0.00919
G1 X116.816 Y111.980 E0.28116
M204 S1000
G1 X116.471 Y111.837 F10800.000
G1 X115.292 Y111.511
M204 S2000
G1 F2355
G1 X116.104 Y110.698 E0.04667
G1 X116.104 Y110.007 E0.02806
G1 X114.784 Y111.327 E0.07583
G1 X114.272 Y111.327 E0.02080
G1 X114.249 Y111.172 E0.00639
G1 X116.110 Y109.310 E0.10692
M204 S1000
G1 X116.037 Y109.176 F10800.000
G1 F2355
G1 X116.062 Y109.004 E0.00425
G1
G1 X116.087 Y108.833 E0.00373
G1
