; generated by PrusaSlicer 2.2.0+win64 on 2020-11-17 at 18:26:06 UTC

; 

; external perimeters extrusion width = 0.45mm
; perimeters extrusion width = 0.45mm
; infill extrusion width = 0.45mm
; solid infill extrusion width = 0.45mm
; top infill extrusion width = 0.40mm
; support material extrusion width = 0.35mm
; first layer extrusion width = 0.42mm

M73 P0 R67
M201 X9000 Y9000 Z500 E10000 ; sets maximum accelerations, mm/sec^2
M203 X500 Y500 Z12 E120 ; sets maximum feedrates, mm/sec
M204 P2000 R1500 T2000 ; sets acceleration (P, T) and retract acceleration (R), mm/sec^2
M205 X10.00 Y10.00 Z0.20 E2.50 ; sets the jerk limits, mm/sec
M205 S0 T0 ; sets the minimum extruding and travel feed rate, mm/sec
M107
M862.3 P "MK2.5SMMU2S" ; printer model check
M862.1 P0.4 ; nozzle diameter check
M115 U3.8.0 ; tell printer latest fw version
G90 ; use absolute coordinates
M83 ; extruder relative mode
M104 S215 ; set extruder temp
M140 S60 ; set bed temp
Tx
M190 S60 ; wait for bed temp
M109 S215 ; wait for extruder temp
G28 W ; home all without mesh bed level
G80 ; mesh bed leveling

G21 ; set units to millimeters

;go outside print area
G1 Y-3.0 F1000.0
G1 Z0.4 F1000.0
; select extruder
Tc
; purge line
G1 X55.0 F2000.0
G1 Z0.3 F1000.0
G92 E0.0
G1 X240.0 E25.0 F2200.0
M73 P0 R67
G1 Y-2.0 F1000.0
G1 X55.0 E25 F1400.0
G1 Z0.20 F1000.0
G1 X5.0 E4.0 F1000.0
G92 E0.0
G21 ; set units to millimeters
G90 ; use absolute coordinates
M83 ; use relative distances for extrusion
M900 K0.06 ; Filament gcode LA 1.5
M900 K30 ; Filament gcode LA 1.0
;BEFORE_LAYER_CHANGE
G92 E0.0
;0.2


G1 E-0.80000 F2100.00000
G1 Z0.600 F10800.000
;AFTER_LAYER_CHANGE
;0.2
G1 X84.406 Y55.771
G1 Z0.200
G1 E0.80000 F2100.00000
M204 S1000
G1 F1200.000
G1 X84.599 Y54.954 E0.02631
G1 X90.371 Y41.019 E0.47293
G1 X90.618 Y40.563 E0.01625
G1 X90.962 Y40.137 E0.01714
G1 X101.619 Y29.480 E0.47257
G1 X102.012 Y29.160 E0.01590
G1 X102.502 Y28.892 E0.01750
G1 X116.426 Y23.124 E0.47257
G1 X116.923 Y22.976 E0.01625
G1 X117.459 Y22.918 E0.01691
G1 X132.535 Y22.918 E0.47269
G1 X133.579 Y23.126 E0.03338
G1 X147.525 Y28.903 E0.47329
G1 X148.371 Y29.471 E0.03197
G1 X159.042 Y40.141 E0.47317
G1 X159.379 Y40.560 E0.01685
G1 X159.629 Y41.021 E0.01643
G1 X165.505 Y55.272 E0.48334
G1 X165.604 Y55.989 E0.02269
G1 X165.594 Y154.229 E3.08025
G1 X165.401 Y155.046 E0.02631
G1 X159.629 Y168.981 E0.47293
G1 X159.382 Y169.437 E0.01626
G1 X159.037 Y169.864 E0.01720
G1 X148.381 Y180.520 E0.47251
G1 X147.985 Y180.842 E0.01602
G1 X147.496 Y181.109 E0.01744
G1 X133.574 Y186.876 E0.47250
G1 X133.075 Y187.024 E0.01632
G1 X132.539 Y187.082 E0.01690
G1 X117.248 Y187.072 E0.47943
G1 X116.439 Y186.881 E0.02608
G1 X102.493 Y181.105 E0.47329
G1 X101.623 Y180.524 E0.03279
G1 X90.958 Y169.859 E0.47293
G1 X90.621 Y169.440 E0.01685
G1 X90.369 Y168.976 E0.01655
G1 X84.477 Y154.655 E0.48556
G1 X84.396 Y154.011 E0.02035
G1 X84.406 Y55.831 E3.07837
G1 E-0.80000 F2100.00000
G1 Z0.800 F10800.000
G1 X125.000 Y166.915
G1 Z0.200
G1 E0.80000 F2100.00000
G1 F1200.000
G1 X122.156 Y166.716 E0.08940
G1 X119.367 Y166.123 E0.08940
G1 X116.688 Y165.148 E0.08940
G1 X114.170 Y163.809 E0.08940
G1 X111.863 Y162.133 E0.08940
G1 X109.812 Y160.153 E0.08940
G1 X108.057 Y157.906 E0.08940
G1 X106.631 Y155.437 E0.08940
G1 X105.563 Y152.793 E0.08940
G1 X104.885 Y150.071 E0.08797
G1 X104.575 Y147.191 E0.09079
G1 X104.675 Y144.341 E0.08942
G1 X105.170 Y141.533 E0.08940
G1 X106.051 Y138.822 E0.08940
G1 X107.301 Y136.259 E0.08940
G1 X108.895 Y133.895 E0.08940
G1 X110.803 Y131.776 E0.08940
G1 X112.953 Y129.973 E0.08797
G1 X115.405 Y128.433 E0.09079
G1 X118.010 Y127.273 E0.08942
G1 X120.707 Y126.500 E0.08797
G1 X123.574 Y126.090 E0.09079
G1 X126.426 Y126.090 E0.08942
G1 X129.249 Y126.487 E0.08940
G1 X131.990 Y127.273 E0.08940
G1 X134.553 Y128.414 E0.08797
G1 X137.012 Y129.943 E0.09079
G1 X139.197 Y131.776 E0.08942
G1 X141.105 Y133.895 E0.08940
G1 X142.699 Y136.259 E0.08940
G1 X143.949 Y138.822 E0.08940
G1 X144.830 Y141.533 E0.08940
G1 X145.325 Y144.341 E0.08940
G1 X145.425 Y147.191 E0.08940
G1 X145.131 Y149.981 E0.08797
G1 X144.437 Y152.792 E0.09079
G1 X143.369 Y155.437 E0.08942
G1 X141.966 Y157.866 E0.08797
G1 X140.188 Y160.152 E0.09079
G1 X138.137 Y162.133 E0.08942
G1 X135.867 Y163.782 E0.08797
G1 X133.313 Y165.147 E0.09079
G1 X130.633 Y166.123 E0.08942
G1 X127.844 Y166.716 E0.08940
G1 X125.060 Y166.910 E0.08752
G1 X125.000 Y166.537 F10800.000
G1 F1200.000
G1 X122.208 Y166.341 E0.08774
G1 X119.471 Y165.760 E0.08774
G1 X116.841 Y164.802 E0.08774
G1 X114.370 Y163.489 E0.08774
G1 X112.106 Y161.844 E0.08774
G1 X110.093 Y159.900 E0.08774
G1 X108.370 Y157.694 E0.08774
G1 X106.971 Y155.271 E0.08774
G1 X105.923 Y152.676 E0.08774
G1 X105.257 Y150.005 E0.08633
G1 X104.953 Y147.178 E0.08914
G1 X105.051 Y144.381 E0.08775
G1 X105.537 Y141.625 E0.08774
G1 X106.402 Y138.963 E0.08774
G1 X107.628 Y136.448 E0.08774
G1 X109.193 Y134.128 E0.08774
G1 X111.066 Y132.048 E0.08774
G1 X113.175 Y130.279 E0.08633
G1 X115.583 Y128.767 E0.08914
G1 X118.139 Y127.628 E0.08775
G1 X120.786 Y126.869 E0.08633
G1 X123.601 Y126.467 E0.08914
G1 X126.399 Y126.467 E0.08775
G1 X129.171 Y126.857 E0.08774
G1 X131.861 Y127.628 E0.08774
G1 X134.376 Y128.748 E0.08633
G1 X136.790 Y130.249 E0.08914
G1 X138.934 Y132.048 E0.08775
G1 X140.807 Y134.128 E0.08774
G1 X142.372 Y136.448 E0.08774
G1 X143.598 Y138.963 E0.08774
G1 X144.463 Y141.625 E0.08774
G1 X144.949 Y144.381 E0.08774
G1 X145.047 Y147.178 E0.08774
G1 X144.759 Y149.916 E0.08633
G1 X144.077 Y152.676 E0.08914
G1 X143.029 Y155.271 E0.08775
G1 X141.652 Y157.655 E0.08633
G1 X139.907 Y159.900 E0.08914
G1 X137.894 Y161.844 E0.08775
G1 X135.666 Y163.462 E0.08633
G1 X133.159 Y164.802 E0.08914
G1 X130.529 Y165.760 E0.08775
G1 X127.792 Y166.341 E0.08774
G1 X125.060 Y166.532 E0.08586
G1 X124.800 Y166.883 F10800.000
G1 E-0.80000 F2100.00000
G1 Z0.800 F10800.000
G1 X132.207 Y182.707
G1 Z0.200
G1 E0.80000 F2100.00000
G1 F1200.000
G1 X125.000 Y167.991 E0.51377
G1 X117.793 Y182.707 E0.51377
G1 X116.767 Y166.354 E0.51377
G1 X104.478 Y177.192 E0.51377
G1 X109.788 Y161.690 E0.51377
G1 X94.286 Y167.000 E0.51377
G1 X105.124 Y154.710 E0.51377
G1 X88.770 Y153.684 E0.51377
G1 X103.486 Y146.478 E0.51377
G1 X88.770 Y139.271 E0.51377
G1 X105.124 Y138.245 E0.51377
G1 X94.286 Y125.955 E0.51377
G1 X109.788 Y131.265 E0.51377
G1 X104.478 Y115.764 E0.51377
G1 X116.767 Y126.602 E0.51377
G1 X117.793 Y110.248 E0.51377
M73 P1 R66
G1 X125.000 Y124.964 E0.51377
G1 X132.207 Y110.248 E0.51377
G1 X133.233 Y126.602 E0.51377
G1 X145.522 Y115.764 E0.51377
G1 X140.212 Y131.265 E0.51377
G1 X155.714 Y125.955 E0.51377
G1 X144.876 Y138.245 E0.51377
G1 X161.230 Y139.271 E0.51377
G1 X146.514 Y146.478 E0.51377
G1 X161.230 Y153.684 E0.51377
G1 X144.876 Y154.710 E0.51377
G1 X155.714 Y167.000 E0.51377
G1 X140.212 Y161.690 E0.51377
G1 X145.522 Y177.192 E0.51377
G1 X133.233 Y166.354 E0.51377
G1 X132.210 Y182.647 E0.51188
G1 X132.494 Y184.151 F10800.000
G1 F1200.000
G1 X125.000 Y168.849 E0.53424
G1 X117.506 Y184.151 E0.53424
G1 X116.439 Y167.146 E0.53424
G1 X103.660 Y178.416 E0.53424
G1 X109.181 Y162.296 E0.53424
G1 X93.062 Y167.818 E0.53424
G1 X104.332 Y155.039 E0.53424
G1 X87.327 Y153.971 E0.53424
G1 X102.629 Y146.478 E0.53424
G1 X87.327 Y138.984 E0.53424
G1 X104.332 Y137.917 E0.53424
G1 X93.062 Y125.137 E0.53424
G1 X109.181 Y130.659 E0.53424
G1 X103.660 Y114.540 E0.53424
G1 X116.439 Y125.809 E0.53424
G1 X117.506 Y108.804 E0.53424
G1 X125.000 Y124.107 E0.53424
G1 X132.494 Y108.804 E0.53424
G1 X133.561 Y125.809 E0.53424
G1 X146.340 Y114.540 E0.53424
G1 X140.819 Y130.659 E0.53424
G1 X156.938 Y125.137 E0.53424
G1 X145.668 Y137.917 E0.53424
G1 X162.673 Y138.984 E0.53424
G1 X147.371 Y146.478 E0.53424
G1 X162.673 Y153.971 E0.53424
G1 X145.668 Y155.039 E0.53424
G1 X156.938 Y167.818 E0.53424
G1 X140.819 Y162.296 E0.53424
G1 X146.340 Y178.416 E0.53424
G1 X133.561 Y167.146 E0.53424
G1 X132.497 Y184.091 E0.53236
G1 X132.529 Y183.753 F10800.000
G1 E-0.80000 F2100.00000
G1 Z0.800 F10800.000
G1 X131.558 Y181.125
G1 Z0.200
G1 E0.80000 F2100.00000
G1 F1200.000
G1 X131.995 Y181.562 E0.01945
G1 X132.027 Y181.059 E0.01587
G1 X131.415 Y180.447 E0.02723
G1 X130.901 Y179.398 E0.03673
G1 X132.058 Y180.556 E0.05148
G1 X132.090 Y180.052 E0.01587
G1 X130.388 Y178.350 E0.07573
G1 X129.874 Y177.301 E0.03673
G1 X132.121 Y179.549 E0.09998
G1 X132.153 Y179.045 E0.01587
G1 X129.361 Y176.253 E0.12423
G1 X128.847 Y175.204 E0.03673
G1 X132.185 Y178.542 E0.14848
G1 X132.216 Y178.038 E0.01587
G1 X128.334 Y174.156 E0.17273
G1 X127.820 Y173.107 E0.03673
G1 X132.248 Y177.535 E0.19697
G1 X132.279 Y177.031 E0.01587
G1 X127.307 Y172.059 E0.22122
G1 X126.793 Y171.010 E0.03673
G1 X132.311 Y176.528 E0.24547
G1 X132.343 Y176.025 E0.01587
G1 X126.280 Y169.962 E0.26972
G1 X125.766 Y168.913 E0.03673
G1 X132.374 Y175.521 E0.29397
G1 X132.406 Y175.018 E0.01587
G1 X124.555 Y167.167 E0.34927
G1 X125.000 Y167.198 E0.01403
G1 X125.113 Y167.190 E0.00357
G1 X132.437 Y174.514 E0.32584
G1 X132.469 Y174.011 E0.01587
G1 X125.613 Y167.155 E0.30500
G1 X126.113 Y167.120 E0.01577
G1 X132.501 Y173.507 E0.28416
G1 X132.532 Y173.004 E0.01587
G1 X126.614 Y167.085 E0.26331
G1 X127.114 Y167.050 E0.01577
G1 X132.564 Y172.500 E0.24247
G1 X132.595 Y171.997 E0.01587
G1 X127.614 Y167.015 E0.22163
G1 X127.884 Y166.996 E0.00851
G1 X128.087 Y166.953 E0.00653
G1 X132.627 Y171.494 E0.20199
G1 X132.659 Y170.990 E0.01587
G1 X128.528 Y166.859 E0.18377
G1 X128.969 Y166.766 E0.01419
G1 X132.690 Y170.487 E0.16554
G1 X132.722 Y169.983 E0.01587
G1 X129.411 Y166.672 E0.14731
G1 X129.852 Y166.578 E0.01419
G1 X132.753 Y169.480 E0.12909
G1 X132.785 Y168.976 E0.01587
G1 X130.293 Y166.484 E0.11086
G1 X130.732 Y166.388 E0.01413
G1 X132.817 Y168.473 E0.09275
G1 X132.848 Y167.969 E0.01587
G1 X131.124 Y166.245 E0.07671
G1 X131.516 Y166.102 E0.01313
G1 X132.880 Y167.466 E0.06066
G1 X132.911 Y166.962 E0.01587
G1 X131.909 Y165.960 E0.04461
G1 X132.301 Y165.817 E0.01313
G1 X132.943 Y166.459 E0.02857
G1 X132.975 Y165.956 E0.01587
G1 X132.693 Y165.674 E0.01252
G1 X133.085 Y165.531 E0.01313
G1 X135.753 Y168.199 E0.11867
G1 X140.283 Y172.194 E0.19001
G1 X133.472 Y165.383 E0.30300
G1 X133.821 Y165.197 E0.01244
G1 X144.909 Y176.274 E0.49305
G1 X144.636 Y175.477 E0.02649
G1 X134.169 Y165.010 E0.46566
G1 X134.518 Y164.824 E0.01244
G1 X144.357 Y174.663 E0.43774
G1 X144.079 Y173.849 E0.02706
G1 X134.867 Y164.638 E0.40983
G1 X135.215 Y164.451 E0.01244
G1 X143.800 Y173.036 E0.38191
G1 X143.521 Y172.222 E0.02706
G1 X135.564 Y164.265 E0.35400
G1 X135.913 Y164.078 E0.01244
G1 X143.242 Y171.408 E0.32609
G1 X142.964 Y170.594 E0.02706
G1 X136.234 Y163.865 E0.29938
G1 X136.544 Y163.640 E0.01205
G1 X142.685 Y169.780 E0.27319
G1 X142.406 Y168.967 E0.02706
G1 X136.854 Y163.415 E0.24700
G1 X137.164 Y163.189 E0.01205
G1 X142.127 Y168.153 E0.22081
G1 X141.849 Y167.339 E0.02706
G1 X137.474 Y162.964 E0.19462
G1 X137.784 Y162.739 E0.01205
G1 X141.570 Y166.525 E0.16843
G1 X141.291 Y165.711 E0.02706
G1 X138.094 Y162.514 E0.14224
G1 X138.393 Y162.279 E0.01199
G1 X141.012 Y164.897 E0.11651
G1 X140.733 Y164.084 E0.02706
G1 X138.665 Y162.016 E0.09200
G1 X138.938 Y161.753 E0.01190
G1 X140.455 Y163.270 E0.06749
G1 X140.176 Y162.456 E0.02706
G1 X139.210 Y161.490 E0.04298
G1 X139.482 Y161.227 E0.01190
G1 X139.897 Y161.642 E0.01847
G1 X139.758 Y161.235 E0.01353
G1 X140.165 Y161.375 E0.01353
G1 X139.754 Y160.964 E0.01826
G1 X140.026 Y160.701 E0.01190
G1 X140.978 Y161.653 E0.04236
G1 X141.792 Y161.932 E0.02706
G1 X140.299 Y160.439 E0.06645
G1 X140.399 Y160.342 E0.00439
G1 X140.547 Y160.152 E0.00757
G1 X142.606 Y162.211 E0.09162
M73 P3 R65
G1 X143.420 Y162.490 E0.02706
G1 X140.781 Y159.851 E0.11741
G1 X141.015 Y159.550 E0.01199
G1 X144.234 Y162.769 E0.14320
G1 X145.048 Y163.047 E0.02706
G1 X141.249 Y159.249 E0.16900
G1 X141.483 Y158.948 E0.01199
G1 X145.861 Y163.326 E0.19479
G1 X146.675 Y163.605 E0.02706
G1 X141.717 Y158.647 E0.22058
G1 X141.951 Y158.346 E0.01199
G1 X147.489 Y163.884 E0.24637
G1 X148.303 Y164.162 E0.02706
G1 X142.185 Y158.045 E0.27217
G1 X142.384 Y157.708 E0.01229
G1 X149.117 Y164.441 E0.29954
G1 X149.930 Y164.720 E0.02706
G1 X142.580 Y157.369 E0.32704
G1 X142.775 Y157.030 E0.01232
G1 X150.744 Y164.999 E0.35453
G1 X151.558 Y165.277 E0.02706
G1 X142.971 Y156.691 E0.38202
G1 X143.167 Y156.351 E0.01232
G1 X152.372 Y165.556 E0.40952
G1 X153.186 Y165.835 E0.02706
G1 X143.363 Y156.012 E0.43701
G1 X143.559 Y155.673 E0.01232
G1 X154.000 Y166.114 E0.46450
G1 X154.796 Y166.387 E0.02649
G1 X143.727 Y155.306 E0.49273
G1 X143.880 Y154.925 E0.01293
G1 X150.716 Y161.760 E0.30410
G1 X146.721 Y157.230 E0.19001
G1 X144.034 Y154.544 E0.11952
G1 X144.188 Y154.163 E0.01293
G1 X144.478 Y154.452 E0.01288
G1 X144.981 Y154.421 E0.01587
G1 X144.342 Y153.781 E0.02843
G1 X144.496 Y153.400 E0.01293
G1 X145.485 Y154.389 E0.04398
G1 X145.988 Y154.357 E0.01587
G1 X144.650 Y153.019 E0.05953
G1 X144.707 Y152.880 E0.00474
G1 X144.774 Y152.608 E0.00881
G1 X146.492 Y154.326 E0.07643
G1 X146.995 Y154.294 E0.01587
G1 X144.880 Y152.179 E0.09411
G1 X144.986 Y151.750 E0.01390
G1 X147.499 Y154.263 E0.11180
G1 X148.002 Y154.231 E0.01587
G1 X145.092 Y151.321 E0.12948
G1 X145.198 Y150.891 E0.01390
G1 X148.506 Y154.199 E0.14716
G1 X149.009 Y154.168 E0.01587
G1 X145.304 Y150.462 E0.16485
G1 X145.410 Y150.033 E0.01390
G1 X149.512 Y154.136 E0.18253
G1 X150.016 Y154.105 E0.01587
G1 X145.461 Y149.550 E0.20265
G1 X145.512 Y149.065 E0.01531
G1 X150.519 Y154.073 E0.22278
G1 X151.023 Y154.041 E0.01587
G1 X145.563 Y148.581 E0.24291
G1 X145.614 Y148.097 E0.01531
G1 X151.526 Y154.010 E0.26305
G1 X152.030 Y153.978 E0.01587
G1 X145.665 Y147.613 E0.28318
G1 X145.705 Y147.118 E0.01561
G1 X152.533 Y153.947 E0.30378
G1 X153.037 Y153.915 E0.01587
G1 X145.686 Y146.564 E0.32704
G1 X145.666 Y146.010 E0.01745
G1 X153.700 Y154.043 E0.35742
G1 E-0.80000 F2100.00000
G1 Z0.800 F10800.000
G1 X160.245 Y153.633
G1 Z0.200
G1 E0.80000 F2100.00000
G1 F1200.000
G1 X160.018 Y153.406 E0.01010
G1 X158.969 Y152.892 E0.03673
G1 X159.581 Y153.504 E0.02723
G1 X159.078 Y153.536 E0.01587
G1 X157.921 Y152.379 E0.05148
G1 X156.872 Y151.865 E0.03673
G1 X158.575 Y153.567 E0.07573
G1 X158.071 Y153.599 E0.01587
G1 X155.824 Y151.352 E0.09998
G1 X154.775 Y150.838 E0.03673
G1 X157.568 Y153.631 E0.12423
G1 X157.064 Y153.662 E0.01587
G1 X153.727 Y150.325 E0.14848
G1 X152.678 Y149.811 E0.03673
G1 X156.561 Y153.694 E0.17272
G1 X156.057 Y153.725 E0.01587
G1 X151.630 Y149.298 E0.19697
G1 X150.581 Y148.784 E0.03673
G1 X155.554 Y153.757 E0.22122
G1 X155.050 Y153.789 E0.01587
G1 X149.533 Y148.271 E0.24547
G1 X148.484 Y147.758 E0.03673
G1 X154.547 Y153.820 E0.26972
G1 X154.044 Y153.852 E0.01587
G1 X147.066 Y146.874 E0.31044
G1 X146.534 Y146.342 F10800.000
G1 F1200.000
G1 X145.647 Y145.455 E0.03945
G1 X145.628 Y144.901 E0.01745
G1 X146.766 Y146.039 E0.05065
G1 X147.125 Y145.863 E0.01258
G1 X145.608 Y144.346 E0.06749
G1 X145.500 Y143.703 E0.02053
G1 X147.484 Y145.687 E0.08830
G1 X147.843 Y145.511 E0.01258
G1 X145.385 Y143.053 E0.10937
G1 X145.271 Y142.404 E0.02075
G1 X148.203 Y145.336 E0.13044
G1 X148.562 Y145.160 E0.01258
G1 X145.156 Y141.754 E0.15152
G1 X145.105 Y141.465 E0.00924
G1 X144.962 Y141.025 E0.01455
G1 X148.921 Y144.984 E0.17612
G1 X149.280 Y144.808 E0.01258
G1 X144.705 Y140.232 E0.20356
G1 X144.447 Y139.440 E0.02622
G1 X149.639 Y144.632 E0.23100
G1 X149.998 Y144.456 E0.01258
G1 X144.168 Y138.626 E0.25940
G1 X143.658 Y137.581 E0.03656
G1 X150.484 Y144.407 E0.30368
G1 E-0.80000 F2100.00000
G1 Z0.800 F10800.000
G1 X160.182 Y139.658
G1 Z0.200
G1 E0.80000 F2100.00000
G1 F1200.000
G1 X160.001 Y139.477 E0.00805
G1 X159.430 Y139.441 E0.01799
G1 X159.696 Y139.707 E0.01183
G1 X159.337 Y139.883 E0.01258
G1 X158.859 Y139.406 E0.02125
G1 X158.288 Y139.370 E0.01799
G1 X158.977 Y140.059 E0.03067
G1 X158.618 Y140.235 E0.01258
G1 X157.717 Y139.334 E0.04008
G1 X157.146 Y139.298 E0.01799
G1 X158.259 Y140.411 E0.04950
G1 X157.900 Y140.587 E0.01258
G1 X156.576 Y139.262 E0.05892
G1 X156.005 Y139.226 E0.01799
G1 X157.541 Y140.763 E0.06834
G1 X157.182 Y140.939 E0.01258
G1 X155.434 Y139.191 E0.07776
