; generated by PrusaSlicer 2.2.0+win64 on 2020-11-17 at 18:26:18 UTC

; 

; external perimeters extrusion width = 0.45mm
; perimeters extrusion width = 0.45mm
; infill extrusion width = 0.45mm
; solid infill extrusion width = 0.45mm
; top infill extrusion width = 0.40mm
; support material extrusion width = 0.35mm
; first layer extrusion width = 0.42mm

M73 P0 R133
M201 X9000 Y9000 Z500 E10000 ; sets maximum accelerations, mm/sec^2
M203 X500 Y500 Z12 E120 ; sets maximum feedrates, mm/sec
M204 P2000 R1500 T2000 ; sets acceleration (P, T) and retract acceleration (R), mm/sec^2
M205 X10.00 Y10.00 Z0.20 E2.50 ; sets the jerk limits, mm/sec
M205 S0 T0 ; sets the minimum extruding and travel feed rate, mm/sec
M107
M862.3 P "MK2.5SMMU2S" ; printer model check
M862.1 P0.4 ; nozzle diameter check
M115 U3.8.0 ; tell printer latest fw version
G90 ; use absolute coordinates
M83 ; extruder relative mode
M104 S215 ; set extruder temp
M140 S60 ; set bed temp
Tx
M190 S60 ; wait for bed temp
M109 S215 ; wait for extruder temp
G28 W ; home all without mesh bed level
G80 ; mesh bed leveling

G21 ; set units to millimeters

;go outside print area
G1 Y-3.0 F1000.0
G1 Z0.4 F1000.0
; select extruder
Tc
; purge line
G1 X55.0 F2000.0
G1 Z0.3 F1000.0
G92 E0.0
G1 X240.0 E25.0 F2200.0
M73 P0 R133
G1 Y-2.0 F1000.0
G1 X55.0 E25 F1400.0
G1 Z0.20 F1000.0
G1 X5.0 E4.0 F1000.0
G92 E0.0
G21 ; set units to millimeters
G90 ; use absolute coordinates
M83 ; use relative distances for extrusion
M900 K0.06 ; Filament gcode LA 1.5
M900 K30 ; Filament gcode LA 1.0
;BEFORE_LAYER_CHANGE
G92 E0.0
;0.2


G1 E-0.80000 F2100.00000
G1 Z0.600 F10800.000
;AFTER_LAYER_CHANGE
;0.2
G1 X49.193 Y40.488
G1 Z0.200
G1 E0.80000 F2100.00000
M204 S1000
G1 F1200.000
G1 X60.139 Y29.483 E0.48668
G1 X60.560 Y29.143 E0.01697
G1 X61.017 Y28.895 E0.01631
G1 X74.949 Y23.124 E0.47281
G1 X75.659 Y22.941 E0.02300
G1 X174.013 Y22.918 E3.08381
G1 X175.057 Y23.126 E0.03338
G1 X189.002 Y28.903 E0.47329
G1 X189.852 Y29.473 E0.03209
G1 X200.520 Y40.141 E0.47305
G1 X200.861 Y40.566 E0.01709
G1 X201.105 Y41.017 E0.01607
G1 X206.873 Y54.942 E0.47257
G1 X207.033 Y55.494 E0.01804
G1 X207.078 Y154.138 E3.09291
G1 X206.878 Y155.046 E0.02915
G1 X201.105 Y168.985 E0.47305
G1 X200.807 Y169.512 E0.01899
G1 X189.861 Y180.517 E0.48668
G1 X189.434 Y180.861 E0.01721
G1 X188.983 Y181.105 E0.01607
G1 X175.048 Y186.878 E0.47293
G1 X174.199 Y187.074 E0.02731
G1 X75.862 Y187.078 E3.08330
G1 X74.954 Y186.878 E0.02915
G1 X61.015 Y181.105 E0.47305
G1 X60.488 Y180.807 E0.01899
G1 X49.483 Y169.861 E0.48668
G1 X49.139 Y169.434 E0.01721
G1 X48.895 Y168.983 E0.01607
G1 X43.122 Y155.048 E0.47293
G1 X42.926 Y154.201 E0.02726
G1 X42.922 Y55.862 E3.08335
G1 X43.122 Y54.954 E0.02915
G1 X48.895 Y41.015 E0.47305
G1 X49.163 Y40.540 E0.01711
G1 E-0.80000 F2100.00000
G1 Z0.800 F10800.000
G1 X83.522 Y83.959
G1 Z0.200
G1 E0.80000 F2100.00000
G1 F1200.000
G1 X80.678 Y83.761 E0.08940
G1 X77.889 Y83.168 E0.08940
G1 X75.210 Y82.193 E0.08940
G1 X72.692 Y80.854 E0.08940
G1 X70.386 Y79.178 E0.08940
G1 X68.335 Y77.197 E0.08940
G1 X66.579 Y74.951 E0.08940
G1 X65.154 Y72.481 E0.08940
G1 X64.086 Y69.838 E0.08940
G1 X63.407 Y67.115 E0.08797
G1 X63.098 Y64.236 E0.09079
G1 X63.197 Y61.386 E0.08942
G1 X63.692 Y58.578 E0.08940
G1 X64.574 Y55.867 E0.08940
G1 X65.823 Y53.304 E0.08940
G1 X67.418 Y50.940 E0.08940
G1 X69.326 Y48.821 E0.08940
G1 X71.475 Y47.018 E0.08797
G1 X73.927 Y45.478 E0.09079
G1 X76.533 Y44.318 E0.08942
G1 X79.229 Y43.545 E0.08797
G1 X82.096 Y43.135 E0.09079
G1 X84.948 Y43.135 E0.08942
G1 X87.772 Y43.532 E0.08940
G1 X90.512 Y44.318 E0.08940
G1 X93.075 Y45.459 E0.08797
G1 X95.534 Y46.988 E0.09079
G1 X97.719 Y48.821 E0.08942
G1 X99.627 Y50.940 E0.08940
G1 X101.221 Y53.304 E0.08940
G1 X102.471 Y55.867 E0.08940
G1 X103.352 Y58.578 E0.08940
G1 X103.847 Y61.386 E0.08940
G1 X103.947 Y64.236 E0.08940
G1 X103.654 Y67.026 E0.08797
G1 X102.959 Y69.837 E0.09079
G1 X101.891 Y72.481 E0.08942
G1 X100.488 Y74.911 E0.08797
G1 X98.711 Y77.197 E0.09079
G1 X96.659 Y79.178 E0.08942
G1 X94.389 Y80.827 E0.08797
G1 X91.836 Y82.192 E0.09079
G1 X89.156 Y83.168 E0.08942
G1 X86.367 Y83.761 E0.08940
G1 X83.582 Y83.955 E0.08752
G1 X83.522 Y83.581 F10800.000
G1 F1200.000
G1 X80.731 Y83.386 E0.08774
G1 X77.993 Y82.804 E0.08774
G1 X75.364 Y81.847 E0.08774
G1 X72.893 Y80.533 E0.08774
G1 X70.629 Y78.889 E0.08774
G1 X68.616 Y76.945 E0.08774
G1 X66.893 Y74.739 E0.08774
G1 X65.493 Y72.316 E0.08774
G1 X64.445 Y69.721 E0.08774
G1 X63.779 Y67.049 E0.08633
G1 X63.476 Y64.223 E0.08914
G1 X63.573 Y61.426 E0.08775
G1 X64.059 Y58.670 E0.08774
G1 X64.924 Y56.008 E0.08774
G1 X66.151 Y53.493 E0.08774
G1 X67.716 Y51.173 E0.08774
G1 X69.588 Y49.093 E0.08774
G1 X71.697 Y47.323 E0.08633
G1 X74.105 Y45.811 E0.08914
G1 X76.662 Y44.673 E0.08775
G1 X79.308 Y43.914 E0.08633
G1 X82.123 Y43.512 E0.08914
G1 X84.922 Y43.512 E0.08775
G1 X87.693 Y43.902 E0.08774
G1 X90.383 Y44.673 E0.08774
G1 X92.898 Y45.793 E0.08633
G1 X95.313 Y47.294 E0.08914
G1 X97.457 Y49.093 E0.08775
G1 X99.329 Y51.173 E0.08774
G1 X100.894 Y53.493 E0.08774
G1 X102.121 Y56.008 E0.08774
G1 X102.986 Y58.670 E0.08774
G1 X103.472 Y61.426 E0.08774
G1 X103.569 Y64.222 E0.08774
G1 X103.281 Y66.961 E0.08633
G1 X102.600 Y69.721 E0.08914
G1 X101.551 Y72.316 E0.08775
G1 X100.175 Y74.700 E0.08633
G1 X98.429 Y76.944 E0.08914
G1 X96.416 Y78.889 E0.08775
G1 X94.189 Y80.507 E0.08633
G1 X91.681 Y81.847 E0.08914
G1 X89.051 Y82.804 E0.08775
G1 X86.314 Y83.386 E0.08774
G1 X83.582 Y83.577 E0.08586
G1 X83.322 Y83.928 F10800.000
G1 E-0.80000 F2100.00000
G1 Z0.800 F10800.000
G1 X90.729 Y99.752
G1 Z0.200
G1 E0.80000 F2100.00000
G1 F1200.000
G1 X83.522 Y85.036 E0.51377
G1 X76.316 Y99.752 E0.51377
G1 X75.290 Y83.398 E0.51377
G1 X63.000 Y94.236 E0.51377
G1 X68.310 Y78.735 E0.51377
G1 X52.808 Y84.045 E0.51377
M73 P0 R132
G1 X63.646 Y71.755 E0.51377
G1 X47.293 Y70.729 E0.51377
G1 X62.009 Y63.522 E0.51377
G1 X47.293 Y56.316 E0.51377
G1 X63.646 Y55.290 E0.51377
G1 X52.808 Y43.000 E0.51377
G1 X68.310 Y48.310 E0.51377
G1 X63.000 Y32.808 E0.51377
G1 X75.290 Y43.646 E0.51377
G1 X76.316 Y27.293 E0.51377
G1 X83.522 Y42.009 E0.51377
G1 X90.729 Y27.293 E0.51377
G1 X91.755 Y43.646 E0.51377
G1 X104.045 Y32.808 E0.51377
G1 X98.735 Y48.310 E0.51377
G1 X114.236 Y43.000 E0.51377
G1 X103.398 Y55.290 E0.51377
G1 X119.752 Y56.316 E0.51377
G1 X105.036 Y63.522 E0.51377
G1 X119.752 Y70.729 E0.51377
G1 X103.398 Y71.755 E0.51377
G1 X114.236 Y84.045 E0.51377
G1 X98.735 Y78.735 E0.51377
G1 X104.045 Y94.236 E0.51377
G1 X91.755 Y83.398 E0.51377
G1 X90.733 Y99.692 E0.51188
G1 X91.016 Y101.196 F10800.000
G1 F1200.000
G1 X83.522 Y85.893 E0.53424
G1 X76.029 Y101.196 E0.53424
G1 X74.961 Y84.191 E0.53424
G1 X62.182 Y95.460 E0.53424
G1 X67.704 Y79.341 E0.53424
G1 X51.584 Y84.863 E0.53424
G1 X62.854 Y72.083 E0.53424
G1 X45.849 Y71.016 E0.53424
G1 X61.151 Y63.522 E0.53424
G1 X45.849 Y56.029 E0.53424
G1 X62.854 Y54.961 E0.53424
G1 X51.584 Y42.182 E0.53424
G1 X67.704 Y47.704 E0.53424
G1 X62.182 Y31.584 E0.53424
G1 X74.961 Y42.854 E0.53424
G1 X76.029 Y25.849 E0.53424
G1 X83.522 Y41.151 E0.53424
G1 X91.016 Y25.849 E0.53424
G1 X92.083 Y42.854 E0.53424
G1 X104.863 Y31.584 E0.53424
G1 X99.341 Y47.704 E0.53424
G1 X115.460 Y42.182 E0.53424
G1 X104.191 Y54.961 E0.53424
G1 X121.196 Y56.029 E0.53424
G1 X105.893 Y63.522 E0.53424
G1 X121.196 Y71.016 E0.53424
G1 X104.191 Y72.083 E0.53424
G1 X115.460 Y84.863 E0.53424
G1 X99.341 Y79.341 E0.53424
G1 X104.863 Y95.460 E0.53424
G1 X92.083 Y84.191 E0.53424
G1 X91.020 Y101.136 E0.53236
G1 X91.052 Y100.797 F10800.000
G1 E-0.80000 F2100.00000
G1 Z0.800 F10800.000
G1 X90.080 Y98.170
G1 Z0.200
G1 E0.80000 F2100.00000
G1 F1200.000
G1 X90.517 Y98.607 E0.01945
G1 X90.549 Y98.104 E0.01587
G1 X89.937 Y97.492 E0.02723
G1 X89.423 Y96.443 E0.03673
G1 X90.581 Y97.600 E0.05148
G1 X90.612 Y97.097 E0.01587
G1 X88.910 Y95.395 E0.07573
G1 X88.397 Y94.346 E0.03673
G1 X90.644 Y96.593 E0.09998
G1 X90.675 Y96.090 E0.01587
G1 X87.883 Y93.298 E0.12423
G1 X87.370 Y92.249 E0.03673
G1 X90.707 Y95.587 E0.14848
G1 X90.739 Y95.083 E0.01587
G1 X86.856 Y91.201 E0.17273
G1 X86.343 Y90.152 E0.03673
G1 X90.770 Y94.580 E0.19697
G1 X90.802 Y94.076 E0.01587
G1 X85.829 Y89.104 E0.22122
G1 X85.316 Y88.055 E0.03673
G1 X90.833 Y93.573 E0.24547
G1 X90.865 Y93.069 E0.01587
G1 X84.802 Y87.007 E0.26972
G1 X84.289 Y85.958 E0.03673
G1 X90.897 Y92.566 E0.29397
G1 X90.928 Y92.062 E0.01587
G1 X83.078 Y84.212 E0.34927
G1 X83.522 Y84.243 E0.01403
G1 X83.636 Y84.235 E0.00357
G1 X90.960 Y91.559 E0.32584
G1 X90.991 Y91.056 E0.01587
G1 X84.136 Y84.200 E0.30500
G1 X84.636 Y84.165 E0.01577
G1 X91.023 Y90.552 E0.28416
G1 X91.055 Y90.049 E0.01587
G1 X85.136 Y84.130 E0.26331
G1 X85.636 Y84.095 E0.01577
G1 X91.086 Y89.545 E0.24247
G1 X91.118 Y89.042 E0.01587
G1 X86.136 Y84.060 E0.22163
G1 X86.406 Y84.041 E0.00851
G1 X86.609 Y83.998 E0.00653
G1 X91.149 Y88.538 E0.20199
G1 X91.181 Y88.035 E0.01587
G1 X87.050 Y83.904 E0.18377
G1 X87.492 Y83.811 E0.01419
G1 X91.213 Y87.531 E0.16554
G1 X91.244 Y87.028 E0.01587
G1 X87.933 Y83.717 E0.14731
G1 X88.374 Y83.623 E0.01419
G1 X91.276 Y86.525 E0.12909
G1 X91.307 Y86.021 E0.01587
G1 X88.815 Y83.529 E0.11086
G1 X89.254 Y83.433 E0.01413
G1 X91.339 Y85.518 E0.09275
G1 X91.371 Y85.014 E0.01587
G1 X89.646 Y83.290 E0.07671
G1 X90.039 Y83.147 E0.01313
G1 X91.402 Y84.511 E0.06066
G1 X91.434 Y84.007 E0.01587
G1 X90.431 Y83.004 E0.04461
G1 X90.823 Y82.862 E0.01313
G1 X91.465 Y83.504 E0.02857
G1 X91.497 Y83.000 E0.01587
G1 X91.215 Y82.719 E0.01252
G1 X91.608 Y82.576 E0.01313
G1 X94.275 Y85.244 E0.11867
G1 X98.805 Y89.239 E0.19001
G1 X91.995 Y82.428 E0.30300
G1 X92.343 Y82.242 E0.01244
G1 X103.431 Y93.318 E0.49305
M73 P1 R131
G1 X103.159 Y92.522 E0.02649
G1 X92.692 Y82.055 E0.46566
G1 X93.041 Y81.869 E0.01244
G1 X102.880 Y91.708 E0.43774
G1 X102.601 Y90.894 E0.02706
G1 X93.389 Y81.682 E0.40983
G1 X93.738 Y81.496 E0.01244
G1 X102.322 Y90.080 E0.38191
G1 X102.044 Y89.267 E0.02706
G1 X94.087 Y81.310 E0.35400
G1 X94.435 Y81.123 E0.01244
G1 X101.765 Y88.453 E0.32609
G1 X101.486 Y87.639 E0.02706
G1 X94.757 Y80.910 E0.29938
G1 X95.067 Y80.685 E0.01205
G1 X101.207 Y86.825 E0.27319
G1 X100.928 Y86.011 E0.02706
G1 X95.377 Y80.459 E0.24700
G1 X95.686 Y80.234 E0.01205
G1 X100.650 Y85.198 E0.22081
G1 X100.371 Y84.384 E0.02706
G1 X95.996 Y80.009 E0.19462
G1 X96.306 Y79.784 E0.01205
G1 X100.092 Y83.570 E0.16843
G1 X99.813 Y82.756 E0.02706
G1 X96.616 Y79.559 E0.14224
G1 X96.916 Y79.323 E0.01199
G1 X99.535 Y81.942 E0.11651
G1 X99.256 Y81.128 E0.02706
G1 X97.188 Y79.061 E0.09200
G1 X97.460 Y78.798 E0.01190
G1 X98.977 Y80.315 E0.06749
G1 X98.698 Y79.501 E0.02706
G1 X97.732 Y78.535 E0.04298
G1 X98.004 Y78.272 E0.01190
G1 X98.420 Y78.687 E0.01847
G1 X98.280 Y78.280 E0.01353
G1 X98.687 Y78.420 E0.01353
G1 X98.277 Y78.009 E0.01826
G1 X98.549 Y77.746 E0.01190
G1 X99.501 Y78.698 E0.04236
G1 X100.315 Y78.977 E0.02706
G1 X98.821 Y77.483 E0.06645
G1 X98.921 Y77.386 E0.00439
G1 X99.069 Y77.197 E0.00757
G1 X101.129 Y79.256 E0.09162
G1 X101.942 Y79.535 E0.02706
G1 X99.303 Y76.896 E0.11741
G1 X99.537 Y76.595 E0.01199
G1 X102.756 Y79.813 E0.14320
G1 X103.570 Y80.092 E0.02706
G1 X99.771 Y76.294 E0.16900
G1 X100.005 Y75.993 E0.01199
G1 X104.384 Y80.371 E0.19479
G1 X105.198 Y80.650 E0.02706
G1 X100.240 Y75.692 E0.22058
G1 X100.474 Y75.391 E0.01199
G1 X106.011 Y80.928 E0.24637
G1 X106.825 Y81.207 E0.02706
G1 X100.708 Y75.090 E0.27217
G1 X100.906 Y74.753 E0.01229
G1 X107.639 Y81.486 E0.29954
G1 X108.453 Y81.765 E0.02706
G1 X101.102 Y74.414 E0.32704
G1 X101.298 Y74.075 E0.01232
G1 X109.267 Y82.044 E0.35453
G1 X110.080 Y82.322 E0.02706
G1 X101.494 Y73.735 E0.38202
G1 X101.689 Y73.396 E0.01232
G1 X110.894 Y82.601 E0.40952
G1 X111.708 Y82.880 E0.02706
G1 X101.885 Y73.057 E0.43701
G1 X102.081 Y72.718 E0.01232
G1 X112.522 Y83.159 E0.46450
G1 X113.318 Y83.431 E0.02649
G1 X102.249 Y72.351 E0.49273
G1 X102.403 Y71.970 E0.01293
G1 X109.238 Y78.805 E0.30410
G1 X105.243 Y74.275 E0.19001
G1 X102.557 Y71.588 E0.11952
G1 X102.711 Y71.207 E0.01293
G1 X103.000 Y71.497 E0.01288
G1 X103.504 Y71.465 E0.01587
G1 X102.865 Y70.826 E0.02843
G1 X103.019 Y70.445 E0.01293
G1 X104.007 Y71.434 E0.04398
G1 X104.511 Y71.402 E0.01587
G1 X103.173 Y70.064 E0.05953
G1 X103.229 Y69.924 E0.00474
G1 X103.296 Y69.653 E0.00881
G1 X105.014 Y71.371 E0.07643
G1 X105.518 Y71.339 E0.01587
G1 X103.402 Y69.224 E0.09411
G1 X103.508 Y68.794 E0.01390
G1 X106.021 Y71.307 E0.11180
G1 X106.525 Y71.276 E0.01587
G1 X103.614 Y68.365 E0.12948
G1 X103.720 Y67.936 E0.01390
G1 X107.028 Y71.244 E0.14716
G1 X107.531 Y71.213 E0.01587
G1 X103.826 Y67.507 E0.16485
G1 X103.932 Y67.078 E0.01390
G1 X108.035 Y71.181 E0.18253
G1 X108.538 Y71.149 E0.01587
G1 X103.983 Y66.594 E0.20265
G1 X104.034 Y66.110 E0.01531
G1 X109.042 Y71.118 E0.22278
G1 X109.545 Y71.086 E0.01587
G1 X104.085 Y65.626 E0.24291
G1 X104.136 Y65.142 E0.01531
G1 X110.049 Y71.055 E0.26305
G1 X110.552 Y71.023 E0.01587
G1 X104.187 Y64.658 E0.28318
G1 X104.227 Y64.163 E0.01561
G1 X111.056 Y70.991 E0.30378
G1 X111.559 Y70.960 E0.01587
G1 X104.208 Y63.609 E0.32704
G1 X104.189 Y63.054 E0.01745
G1 X112.222 Y71.088 E0.35742
G1 E-0.80000 F2100.00000
G1 Z0.800 F10800.000
G1 X118.767 Y70.677
G1 Z0.200
G1 E0.80000 F2100.00000
G1 F1200.000
G1 X118.540 Y70.450 E0.01010
G1 X117.492 Y69.937 E0.03673
G1 X118.104 Y70.549 E0.02723
G1 X117.600 Y70.581 E0.01587
G1 X116.443 Y69.424 E0.05148
G1 X115.395 Y68.910 E0.03673
G1 X117.097 Y70.612 E0.07573
G1 X116.594 Y70.644 E0.01587
G1 X114.346 Y68.397 E0.09998
G1 X113.298 Y67.883 E0.03673
G1 X116.090 Y70.675 E0.12423
G1 X115.587 Y70.707 E0.01587
G1 X112.249 Y67.370 E0.14848
G1 X111.201 Y66.856 E0.03673
G1 X115.083 Y70.739 E0.17272
G1 X114.580 Y70.770 E0.01587
G1 X110.152 Y66.343 E0.19697
G1 X109.104 Y65.829 E0.03673
G1 X114.076 Y70.802 E0.22122
G1 X113.573 Y70.833 E0.01587
G1 X108.055 Y65.316 E0.24547
G1 X107.007 Y64.802 E0.03673
G1 X113.069 Y70.865 E0.26972
G1 X112.566 Y70.897 E0.01587
G1 X105.588 Y63.919 E0.31044
G1 X105.056 Y63.387 F10800.000
G1 F1200.000
G1 X104.169 Y62.500 E0.03945
G1 X104.150 Y61.946 E0.01745
G1 X105.288 Y63.084 E0.05065
G1 X105.648 Y62.908 E0.01258
G1 X104.131 Y61.391 E0.06749
G1 X104.022 Y60.748 E0.02053
G1 X106.007 Y62.732 E0.08830
G1 X106.366 Y62.556 E0.01258
G1 X103.907 Y60.098 E0.10937
G1 X103.793 Y59.448 E0.02075
G1 X106.725 Y62.380 E0.13044
G1 X107.084 Y62.205 E0.01258
G1 X103.678 Y58.799 E0.15152
G1 X103.627 Y58.510 E0.00924
G1 X103.485 Y58.070 E0.01455
G1 X107.443 Y62.029 E0.17612
G1 X107.802 Y61.853 E0.01258
G1 X103.227 Y57.277 E0.20356
G1 X102.969 Y56.485 E0.02622
G1 X108.162 Y61.677 E0.23100
G1 X108.521 Y61.501 E0.01258
G1 X102.690 Y55.670 E0.25940
G1 X102.181 Y54.626 E0.03656
G1 X109.007 Y61.452 E0.30368
G1 E-0.80000 F2100.00000
G1 Z0.800 F10800.000
G1 X118.704 Y56.703
G1 Z0.200
G1 E0.80000 F2100.00000
G1 F1200.000
G1 X118.523 Y56.522 E0.00805
G1 X117.952 Y56.486 E0.01799
G1 X118.218 Y56.752 E0.01183
G1 X117.859 Y56.928 E0.01258
G1 X117.381 Y56.450 E0.02125
G1 X116.811 Y56.415 E0.01799
G1 X117.500 Y57.104 E0.03067
G1 X117.141 Y57.280 E0.01258
G1 X116.240 Y56.379 E0.04008
G1 X115.669 Y56.343 E0.01799
G1 X116.782 Y57.456 E0.04950
G1 X116.422 Y57.632 E0.01258
G1 X115.098 Y56.307 E0.05892
G1 X114.527 Y56.271 E0.01799
G1 X116.063 Y57.807 E0.06834
G1 X115.704 Y57.983 E0.01258
G1 X113.956 Y56.235 E0.07776
G1 X113.385 Y56.200 E0.01799
G1 X115.345 Y58.159 E0.08718
G1 X114.986 Y58.335 E0.01258
G1 X112.814 Y56.164 E0.09660
G1 X112.244 Y56.128 E0.01799
G1 X114.627 Y58.511 E0.10602
G1 X114.267 Y58.687 E0.01258
G1 X111.673 Y56.092 E0.11544
G1 X111.102 Y56.056 E0.01799
G1 X113.908 Y58.863 E0.12486
G1 X113.549 Y59.039 E0.01258
G1 X110.531 Y56.021 E0.13427
G1 X109.960 Y55.985 E0.01799
G1 X113.190 Y59.215 E0.14369
G1 X112.831 Y59.390 E0.01258
G1 X109.389 Y55.949 E0.15311
G1 X108.818 Y55.913 E0.01799
G1 X112.472 Y59.566 E0.16253
G1 X112.112 Y59.742 E0.01258
G1 X108.247 Y55.877 E0.17195
G1 X107.677 Y55.841 E0.01799
G1 X111.753 Y59.918 E0.18137
G1 X111.394 Y60.094 E0.01258
G1 X107.106 Y55.806 E0.19079
G1 X106.535 Y55.770 E0.01799
G1 X111.035 Y60.270 E0.20021
