; generated by PrusaSlicer 2.1.1+win64 on 2019-12-23 at 18:38:44 UTC

; 

; external perimeters extrusion width = 0.45mm
; perimeters extrusion width = 0.45mm
; infill extrusion width = 0.45mm
; solid infill extrusion width = 0.45mm
; top infill extrusion width = 0.40mm
; first layer extrusion width = 0.42mm

M73 P0 R46
M201 X9000 Y9000 Z500 E10000 ; sets maximum accelerations, mm/sec^2
M203 X500 Y500 Z12 E120 ; sets maximum feedrates, mm/sec
M204 P2000 R1500 T2000 ; sets acceleration (P, T) and retract acceleration (R), mm/sec^2
M205 X10.00 Y10.00 Z0.20 E2.50 ; sets the jerk limits, mm/sec
M205 S0 T0 ; sets the minimum extruding and travel feed rate, mm/sec
M107
M862.3 P "MK2.5SMMU2S" ; printer model check
M862.1 P0.4 ; nozzle diameter check
M115 U3.8.1 ; tell printer latest fw version
G90 ; use absolute coordinates
M83 ; extruder relative mode
M104 S215 ; set extruder temp
M140 S60 ; set bed temp
Tx
M190 S60 ; wait for bed temp
M109 S215 ; wait for extruder temp
G28 W ; home all without mesh bed level
G80 ; mesh bed leveling

;go outside print area
G1 Y-3.0 F1000.0
G1 Z0.4 F1000.0
; select extruder
Tc
; purge line
G1 X55.0 F2000.0
G1 Z0.3 F1000.0
G92 E0.0
G1 X240.0 E25.0 F2200.0
M73 P0 R46
G1 Y-2.0 F1000.0
G1 X55.0 E25 F1400.0
G1 Z0.20 F1000.0
G1 X5.0 E4.0 F1000.0
G92 E0.0
G21 ; set units to millimeters
G90 ; use absolute coordinates
M83 ; use relative distances for extrusion
M900 K30 ; Filament gcode
;BEFORE_LAYER_CHANGE
G92 E0.0
;0.2


G1 E-0.80000 F2100.00000
G1 Z0.600 F10800.000
;AFTER_LAYER_CHANGE
;0.2
G1 X83.874 Y76.767
G1 Z0.200
G1 E0.80000 F2100.00000
M204 S1000
G1 F1200
G1 X85.287 Y75.270 E0.06456
G1 X86.807 Y74.180 E0.05863
G1 X88.069 Y73.553 E0.04419
G1 X89.906 Y72.992 E0.06023
G1 X91.357 Y72.801 E0.04590
G1 X158.044 Y72.782 E2.09090
G1 X160.026 Y72.977 E0.06244
G1 X161.876 Y73.532 E0.06057
G1 X163.192 Y74.180 E0.04601
G1 X164.765 Y75.314 E0.06080
G1 X166.123 Y76.764 E0.06228
G1 X167.152 Y78.407 E0.06080
G1 X167.713 Y79.764 E0.04603
G1 X168.151 Y81.693 E0.06203
G1 X168.232 Y82.969 E0.04007
G1 X168.210 Y127.693 E1.40230
G1 X167.885 Y129.667 E0.06274
G1 X167.179 Y131.540 E0.06274
G1 X166.121 Y133.238 E0.06274
G1 X164.713 Y134.730 E0.06433
G1 X163.193 Y135.820 E0.05863
G1 X161.931 Y136.447 E0.04419
G1 X160.091 Y137.009 E0.06034
G1 X158.643 Y137.199 E0.04578
G1 X91.927 Y137.217 E2.09182
G1 X89.903 Y137.008 E0.06381
G1 X88.680 Y136.676 E0.03973
G1 X87.505 Y136.193 E0.03984
G1 X85.753 Y135.111 E0.06456
G1 X84.255 Y133.698 E0.06456
G1 X83.166 Y132.179 E0.05863
G1 X82.539 Y130.916 E0.04419
G1 X81.977 Y129.080 E0.06022
G1 X81.788 Y127.657 E0.04499
G1 X81.768 Y82.934 E1.40226
G1 X81.978 Y80.918 E0.06358
G1 X82.309 Y79.695 E0.03973
G1 X82.793 Y78.519 E0.03984
G1 X83.843 Y76.818 E0.06268
G1 F8640
G1 X85.287 Y75.270 E-0.48900
G1 X86.241 Y74.586 E-0.27100
G1 E-0.04000 F2100.00000
G1 Z0.800 F10800.000
G1 X136.027 Y112.789
G1 Z0.200
G1 E0.80000 F2100.00000
G1 F1200
G1 X135.505 Y112.773 E0.01639
G1 X134.998 Y112.723 E0.01598
G1 X134.508 Y112.642 E0.01558
G1 X133.998 Y112.524 E0.01639
G1 X133.511 Y112.376 E0.01598
G1 X133.033 Y112.197 E0.01598
G1 X132.569 Y111.987 E0.01598
G1 X132.120 Y111.746 E0.01598
G1 X131.687 Y111.477 E0.01598
G1 X131.272 Y111.180 E0.01598
G1 X130.878 Y110.857 E0.01598
G1 X130.516 Y110.517 E0.01558
G1 X130.158 Y110.136 E0.01639
G1 X129.834 Y109.742 E0.01598
G1 X129.537 Y109.328 E0.01598
G1 X129.268 Y108.895 E0.01598
G1 X129.028 Y108.445 E0.01598
G1 X128.823 Y107.993 E0.01558
G1 X128.638 Y107.504 E0.01639
G1 X128.490 Y107.016 E0.01598
G1 X128.374 Y106.520 E0.01598
G1 X128.291 Y106.017 E0.01598
G1 X128.241 Y105.509 E0.01598
G1 X128.225 Y105.013 E0.01558
G1 X128.241 Y104.490 E0.01639
G1 X128.291 Y103.983 E0.01598
G1 X128.374 Y103.480 E0.01598
G1 X128.490 Y102.984 E0.01598
G1 X128.638 Y102.496 E0.01598
G1 X128.818 Y102.019 E0.01598
G1 X129.028 Y101.555 E0.01598
G1 X129.268 Y101.105 E0.01598
G1 X129.537 Y100.672 E0.01598
G1 X129.834 Y100.258 E0.01598
G1 X130.158 Y99.864 E0.01598
G1 X130.497 Y99.501 E0.01558
G1 X130.878 Y99.143 E0.01639
G1 X131.272 Y98.820 E0.01598
G1 X131.687 Y98.523 E0.01598
G1 X132.120 Y98.254 E0.01598
G1 X132.569 Y98.013 E0.01598
G1 X133.033 Y97.803 E0.01598
G1 X133.511 Y97.624 E0.01598
G1 X133.998 Y97.476 E0.01598
G1 X134.495 Y97.360 E0.01598
G1 X134.998 Y97.277 E0.01598
G1 X135.505 Y97.227 E0.01598
G1 X136.015 Y97.210 E0.01598
G1 X136.511 Y97.226 E0.01558
G1 X137.031 Y97.277 E0.01639
G1 X137.534 Y97.360 E0.01598
G1 X138.031 Y97.476 E0.01598
G1 X138.518 Y97.624 E0.01598
G1 X138.996 Y97.803 E0.01598
G1 X139.460 Y98.013 E0.01598
G1 X139.909 Y98.254 E0.01598
G1 X140.342 Y98.523 E0.01598
G1 X140.757 Y98.820 E0.01598
G1 X141.151 Y99.143 E0.01598
G1 X141.513 Y99.483 E0.01558
G1 X141.871 Y99.864 E0.01639
G1 X142.195 Y100.258 E0.01598
G1 X142.492 Y100.672 E0.01598
G1 X142.761 Y101.105 E0.01598
G1 X143.001 Y101.555 E0.01598
G1 X143.206 Y102.007 E0.01558
G1 X143.391 Y102.496 E0.01639
G1 X143.539 Y102.984 E0.01598
G1 X143.655 Y103.480 E0.01598
G1 X143.738 Y103.983 E0.01598
G1 X143.788 Y104.491 E0.01598
G1 X143.804 Y105.000 E0.01598
G1 X143.788 Y105.509 E0.01598
G1 X143.738 Y106.017 E0.01598
G1 X143.655 Y106.520 E0.01598
G1 X143.539 Y107.016 E0.01598
G1 X143.391 Y107.504 E0.01598
G1 X143.211 Y107.981 E0.01598
G1 X143.001 Y108.445 E0.01598
G1 X142.761 Y108.895 E0.01598
G1 X142.492 Y109.328 E0.01598
G1 X142.195 Y109.742 E0.01598
G1 X141.871 Y110.136 E0.01598
G1 X141.532 Y110.499 E0.01558
G1 X141.151 Y110.857 E0.01639
G1 X140.757 Y111.180 E0.01598
G1 X140.342 Y111.477 E0.01598
G1 X139.909 Y111.746 E0.01598
G1 X139.460 Y111.987 E0.01598
G1 X139.007 Y112.192 E0.01558
G1 X138.518 Y112.377 E0.01639
G1 X138.031 Y112.524 E0.01598
G1 X137.534 Y112.640 E0.01598
G1 X137.031 Y112.723 E0.01598
G1 X136.524 Y112.773 E0.01598
G1 X136.087 Y112.788 E0.01370
G1 X135.827 Y112.443 F10800.000
G1 X136.027 Y112.412
G1 F1200
G1 X135.529 Y112.397 E0.01562
G1 X135.047 Y112.349 E0.01519
G1 X134.581 Y112.272 E0.01481
G1 X134.096 Y112.160 E0.01562
G1 X133.632 Y112.019 E0.01519
G1 X133.178 Y111.848 E0.01521
G1 X132.736 Y111.648 E0.01521
G1 X132.308 Y111.420 E0.01521
G1 X131.896 Y111.163 E0.01521
G1 X131.502 Y110.881 E0.01521
G1 X131.127 Y110.573 E0.01521
G1 X130.782 Y110.250 E0.01481
G1 X130.441 Y109.887 E0.01562
G1 X130.134 Y109.513 E0.01519
G1 X129.851 Y109.118 E0.01521
G1 X129.595 Y108.706 E0.01521
G1 X129.366 Y108.279 E0.01521
G1 X129.171 Y107.848 E0.01481
G1 X128.995 Y107.382 E0.01562
G1 X128.854 Y106.919 E0.01519
G1 X128.744 Y106.446 E0.01521
G1 X128.665 Y105.968 E0.01521
G1 X128.618 Y105.485 E0.01521
G1 X128.602 Y105.013 E0.01481
G1 X128.618 Y104.515 E0.01562
G1 X128.665 Y104.032 E0.01519
G1 X128.744 Y103.554 E0.01521
G1 X128.854 Y103.081 E0.01521
G1 X128.995 Y102.617 E0.01521
G1 X129.166 Y102.163 E0.01521
G1 X129.366 Y101.722 E0.01521
G1 X129.595 Y101.294 E0.01521
G1 X129.851 Y100.882 E0.01521
G1 X130.134 Y100.488 E0.01521
G1 X130.441 Y100.113 E0.01521
G1 X130.764 Y99.768 E0.01481
G1 X131.127 Y99.427 E0.01562
G1 X131.502 Y99.119 E0.01519
G1 X131.896 Y98.837 E0.01521
G1 X132.308 Y98.581 E0.01521
G1 X132.736 Y98.352 E0.01521
G1 X133.178 Y98.152 E0.01521
G1 X133.632 Y97.981 E0.01521
G1 X134.096 Y97.840 E0.01521
G1 X134.568 Y97.730 E0.01521
G1 X135.047 Y97.651 E0.01521
G1 X135.530 Y97.603 E0.01521
G1 X136.015 Y97.587 E0.01521
G1 X136.487 Y97.603 E0.01481
G1 X136.983 Y97.651 E0.01562
G1 X137.461 Y97.730 E0.01519
G1 X137.933 Y97.840 E0.01521
G1 X138.397 Y97.981 E0.01521
G1 X138.851 Y98.152 E0.01521
G1 X139.293 Y98.352 E0.01521
G1 X139.721 Y98.580 E0.01521
G1 X140.133 Y98.837 E0.01521
G1 X140.527 Y99.119 E0.01521
G1 X140.902 Y99.427 E0.01521
G1 X141.247 Y99.750 E0.01481
G1 X141.588 Y100.113 E0.01562
G1 X141.895 Y100.487 E0.01519
G1 X142.178 Y100.882 E0.01521
G1 X142.434 Y101.294 E0.01521
G1 X142.663 Y101.721 E0.01521
G1 X142.858 Y102.152 E0.01481
G1 X143.034 Y102.618 E0.01562
G1 X143.175 Y103.081 E0.01519
G1 X143.285 Y103.554 E0.01521
G1 X143.364 Y104.032 E0.01521
G1 X143.411 Y104.515 E0.01521
G1 X143.427 Y105.000 E0.01521
G1 X143.411 Y105.485 E0.01521
G1 X143.364 Y105.968 E0.01521
G1 X143.285 Y106.446 E0.01521
G1 X143.175 Y106.919 E0.01521
G1 X143.034 Y107.383 E0.01521
G1 X142.863 Y107.837 E0.01521
G1 X142.663 Y108.279 E0.01521
G1 X142.434 Y108.706 E0.01521
G1 X142.178 Y109.118 E0.01521
G1 X141.895 Y109.513 E0.01521
G1 X141.588 Y109.887 E0.01521
G1 X141.265 Y110.232 E0.01481
G1 X140.902 Y110.573 E0.01562
G1 X140.527 Y110.881 E0.01519
G1 X140.133 Y111.163 E0.01521
G1 X139.721 Y111.420 E0.01521
G1 X139.293 Y111.648 E0.01521
G1 X138.863 Y111.843 E0.01481
G1 X138.397 Y112.019 E0.01562
G1 X137.933 Y112.160 E0.01519
G1 X137.461 Y112.270 E0.01521
G1 X136.982 Y112.349 E0.01521
G1 X136.499 Y112.397 E0.01521
G1 X136.087 Y112.410 E0.01293
G1 F8640
G1 X135.529 Y112.397 E-0.12885
G1 X135.047 Y112.349 E-0.11189
G1 X134.581 Y112.272 E-0.10909
G1 X134.096 Y112.160 E-0.11502
G1 X133.632 Y112.019 E-0.11189
G1 X133.178 Y111.848 E-0.11200
G1 X132.897 Y111.721 E-0.07125
G1 E-0.04000 F2100.00000
G1 Z0.800 F10800.000
G1 X136.015 Y108.210
G1 Z0.200
G1 E0.80000 F2100.00000
G1 F1200
G1 X135.599 Y108.183 E0.01306
G1 X135.385 Y108.148 E0.00680
G1 X134.991 Y108.042 E0.01279
G1 X134.783 Y107.965 E0.00696
G1 X134.417 Y107.784 E0.01280
G1 X134.228 Y107.667 E0.00696
G1 X133.904 Y107.419 E0.01280
G1 X133.745 Y107.270 E0.00685
G1 X133.599 Y107.114 E0.00670
G1 X133.347 Y106.786 E0.01295
G1 X133.233 Y106.602 E0.00680
G1 X133.048 Y106.229 E0.01306
G1 X132.916 Y105.839 E0.01290
G1 X132.866 Y105.626 E0.00685
G1 X132.831 Y105.416 E0.00670
G1 X132.804 Y105.003 E0.01295
G1 X132.811 Y104.787 E0.00680
G1 X132.866 Y104.374 E0.01306
G1 X132.972 Y103.976 E0.01290
G1 X133.050 Y103.769 E0.00696
G1 X133.230 Y103.402 E0.01280
G1 X133.347 Y103.214 E0.00696
G1 X133.599 Y102.886 E0.01296
G1 X133.747 Y102.728 E0.00680
G1 X134.054 Y102.459 E0.01279
G1 X134.234 Y102.329 E0.00696
G1 X134.592 Y102.122 E0.01296
G1 X134.789 Y102.033 E0.00680
G1 X135.180 Y101.900 E0.01295
G1 X135.388 Y101.852 E0.00669
G1 X135.599 Y101.817 E0.00669
G1 X136.006 Y101.790 E0.01279
G1 X136.228 Y101.797 E0.00696
G1 X136.637 Y101.851 E0.01296
G1 X136.849 Y101.900 E0.00680
G1 X137.243 Y102.034 E0.01306
G1 X137.612 Y102.216 E0.01290
G1 X137.801 Y102.333 E0.00696
G1 X138.125 Y102.581 E0.01280
G1 X138.284 Y102.730 E0.00685
G1 X138.430 Y102.886 E0.00670
G1 X138.684 Y103.216 E0.01306
G1 X138.892 Y103.577 E0.01306
G1 X138.980 Y103.772 E0.00669
G1 X139.055 Y103.971 E0.00669
G1 X139.163 Y104.374 E0.01306
G1 X139.217 Y104.782 E0.01290
G1 X139.225 Y105.003 E0.00696
G1 X139.198 Y105.416 E0.01296
G1 X139.163 Y105.626 E0.00669
G1 X139.114 Y105.834 E0.00669
G1 X138.982 Y106.225 E0.01295
G1 X138.892 Y106.423 E0.00680
G1 X138.684 Y106.784 E0.01306
G1 X138.434 Y107.110 E0.01290
G1 X138.282 Y107.272 E0.00696
G1 X137.975 Y107.541 E0.01280
G1 X137.795 Y107.671 E0.00696
G1 X137.437 Y107.878 E0.01296
G1 X137.240 Y107.967 E0.00680
G1 X136.849 Y108.100 E0.01295
G1 X136.641 Y108.148 E0.00669
G1 X136.430 Y108.183 E0.00669
G1 X136.074 Y108.207 E0.01118
G1 X135.811 Y108.555 F10800.000
G1 X136.015 Y108.588
G1 F1200
G1 X135.556 Y108.558 E0.01442
G1 X135.305 Y108.517 E0.00796
G1 X134.876 Y108.402 E0.01394
G1 X134.633 Y108.311 E0.00812
G1 X134.234 Y108.114 E0.01396
G1 X134.014 Y107.978 E0.00812
G1 X133.660 Y107.707 E0.01396
G1 X133.478 Y107.537 E0.00782
G1 X133.311 Y107.358 E0.00768
G1 X133.037 Y107.001 E0.01411
G1 X132.903 Y106.786 E0.00796
G1 X132.699 Y106.373 E0.01441
G1 X132.553 Y105.943 E0.01425
G1 X132.496 Y105.700 E0.00782
G1 X132.456 Y105.459 E0.00768
G1 X132.427 Y105.010 E0.01411
G1 X132.435 Y104.756 E0.00796
G1 X132.495 Y104.300 E0.01441
G1 X132.613 Y103.861 E0.01425
G1 X132.703 Y103.619 E0.00812
G1 X132.900 Y103.219 E0.01396
G1 X133.036 Y102.999 E0.00812
G1 X133.311 Y102.642 E0.01413
G1 X133.484 Y102.456 E0.00796
G1 X133.819 Y102.163 E0.01394
G1 X134.029 Y102.012 E0.00812
G1 X134.419 Y101.787 E0.01413
G1 X134.650 Y101.682 E0.00796
G1 X135.077 Y101.537 E0.01411
G1 X135.315 Y101.482 E0.00766
G1 X135.556 Y101.442 E0.00766
G1 X135.999 Y101.412 E0.01394
G1 X136.258 Y101.421 E0.00812
G1 X136.705 Y101.479 E0.01413
G1 X136.952 Y101.537 E0.00796
G1 X137.388 Y101.685 E0.01441
G1 X137.795 Y101.886 E0.01425
G1 X138.015 Y102.022 E0.00812
G1 X138.369 Y102.293 E0.01396
G1 X138.551 Y102.463 E0.00782
G1 X138.718 Y102.642 E0.00768
G1 X138.998 Y103.006 E0.01441
G1 X139.228 Y103.405 E0.01441
G1 X139.329 Y103.627 E0.00766
G1 X139.415 Y103.856 E0.00766
G1 X139.534 Y104.300 E0.01441
G1 X139.593 Y104.750 E0.01425
G1 X139.602 Y105.009 E0.00812
G1 X139.573 Y105.459 E0.01413
G1 X139.533 Y105.700 E0.00766
G1 X139.477 Y105.938 E0.00766
G1 X139.333 Y106.364 E0.01411
G1 X139.228 Y106.595 E0.00796
G1 X138.998 Y106.993 E0.01441
G1 X138.722 Y107.354 E0.01425
G1 X138.545 Y107.543 E0.00812
G1 X138.210 Y107.837 E0.01396
G1 X138.000 Y107.988 E0.00812
G1 X137.610 Y108.213 E0.01413
G1 X137.379 Y108.318 E0.00796
G1 X136.952 Y108.463 E0.01411
G1 X136.714 Y108.518 E0.00766
G1 X136.473 Y108.558 E0.00766
G1 X136.074 Y108.584 E0.01253
G1 F8640
G1 X135.556 Y108.558 E-0.11991
G1 X135.305 Y108.517 E-0.05862
G1 X134.876 Y108.402 E-0.10269
G1 X134.633 Y108.311 E-0.05978
G1 X134.234 Y108.114 E-0.10280
G1 X134.014 Y107.978 E-0.05978
G1 X133.660 Y107.707 E-0.10280
G1 X133.478 Y107.537 E-0.05759
G1 X133.311 Y107.358 E-0.05653
G1 X133.207 Y107.223 E-0.03951
G1 E-0.04000 F2100.00000
G1 Z0.800 F10800.000
G1 X136.985 Y112.234
G1 Z0.200
G1 E0.80000 F2100.00000
G1 F1200
G1 X128.935 Y104.184 E0.36460
G1 X128.895 Y104.689 E0.01624
G1 X136.325 Y112.119 E0.33651
G1 X135.783 Y112.122 E0.01737
G1 X128.892 Y105.231 E0.31207
G1 X128.935 Y105.818 E0.01885
G1 X135.196 Y112.080 E0.28359
G1 X134.546 Y111.974 E0.02111
G1 X129.040 Y106.468 E0.24936
G1 X129.128 Y106.845 E0.01241
G1 X129.239 Y107.212 E0.01227
G1 X133.803 Y111.776 E0.20669
G1 X133.286 Y111.587 E0.01761
G1 X132.890 Y111.407 E0.01393
G1 X129.269 Y107.787 E0.16399
G1 F8640
G1 X131.596 Y110.114 E-0.76000
G1 E-0.04000 F2100.00000
G1 Z0.800 F10800.000
G1 X129.867 Y108.929
G1 Z0.200
G1 E0.80000 F2100.00000
G1 F1200
G1 X132.086 Y111.148 E0.10051
G1 F8640
G1 X129.867 Y108.929 E-0.72465
G1 E-0.07535 F2100.00000
G1 Z0.800 F10800.000
G1 X134.136 Y97.947
G1 Z0.200
G1 E0.80000 F2100.00000
G1 F1200
G1 X137.724 Y101.535 E0.16253
G1 X137.496 Y101.423 E0.00816
G1 X136.872 Y101.228 E0.02093
G1 X133.853 Y98.209 E0.13673
G1 X133.451 Y98.351 E0.01367
G1 X136.237 Y101.137 E0.12617
G1 X135.994 Y101.129 E0.00776
G1 X135.704 Y101.149 E0.00934
G1 X133.067 Y98.512 E0.11940
G1 X132.701 Y98.691 E0.01304
G1 X135.229 Y101.218 E0.11447
G1 X135.003 Y101.263 E0.00736
G1 X134.798 Y101.333 E0.00693
G1 X132.352 Y98.886 E0.11080
G1 X132.018 Y99.097 E0.01264
G1 X134.404 Y101.483 E0.10805
G1 X134.050 Y101.673 E0.01288
G1 X131.701 Y99.325 E0.10638
G1 X131.400 Y99.569 E0.01240
G1 X133.718 Y101.887 E0.10499
G1 X133.422 Y102.135 E0.01238
G1 X131.114 Y99.827 E0.10452
G1 X130.841 Y100.099 E0.01233
G1 X133.146 Y102.404 E0.10438
G1 X132.904 Y102.707 E0.01241
G1 X130.583 Y100.386 E0.10513
G1 X130.339 Y100.686 E0.01240
G1 X132.684 Y103.031 E0.10620
G1 X132.500 Y103.392 E0.01297
G1 X130.112 Y101.004 E0.10816
G1 X129.901 Y101.337 E0.01264
G1 X132.342 Y103.779 E0.11056
G1 X132.227 Y104.208 E0.01425
G1 X129.706 Y101.687 E0.11420
G1 X129.527 Y102.053 E0.01304
G1 X132.159 Y104.685 E0.11923
G1 X132.144 Y105.014 E0.01055
G1 X132.158 Y105.228 E0.00687
G1 X129.366 Y102.436 E0.12646
G1 X129.224 Y102.839 E0.01367
G1 X132.249 Y105.864 E0.13703
G1 X132.279 Y106.017 E0.00497
G1 X132.438 Y106.482 E0.01573
G1 X132.550 Y106.710 E0.00816
G1 X129.103 Y103.263 E0.15615
G1 X129.005 Y103.710 E0.01466
G1 X137.305 Y112.009 E0.37589
G1 X137.752 Y111.912 E0.01466
G1 X134.304 Y108.464 E0.15614
G1 X134.521 Y108.571 E0.00773
G1 X134.789 Y108.672 E0.00918
G1 X135.154 Y108.769 E0.01208
G1 X138.176 Y111.791 E0.13686
G1 X138.578 Y111.649 E0.01367
G1 X135.786 Y108.857 E0.12644
G1 X136.015 Y108.872 E0.00733
G1 X136.325 Y108.851 E0.00998
G1 X138.962 Y111.488 E0.11941
G1 X139.328 Y111.309 E0.01304
G1 X136.800 Y108.782 E0.11447
G1 X137.026 Y108.737 E0.00736
G1 X137.231 Y108.667 E0.00693
