; generated by PrusaSlicer 2.1.1+win64 on 2020-02-12 at 19:10:28 UTC

; 

; external perimeters extrusion width = 0.45mm
; perimeters extrusion width = 0.45mm
; infill extrusion width = 0.45mm
; solid infill extrusion width = 0.45mm
; top infill extrusion width = 0.40mm
; support material extrusion width = 0.35mm
; first layer extrusion width = 0.42mm

M73 P0 R33
M201 X9000 Y9000 Z500 E10000 ; sets maximum accelerations, mm/sec^2
M203 X500 Y500 Z12 E120 ; sets maximum feedrates, mm/sec
M204 P2000 R1500 T2000 ; sets acceleration (P, T) and retract acceleration (R), mm/sec^2
M205 X10.00 Y10.00 Z0.20 E4.50 ; sets the jerk limits, mm/sec
M205 S0 T0 ; sets the minimum extruding and travel feed rate, mm/sec
M107
M862.3 P "MK2.5SMMU2S" ; printer model check
M862.1 P0.4 ; nozzle diameter check
M115 U3.8.1 ; tell printer latest fw version
G90 ; use absolute coordinates
M83 ; extruder relative mode
M104 S215 ; set extruder temp
M140 S60 ; set bed temp
Tx
M190 S60 ; wait for bed temp
M109 S215 ; wait for extruder temp
G28 W ; home all without mesh bed level
G80 ; mesh bed leveling

;go outside print area
G1 Y-3.0 F1000.0
G1 Z0.4 F1000.0
; select extruder
Tc
; purge line
G1 X55.0 F2000.0
G1 Z0.3 F1000.0
G92 E0.0
G1 X240.0 E25.0 F2200.0
M73 P0 R33
G1 Y-2.0 F1000.0
G1 X55.0 E25 F1400.0
G1 Z0.20 F1000.0
G1 X5.0 E4.0 F1000.0
G92 E0.0
G21 ; set units to millimeters
G90 ; use absolute coordinates
M83 ; use relative distances for extrusion
M900 K30 ; Filament gcode
;BEFORE_LAYER_CHANGE
G92 E0.0
;0.2


G1 E-0.80000 F2100.00000
G1 Z0.600 F10800.000
;AFTER_LAYER_CHANGE
;0.2
G1 X88.874 Y76.420
G1 Z0.200
G1 E0.80000 F2100.00000
M204 S1000
G1 F1200
G1 X90.164 Y76.208 E0.04097
G1 X159.814 Y76.208 E2.18383
G1 X161.194 Y76.444 E0.04390
G1 X162.089 Y76.888 E0.03130
G1 X162.518 Y77.215 E0.01692
G1 X163.203 Y77.940 E0.03129
G1 X163.687 Y78.834 E0.03186
G1 X163.854 Y79.328 E0.01635
G1 X163.997 Y80.301 E0.03085
G1 X163.998 Y129.673 E1.54801
G1 X163.811 Y130.842 E0.03711
G1 X163.377 Y131.776 E0.03230
G1 X163.059 Y132.239 E0.01760
G1 X162.316 Y132.959 E0.03244
G1 X161.126 Y133.580 E0.04210
G1 X159.836 Y133.792 E0.04098
G1 X90.164 Y133.792 E2.18452
G1 X89.121 Y133.647 E0.03300
G1 X88.585 Y133.459 E0.01783
G1 X87.678 Y132.955 E0.03253
G1 X86.834 Y132.110 E0.03746
G1 X86.214 Y130.922 E0.04199
G1 X86.001 Y129.640 E0.04075
G1 X86.001 Y80.364 E1.54503
G1 X86.147 Y79.325 E0.03289
G1 X86.336 Y78.789 E0.01783
G1 X86.838 Y77.885 E0.03242
G1 X87.684 Y77.041 E0.03746
G1 X88.821 Y76.448 E0.04023
G1 F8640
G1 X90.164 Y76.208 E-0.31493
G1 X92.091 Y76.208 E-0.44507
G1 E-0.04000 F2100.00000
G1 Z0.800 F10800.000
G1 X121.174 Y108.870
G1 Z0.200
G1 E0.80000 F2100.00000
G1 F1200
G1 X121.566 Y108.670 E0.01379
G1 X122.046 Y108.594 E0.01526
G1 X127.954 Y108.594 E0.18523
G1 X128.417 Y108.667 E0.01470
G1 X128.828 Y108.872 E0.01441
G1 X129.137 Y109.181 E0.01369
G1 X129.337 Y109.573 E0.01379
G1 X129.413 Y110.053 E0.01526
G1 X129.413 Y129.557 E0.61153
G1 X129.337 Y130.038 E0.01526
G1 X129.137 Y130.430 E0.01379
G1 X128.826 Y130.741 E0.01379
G1 X128.434 Y130.940 E0.01379
G1 X127.954 Y131.016 E0.01526
G1 X122.046 Y131.016 E0.18523
G1 X121.566 Y130.940 E0.01526
G1 X121.174 Y130.741 E0.01379
G1 X120.863 Y130.430 E0.01379
G1 X120.663 Y130.038 E0.01379
G1 X120.587 Y129.557 E0.01526
G1 X120.587 Y110.053 E0.61153
G1 X120.663 Y109.573 E0.01526
G1 X120.863 Y109.181 E0.01379
G1 X121.131 Y108.912 E0.01191
G1 X120.949 Y108.561 F10800.000
G1 F1200
G1 X121.448 Y108.307 E0.01753
G1 X122.017 Y108.217 E0.01806
G1 X127.983 Y108.217 E0.18709
G1 X128.533 Y108.304 E0.01744
G1 X129.051 Y108.562 E0.01816
G1 X129.446 Y108.956 E0.01750
G1 X129.700 Y109.455 E0.01753
G1 X129.790 Y110.024 E0.01806
G1 X129.790 Y129.587 E0.61340
G1 X129.700 Y130.156 E0.01806
G1 X129.446 Y130.654 E0.01753
G1 X129.051 Y131.049 E0.01753
G1 X128.552 Y131.303 E0.01753
G1 X127.983 Y131.393 E0.01806
G1 X122.017 Y131.393 E0.18709
G1 X121.448 Y131.303 E0.01806
G1 X120.949 Y131.049 E0.01753
G1 X120.554 Y130.654 E0.01753
G1 X120.300 Y130.156 E0.01753
G1 X120.210 Y129.587 E0.01806
G1 X120.210 Y110.024 E0.61340
G1 X120.300 Y109.455 E0.01806
G1 X120.554 Y108.956 E0.01753
G1 X120.907 Y108.603 E0.01565
G1 X121.315 Y108.724 F10800.000
G1 F8640
G1 X121.448 Y108.307 E-0.14237
G1 X122.017 Y108.217 E-0.13299
G1 X124.115 Y108.217 E-0.48465
G1 E-0.04000 F2100.00000
G1 Z0.800 F10800.000
G1 X129.241 Y109.689
G1 Z0.200
G1 E0.80000 F2100.00000
G1 F1200
G1 X128.652 Y109.100 E0.02650
G1 X128.330 Y108.940 E0.01148
G1 X127.887 Y108.877 E0.01424
G1 X129.130 Y110.120 E0.05599
G1 X129.130 Y110.662 E0.01726
G1 X127.345 Y108.877 E0.08040
G1 X126.804 Y108.877 E0.01726
G1 X129.130 Y111.203 E0.10481
G1 X129.130 Y111.745 E0.01726
G1 X126.262 Y108.877 E0.12922
G1 X125.720 Y108.877 E0.01726
G1 X129.130 Y112.287 E0.15362
G1 X129.130 Y112.829 E0.01726
G1 X125.178 Y108.877 E0.17803
G1 X124.636 Y108.877 E0.01726
G1 X129.130 Y113.371 E0.20244
G1 X129.130 Y113.912 E0.01726
G1 X124.095 Y108.877 E0.22685
G1 X123.553 Y108.877 E0.01726
G1 X129.130 Y114.454 E0.25125
G1 X129.130 Y114.996 E0.01726
G1 X123.011 Y108.877 E0.27566
G1 X122.469 Y108.877 E0.01726
G1 X129.130 Y115.538 E0.30007
G1 X129.130 Y116.080 E0.01726
G1 X121.947 Y108.896 E0.32361
G1 X121.654 Y108.943 E0.00944
G1 X121.520 Y109.011 E0.00480
G1 X129.130 Y116.621 E0.34284
G1 X129.130 Y117.163 E0.01726
G1 X121.205 Y109.238 E0.35701
G1 X121.094 Y109.349 E0.00499
G1 X120.986 Y109.561 E0.00758
G1 X129.130 Y117.705 E0.36687
G1 X129.130 Y118.247 E0.01726
G1 X120.882 Y109.999 E0.37157
G1 X120.870 Y110.528 E0.01687
G1 X129.130 Y118.788 E0.37212
G1 X129.130 Y119.330 E0.01726
G1 X120.870 Y111.070 E0.37212
G1 X120.870 Y111.612 E0.01726
G1 X129.130 Y119.872 E0.37212
G1 X129.130 Y120.414 E0.01726
G1 X120.870 Y112.154 E0.37212
G1 X120.870 Y112.695 E0.01726
G1 X129.130 Y120.956 E0.37212
G1 X129.130 Y121.497 E0.01726
G1 X120.870 Y113.237 E0.37212
G1 X120.870 Y113.779 E0.01726
G1 X129.130 Y122.039 E0.37212
G1 X129.130 Y122.581 E0.01726
G1 X120.870 Y114.321 E0.37212
G1 X120.870 Y114.862 E0.01726
G1 X129.130 Y123.123 E0.37212
G1 X129.130 Y123.665 E0.01726
G1 X120.870 Y115.404 E0.37212
G1 X120.870 Y115.946 E0.01726
G1 X129.130 Y124.206 E0.37212
G1 X129.130 Y124.748 E0.01726
G1 X120.870 Y116.488 E0.37212
G1 X120.870 Y117.030 E0.01726
G1 X129.130 Y125.290 E0.37212
G1 X129.130 Y125.832 E0.01726
G1 X120.870 Y117.571 E0.37212
G1 X120.870 Y118.113 E0.01726
G1 X129.130 Y126.373 E0.37212
G1 X129.130 Y126.915 E0.01726
G1 X120.870 Y118.655 E0.37212
G1 X120.870 Y119.197 E0.01726
G1 X129.130 Y127.457 E0.37212
G1 X129.130 Y127.999 E0.01726
G1 X120.870 Y119.739 E0.37212
G1 X120.870 Y120.280 E0.01726
G1 X129.130 Y128.541 E0.37212
G1 X129.130 Y129.082 E0.01726
G1 X120.870 Y120.822 E0.37212
G1 X120.870 Y121.364 E0.01726
G1 X129.118 Y129.612 E0.37157
G1 X129.065 Y129.949 E0.01088
G1 X129.014 Y130.049 E0.00358
G1 X120.870 Y121.906 E0.36687
G1 X120.870 Y122.447 E0.01726
G1 X128.795 Y130.372 E0.35701
G1 X128.658 Y130.509 E0.00616
G1 X128.480 Y130.600 E0.00636
G1 X120.870 Y122.989 E0.34284
G1 X120.870 Y123.531 E0.01726
G1 X128.053 Y130.714 E0.32360
G1 X127.932 Y130.734 E0.00392
G1 X127.531 Y130.734 E0.01277
G1 X120.870 Y124.073 E0.30006
G1 X120.870 Y124.615 E0.01726
G1 X126.989 Y130.734 E0.27566
G1 X126.447 Y130.734 E0.01726
G1 X120.870 Y125.156 E0.25125
G1 X120.870 Y125.698 E0.01726
G1 X125.905 Y130.734 E0.22684
G1 X125.363 Y130.734 E0.01726
G1 X120.870 Y126.240 E0.20244
G1 X120.870 Y126.782 E0.01726
G1 X124.822 Y130.734 E0.17803
G1 X124.280 Y130.734 E0.01726
G1 X120.870 Y127.324 E0.15362
G1 X120.870 Y127.865 E0.01726
G1 X123.738 Y130.734 E0.12921
G1 X123.196 Y130.734 E0.01726
G1 X120.870 Y128.407 E0.10481
G1 X120.870 Y128.949 E0.01726
G1 X122.655 Y130.734 E0.08040
G1 X122.113 Y130.734 E0.01726
G1 X120.870 Y129.491 E0.05599
G1 X120.935 Y129.949 E0.01476
G1 X121.090 Y130.253 E0.01085
G1 X121.681 Y130.844 E0.02664
G1 F8640
G1 X121.090 Y130.253 E-0.19312
G1 X120.935 Y129.949 E-0.07862
G1 X120.870 Y129.491 E-0.10698
G1 X122.038 Y130.658 E-0.38129
G1 E-0.04000 F2100.00000
G1 Z0.800 F10800.000
G1 X136.568 Y130.038
G1 Z0.200
G1 E0.80000 F2100.00000
G1 F1200
G1 X136.492 Y129.557 E0.01526
G1 X136.492 Y110.053 E0.61153
G1 X136.568 Y109.573 E0.01526
G1 X136.768 Y109.181 E0.01379
G1 X137.079 Y108.870 E0.01379
G1 X137.471 Y108.670 E0.01379
G1 X137.951 Y108.594 E0.01526
G1 X143.859 Y108.594 E0.18523
G1 X144.322 Y108.667 E0.01470
G1 X144.733 Y108.872 E0.01441
G1 X145.042 Y109.181 E0.01369
G1 X145.242 Y109.573 E0.01379
G1 X145.318 Y110.053 E0.01526
G1 X145.318 Y129.557 E0.61153
M73 P3 R32
G1 X145.242 Y130.038 E0.01526
G1 X145.042 Y130.430 E0.01379
G1 X144.731 Y130.741 E0.01379
G1 X144.340 Y130.940 E0.01379
G1 X143.859 Y131.016 E0.01526
G1 X137.951 Y131.016 E0.18523
G1 X137.471 Y130.940 E0.01526
G1 X137.079 Y130.741 E0.01379
G1 X136.768 Y130.430 E0.01379
G1 X136.596 Y130.091 E0.01191
G1 X136.205 Y130.156 F10800.000
G1 F1200
G1 X136.115 Y129.587 E0.01806
G1 X136.115 Y110.024 E0.61340
G1 X136.205 Y109.455 E0.01806
G1 X136.459 Y108.956 E0.01753
G1 X136.855 Y108.561 E0.01753
G1 X137.353 Y108.307 E0.01753
G1 X137.922 Y108.217 E0.01806
G1 X143.889 Y108.217 E0.18709
G1 X144.438 Y108.304 E0.01744
G1 X144.957 Y108.562 E0.01816
G1 X145.351 Y108.956 E0.01750
G1 X145.605 Y109.455 E0.01753
G1 X145.695 Y110.024 E0.01806
G1 X145.695 Y129.587 E0.61340
G1 X145.605 Y130.156 E0.01806
G1 X145.351 Y130.654 E0.01753
G1 X144.956 Y131.049 E0.01753
G1 X144.458 Y131.303 E0.01753
G1 X143.889 Y131.393 E0.01806
G1 X137.922 Y131.393 E0.18709
G1 X137.353 Y131.303 E0.01806
G1 X136.855 Y131.049 E0.01753
G1 X136.459 Y130.654 E0.01753
G1 X136.233 Y130.209 E0.01565
G1 X136.473 Y129.859 F10800.000
G1 F8640
G1 X136.115 Y129.587 E-0.14623
G1 X136.115 Y126.929 E-0.61377
G1 E-0.04000 F2100.00000
G1 Z0.800 F10800.000
G1 X137.587 Y130.844
G1 Z0.200
G1 E0.80000 F2100.00000
G1 F1200
G1 X136.995 Y130.253 E0.02664
G1 X136.841 Y129.949 E0.01085
G1 X136.775 Y129.491 E0.01476
G1 X138.018 Y130.734 E0.05599
G1 X138.560 Y130.734 E0.01726
G1 X136.775 Y128.949 E0.08040
G1 X136.775 Y128.407 E0.01726
G1 X139.101 Y130.734 E0.10481
G1 X139.643 Y130.734 E0.01726
G1 X136.775 Y127.865 E0.12921
G1 X136.775 Y127.324 E0.01726
G1 X140.185 Y130.734 E0.15362
G1 X140.727 Y130.734 E0.01726
G1 X136.775 Y126.782 E0.17803
G1 X136.775 Y126.240 E0.01726
G1 X141.269 Y130.734 E0.20244
G1 X141.810 Y130.734 E0.01726
G1 X136.775 Y125.698 E0.22684
G1 X136.775 Y125.156 E0.01726
G1 X142.352 Y130.734 E0.25125
G1 X142.894 Y130.734 E0.01726
G1 X136.775 Y124.615 E0.27566
G1 X136.775 Y124.073 E0.01726
G1 X143.436 Y130.734 E0.30006
G1 X143.837 Y130.734 E0.01277
G1 X143.958 Y130.714 E0.00392
G1 X136.775 Y123.531 E0.32360
G1 X136.775 Y122.989 E0.01726
G1 X144.385 Y130.600 E0.34284
G1 X144.563 Y130.509 E0.00636
G1 X144.700 Y130.372 E0.00616
G1 X136.775 Y122.447 E0.35701
G1 X136.775 Y121.906 E0.01726
G1 X144.919 Y130.049 E0.36687
G1 X144.970 Y129.949 E0.00358
G1 X145.023 Y129.612 E0.01088
G1 X136.775 Y121.364 E0.37157
G1 X136.775 Y120.822 E0.01726
G1 X145.035 Y129.082 E0.37212
G1 X145.035 Y128.541 E0.01726
G1 X136.775 Y120.280 E0.37212
G1 X136.775 Y119.739 E0.01726
G1 X145.035 Y127.999 E0.37212
G1 X145.035 Y127.457 E0.01726
G1 X136.775 Y119.197 E0.37212
G1 X136.775 Y118.655 E0.01726
G1 X145.035 Y126.915 E0.37212
G1 X145.035 Y126.373 E0.01726
G1 X136.775 Y118.113 E0.37212
G1 X136.775 Y117.571 E0.01726
G1 X145.035 Y125.832 E0.37212
G1 X145.035 Y125.290 E0.01726
G1 X136.775 Y117.030 E0.37212
G1 X136.775 Y116.488 E0.01726
G1 X145.035 Y124.748 E0.37212
G1 X145.035 Y124.206 E0.01726
G1 X136.775 Y115.946 E0.37212
G1 X136.775 Y115.404 E0.01726
G1 X145.035 Y123.665 E0.37212
G1 X145.035 Y123.123 E0.01726
G1 X136.775 Y114.862 E0.37212
G1 X136.775 Y114.321 E0.01726
G1 X145.035 Y122.581 E0.37212
G1 X145.035 Y122.039 E0.01726
G1 X136.775 Y113.779 E0.37212
G1 X136.775 Y113.237 E0.01726
G1 X145.035 Y121.497 E0.37212
G1 X145.035 Y120.956 E0.01726
G1 X136.775 Y112.695 E0.37212
G1 X136.775 Y112.154 E0.01726
G1 X145.035 Y120.414 E0.37212
G1 X145.035 Y119.872 E0.01726
G1 X136.775 Y111.612 E0.37212
G1 X136.775 Y111.070 E0.01726
G1 X145.035 Y119.330 E0.37212
G1 X145.035 Y118.788 E0.01726
G1 X136.775 Y110.528 E0.37212
G1 X136.787 Y109.999 E0.01687
G1 X145.035 Y118.247 E0.37157
G1 X145.035 Y117.705 E0.01726
G1 X136.892 Y109.561 E0.36687
G1 X137.000 Y109.349 E0.00758
G1 X137.111 Y109.238 E0.00499
G1 X145.035 Y117.163 E0.35701
G1 X145.035 Y116.621 E0.01726
G1 X137.425 Y109.011 E0.34284
G1 X137.559 Y108.943 E0.00480
G1 X137.852 Y108.896 E0.00944
G1 X145.035 Y116.080 E0.32361
G1 X145.035 Y115.538 E0.01726
G1 X138.374 Y108.877 E0.30007
G1 X138.916 Y108.877 E0.01726
G1 X145.035 Y114.996 E0.27566
G1 X145.035 Y114.454 E0.01726
G1 X139.458 Y108.877 E0.25125
G1 X140.000 Y108.877 E0.01726
G1 X145.035 Y113.912 E0.22685
G1 X145.035 Y113.371 E0.01726
G1 X140.542 Y108.877 E0.20244
G1 X141.083 Y108.877 E0.01726
G1 X145.035 Y112.829 E0.17803
G1 X145.035 Y112.287 E0.01726
G1 X141.625 Y108.877 E0.15362
G1 X142.167 Y108.877 E0.01726
G1 X145.035 Y111.745 E0.12922
G1 X145.035 Y111.203 E0.01726
G1 X142.709 Y108.877 E0.10481
G1 X143.251 Y108.877 E0.01726
G1 X145.035 Y110.662 E0.08040
G1 X145.035 Y110.120 E0.01726
G1 X143.792 Y108.877 E0.05599
G1 X144.235 Y108.940 E0.01424
G1 X144.558 Y109.100 E0.01148
G1 X145.146 Y109.689 E0.02650
G1 F8640
G1 X144.558 Y109.100 E-0.19208
G1 X144.235 Y108.940 E-0.08323
G1 X143.792 Y108.877 E-0.10321
G1 X144.961 Y110.045 E-0.38149
G1 E-0.04000 F2100.00000
G1 Z0.800 F10800.000
G1 X152.474 Y109.573
G1 Z0.200
G1 E0.80000 F2100.00000
G1 F1200
G1 X152.673 Y109.181 E0.01379
G1 X152.984 Y108.870 E0.01379
G1 X153.376 Y108.670 E0.01379
G1 X153.857 Y108.594 E0.01526
G1 X159.764 Y108.594 E0.18523
G1 X160.227 Y108.667 E0.01470
G1 X160.639 Y108.872 E0.01441
G1 X160.948 Y109.181 E0.01369
G1 X161.147 Y109.573 E0.01379
G1 X161.223 Y110.053 E0.01526
G1 X161.223 Y129.557 E0.61153
G1 X161.147 Y130.038 E0.01526
G1 X160.948 Y130.430 E0.01379
G1 X160.637 Y130.741 E0.01379
G1 X160.245 Y130.940 E0.01379
G1 X159.764 Y131.016 E0.01526
G1 X153.857 Y131.016 E0.18523
G1 X153.376 Y130.940 E0.01526
G1 X152.984 Y130.741 E0.01379
G1 X152.673 Y130.430 E0.01379
G1 X152.474 Y130.038 E0.01379
G1 X152.397 Y129.557 E0.01526
G1 X152.397 Y110.053 E0.61153
G1 X152.464 Y109.632 E0.01337
G1 X152.110 Y109.455 F10800.000
G1 F1200
G1 X152.364 Y108.956 E0.01753
G1 X152.760 Y108.561 E0.01753
G1 X153.258 Y108.307 E0.01753
G1 X153.827 Y108.217 E0.01806
G1 X159.794 Y108.217 E0.18709
G1 X160.343 Y108.304 E0.01744
G1 X160.862 Y108.562 E0.01816
G1 X161.256 Y108.956 E0.01750
G1 X161.510 Y109.455 E0.01753
G1 X161.600 Y110.024 E0.01806
G1 X161.600 Y129.587 E0.61340
G1 X161.510 Y130.156 E0.01806
G1 X161.256 Y130.654 E0.01753
G1 X160.861 Y131.049 E0.01753
G1 X160.363 Y131.303 E0.01753
G1 X159.794 Y131.393 E0.01806
G1 X153.827 Y131.393 E0.18709
G1 X153.258 Y131.303 E0.01806
G1 X152.760 Y131.049 E0.01753
G1 X152.364 Y130.654 E0.01753
G1 X152.110 Y130.156 E0.01753
G1 X152.020 Y129.587 E0.01806
G1 X152.020 Y110.024 E0.61340
G1 X152.101 Y109.514 E0.01618
G1 X152.502 Y109.372 F10800.000
G1 F8640
G1 X152.364 Y108.956 E-0.14237
G1 X152.760 Y108.561 E-0.12912
G1 X153.258 Y108.307 E-0.12912
G1 X153.827 Y108.217 E-0.13299
G1 X154.807 Y108.217 E-0.22640
G1 E-0.04000 F2100.00000
G1 Z0.800 F10800.000
G1 X161.051 Y109.689
G1 Z0.200
G1 E0.80000 F2100.00000
G1 F1200
G1 X160.463 Y109.100 E0.02650
G1 X160.140 Y108.940 E0.01148
G1 X159.698 Y108.877 E0.01424
G1 X160.940 Y110.120 E0.05599
G1 X160.940 Y110.662 E0.01726
G1 X159.156 Y108.877 E0.08040
G1 X158.614 Y108.877 E0.01726
G1 X160.940 Y111.203 E0.10481
G1 X160.940 Y111.745 E0.01726
G1 X158.072 Y108.877 E0.12922
G1 X157.530 Y108.877 E0.01726
G1 X160.940 Y112.287 E0.15362
G1 X160.940 Y112.829 E0.01726
G1 X156.989 Y108.877 E0.17803
G1 X156.447 Y108.877 E0.01726
G1 X160.940 Y113.371 E0.20244
G1 X160.940 Y113.912 E0.01726
G1 X155.905 Y108.877 E0.22685
G1 X155.363 Y108.877 E0.01726
G1 X160.940 Y114.454 E0.25125
G1 X160.940 Y114.996 E0.01726
G1 X154.821 Y108.877 E0.27566
G1 X154.280 Y108.877 E0.01726
G1 X160.940 Y115.538 E0.30007
G1 X160.940 Y116.080 E0.01726
G1 X153.757 Y108.896 E0.32361
