; generated by PrusaSlicer 2.1.1+win64 on 2020-02-12 at 19:11:08 UTC

; 

; external perimeters extrusion width = 0.45mm
; perimeters extrusion width = 0.45mm
; infill extrusion width = 0.45mm
; solid infill extrusion width = 0.45mm
; top infill extrusion width = 0.40mm
; support material extrusion width = 0.35mm
; first layer extrusion width = 0.42mm

M73 P0 R66
M201 X9000 Y9000 Z500 E10000 ; sets maximum accelerations, mm/sec^2
M203 X500 Y500 Z12 E120 ; sets maximum feedrates, mm/sec
M204 P2000 R1500 T2000 ; sets acceleration (P, T) and retract acceleration (R), mm/sec^2
M205 X10.00 Y10.00 Z0.20 E4.50 ; sets the jerk limits, mm/sec
M205 S0 T0 ; sets the minimum extruding and travel feed rate, mm/sec
M107
M862.3 P "MK2.5SMMU2S" ; printer model check
M862.1 P0.4 ; nozzle diameter check
M115 U3.8.1 ; tell printer latest fw version
G90 ; use absolute coordinates
M83 ; extruder relative mode
M104 S215 ; set extruder temp
M140 S60 ; set bed temp
Tx
M190 S60 ; wait for bed temp
M109 S215 ; wait for extruder temp
G28 W ; home all without mesh bed level
G80 ; mesh bed leveling

;go outside print area
G1 Y-3.0 F1000.0
G1 Z0.4 F1000.0
; select extruder
Tc
; purge line
G1 X55.0 F2000.0
G1 Z0.3 F1000.0
G92 E0.0
G1 X240.0 E25.0 F2200.0
M73 P0 R66
G1 Y-2.0 F1000.0
G1 X55.0 E25 F1400.0
G1 Z0.20 F1000.0
G1 X5.0 E4.0 F1000.0
G92 E0.0
G21 ; set units to millimeters
G90 ; use absolute coordinates
M83 ; use relative distances for extrusion
M900 K30 ; Filament gcode
;BEFORE_LAYER_CHANGE
G92 E0.0
;0.2


G1 E-0.80000 F2100.00000
G1 Z0.600 F10800.000
;AFTER_LAYER_CHANGE
;0.2
G1 X72.955 Y61.619
G1 Z0.200
G1 E0.80000 F2100.00000
M204 S1000
G1 F1200
G1 X74.266 Y61.403 E0.04165
G1 X175.719 Y61.403 E3.18099
G1 X177.093 Y61.636 E0.04368
G1 X177.984 Y62.077 E0.03119
G1 X178.410 Y62.397 E0.01669
G1 X179.104 Y63.129 E0.03163
G1 X179.582 Y64.009 E0.03140
G1 X179.754 Y64.498 E0.01623
G1 X179.898 Y65.423 E0.02937
G1 X179.878 Y115.133 E1.55862
G1 X179.698 Y116.096 E0.03071
G1 X179.272 Y116.990 E0.03106
G1 X163.356 Y146.620 E1.05456
G1 X163.059 Y147.044 E0.01623
G1 X162.371 Y147.721 E0.03028
G1 X161.143 Y148.379 E0.04368
G1 X159.832 Y148.597 E0.04165
G1 X74.266 Y148.597 E2.68287
G1 X73.223 Y148.454 E0.03300
G1 X72.696 Y148.272 E0.01749
G1 X71.790 Y147.773 E0.03242
G1 X70.972 Y146.969 E0.03598
G1 X70.314 Y145.741 E0.04368
G1 X70.096 Y144.431 E0.04165
G1 X70.096 Y65.573 E2.47253
G1 X70.239 Y64.530 E0.03300
G1 X70.421 Y64.003 E0.01749
G1 X70.920 Y63.097 E0.03242
G1 X71.724 Y62.279 E0.03598
G1 X72.902 Y61.648 E0.04191
G1 F8640
G1 X74.266 Y61.403 E-0.31989
G1 X76.172 Y61.403 E-0.44011
G1 E-0.04000 F2100.00000
G1 Z0.800 F10800.000
G1 X120.863 Y94.376
G1 Z0.200
G1 E0.80000 F2100.00000
G1 F1200
G1 X121.174 Y94.065 E0.01379
G1 X121.566 Y93.865 E0.01379
G1 X122.046 Y93.789 E0.01526
G1 X127.954 Y93.789 E0.18523
G1 X128.417 Y93.862 E0.01470
G1 X128.828 Y94.067 E0.01441
G1 X129.137 Y94.376 E0.01369
G1 X129.337 Y94.767 E0.01379
G1 X129.413 Y95.248 E0.01526
G1 X129.413 Y114.752 E0.61153
G1 X129.337 Y115.233 E0.01526
G1 X129.137 Y115.624 E0.01379
G1 X128.826 Y115.935 E0.01379
G1 X128.434 Y116.135 E0.01379
G1 X127.954 Y116.211 E0.01526
G1 X122.046 Y116.211 E0.18523
G1 X121.566 Y116.135 E0.01526
G1 X121.174 Y115.935 E0.01379
G1 X120.863 Y115.624 E0.01379
G1 X120.663 Y115.233 E0.01379
G1 X120.587 Y114.752 E0.01526
G1 X120.587 Y95.248 E0.61153
G1 X120.663 Y94.767 E0.01526
G1 X120.836 Y94.429 E0.01191
G1 X120.554 Y94.151 F10800.000
G1 F1200
G1 X120.949 Y93.756 E0.01753
G1 X121.448 Y93.502 E0.01753
G1 X122.017 Y93.412 E0.01806
G1 X127.983 Y93.412 E0.18709
G1 X128.533 Y93.499 E0.01744
G1 X129.051 Y93.757 E0.01816
G1 X129.446 Y94.151 E0.01750
G1 X129.700 Y94.649 E0.01753
G1 X129.790 Y95.218 E0.01806
G1 X129.790 Y114.782 E0.61340
G1 X129.700 Y115.351 E0.01806
G1 X129.446 Y115.849 E0.01753
G1 X129.051 Y116.244 E0.01753
G1 X128.552 Y116.498 E0.01753
G1 X127.983 Y116.588 E0.01806
G1 X122.017 Y116.588 E0.18709
G1 X121.448 Y116.498 E0.01806
G1 X120.949 Y116.244 E0.01753
G1 X120.554 Y115.849 E0.01753
G1 X120.300 Y115.351 E0.01753
G1 X120.210 Y114.782 E0.01806
G1 X120.210 Y95.218 E0.61340
G1 X120.300 Y94.649 E0.01806
G1 X120.527 Y94.205 E0.01565
G1 X120.952 Y94.193 F10800.000
G1 F8640
G1 X120.949 Y93.756 E-0.14237
G1 X121.448 Y93.502 E-0.12912
G1 X122.017 Y93.412 E-0.13299
G1 X123.556 Y93.412 E-0.35552
G1 E-0.04000 F2100.00000
G1 Z0.800 F10800.000
G1 X129.241 Y94.883
G1 Z0.200
G1 E0.80000 F2100.00000
G1 F1200
G1 X128.652 Y94.295 E0.02650
G1 X128.330 Y94.135 E0.01148
G1 X127.887 Y94.072 E0.01424
G1 X129.130 Y95.315 E0.05599
G1 X129.130 Y95.856 E0.01726
G1 X127.345 Y94.072 E0.08040
G1 X126.804 Y94.072 E0.01726
G1 X129.130 Y96.398 E0.10481
G1 X129.130 Y96.940 E0.01726
G1 X126.262 Y94.072 E0.12922
G1 X125.720 Y94.072 E0.01726
G1 X129.130 Y97.482 E0.15362
G1 X129.130 Y98.024 E0.01726
G1 X125.178 Y94.072 E0.17803
G1 X124.636 Y94.072 E0.01726
G1 X129.130 Y98.565 E0.20244
G1 X129.130 Y99.107 E0.01726
G1 X124.095 Y94.072 E0.22685
G1 X123.553 Y94.072 E0.01726
G1 X129.130 Y99.649 E0.25125
G1 X129.130 Y100.191 E0.01726
G1 X123.011 Y94.072 E0.27566
G1 X122.469 Y94.072 E0.01726
G1 X129.130 Y100.732 E0.30007
G1 X129.130 Y101.274 E0.01726
G1 X121.947 Y94.091 E0.32361
G1 X121.654 Y94.137 E0.00944
G1 X121.520 Y94.206 E0.00480
G1 X129.130 Y101.816 E0.34284
G1 X129.130 Y102.358 E0.01726
G1 X121.205 Y94.433 E0.35701
G1 X121.094 Y94.544 E0.00499
G1 X120.986 Y94.756 E0.00758
G1 X129.130 Y102.900 E0.36687
G1 X129.130 Y103.441 E0.01726
G1 X120.882 Y95.193 E0.37157
G1 X120.870 Y95.723 E0.01687
G1 X129.130 Y103.983 E0.37212
G1 X129.130 Y104.525 E0.01726
G1 X120.870 Y96.265 E0.37212
G1 X120.870 Y96.807 E0.01726
G1 X129.130 Y105.067 E0.37212
G1 X129.130 Y105.609 E0.01726
G1 X120.870 Y97.348 E0.37212
G1 X120.870 Y97.890 E0.01726
G1 X129.130 Y106.150 E0.37212
G1 X129.130 Y106.692 E0.01726
G1 X120.870 Y98.432 E0.37212
G1 X120.870 Y98.974 E0.01726
G1 X129.130 Y107.234 E0.37212
G1 X129.130 Y107.776 E0.01726
G1 X120.870 Y99.515 E0.37212
G1 X120.870 Y100.057 E0.01726
G1 X129.130 Y108.317 E0.37212
G1 X129.130 Y108.859 E0.01726
G1 X120.870 Y100.599 E0.37212
G1 X120.870 Y101.141 E0.01726
G1 X129.130 Y109.401 E0.37212
G1 X129.130 Y109.943 E0.01726
G1 X120.870 Y101.683 E0.37212
G1 X120.870 Y102.224 E0.01726
G1 X129.130 Y110.485 E0.37212
G1 X129.130 Y111.026 E0.01726
G1 X120.870 Y102.766 E0.37212
G1 X120.870 Y103.308 E0.01726
G1 X129.130 Y111.568 E0.37212
G1 X129.130 Y112.110 E0.01726
G1 X120.870 Y103.850 E0.37212
G1 X120.870 Y104.392 E0.01726
G1 X129.130 Y112.652 E0.37212
G1 X129.130 Y113.194 E0.01726
G1 X120.870 Y104.933 E0.37212
G1 X120.870 Y105.475 E0.01726
G1 X129.130 Y113.735 E0.37212
G1 X129.130 Y114.277 E0.01726
G1 X120.870 Y106.017 E0.37212
G1 X120.870 Y106.559 E0.01726
G1 X129.118 Y114.807 E0.37157
G1 X129.065 Y115.144 E0.01088
G1 X129.014 Y115.244 E0.00358
G1 X120.870 Y107.100 E0.36687
G1 X120.870 Y107.642 E0.01726
G1 X128.795 Y115.567 E0.35701
G1 X128.658 Y115.704 E0.00616
G1 X128.480 Y115.794 E0.00636
G1 X120.870 Y108.184 E0.34284
G1 X120.870 Y108.726 E0.01726
G1 X128.053 Y115.909 E0.32360
G1 X127.932 Y115.928 E0.00392
G1 X127.531 Y115.928 E0.01277
G1 X120.870 Y109.268 E0.30006
M73 P1 R65
G1 X120.870 Y109.809 E0.01726
G1 X126.989 Y115.928 E0.27566
G1 X126.447 Y115.928 E0.01726
G1 X120.870 Y110.351 E0.25125
G1 X120.870 Y110.893 E0.01726
G1 X125.905 Y115.928 E0.22684
G1 X125.363 Y115.928 E0.01726
G1 X120.870 Y111.435 E0.20244
G1 X120.870 Y111.977 E0.01726
G1 X124.822 Y115.928 E0.17803
G1 X124.280 Y115.928 E0.01726
G1 X120.870 Y112.518 E0.15362
G1 X120.870 Y113.060 E0.01726
G1 X123.738 Y115.928 E0.12921
G1 X123.196 Y115.928 E0.01726
G1 X120.870 Y113.602 E0.10481
G1 X120.870 Y114.144 E0.01726
G1 X122.655 Y115.928 E0.08040
G1 X122.113 Y115.928 E0.01726
G1 X120.870 Y114.685 E0.05599
G1 X120.935 Y115.144 E0.01476
G1 X121.090 Y115.447 E0.01085
G1 X121.681 Y116.039 E0.02664
G1 F8640
G1 X121.090 Y115.447 E-0.19312
G1 X120.935 Y115.144 E-0.07862
G1 X120.870 Y114.685 E-0.10698
G1 X122.038 Y115.853 E-0.38129
G1 E-0.04000 F2100.00000
G1 Z0.800 F10800.000
G1 X136.568 Y115.233
G1 Z0.200
G1 E0.80000 F2100.00000
G1 F1200
G1 X136.492 Y114.752 E0.01526
G1 X136.492 Y95.248 E0.61153
G1 X136.568 Y94.767 E0.01526
G1 X136.768 Y94.376 E0.01379
G1 X137.079 Y94.065 E0.01379
G1 X137.471 Y93.865 E0.01379
G1 X137.951 Y93.789 E0.01526
G1 X143.859 Y93.789 E0.18523
G1 X144.322 Y93.862 E0.01470
G1 X144.733 Y94.067 E0.01441
G1 X145.042 Y94.376 E0.01369
G1 X145.242 Y94.767 E0.01379
G1 X145.318 Y95.248 E0.01526
G1 X145.318 Y114.752 E0.61153
G1 X145.242 Y115.233 E0.01526
G1 X145.042 Y115.624 E0.01379
G1 X144.731 Y115.935 E0.01379
G1 X144.340 Y116.135 E0.01379
G1 X143.859 Y116.211 E0.01526
G1 X137.951 Y116.211 E0.18523
G1 X137.471 Y116.135 E0.01526
G1 X137.079 Y115.935 E0.01379
G1 X136.768 Y115.624 E0.01379
G1 X136.596 Y115.286 E0.01191
G1 X136.205 Y115.351 F10800.000
G1 F1200
G1 X136.115 Y114.782 E0.01806
G1 X136.115 Y95.218 E0.61340
G1 X136.205 Y94.649 E0.01806
G1 X136.459 Y94.151 E0.01753
G1 X136.855 Y93.756 E0.01753
G1 X137.353 Y93.502 E0.01753
G1 X137.922 Y93.412 E0.01806
G1 X143.889 Y93.412 E0.18709
G1 X144.438 Y93.499 E0.01744
G1 X144.957 Y93.757 E0.01816
G1 X145.351 Y94.151 E0.01750
G1 X145.605 Y94.649 E0.01753
G1 X145.695 Y95.218 E0.01806
G1 X145.695 Y114.782 E0.61340
G1 X145.605 Y115.351 E0.01806
G1 X145.351 Y115.849 E0.01753
G1 X144.956 Y116.244 E0.01753
G1 X144.458 Y116.498 E0.01753
G1 X143.889 Y116.588 E0.01806
G1 X137.922 Y116.588 E0.18709
G1 X137.353 Y116.498 E0.01806
G1 X136.855 Y116.244 E0.01753
G1 X136.459 Y115.849 E0.01753
G1 X136.233 Y115.404 E0.01565
G1 X136.473 Y115.053 F10800.000
G1 F8640
G1 X136.115 Y114.782 E-0.14623
G1 X136.115 Y112.124 E-0.61377
G1 E-0.04000 F2100.00000
G1 Z0.800 F10800.000
G1 X137.587 Y116.039
G1 Z0.200
G1 E0.80000 F2100.00000
G1 F1200
G1 X136.995 Y115.447 E0.02664
G1 X136.841 Y115.144 E0.01085
G1 X136.775 Y114.685 E0.01476
G1 X138.018 Y115.928 E0.05599
G1 X138.560 Y115.928 E0.01726
G1 X136.775 Y114.144 E0.08040
G1 X136.775 Y113.602 E0.01726
G1 X139.101 Y115.928 E0.10481
G1 X139.643 Y115.928 E0.01726
G1 X136.775 Y113.060 E0.12921
G1 X136.775 Y112.518 E0.01726
G1 X140.185 Y115.928 E0.15362
G1 X140.727 Y115.928 E0.01726
G1 X136.775 Y111.977 E0.17803
G1 X136.775 Y111.435 E0.01726
G1 X141.269 Y115.928 E0.20244
G1 X141.810 Y115.928 E0.01726
G1 X136.775 Y110.893 E0.22684
G1 X136.775 Y110.351 E0.01726
G1 X142.352 Y115.928 E0.25125
G1 X142.894 Y115.928 E0.01726
G1 X136.775 Y109.809 E0.27566
G1 X136.775 Y109.268 E0.01726
G1 X143.436 Y115.928 E0.30006
G1 X143.837 Y115.928 E0.01277
G1 X143.958 Y115.909 E0.00392
G1 X136.775 Y108.726 E0.32360
G1 X136.775 Y108.184 E0.01726
G1 X144.385 Y115.794 E0.34284
G1 X144.563 Y115.704 E0.00636
G1 X144.700 Y115.567 E0.00616
G1 X136.775 Y107.642 E0.35701
G1 X136.775 Y107.100 E0.01726
G1 X144.919 Y115.244 E0.36687
G1 X144.970 Y115.144 E0.00358
G1 X145.023 Y114.807 E0.01088
G1 X136.775 Y106.559 E0.37157
G1 X136.775 Y106.017 E0.01726
G1 X145.035 Y114.277 E0.37212
G1 X145.035 Y113.735 E0.01726
G1 X136.775 Y105.475 E0.37212
G1 X136.775 Y104.933 E0.01726
G1 X145.035 Y113.194 E0.37212
G1 X145.035 Y112.652 E0.01726
G1 X136.775 Y104.392 E0.37212
G1 X136.775 Y103.850 E0.01726
G1 X145.035 Y112.110 E0.37212
G1 X145.035 Y111.568 E0.01726
G1 X136.775 Y103.308 E0.37212
G1 X136.775 Y102.766 E0.01726
G1 X145.035 Y111.026 E0.37212
G1 X145.035 Y110.485 E0.01726
G1 X136.775 Y102.224 E0.37212
G1 X136.775 Y101.683 E0.01726
G1 X145.035 Y109.943 E0.37212
G1 X145.035 Y109.401 E0.01726
G1 X136.775 Y101.141 E0.37212
G1 X136.775 Y100.599 E0.01726
G1 X145.035 Y108.859 E0.37212
G1 X145.035 Y108.317 E0.01726
G1 X136.775 Y100.057 E0.37212
G1 X136.775 Y99.515 E0.01726
G1 X145.035 Y107.776 E0.37212
G1 X145.035 Y107.234 E0.01726
G1 X136.775 Y98.974 E0.37212
G1 X136.775 Y98.432 E0.01726
G1 X145.035 Y106.692 E0.37212
G1 X145.035 Y106.150 E0.01726
G1 X136.775 Y97.890 E0.37212
G1 X136.775 Y97.348 E0.01726
G1 X145.035 Y105.609 E0.37212
G1 X145.035 Y105.067 E0.01726
G1 X136.775 Y96.807 E0.37212
G1 X136.775 Y96.265 E0.01726
G1 X145.035 Y104.525 E0.37212
G1 X145.035 Y103.983 E0.01726
G1 X136.775 Y95.723 E0.37212
G1 X136.787 Y95.193 E0.01687
G1 X145.035 Y103.441 E0.37157
G1 X145.035 Y102.900 E0.01726
G1 X136.892 Y94.756 E0.36687
G1 X137.000 Y94.544 E0.00758
G1 X137.111 Y94.433 E0.00499
G1 X145.035 Y102.358 E0.35701
G1 X145.035 Y101.816 E0.01726
G1 X137.425 Y94.206 E0.34284
G1 X137.559 Y94.137 E0.00480
G1 X137.852 Y94.091 E0.00944
G1 X145.035 Y101.274 E0.32361
G1 X145.035 Y100.732 E0.01726
G1 X138.374 Y94.072 E0.30007
G1 X138.916 Y94.072 E0.01726
G1 X145.035 Y100.191 E0.27566
G1 X145.035 Y99.649 E0.01726
G1 X139.458 Y94.072 E0.25125
G1 X140.000 Y94.072 E0.01726
G1 X145.035 Y99.107 E0.22685
G1 X145.035 Y98.565 E0.01726
G1 X140.542 Y94.072 E0.20244
G1 X141.083 Y94.072 E0.01726
G1 X145.035 Y98.024 E0.17803
G1 X145.035 Y97.482 E0.01726
G1 X141.625 Y94.072 E0.15362
G1 X142.167 Y94.072 E0.01726
G1 X145.035 Y96.940 E0.12922
G1 X145.035 Y96.398 E0.01726
G1 X142.709 Y94.072 E0.10481
G1 X143.251 Y94.072 E0.01726
G1 X145.035 Y95.856 E0.08040
G1 X145.035 Y95.315 E0.01726
G1 X143.792 Y94.072 E0.05599
G1 X144.235 Y94.135 E0.01424
G1 X144.558 Y94.295 E0.01148
G1 X145.146 Y94.883 E0.02650
G1 F8640
G1 X144.558 Y94.295 E-0.19208
G1 X144.235 Y94.135 E-0.08323
G1 X143.792 Y94.072 E-0.10321
G1 X144.961 Y95.240 E-0.38149
G1 E-0.04000 F2100.00000
G1 Z0.800 F10800.000
G1 X152.474 Y94.767
G1 Z0.200
G1 E0.80000 F2100.00000
G1 F1200
G1 X152.673 Y94.376 E0.01379
G1 X152.984 Y94.065 E0.01379
G1 X153.376 Y93.865 E0.01379
G1 X153.857 Y93.789 E0.01526
G1 X159.764 Y93.789 E0.18523
G1 X160.227 Y93.862 E0.01470
G1 X160.639 Y94.067 E0.01441
G1 X160.948 Y94.376 E0.01369
G1 X161.147 Y94.767 E0.01379
G1 X161.223 Y95.248 E0.01526
G1 X161.223 Y114.752 E0.61153
G1 X161.147 Y115.233 E0.01526
G1 X160.948 Y115.624 E0.01379
G1 X160.637 Y115.935 E0.01379
G1 X160.245 Y116.135 E0.01379
G1 X159.764 Y116.211 E0.01526
G1 X153.857 Y116.211 E0.18523
G1 X153.376 Y116.135 E0.01526
G1 X152.984 Y115.935 E0.01379
G1 X152.673 Y115.624 E0.01379
G1 X152.474 Y115.233 E0.01379
G1 X152.397 Y114.752 E0.01526
G1 X152.397 Y95.248 E0.61153
G1 X152.464 Y94.827 E0.01337
G1 X152.110 Y94.649 F10800.000
G1 F1200
G1 X152.364 Y94.151 E0.01753
G1 X152.760 Y93.756 E0.01753
G1 X153.258 Y93.502 E0.01753
G1 X153.827 Y93.412 E0.01806
G1 X159.794 Y93.412 E0.18709
G1 X160.343 Y93.499 E0.01744
G1 X160.862 Y93.757 E0.01816
G1 X161.256 Y94.151 E0.01750
G1 X161.510 Y94.649 E0.01753
G1 X161.600 Y95.218 E0.01806
G1 X161.600 Y114.782 E0.61340
G1 X161.510 Y115.351 E0.01806
G1 X161.256 Y115.849 E0.01753
G1 X160.861 Y116.244 E0.01753
G1 X160.363 Y116.498 E0.01753
G1 X159.794 Y116.588 E0.01806
G1 X153.827 Y116.588 E0.18709
G1 X153.258 Y116.498 E0.01806
G1 X152.760 Y116.244 E0.01753
G1 X152.364 Y115.849 E0.01753
G1 X152.110 Y115.351 E0.01753
G1 X152.020 Y114.782 E0.01806
G1 X152.020 Y95.218 E0.61340
G1 X152.101 Y94.709 E0.01618
G1 X152.502 Y94.567 F10800.000
G1 F8640
G1 X152.364 Y94.151 E-0.14237
G1 X152.760 Y93.756 E-0.12912
G1 X153.258 Y93.502 E-0.12912
G1 X153.827 Y93.412 E-0.13299
G1 X154.807 Y93.412 E-0.22640
G1 E-0.04000 F2100.00000
G1 Z0.800 F10800.000
G1 X161.051 Y94.883
G1 Z0.200
G1 E0.80000 F2100.00000
G1 F1200
G1 X160.463 Y94.295 E0.02650
G1 X160.140 Y94.135 E0.01148
G1 X159.698 Y94.072 E0.01424
G1 X160.940 Y95.315 E0.05599
G1 X160.940 Y95.856 E0.01726
G1 X159.156 Y94.072 E0.08040
G1 X158.614 Y94.072 E0.01726
G1 X160.940 Y96.398 E0.10481
G1 X160.940 Y96.940 E0.01726
G1 X158.072 Y94.072 E0.12922
G1 X157.530 Y94.072 E0.01726
G1 X160.940 Y97.482 E0.15362
G1 X160.940 Y98.024 E0.01726
G1 X156.989 Y94.072 E0.17803
G1 X156.447 Y94.072 E0.01726
G1 X160.940 Y98.565 E0.20244
G1 X160.940 Y99.107 E0.01726
G1 X155.905 Y94.072 E0.22685
G1 X155.363 Y94.072 E0.01726
G1 X160.940 Y99.649 E0.25125
G1 X160.940 Y100.191 E0.01726
G1 X154.821 Y94.072 E0.27566
G1 X154.280 Y94.072 E0.01726
G1 X160.940 Y100.732 E0.30007
G1 X160.940 Y101.274 E0.01726
G1 X153.757 Y94.091 E0.32361
G1 X153.464 Y94.137 E0.00944
G1 X153.330 Y94.206 E0.00480
G1 X160.940 Y101.816 E0.34284
G1 X160.940 Y102.358 E0.01726
