; generated by PrusaSlicer 2.1.1+win64 on 2020-02-12 at 19:11:47 UTC

; 

; external perimeters extrusion width = 0.45mm
; perimeters extrusion width = 0.45mm
; infill extrusion width = 0.45mm
; solid infill extrusion width = 0.45mm
; top infill extrusion width = 0.40mm
; support material extrusion width = 0.35mm
; first layer extrusion width = 0.42mm

M73 P0 R131
M201 X9000 Y9000 Z500 E10000 ; sets maximum accelerations, mm/sec^2
M203 X500 Y500 Z12 E120 ; sets maximum feedrates, mm/sec
M204 P2000 R1500 T2000 ; sets acceleration (P, T) and retract acceleration (R), mm/sec^2
M205 X10.00 Y10.00 Z0.20 E4.50 ; sets the jerk limits, mm/sec
M205 S0 T0 ; sets the minimum extruding and travel feed rate, mm/sec
M107
M862.3 P "MK2.5SMMU2S" ; printer model check
M862.1 P0.4 ; nozzle diameter check
M115 U3.8.1 ; tell printer latest fw version
G90 ; use absolute coordinates
M83 ; extruder relative mode
M104 S215 ; set extruder temp
M140 S60 ; set bed temp
Tx
M190 S60 ; wait for bed temp
M109 S215 ; wait for extruder temp
G28 W ; home all without mesh bed level
G80 ; mesh bed leveling

;go outside print area
G1 Y-3.0 F1000.0
G1 Z0.4 F1000.0
; select extruder
Tc
; purge line
G1 X55.0 F2000.0
G1 Z0.3 F1000.0
G92 E0.0
G1 X240.0 E25.0 F2200.0
M73 P0 R131
G1 Y-2.0 F1000.0
G1 X55.0 E25 F1400.0
G1 Z0.20 F1000.0
G1 X5.0 E4.0 F1000.0
G92 E0.0
G21 ; set units to millimeters
G90 ; use absolute coordinates
M83 ; use relative distances for extrusion
M900 K30 ; Filament gcode
;BEFORE_LAYER_CHANGE
G92 E0.0
;0.2


G1 E-0.80000 F2100.00000
G1 Z0.600 F10800.000
;AFTER_LAYER_CHANGE
;0.2
G1 X65.024 Y32.061
G1 Z0.200
G1 E0.80000 F2100.00000
M204 S1000
G1 F1200
G1 X66.317 Y31.851 E0.04109
G1 X199.577 Y31.851 E4.17827
G1 X200.957 Y32.087 E0.04390
G1 X201.855 Y32.533 E0.03142
G1 X202.288 Y32.866 E0.01714
G1 X202.968 Y33.586 E0.03106
G1 X203.454 Y34.487 E0.03209
G1 X203.620 Y34.985 E0.01646
G1 X203.761 Y35.992 E0.03187
G1 X203.762 Y144.500 E3.40221
G1 X203.616 Y145.539 E0.03289
G1 X203.427 Y146.075 E0.01783
G1 X202.923 Y146.982 E0.03253
G1 X202.068 Y147.832 E0.03780
G1 X201.029 Y148.392 E0.03699
G1 X129.394 Y177.909 E2.42928
G1 X128.069 Y178.148 E0.04220
G1 X121.989 Y178.149 E0.19065
G1 X120.554 Y177.889 E0.04570
G1 X48.968 Y148.390 E2.42763
G1 X47.938 Y147.837 E0.03665
G1 X47.062 Y146.962 E0.03882
G1 X46.448 Y145.776 E0.04188
G1 X46.238 Y144.490 E0.04086
G1 X46.261 Y65.333 E2.48189
G1 X46.443 Y64.356 E0.03117
G1 X46.870 Y63.458 E0.03118
G1 X62.788 Y33.825 E1.05467
G1 X63.098 Y33.388 E0.01680
G1 X63.837 Y32.675 E0.03221
G1 X64.970 Y32.088 E0.04000
G1 F8640
G1 X66.317 Y31.851 E-0.31577
G1 X68.241 Y31.851 E-0.44423
G1 E-0.04000 F2100.00000
G1 Z0.800 F10800.000
G1 X128.815 Y94.434
G1 Z0.200
G1 E0.80000 F2100.00000
G1 F1200
G1 X129.126 Y94.123 E0.01379
G1 X129.518 Y93.924 E0.01379
G1 X129.999 Y93.848 E0.01526
G1 X135.906 Y93.848 E0.18523
G1 X136.369 Y93.921 E0.01470
G1 X136.781 Y94.126 E0.01441
G1 X137.090 Y94.434 E0.01369
G1 X137.289 Y94.826 E0.01379
G1 X137.366 Y95.307 E0.01526
G1 X137.366 Y114.811 E0.61153
G1 X137.289 Y115.291 E0.01526
G1 X137.090 Y115.683 E0.01379
G1 X136.779 Y115.994 E0.01379
G1 X136.387 Y116.194 E0.01379
G1 X135.906 Y116.270 E0.01526
G1 X129.999 Y116.270 E0.18523
G1 X129.518 Y116.194 E0.01526
G1 X129.126 Y115.994 E0.01379
G1 X128.815 Y115.683 E0.01379
G1 X128.616 Y115.291 E0.01379
G1 X128.540 Y114.811 E0.01526
G1 X128.540 Y95.307 E0.61153
G1 X128.616 Y94.826 E0.01526
G1 X128.788 Y94.488 E0.01191
G1 X128.507 Y94.210 F10800.000
G1 F1200
G1 X128.902 Y93.815 E0.01753
G1 X129.400 Y93.561 E0.01753
G1 X129.969 Y93.471 E0.01806
G1 X135.936 Y93.471 E0.18709
G1 X136.485 Y93.558 E0.01744
G1 X137.004 Y93.815 E0.01816
G1 X137.399 Y94.210 E0.01750
G1 X137.652 Y94.708 E0.01753
G1 X137.743 Y95.277 E0.01806
G1 X137.743 Y114.840 E0.61340
G1 X137.652 Y115.409 E0.01806
G1 X137.399 Y115.908 E0.01753
G1 X137.003 Y116.303 E0.01753
G1 X136.505 Y116.557 E0.01753
G1 X135.936 Y116.647 E0.01806
G1 X129.969 Y116.647 E0.18709
G1 X129.400 Y116.557 E0.01806
G1 X128.902 Y116.303 E0.01753
G1 X128.507 Y115.908 E0.01753
G1 X128.253 Y115.409 E0.01753
G1 X128.163 Y114.840 E0.01806
G1 X128.163 Y95.277 E0.61340
G1 X128.253 Y94.708 E0.01806
G1 X128.479 Y94.263 E0.01565
G1 X128.904 Y94.252 F10800.000
G1 F8640
G1 X128.902 Y93.815 E-0.14237
G1 X129.400 Y93.561 E-0.12912
G1 X129.969 Y93.471 E-0.13299
G1 X131.509 Y93.471 E-0.35552
G1 E-0.04000 F2100.00000
G1 Z0.800 F10800.000
G1 X137.193 Y94.942
G1 Z0.200
G1 E0.80000 F2100.00000
G1 F1200
G1 X136.605 Y94.354 E0.02650
G1 X136.282 Y94.194 E0.01148
G1 X135.840 Y94.130 E0.01424
G1 X137.083 Y95.373 E0.05599
G1 X137.083 Y95.915 E0.01726
G1 X135.298 Y94.130 E0.08040
G1 X134.756 Y94.130 E0.01726
G1 X137.083 Y96.457 E0.10481
G1 X137.083 Y96.999 E0.01726
G1 X134.214 Y94.130 E0.12922
G1 X133.673 Y94.130 E0.01726
G1 X137.083 Y97.541 E0.15362
G1 X137.083 Y98.082 E0.01726
G1 X133.131 Y94.130 E0.17803
G1 X132.589 Y94.130 E0.01726
G1 X137.083 Y98.624 E0.20244
G1 X137.083 Y99.166 E0.01726
G1 X132.047 Y94.130 E0.22685
G1 X131.505 Y94.130 E0.01726
G1 X137.083 Y99.708 E0.25125
G1 X137.083 Y100.250 E0.01726
G1 X130.964 Y94.130 E0.27566
G1 X130.422 Y94.130 E0.01726
G1 X137.083 Y100.791 E0.30007
G1 X137.083 Y101.333 E0.01726
G1 X129.899 Y94.150 E0.32361
G1 X129.607 Y94.196 E0.00944
G1 X129.472 Y94.265 E0.00480
G1 X137.083 Y101.875 E0.34284
G1 X137.083 Y102.417 E0.01726
G1 X129.158 Y94.492 E0.35701
G1 X129.047 Y94.603 E0.00499
G1 X128.939 Y94.815 E0.00758
G1 X137.083 Y102.958 E0.36687
G1 X137.083 Y103.500 E0.01726
G1 X128.835 Y95.252 E0.37157
G1 X128.822 Y95.782 E0.01687
G1 X137.083 Y104.042 E0.37212
G1 X137.083 Y104.584 E0.01726
G1 X128.822 Y96.324 E0.37212
G1 X128.822 Y96.865 E0.01726
G1 X137.083 Y105.126 E0.37212
G1 X137.083 Y105.667 E0.01726
G1 X128.822 Y97.407 E0.37212
G1 X128.822 Y97.949 E0.01726
G1 X137.083 Y106.209 E0.37212
G1 X137.083 Y106.751 E0.01726
G1 X128.822 Y98.491 E0.37212
G1 X128.822 Y99.032 E0.01726
G1 X137.083 Y107.293 E0.37212
G1 X137.083 Y107.835 E0.01726
G1 X128.822 Y99.574 E0.37212
G1 X128.822 Y100.116 E0.01726
G1 X137.083 Y108.376 E0.37212
G1 X137.083 Y108.918 E0.01726
G1 X128.822 Y100.658 E0.37212
G1 X128.822 Y101.200 E0.01726
G1 X137.083 Y109.460 E0.37212
G1 X137.083 Y110.002 E0.01726
G1 X128.822 Y101.741 E0.37212
M73 P0 R130
G1 X128.822 Y102.283 E0.01726
G1 X137.083 Y110.543 E0.37212
G1 X137.083 Y111.085 E0.01726
G1 X128.822 Y102.825 E0.37212
G1 X128.822 Y103.367 E0.01726
G1 X137.083 Y111.627 E0.37212
G1 X137.083 Y112.169 E0.01726
G1 X128.822 Y103.909 E0.37212
G1 X128.822 Y104.450 E0.01726
G1 X137.083 Y112.711 E0.37212
G1 X137.083 Y113.252 E0.01726
G1 X128.822 Y104.992 E0.37212
G1 X128.822 Y105.534 E0.01726
G1 X137.083 Y113.794 E0.37212
G1 X137.083 Y114.336 E0.01726
G1 X128.822 Y106.076 E0.37212
G1 X128.822 Y106.617 E0.01726
G1 X137.071 Y114.866 E0.37157
G1 X137.017 Y115.203 E0.01088
G1 X136.966 Y115.303 E0.00358
G1 X128.822 Y107.159 E0.36687
G1 X128.822 Y107.701 E0.01726
G1 X136.747 Y115.626 E0.35701
G1 X136.610 Y115.763 E0.00616
G1 X136.433 Y115.853 E0.00636
G1 X128.822 Y108.243 E0.34284
G1 X128.822 Y108.785 E0.01726
G1 X136.006 Y115.968 E0.32360
G1 X135.884 Y115.987 E0.00392
G1 X135.483 Y115.987 E0.01277
G1 X128.822 Y109.326 E0.30006
G1 X128.822 Y109.868 E0.01726
G1 X134.941 Y115.987 E0.27566
G1 X134.400 Y115.987 E0.01726
G1 X128.822 Y110.410 E0.25125
G1 X128.822 Y110.952 E0.01726
G1 X133.858 Y115.987 E0.22684
G1 X133.316 Y115.987 E0.01726
G1 X128.822 Y111.494 E0.20244
G1 X128.822 Y112.035 E0.01726
G1 X132.774 Y115.987 E0.17803
G1 X132.232 Y115.987 E0.01726
G1 X128.822 Y112.577 E0.15362
G1 X128.822 Y113.119 E0.01726
G1 X131.691 Y115.987 E0.12921
G1 X131.149 Y115.987 E0.01726
G1 X128.822 Y113.661 E0.10481
G1 X128.822 Y114.202 E0.01726
G1 X130.607 Y115.987 E0.08040
G1 X130.065 Y115.987 E0.01726
G1 X128.822 Y114.744 E0.05599
G1 X128.888 Y115.203 E0.01476
G1 X129.043 Y115.506 E0.01085
G1 X129.634 Y116.098 E0.02664
G1 F8640
G1 X129.043 Y115.506 E-0.19312
G1 X128.888 Y115.203 E-0.07862
G1 X128.822 Y114.744 E-0.10698
G1 X129.990 Y115.912 E-0.38129
G1 E-0.04000 F2100.00000
G1 Z0.800 F10800.000
G1 X144.521 Y115.291
G1 Z0.200
G1 E0.80000 F2100.00000
G1 F1200
G1 X144.445 Y114.811 E0.01526
G1 X144.445 Y95.307 E0.61153
G1 X144.521 Y94.826 E0.01526
G1 X144.721 Y94.434 E0.01379
G1 X145.032 Y94.123 E0.01379
G1 X145.423 Y93.924 E0.01379
G1 X145.904 Y93.848 E0.01526
G1 X151.812 Y93.848 E0.18523
G1 X152.274 Y93.921 E0.01470
G1 X152.686 Y94.126 E0.01441
G1 X152.995 Y94.434 E0.01369
G1 X153.195 Y94.826 E0.01379
G1 X153.271 Y95.307 E0.01526
G1 X153.271 Y114.811 E0.61153
G1 X153.195 Y115.291 E0.01526
G1 X152.995 Y115.683 E0.01379
G1 X152.684 Y115.994 E0.01379
G1 X152.292 Y116.194 E0.01379
G1 X151.812 Y116.270 E0.01526
G1 X145.904 Y116.270 E0.18523
G1 X145.423 Y116.194 E0.01526
G1 X145.032 Y115.994 E0.01379
G1 X144.721 Y115.683 E0.01379
G1 X144.548 Y115.345 E0.01191
G1 X144.158 Y115.409 F10800.000
G1 F1200
G1 X144.068 Y114.840 E0.01806
G1 X144.068 Y95.277 E0.61340
G1 X144.158 Y94.708 E0.01806
G1 X144.412 Y94.210 E0.01753
G1 X144.807 Y93.815 E0.01753
G1 X145.305 Y93.561 E0.01753
G1 X145.874 Y93.471 E0.01806
G1 X151.841 Y93.471 E0.18709
G1 X152.391 Y93.558 E0.01744
G1 X152.909 Y93.815 E0.01816
G1 X153.304 Y94.210 E0.01750
G1 X153.558 Y94.708 E0.01753
G1 X153.648 Y95.277 E0.01806
G1 X153.648 Y114.840 E0.61340
G1 X153.558 Y115.409 E0.01806
G1 X153.304 Y115.908 E0.01753
G1 X152.908 Y116.303 E0.01753
G1 X152.410 Y116.557 E0.01753
G1 X151.841 Y116.647 E0.01806
G1 X145.874 Y116.647 E0.18709
G1 X145.305 Y116.557 E0.01806
G1 X144.807 Y116.303 E0.01753
G1 X144.412 Y115.908 E0.01753
G1 X144.185 Y115.463 E0.01565
G1 X144.426 Y115.112 F10800.000
G1 F8640
G1 X144.068 Y114.840 E-0.14623
G1 X144.068 Y112.182 E-0.61377
G1 E-0.04000 F2100.00000
G1 Z0.800 F10800.000
G1 X145.539 Y116.098
G1 Z0.200
G1 E0.80000 F2100.00000
G1 F1200
G1 X144.948 Y115.506 E0.02664
G1 X144.793 Y115.203 E0.01085
G1 X144.728 Y114.744 E0.01476
G1 X145.971 Y115.987 E0.05599
G1 X146.512 Y115.987 E0.01726
G1 X144.728 Y114.202 E0.08040
G1 X144.728 Y113.661 E0.01726
G1 X147.054 Y115.987 E0.10481
G1 X147.596 Y115.987 E0.01726
G1 X144.728 Y113.119 E0.12921
G1 X144.728 Y112.577 E0.01726
G1 X148.138 Y115.987 E0.15362
G1 X148.679 Y115.987 E0.01726
G1 X144.728 Y112.035 E0.17803
G1 X144.728 Y111.494 E0.01726
G1 X149.221 Y115.987 E0.20244
G1 X149.763 Y115.987 E0.01726
G1 X144.728 Y110.952 E0.22684
G1 X144.728 Y110.410 E0.01726
G1 X150.305 Y115.987 E0.25125
G1 X150.847 Y115.987 E0.01726
G1 X144.728 Y109.868 E0.27566
G1 X144.728 Y109.326 E0.01726
G1 X151.388 Y115.987 E0.30006
G1 X151.789 Y115.987 E0.01277
G1 X151.911 Y115.968 E0.00392
G1 X144.728 Y108.785 E0.32360
G1 X144.728 Y108.243 E0.01726
G1 X152.338 Y115.853 E0.34284
G1 X152.516 Y115.763 E0.00636
G1 X152.652 Y115.626 E0.00616
G1 X144.728 Y107.701 E0.35701
G1 X144.728 Y107.159 E0.01726
G1 X152.871 Y115.303 E0.36687
G1 X152.922 Y115.203 E0.00358
G1 X152.976 Y114.866 E0.01088
G1 X144.728 Y106.617 E0.37157
G1 X144.728 Y106.076 E0.01726
G1 X152.988 Y114.336 E0.37212
G1 X152.988 Y113.794 E0.01726
G1 X144.728 Y105.534 E0.37212
G1 X144.728 Y104.992 E0.01726
G1 X152.988 Y113.252 E0.37212
G1 X152.988 Y112.711 E0.01726
G1 X144.728 Y104.450 E0.37212
G1 X144.728 Y103.909 E0.01726
G1 X152.988 Y112.169 E0.37212
G1 X152.988 Y111.627 E0.01726
G1 X144.728 Y103.367 E0.37212
G1 X144.728 Y102.825 E0.01726
G1 X152.988 Y111.085 E0.37212
G1 X152.988 Y110.543 E0.01726
G1 X144.728 Y102.283 E0.37212
G1 X144.728 Y101.741 E0.01726
G1 X152.988 Y110.002 E0.37212
G1 X152.988 Y109.460 E0.01726
G1 X144.728 Y101.200 E0.37212
G1 X144.728 Y100.658 E0.01726
G1 X152.988 Y108.918 E0.37212
G1 X152.988 Y108.376 E0.01726
G1 X144.728 Y100.116 E0.37212
G1 X144.728 Y99.574 E0.01726
G1 X152.988 Y107.835 E0.37212
G1 X152.988 Y107.293 E0.01726
G1 X144.728 Y99.032 E0.37212
G1 X144.728 Y98.491 E0.01726
G1 X152.988 Y106.751 E0.37212
G1 X152.988 Y106.209 E0.01726
G1 X144.728 Y97.949 E0.37212
G1 X144.728 Y97.407 E0.01726
G1 X152.988 Y105.667 E0.37212
G1 X152.988 Y105.126 E0.01726
G1 X144.728 Y96.865 E0.37212
G1 X144.728 Y96.324 E0.01726
G1 X152.988 Y104.584 E0.37212
G1 X152.988 Y104.042 E0.01726
G1 X144.728 Y95.782 E0.37212
G1 X144.740 Y95.252 E0.01687
G1 X152.988 Y103.500 E0.37157
G1 X152.988 Y102.958 E0.01726
G1 X144.844 Y94.815 E0.36687
G1 X144.952 Y94.603 E0.00758
G1 X145.063 Y94.492 E0.00499
G1 X152.988 Y102.417 E0.35701
G1 X152.988 Y101.875 E0.01726
G1 X145.378 Y94.265 E0.34284
G1 X145.512 Y94.196 E0.00480
G1 X145.805 Y94.150 E0.00944
G1 X152.988 Y101.333 E0.32361
G1 X152.988 Y100.791 E0.01726
G1 X146.327 Y94.130 E0.30007
G1 X146.869 Y94.130 E0.01726
G1 X152.988 Y100.250 E0.27566
G1 X152.988 Y99.708 E0.01726
G1 X147.411 Y94.130 E0.25125
G1 X147.952 Y94.130 E0.01726
G1 X152.988 Y99.166 E0.22685
G1 X152.988 Y98.624 E0.01726
G1 X148.494 Y94.130 E0.20244
G1 X149.036 Y94.130 E0.01726
G1 X152.988 Y98.082 E0.17803
G1 X152.988 Y97.541 E0.01726
G1 X149.578 Y94.130 E0.15362
G1 X150.120 Y94.130 E0.01726
G1 X152.988 Y96.999 E0.12922
G1 X152.988 Y96.457 E0.01726
G1 X150.661 Y94.130 E0.10481
G1 X151.203 Y94.130 E0.01726
G1 X152.988 Y95.915 E0.08040
G1 X152.988 Y95.373 E0.01726
G1 X151.745 Y94.130 E0.05599
G1 X152.187 Y94.194 E0.01424
G1 X152.510 Y94.354 E0.01148
G1 X153.098 Y94.942 E0.02650
G1 F8640
G1 X152.510 Y94.354 E-0.19208
G1 X152.187 Y94.194 E-0.08323
G1 X151.745 Y94.130 E-0.10321
G1 X152.913 Y95.299 E-0.38149
G1 E-0.04000 F2100.00000
G1 Z0.800 F10800.000
G1 X160.426 Y94.826
G1 Z0.200
G1 E0.80000 F2100.00000
G1 F1200
G1 X160.626 Y94.434 E0.01379
G1 X160.937 Y94.123 E0.01379
G1 X161.329 Y93.924 E0.01379
G1 X161.809 Y93.848 E0.01526
G1 X167.717 Y93.848 E0.18523
G1 X168.180 Y93.921 E0.01470
G1 X168.591 Y94.126 E0.01441
G1 X168.900 Y94.434 E0.01369
G1 X169.100 Y94.826 E0.01379
G1 X169.176 Y95.307 E0.01526
G1 X169.176 Y114.811 E0.61153
G1 X169.100 Y115.291 E0.01526
G1 X168.900 Y115.683 E0.01379
G1 X168.589 Y115.994 E0.01379
G1 X168.197 Y116.194 E0.01379
G1 X167.717 Y116.270 E0.01526
G1 X161.809 Y116.270 E0.18523
G1 X161.329 Y116.194 E0.01526
G1 X160.937 Y115.994 E0.01379
G1 X160.626 Y115.683 E0.01379
G1 X160.426 Y115.291 E0.01379
G1 X160.350 Y114.811 E0.01526
G1 X160.350 Y95.307 E0.61153
G1 X160.417 Y94.886 E0.01337
G1 X160.063 Y94.708 F10800.000
G1 F1200
G1 X160.317 Y94.210 E0.01753
G1 X160.712 Y93.815 E0.01753
G1 X161.211 Y93.561 E0.01753
G1 X161.779 Y93.471 E0.01806
G1 X167.746 Y93.471 E0.18709
G1 X168.296 Y93.558 E0.01744
G1 X168.814 Y93.815 E0.01816
G1 X169.209 Y94.210 E0.01750
G1 X169.463 Y94.708 E0.01753
G1 X169.553 Y95.277 E0.01806
G1 X169.553 Y114.840 E0.61340
G1 X169.463 Y115.409 E0.01806
G1 X169.209 Y115.908 E0.01753
G1 X168.814 Y116.303 E0.01753
G1 X168.315 Y116.557 E0.01753
G1 X167.746 Y116.647 E0.01806
G1 X161.779 Y116.647 E0.18709
G1 X161.211 Y116.557 E0.01806
G1 X160.712 Y116.303 E0.01753
G1 X160.317 Y115.908 E0.01753
G1 X160.063 Y115.409 E0.01753
G1 X159.973 Y114.840 E0.01806
G1 X159.973 Y95.277 E0.61340
G1 X160.054 Y94.768 E0.01618
G1 X160.454 Y94.626 F10800.000
G1 F8640
G1 X160.317 Y94.210 E-0.14237
G1 X160.712 Y93.815 E-0.12912
G1 X161.211 Y93.561 E-0.12912
G1 X161.779 Y93.471 E-0.13299
G1 X162.760 Y93.471 E-0.22640
G1 E-0.04000 F2100.00000
G1 Z0.800 F10800.000
G1 X169.004 Y94.942
G1 Z0.200
G1 E0.80000 F2100.00000
G1 F1200
G1 X168.415 Y94.354 E0.02650
G1 X168.093 Y94.194 E0.01148
G1 X167.650 Y94.130 E0.01424
G1 X168.893 Y95.373 E0.05599
G1 X168.893 Y95.915 E0.01726
G1 X167.108 Y94.130 E0.08040
G1 X166.567 Y94.130 E0.01726
G1 X168.893 Y96.457 E0.10481
G1 X168.893 Y96.999 E0.01726
G1 X166.025 Y94.130 E0.12922
G1 X165.483 Y94.130 E0.01726
G1 X168.893 Y97.541 E0.15362
G1 X168.893 Y98.082 E0.01726
G1 X164.941 Y94.130 E0.17803
G1 X164.399 Y94.130 E0.01726
G1 X168.893 Y98.624 E0.20244
G1 X168.893 Y99.166 E0.01726
G1 X163.858 Y94.130 E0.22685
G1 X163.316 Y94.130 E0.01726
G1 X168.893 Y99.708 E0.25125
G1 X168.893 Y100.250 E0.01726
G1 X162.774 Y94.130 E0.27566
G1 X162.232 Y94.130 E0.01726
G1 X168.893 Y100.791 E0.30007
G1 X168.893 Y101.333 E0.01726
G1 X161.710 Y94.150 E0.32361
G1 X161.417 Y94.196 E0.00944
G1 X161.283 Y94.265 E0.00480
G1 X168.893 Y101.875 E0.34284
