; generated by PrusaSlicer 2.1.1+win64 on 2020-05-14 at 17:45:27 UTC

; 

; external perimeters extrusion width = 0.45mm
; perimeters extrusion width = 0.45mm
; infill extrusion width = 0.45mm
; solid infill extrusion width = 0.45mm
; top infill extrusion width = 0.40mm
; first layer extrusion width = 0.42mm

M73 P0 R56
M201 X9000 Y9000 Z500 E10000 ; sets maximum accelerations, mm/sec^2
M203 X500 Y500 Z12 E120 ; sets maximum feedrates, mm/sec
M204 P2000 R1500 T2000 ; sets acceleration (P, T) and retract acceleration (R), mm/sec^2
M205 X10.00 Y10.00 Z0.20 E4.50 ; sets the jerk limits, mm/sec
M205 S0 T0 ; sets the minimum extruding and travel feed rate, mm/sec
M107
M862.3 P "MK2.5SMMU2S" ; printer model check
M862.1 P0.4 ; nozzle diameter check
M115 U3.8.1 ; tell printer latest fw version
G90 ; use absolute coordinates
M83 ; extruder relative mode
M104 S215 ; set extruder temp
M140 S60 ; set bed temp
Tx
M190 S60 ; wait for bed temp
M109 S215 ; wait for extruder temp
G28 W ; home all without mesh bed level
G80 ; mesh bed leveling

;go outside print area
G1 Y-3.0 F1000.0
G1 Z0.4 F1000.0
; select extruder
Tc
; purge line
G1 X55.0 F2000.0
G1 Z0.3 F1000.0
G92 E0.0
G1 X240.0 E25.0 F2200.0
M73 P0 R56
G1 Y-2.0 F1000.0
G1 X55.0 E25 F1400.0
G1 Z0.20 F1000.0
G1 X5.0 E4.0 F1000.0
G92 E0.0
G21 ; set units to millimeters
G90 ; use absolute coordinates
M83 ; use relative distances for extrusion
M900 K30 ; Filament gcode
;BEFORE_LAYER_CHANGE
G92 E0.0
;0.2


G1 E-0.80000 F2100.00000
G1 Z0.600 F10800.000
;AFTER_LAYER_CHANGE
;0.2
G1 X124.421 Y149.050
G1 Z0.200
G1 E0.80000 F2100.00000
M204 S1000
G1 F1200
G1 X123.576 Y149.246 E0.02721
G1 X104.493 Y149.767 E0.59856
G1 X103.746 Y149.652 E0.02372
G1 X103.257 Y149.415 E0.01703
G1 X102.842 Y149.065 E0.01703
G1 X102.525 Y148.624 E0.01703
G1 X102.327 Y148.118 E0.01703
G1 X96.698 Y123.307 E0.79772
G1 X96.654 Y122.718 E0.01851
G1 X96.766 Y122.142 E0.01839
G1 X133.716 Y56.915 E2.35050
G1 X134.067 Y56.463 E0.01794
G1 X134.520 Y56.119 E0.01783
G1 X135.046 Y55.904 E0.01783
G1 X135.610 Y55.831 E0.01783
G1 X136.202 Y55.914 E0.01873
G1 X136.746 Y56.152 E0.01862
G1 X159.543 Y70.434 E0.84347
G1 X160.075 Y70.909 E0.02236
G1 X160.427 Y71.533 E0.02247
G1 X160.560 Y72.283 E0.02388
G1 X160.560 Y123.112 E1.59371
G1 X160.444 Y123.812 E0.02225
G1 X160.121 Y124.424 E0.02168
G1 X159.626 Y124.902 E0.02157
G1 X124.471 Y149.016 E1.33665
G1 F8640
G1 X123.576 Y149.246 E-0.21332
G1 X121.210 Y149.311 E-0.54668
G1 E-0.04000 F2100.00000
G1 Z0.800 F10800.000
G1 X115.368 Y146.694
G1 Z0.200
G1 E0.80000 F2100.00000
G1 F1200
G1 X105.193 Y146.972 E0.31913
G1 X110.973 Y122.260 E0.79572
G1 X99.846 Y122.260 E0.34887
G1 X134.189 Y61.707 E2.18270
G1 X124.752 Y104.403 E1.37100
G1 X136.683 Y104.403 E0.37410
G1 X123.082 Y146.483 E1.38663
G1 X115.428 Y146.692 E0.24007
G1 X115.378 Y147.071 F10800.000
G1 F1200
G1 X104.715 Y147.362 E0.33447
G1 X110.497 Y122.637 E0.79614
G1 X99.199 Y122.637 E0.35426
G1 X135.098 Y59.339 E2.28166
G1 X125.222 Y104.025 E1.43494
G1 X137.202 Y104.025 E0.37562
G1 X123.358 Y146.853 E1.41123
G1 X115.438 Y147.069 E0.24843
G1 X115.062 Y146.825 F10800.000
G1 F8640
G1 X112.148 Y147.159 E-0.76000
G1 E-0.04000 F2100.00000
G1 Z0.800 F10800.000
G1 X106.074 Y146.835
G1 Z0.200
G1 E0.80000 F2100.00000
G1 F1200
G1 X105.622 Y146.382 E0.02008
G1 X105.723 Y145.950 E0.01395
G1 X106.428 Y146.655 E0.03132
G1 X106.948 Y146.641 E0.01632
G1 X105.824 Y145.517 E0.04990
G1 X105.925 Y145.084 E0.01395
G1 X107.468 Y146.627 E0.06848
G1 X107.987 Y146.613 E0.01632
G1 X106.026 Y144.651 E0.08705
G1 X106.128 Y144.219 E0.01395
G1 X108.507 Y146.598 E0.10563
G1 X109.027 Y146.584 E0.01632
G1 X106.229 Y143.786 E0.12421
G1 X106.330 Y143.353 E0.01395
G1 X109.546 Y146.570 E0.14278
G1 X110.066 Y146.556 E0.01632
G1 X106.431 Y142.921 E0.16136
G1 X106.532 Y142.488 E0.01395
G1 X110.586 Y146.542 E0.17994
G1 X111.105 Y146.527 E0.01632
G1 X106.634 Y142.055 E0.19851
G1 X106.735 Y141.623 E0.01395
G1 X111.625 Y146.513 E0.21709
G1 X112.145 Y146.499 E0.01632
G1 X106.836 Y141.190 E0.23567
G1 X106.937 Y140.757 E0.01395
G1 X112.664 Y146.485 E0.25424
G1 X113.184 Y146.471 E0.01632
G1 X107.038 Y140.325 E0.27282
G1 X107.139 Y139.892 E0.01395
G1 X113.704 Y146.456 E0.29140
G1 X114.223 Y146.442 E0.01632
G1 X107.241 Y139.459 E0.30997
G1 X107.342 Y139.027 E0.01395
G1 X114.743 Y146.428 E0.32855
G1 X115.263 Y146.414 E0.01632
G1 X107.443 Y138.594 E0.34713
G1 X107.544 Y138.161 E0.01395
G1 X115.783 Y146.400 E0.36570
G1 X116.302 Y146.386 E0.01632
G1 X107.645 Y137.729 E0.38428
G1 X107.747 Y137.296 E0.01395
G1 X116.822 Y146.371 E0.40286
G1 X117.342 Y146.357 E0.01632
G1 X107.848 Y136.863 E0.42143
G1 X107.949 Y136.431 E0.01395
G1 X117.861 Y146.343 E0.44001
G1 X118.381 Y146.329 E0.01632
G1 X108.050 Y135.998 E0.45859
G1 X108.151 Y135.565 E0.01395
G1 X118.901 Y146.315 E0.47716
G1 X119.420 Y146.300 E0.01632
G1 X108.253 Y135.133 E0.49574
M73 P1 R55
G1 X108.354 Y134.700 E0.01395
G1 X119.940 Y146.286 E0.51432
G1 X120.460 Y146.272 E0.01632
G1 X108.455 Y134.267 E0.53289
G1 X108.556 Y133.835 E0.01395
G1 X120.979 Y146.258 E0.55147
G1 X121.499 Y146.244 E0.01632
G1 X108.657 Y133.402 E0.57005
G1 X108.759 Y132.969 E0.01395
G1 X122.019 Y146.229 E0.58862
G1 X122.538 Y146.215 E0.01632
G1 X108.860 Y132.537 E0.60720
G1 X108.961 Y132.104 E0.01395
G1 X122.920 Y146.063 E0.61966
G1 X123.051 Y145.660 E0.01331
G1 X109.062 Y131.671 E0.62096
G1 X109.163 Y131.239 E0.01395
G1 X123.181 Y145.256 E0.62225
G1 X123.311 Y144.853 E0.01331
G1 X109.265 Y130.806 E0.62355
G1 X109.366 Y130.373 E0.01395
G1 X123.442 Y144.449 E0.62485
G1 X123.572 Y144.046 E0.01331
G1 X109.467 Y129.941 E0.62614
G1 X109.568 Y129.508 E0.01395
G1 X123.703 Y143.643 E0.62744
G1 X123.833 Y143.239 E0.01331
G1 X109.669 Y129.075 E0.62874
G1 X109.771 Y128.643 E0.01395
G1 X123.963 Y142.836 E0.63003
G1 X124.094 Y142.432 E0.01331
G1 X109.872 Y128.210 E0.63133
G1 X109.973 Y127.777 E0.01395
G1 X124.224 Y142.029 E0.63263
G1 X124.355 Y141.625 E0.01331
G1 X110.074 Y127.345 E0.63392
G1 X110.175 Y126.912 E0.01395
G1 X124.485 Y141.222 E0.63522
G1 X124.615 Y140.818 E0.01331
G1 X110.277 Y126.479 E0.63652
G1 X110.378 Y126.047 E0.01395
G1 X124.746 Y140.415 E0.63781
G1 X124.876 Y140.011 E0.01331
G1 X110.479 Y125.614 E0.63911
G1 X110.580 Y125.181 E0.01395
G1 X125.007 Y139.608 E0.64041
G1 X125.137 Y139.205 E0.01331
G1 X110.681 Y124.749 E0.64170
G1 X110.782 Y124.316 E0.01395
G1 X125.267 Y138.801 E0.64300
G1 X125.398 Y138.398 E0.01331
G1 X110.884 Y123.883 E0.64430
G1 X110.985 Y123.451 E0.01395
G1 X125.528 Y137.994 E0.64560
G1 X125.659 Y137.591 E0.01331
G1 X111.086 Y123.018 E0.64689
G1 X111.187 Y122.585 E0.01395
G1 X125.789 Y137.187 E0.64819
G1 X125.920 Y136.784 E0.01331
G1 X104.233 Y115.098 E0.96266
G1 X104.427 Y114.757 E0.01229
G1 X126.050 Y136.380 E0.95987
G1 X126.180 Y135.977 E0.01331
G1 X104.620 Y114.416 E0.95709
G1 X104.813 Y114.076 E0.01229
G1 X126.311 Y135.573 E0.95430
G1 X126.441 Y135.170 E0.01331
G1 X105.006 Y113.735 E0.95151
G1 X105.200 Y113.394 E0.01229
G1 X126.572 Y134.767 E0.94872
G1 X126.702 Y134.363 E0.01331
G1 X105.393 Y113.054 E0.94594
G1 X105.586 Y112.713 E0.01229
G1 X126.832 Y133.960 E0.94315
G1 X126.963 Y133.556 E0.01331
G1 X105.779 Y112.373 E0.94036
G1 X105.972 Y112.032 E0.01229
G1 X127.093 Y133.153 E0.93757
G1 X127.224 Y132.749 E0.01331
G1 X106.166 Y111.691 E0.93479
G1 X106.359 Y111.351 E0.01229
G1 X127.354 Y132.346 E0.93200
G1 X127.484 Y131.942 E0.01331
G1 X106.552 Y111.010 E0.92921
G1 X106.745 Y110.669 E0.01229
G1 X127.615 Y131.539 E0.92642
G1 X127.745 Y131.135 E0.01331
G1 X106.938 Y110.329 E0.92364
G1 X107.132 Y109.988 E0.01229
G1 X127.876 Y130.732 E0.92085
G1 X128.006 Y130.329 E0.01331
G1 X107.325 Y109.647 E0.91806
G1 X107.518 Y109.307 E0.01229
G1 X128.136 Y129.925 E0.91527
G1 X128.267 Y129.522 E0.01331
G1 X107.711 Y108.966 E0.91249
G1 X107.904 Y108.625 E0.01229
G1 X128.397 Y129.118 E0.90970
G1 X128.528 Y128.715 E0.01331
G1 X108.098 Y108.285 E0.90691
M73 P3 R54
G1 X108.291 Y107.944 E0.01229
G1 X128.658 Y128.311 E0.90412
G1 X128.789 Y127.908 E0.01331
G1 X108.484 Y107.603 E0.90134
G1 X108.677 Y107.263 E0.01229
G1 X128.919 Y127.504 E0.89855
G1 X129.049 Y127.101 E0.01331
G1 X108.870 Y106.922 E0.89576
G1 X109.064 Y106.581 E0.01229
G1 X129.180 Y126.697 E0.89297
G1 X129.310 Y126.294 E0.01331
G1 X109.257 Y106.241 E0.89019
G1 X109.450 Y105.900 E0.01229
G1 X129.441 Y125.891 E0.88740
G1 X129.571 Y125.487 E0.01331
G1 X109.643 Y105.559 E0.88461
G1 X109.836 Y105.219 E0.01229
G1 X129.701 Y125.084 E0.88182
G1 X129.832 Y124.680 E0.01331
G1 X110.030 Y104.878 E0.87904
G1 X110.223 Y104.537 E0.01229
G1 X129.962 Y124.277 E0.87625
G1 X130.093 Y123.873 E0.01331
G1 X110.416 Y104.197 E0.87346
G1 X110.609 Y103.856 E0.01229
G1 X130.223 Y123.470 E0.87067
G1 X130.353 Y123.066 E0.01331
G1 X110.802 Y103.515 E0.86789
G1 X110.996 Y103.175 E0.01229
G1 X130.484 Y122.663 E0.86510
G1 X130.614 Y122.259 E0.01331
G1 X111.189 Y102.834 E0.86231
G1 X111.382 Y102.493 E0.01229
G1 X130.745 Y121.856 E0.85952
G1 X130.875 Y121.453 E0.01331
G1 X111.575 Y102.153 E0.85674
G1 X111.768 Y101.812 E0.01229
G1 X131.005 Y121.049 E0.85395
G1 X131.136 Y120.646 E0.01331
G1 X111.962 Y101.471 E0.85116
G1 X112.155 Y101.131 E0.01229
G1 X131.266 Y120.242 E0.84837
G1 X131.397 Y119.839 E0.01331
G1 X112.348 Y100.790 E0.84559
G1 X112.541 Y100.449 E0.01229
G1 X131.527 Y119.435 E0.84280
G1 X131.658 Y119.032 E0.01331
G1 X112.734 Y100.109 E0.84001
G1 X112.928 Y99.768 E0.01229
G1 X131.788 Y118.628 E0.83722
G1 X131.918 Y118.225 E0.01331
G1 X113.121 Y99.427 E0.83444
G1 X113.314 Y99.087 E0.01229
G1 X132.049 Y117.821 E0.83165
G1 X132.179 Y117.418 E0.01331
G1 X113.507 Y98.746 E0.82886
G1 X113.700 Y98.405 E0.01229
G1 X132.310 Y117.015 E0.82607
G1 X132.440 Y116.611 E0.01331
G1 X113.894 Y98.065 E0.82329
G1 X114.087 Y97.724 E0.01229
G1 X132.570 Y116.208 E0.82050
G1 X132.701 Y115.804 E0.01331
G1 X114.280 Y97.384 E0.81771
G1 X114.473 Y97.043 E0.01229
G1 X132.831 Y115.401 E0.81492
G1 X132.962 Y114.997 E0.01331
G1 X114.666 Y96.702 E0.81214
G1 X114.860 Y96.362 E0.01229
G1 X133.092 Y114.594 E0.80935
G1 X133.222 Y114.190 E0.01331
G1 X115.053 Y96.021 E0.80656
G1 X115.246 Y95.680 E0.01229
G1 X133.488 Y113.922 E0.80976
G1 F8640
G1 X131.160 Y111.594 E-0.76000
G1 E-0.04000 F2100.00000
G1 Z0.800 F10800.000
G1 X135.827 Y104.516
G1 Z0.200
G1 E0.80000 F2100.00000
G1 F1200
G1 X136.222 Y104.911 E0.01755
G1 X136.091 Y105.314 E0.01331
G1 X135.462 Y104.685 E0.02792
G1 X134.928 Y104.685 E0.01676
G1 X135.961 Y105.718 E0.04583
G1 X135.831 Y106.121 E0.01331
G1 X134.395 Y104.685 E0.06374
G1 X133.861 Y104.685 E0.01676
G1 X135.700 Y106.525 E0.08165
G1 X135.570 Y106.928 E0.01331
G1 X133.327 Y104.685 E0.09956
G1 X132.793 Y104.685 E0.01676
G1 X135.439 Y107.332 E0.11747
G1 X135.309 Y107.735 E0.01331
G1 X132.259 Y104.685 E0.13538
G1 X131.725 Y104.685 E0.01676
G1 X135.179 Y108.139 E0.15329
G1 X135.048 Y108.542 E0.01331
G1 X131.191 Y104.685 E0.17120
G1 X130.658 Y104.685 E0.01676
G1 X134.918 Y108.945 E0.18911
G1 X134.787 Y109.349 E0.01331
G1 X130.124 Y104.685 E0.20702
G1 X129.590 Y104.685 E0.01676
G1 X134.657 Y109.752 E0.22493
G1 X134.526 Y110.156 E0.01331
G1 X129.056 Y104.685 E0.24284
G1 X128.522 Y104.685 E0.01676
G1 X134.396 Y110.559 E0.26075
G1 X134.266 Y110.963 E0.01331
G1 X127.988 Y104.685 E0.27866
G1 X127.454 Y104.685 E0.01676
G1 X134.135 Y111.366 E0.29657
G1 X134.005 Y111.770 E0.01331
G1 X126.921 Y104.685 E0.31448
G1 X126.387 Y104.685 E0.01676
G1 X133.874 Y112.173 E0.33239
G1 X133.744 Y112.577 E0.01331
G1 X125.853 Y104.685 E0.35030
G1 X125.319 Y104.685 E0.01676
G1 X133.614 Y112.980 E0.36821
G1 X133.483 Y113.383 E0.01331
G1 X124.785 Y104.685 E0.38612
G1 X124.400 Y104.685 E0.01209
G1 X124.470 Y104.370 E0.01014
G1 X115.439 Y95.340 E0.40086
M73 P5 R53
G1 X115.632 Y94.999 E0.01229
G1 X124.566 Y103.933 E0.39658
G1 X124.663 Y103.495 E0.01406
G1 X115.826 Y94.658 E0.39229
G1 X116.019 Y94.318 E0.01229
G1 X124.760 Y103.058 E0.38800
G1 X124.856 Y102.621 E0.01406
G1 X116.212 Y93.977 E0.38372
G1 X116.405 Y93.636 E0.01229
G1 X124.953 Y102.184 E0.37943
G1 X125.049 Y101.747 E0.01406
G1 X116.599 Y93.296 E0.37514
G1 X116.792 Y92.955 E0.01229
G1 X125.146 Y101.309 E0.37086
G1 X125.243 Y100.872 E0.01406
G1 X116.985 Y92.614 E0.36657
G1 X117.178 Y92.274 E0.01229
G1 X125.339 Y100.435 E0.36228
G1 X125.436 Y99.998 E0.01406
G1 X117.371 Y91.933 E0.35800
G1 X117.565 Y91.592 E0.01229
G1 X125.533 Y99.560 E0.35371
G1 X125.629 Y99.123 E0.01406
G1 X117.758 Y91.252 E0.34942
G1 X117.951 Y90.911 E0.01229
G1 X125.726 Y98.686 E0.34514
G1 X125.823 Y98.249 E0.01406
G1 X118.144 Y90.570 E0.34085
G1 X118.337 Y90.230 E0.01229
G1 X125.919 Y97.811 E0.33656
G1 X126.016 Y97.374 E0.01406
G1 X118.531 Y89.889 E0.33228
G1 X118.724 Y89.548 E0.01229
G1 X126.112 Y96.937 E0.32799
G1 X126.209 Y96.500 E0.01406
G1 X118.917 Y89.208 E0.32370
G1 X119.110 Y88.867 E0.01229
G1 X126.306 Y96.063 E0.31942
G1 X126.402 Y95.625 E0.01406
G1 X119.303 Y88.526 E0.31513
G1 X119.497 Y88.186 E0.01229
G1 X126.499 Y95.188 E0.31084
G1 X126.596 Y94.751 E0.01406
G1 X119.690 Y87.845 E0.30656
G1 X119.883 Y87.504 E0.01229
G1 X126.692 Y94.314 E0.30227
G1 X126.789 Y93.876 E0.01406
G1 X120.076 Y87.164 E0.29798
G1 X120.269 Y86.823 E0.01229
G1 X126.886 Y93.439 E0.29370
G1 X126.982 Y93.002 E0.01406
G1 X120.463 Y86.482 E0.28941
G1 X120.656 Y86.142 E0.01229
G1 X127.079 Y92.565 E0.28512
G1 X127.175 Y92.128 E0.01406
G1 X120.849 Y85.801 E0.28084
G1 X121.042 Y85.460 E0.01229
G1 X127.272 Y91.690 E0.27655
G1 X127.369 Y91.253 E0.01406
G1 X121.235 Y85.120 E0.27226
G1 X121.429 Y84.779 E0.01229
G1 X127.465 Y90.816 E0.26798
G1 X127.562 Y90.379 E0.01406
G1 X121.622 Y84.438 E0.26369
G1 X121.815 Y84.098 E0.01229
G1 X127.659 Y89.941 E0.25940
G1 X127.755 Y89.504 E0.01406
G1 X122.008 Y83.757 E0.25512
G1 X122.201 Y83.416 E0.01229
G1 X127.852 Y89.067 E0.25083
G1 X127.949 Y88.630 E0.01406
G1 X122.395 Y83.076 E0.24654
G1 X122.588 Y82.735 E0.01229
G1 X128.045 Y88.193 E0.24226
G1 X128.142 Y87.755 E0.01406
G1 X122.781 Y82.394 E0.23797
G1 X122.974 Y82.054 E0.01229
G1 X128.238 Y87.318 E0.23368
G1 X128.335 Y86.881 E0.01406
G1 X123.167 Y81.713 E0.22940
G1 X123.361 Y81.373 E0.01229
G1 X128.432 Y86.444 E0.22511
G1 X128.528 Y86.006 E0.01406
G1 X123.554 Y81.032 E0.22082
G1 X123.747 Y80.691 E0.01229
G1 X128.625 Y85.569 E0.21654
G1 X128.722 Y85.132 E0.01406
G1 X123.940 Y80.351 E0.21225
G1 X124.133 Y80.010 E0.01229
G1 X128.818 Y84.695 E0.20796
G1 X128.915 Y84.257 E0.01406
G1 X124.327 Y79.669 E0.20368
G1 X124.520 Y79.329 E0.01229
G1 X129.012 Y83.820 E0.19939
G1 X129.108 Y83.383 E0.01406
G1 X124.713 Y78.988 E0.19510
G1 X124.906 Y78.647 E0.01229
G1 X129.205 Y82.946 E0.19082
G1 X129.301 Y82.509 E0.01406
G1 X125.099 Y78.307 E0.18653
G1 X125.293 Y77.966 E0.01229
G1 X129.398 Y82.071 E0.18224
G1 X129.495 Y81.634 E0.01406
G1 X125.486 Y77.625 E0.17796
G1 X125.679 Y77.285 E0.01229
G1 X129.591 Y81.197 E0.17367
G1 X129.688 Y80.760 E0.01406
G1 X125.872 Y76.944 E0.16938
G1 X126.065 Y76.603 E0.01229
G1 X129.785 Y80.322 E0.16510
G1 X129.881 Y79.885 E0.01406
G1 X126.259 Y76.263 E0.16081
G1 X126.452 Y75.922 E0.01229
G1 X129.978 Y79.448 E0.15652
G1 X130.075 Y79.011 E0.01406
G1 X126.645 Y75.581 E0.15224
G1 X126.838 Y75.241 E0.01229
G1 X130.171 Y78.574 E0.14795
G1 X130.268 Y78.136 E0.01406
G1 X127.031 Y74.900 E0.14366
G1 X127.225 Y74.559 E0.01229
G1 X130.364 Y77.699 E0.13938
G1 X130.461 Y77.262 E0.01406
G1 X127.418 Y74.219 E0.13509
G1 X127.611 Y73.878 E0.01229
G1 X130.558 Y76.825 E0.13080
G1 X130.654 Y76.387 E0.01406
G1 X127.804 Y73.537 E0.12652
G1 X127.998 Y73.197 E0.01229
G1 X130.751 Y75.950 E0.12223
G1 X130.848 Y75.513 E0.01406
G1 X128.191 Y72.856 E0.11794
G1 X128.384 Y72.515 E0.01229
G1 X130.944 Y75.076 E0.11366
G1 X131.041 Y74.639 E0.01406
G1 X128.577 Y72.175 E0.10937
G1 X128.770 Y71.834 E0.01229
G1 X131.138 Y74.201 E0.10508
G1 X131.234 Y73.764 E0.01406
G1 X128.964 Y71.493 E0.10080
G1 X129.157 Y71.153 E0.01229
G1 X131.331 Y73.327 E0.09651
G1 X131.427 Y72.890 E0.01406
G1 X129.350 Y70.812 E0.09222
G1 X129.543 Y70.471 E0.01229
G1 X131.524 Y72.452 E0.08794
G1 X131.621 Y72.015 E0.01406
G1 X129.736 Y70.131 E0.08365
G1 X129.930 Y69.790 E0.01229
G1 X131.717 Y71.578 E0.07936
