; generated by PrusaSlicer 2.1.1+win64 on 2020-05-14 at 17:49:57 UTC

; 

; external perimeters extrusion width = 0.45mm
; perimeters extrusion width = 0.45mm
; infill extrusion width = 0.45mm
; solid infill extrusion width = 0.45mm
; top infill extrusion width = 0.40mm
; first layer extrusion width = 0.42mm

M73 P0 R26
M201 X9000 Y9000 Z500 E10000 ; sets maximum accelerations, mm/sec^2
M203 X500 Y500 Z12 E120 ; sets maximum feedrates, mm/sec
M204 P2000 R1500 T2000 ; sets acceleration (P, T) and retract acceleration (R), mm/sec^2
M205 X10.00 Y10.00 Z0.20 E4.50 ; sets the jerk limits, mm/sec
M205 S0 T0 ; sets the minimum extruding and travel feed rate, mm/sec
M107
M862.3 P "MK2.5SMMU2S" ; printer model check
M862.1 P0.4 ; nozzle diameter check
M115 U3.8.1 ; tell printer latest fw version
G90 ; use absolute coordinates
M83 ; extruder relative mode
M104 S215 ; set extruder temp
M140 S60 ; set bed temp
Tx
M190 S60 ; wait for bed temp
M109 S215 ; wait for extruder temp
G28 W ; home all without mesh bed level
G80 ; mesh bed leveling

;go outside print area
G1 Y-3.0 F1000.0
G1 Z0.4 F1000.0
; select extruder
Tc
; purge line
G1 X55.0 F2000.0
G1 Z0.3 F1000.0
G92 E0.0
G1 X240.0 E25.0 F2200.0
M73 P0 R26
G1 Y-2.0 F1000.0
G1 X55.0 E25 F1400.0
G1 Z0.20 F1000.0
G1 X5.0 E4.0 F1000.0
G92 E0.0
G21 ; set units to millimeters
G90 ; use absolute coordinates
M83 ; use relative distances for extrusion
M900 K30 ; Filament gcode
;BEFORE_LAYER_CHANGE
G92 E0.0
;0.2


G1 E-0.80000 F2100.00000
G1 Z0.600 F10800.000
;AFTER_LAYER_CHANGE
;0.2
G1 X105.446 Y97.061
G1 Z0.200
G1 E0.80000 F2100.00000
M204 S1000
G1 F1200
G1 X106.183 Y96.931 E0.02349
G1 X158.265 Y96.931 E1.63297
G1 X159.044 Y97.076 E0.02484
G1 X159.717 Y97.486 E0.02473
G1 X160.203 Y98.112 E0.02484
G1 X160.435 Y98.870 E0.02484
G1 X160.449 Y101.364 E0.07821
G1 X160.346 Y101.967 E0.01919
G1 X160.141 Y102.423 E0.01567
G1 X159.837 Y102.820 E0.01567
G1 X159.452 Y103.138 E0.01567
G1 X159.005 Y103.360 E0.01567
G1 X108.880 Y117.846 E1.63593
G1 X106.171 Y117.906 E0.08496
G1 X105.576 Y117.818 E0.01885
G1 X105.106 Y117.619 E0.01601
G1 X104.692 Y117.314 E0.01612
G1 X104.361 Y116.921 E0.01612
G1 X104.131 Y116.461 E0.01612
G1 X104.001 Y115.734 E0.02315
G1 X104.006 Y98.970 E0.52563
G1 X104.139 Y98.354 E0.01976
G1 X104.442 Y97.802 E0.01976
G1 X104.890 Y97.359 E0.01976
G1 X105.393 Y97.090 E0.01787
G1 F8640
G1 X106.183 Y96.931 E-0.18621
G1 X108.668 Y96.931 E-0.57379
G1 E-0.04000 F2100.00000
G1 Z0.800 F10800.000
G1 X107.784 Y115.130
G1 Z0.200
G1 E0.80000 F2100.00000
G1 F1200
G1 X106.776 Y115.130 E0.03160
G1 X106.776 Y99.707 E0.48359
G1 X157.674 Y99.707 E1.59585
G1 X157.674 Y100.715 E0.03160
G1 X144.582 Y100.715 E0.41049
G1 X144.582 Y102.822 E0.06606
G1 X144.441 Y102.822 E0.00442
G1 X144.441 Y100.715 E0.06606
G1 X107.784 Y100.715 E1.14934
G1 X107.784 Y115.070 E0.45011
G1 X108.161 Y115.507 F10800.000
G1 F1200
G1 X106.399 Y115.507 E0.05525
G1 X106.399 Y99.330 E0.50724
G1 X158.051 Y99.330 E1.61950
G1 X158.051 Y101.092 E0.05525
G1 X144.959 Y101.092 E0.41049
G1 X144.959 Y103.199 E0.06606
G1 X144.064 Y103.199 E0.02807
G1 X144.064 Y101.092 E0.06607
G1 X108.161 Y101.092 E1.12569
G1 X108.161 Y115.447 E0.45011
G1 X107.919 Y115.189 F10800.000
G1 F8640
G1 X106.399 Y115.507 E-0.40712
G1 X106.399 Y113.979 E-0.35288
G1 E-0.04000 F2100.00000
G1 Z0.800 F10800.000
G1 X106.889 Y114.251
G1 Z0.200
G1 E0.80000 F2100.00000
G1 F1200
G1 X107.502 Y114.848 E0.02695
G1 X107.502 Y114.327 E0.01642
G1 X107.059 Y113.884 E0.01972
G1 X107.059 Y113.348 E0.01690
G1 X107.502 Y113.791 E0.01972
G1 X107.502 Y113.255 E0.01690
G1 X107.059 Y112.812 E0.01972
G1 X107.059 Y112.276 E0.01690
G1 X107.502 Y112.718 E0.01972
G1 X107.502 Y112.182 E0.01690
G1 X107.059 Y111.740 E0.01972
G1 X107.059 Y111.204 E0.01690
G1 X107.502 Y111.646 E0.01972
G1 X107.502 Y111.110 E0.01690
G1 X107.059 Y110.668 E0.01972
G1 X107.059 Y110.131 E0.01690
G1 X107.502 Y110.574 E0.01972
G1 X107.502 Y110.038 E0.01690
G1 X107.059 Y109.595 E0.01972
G1 X107.059 Y109.059 E0.01690
G1 X107.502 Y109.502 E0.01972
G1 X107.502 Y108.965 E0.01690
G1 X107.059 Y108.523 E0.01972
G1 X107.059 Y107.987 E0.01690
G1 X107.502 Y108.429 E0.01972
G1 X107.502 Y107.893 E0.01690
G1 X107.059 Y107.451 E0.01972
G1 X107.059 Y106.915 E0.01690
G1 X107.502 Y107.357 E0.01972
G1 X107.502 Y106.821 E0.01690
G1 X107.059 Y106.379 E0.01972
G1 X107.059 Y105.842 E0.01690
G1 X107.502 Y106.285 E0.01972
G1 X107.502 Y105.749 E0.01690
G1 X107.059 Y105.306 E0.01972
G1 X107.059 Y104.770 E0.01690
G1 X107.502 Y105.213 E0.01972
G1 X107.502 Y104.676 E0.01690
G1 X107.059 Y104.234 E0.01972
G1 X107.059 Y103.698 E0.01690
G1 X107.502 Y104.140 E0.01972
G1 X107.502 Y103.604 E0.01690
G1 X107.059 Y103.162 E0.01972
G1 X107.059 Y102.626 E0.01690
G1 X107.502 Y103.068 E0.01972
G1 X107.502 Y102.532 E0.01690
G1 X107.059 Y102.090 E0.01972
G1 X107.059 Y101.553 E0.01690
G1 X107.502 Y101.996 E0.01972
G1 X107.502 Y101.460 E0.01690
G1 X107.059 Y101.017 E0.01972
G1 X107.059 Y100.481 E0.01690
G1 X107.502 Y100.924 E0.01972
G1 X107.502 Y100.432 E0.01549
G1 X107.546 Y100.432 E0.00141
G1 X107.104 Y99.990 E0.01972
G1 X107.640 Y99.990 E0.01690
G1 X108.082 Y100.432 E0.01972
G1 X108.618 Y100.432 E0.01690
G1 X108.176 Y99.990 E0.01972
G1 X108.712 Y99.990 E0.01690
G1 X109.155 Y100.432 E0.01972
G1 X109.691 Y100.432 E0.01690
G1 X109.248 Y99.990 E0.01972
G1 X109.784 Y99.990 E0.01690
G1 X110.227 Y100.432 E0.01972
G1 X110.763 Y100.432 E0.01690
G1 X110.321 Y99.990 E0.01972
G1 X110.857 Y99.990 E0.01690
G1 X111.299 Y100.432 E0.01972
G1 X111.835 Y100.432 E0.01690
G1 X111.393 Y99.990 E0.01972
G1 X111.929 Y99.990 E0.01690
G1 X112.371 Y100.432 E0.01972
G1 X112.907 Y100.432 E0.01690
G1 X112.465 Y99.990 E0.01972
G1 X113.001 Y99.990 E0.01690
G1 X113.444 Y100.432 E0.01972
G1 X113.980 Y100.432 E0.01690
G1 X113.537 Y99.990 E0.01972
G1 X114.073 Y99.990 E0.01690
G1 X114.516 Y100.432 E0.01972
G1 X115.052 Y100.432 E0.01690
G1 X114.610 Y99.990 E0.01972
G1 X115.146 Y99.990 E0.01690
G1 X115.588 Y100.432 E0.01972
G1 X116.124 Y100.432 E0.01690
G1 X115.682 Y99.990 E0.01972
G1 X116.218 Y99.990 E0.01690
G1 X116.660 Y100.432 E0.01972
G1 X117.196 Y100.432 E0.01690
G1 X116.754 Y99.990 E0.01972
G1 X117.290 Y99.990 E0.01690
G1 X117.733 Y100.432 E0.01972
G1 X118.269 Y100.432 E0.01690
G1 X117.826 Y99.990 E0.01972
G1 X118.362 Y99.990 E0.01690
G1 X118.805 Y100.432 E0.01972
G1 X119.341 Y100.432 E0.01690
G1 X118.899 Y99.990 E0.01972
G1 X119.435 Y99.990 E0.01690
G1 X119.877 Y100.432 E0.01972
G1 X120.413 Y100.432 E0.01690
G1 X119.971 Y99.990 E0.01972
G1 X120.507 Y99.990 E0.01690
G1 X120.949 Y100.432 E0.01972
G1 X121.486 Y100.432 E0.01690
G1 X121.043 Y99.990 E0.01972
G1 X121.579 Y99.990 E0.01690
G1 X122.022 Y100.432 E0.01972
G1 X122.558 Y100.432 E0.01690
G1 X122.115 Y99.990 E0.01972
G1 X122.652 Y99.990 E0.01690
G1 X123.094 Y100.432 E0.01972
G1 X123.630 Y100.432 E0.01690
G1 X123.188 Y99.990 E0.01972
G1 X123.724 Y99.990 E0.01690
G1 X124.166 Y100.432 E0.01972
G1 X124.702 Y100.432 E0.01690
G1 X124.260 Y99.990 E0.01972
G1 X124.796 Y99.990 E0.01690
G1 X125.238 Y100.432 E0.01972
G1 X125.775 Y100.432 E0.01690
G1 X125.332 Y99.990 E0.01972
G1 X125.868 Y99.990 E0.01690
G1 X126.311 Y100.432 E0.01972
G1 X126.847 Y100.432 E0.01690
G1 X126.404 Y99.990 E0.01972
G1 X126.941 Y99.990 E0.01690
G1 X127.383 Y100.432 E0.01972
G1 X127.919 Y100.432 E0.01690
G1 X127.477 Y99.990 E0.01972
G1 X128.013 Y99.990 E0.01690
G1 X128.455 Y100.432 E0.01972
G1 X128.991 Y100.432 E0.01690
G1 X128.549 Y99.990 E0.01972
G1 X129.085 Y99.990 E0.01690
G1 X129.527 Y100.432 E0.01972
G1 X130.064 Y100.432 E0.01690
G1 X129.621 Y99.990 E0.01972
G1 X130.157 Y99.990 E0.01690
G1 X130.600 Y100.432 E0.01972
G1 X131.136 Y100.432 E0.01690
G1 X130.693 Y99.990 E0.01972
G1 X131.230 Y99.990 E0.01690
G1 X131.672 Y100.432 E0.01972
G1 X132.208 Y100.432 E0.01690
G1 X131.766 Y99.990 E0.01972
G1 X132.302 Y99.990 E0.01690
G1 X132.744 Y100.432 E0.01972
G1 X133.280 Y100.432 E0.01690
G1 X132.838 Y99.990 E0.01972
G1 X133.374 Y99.990 E0.01690
G1 X133.816 Y100.432 E0.01972
G1 X134.353 Y100.432 E0.01690
G1 X133.910 Y99.990 E0.01972
G1 X134.446 Y99.990 E0.01690
G1 X134.889 Y100.432 E0.01972
G1 X135.425 Y100.432 E0.01690
G1 X134.982 Y99.990 E0.01972
G1 X135.519 Y99.990 E0.01690
G1 X135.961 Y100.432 E0.01972
G1 X136.497 Y100.432 E0.01690
G1 X136.055 Y99.990 E0.01972
G1 X136.591 Y99.990 E0.01690
G1 X137.033 Y100.432 E0.01972
G1 X137.569 Y100.432 E0.01690
G1 X137.127 Y99.990 E0.01972
G1 X137.663 Y99.990 E0.01690
G1 X138.106 Y100.432 E0.01972
G1 X138.642 Y100.432 E0.01690
G1 X138.199 Y99.990 E0.01972
G1 X138.735 Y99.990 E0.01690
G1 X139.178 Y100.432 E0.01972
G1 X139.714 Y100.432 E0.01690
G1 X139.272 Y99.990 E0.01972
G1 X139.808 Y99.990 E0.01690
G1 X140.250 Y100.432 E0.01972
G1 X140.786 Y100.432 E0.01690
G1 X140.344 Y99.990 E0.01972
G1 X140.880 Y99.990 E0.01690
G1 X141.322 Y100.432 E0.01972
G1 X141.858 Y100.432 E0.01690
G1 X141.416 Y99.990 E0.01972
G1 X141.952 Y99.990 E0.01690
G1 X142.395 Y100.432 E0.01972
G1 X142.931 Y100.432 E0.01690
G1 X142.488 Y99.990 E0.01972
G1 X143.024 Y99.990 E0.01690
G1 X143.467 Y100.432 E0.01972
G1 X144.003 Y100.432 E0.01690
G1 X143.561 Y99.990 E0.01972
G1 X144.097 Y99.990 E0.01690
G1 X144.539 Y100.432 E0.01972
G1 X145.075 Y100.432 E0.01690
G1 X144.633 Y99.990 E0.01972
G1 X145.169 Y99.990 E0.01690
G1 X145.611 Y100.432 E0.01972
G1 X146.147 Y100.432 E0.01690
G1 X145.705 Y99.990 E0.01972
G1 X146.241 Y99.990 E0.01690
G1 X146.684 Y100.432 E0.01972
G1 X147.220 Y100.432 E0.01690
G1 X146.777 Y99.990 E0.01972
G1 X147.313 Y99.990 E0.01690
G1 X147.756 Y100.432 E0.01972
G1 X148.292 Y100.432 E0.01690
G1 X147.850 Y99.990 E0.01972
G1 X148.386 Y99.990 E0.01690
G1 X148.828 Y100.432 E0.01972
G1 X149.364 Y100.432 E0.01690
G1 X148.922 Y99.990 E0.01972
G1 X149.458 Y99.990 E0.01690
G1 X149.900 Y100.432 E0.01972
G1 X150.437 Y100.432 E0.01690
G1 X149.994 Y99.990 E0.01972
G1 X150.530 Y99.990 E0.01690
G1 X150.973 Y100.432 E0.01972
G1 X151.509 Y100.432 E0.01690
G1 X151.066 Y99.990 E0.01972
G1 X151.603 Y99.990 E0.01690
G1 X152.045 Y100.432 E0.01972
G1 X152.581 Y100.432 E0.01690
G1 X152.139 Y99.990 E0.01972
G1 X152.675 Y99.990 E0.01690
G1 X153.117 Y100.432 E0.01972
G1 X153.653 Y100.432 E0.01690
G1 X153.211 Y99.990 E0.01972
G1 X153.747 Y99.990 E0.01690
G1 X154.189 Y100.432 E0.01972
G1 X154.726 Y100.432 E0.01690
G1 X154.283 Y99.990 E0.01972
G1 X154.819 Y99.990 E0.01690
G1 X155.262 Y100.432 E0.01972
G1 X155.798 Y100.432 E0.01690
G1 X155.355 Y99.990 E0.01972
G1 X155.892 Y99.990 E0.01690
G1 X156.334 Y100.432 E0.01972
G1 X156.870 Y100.432 E0.01690
G1 X156.428 Y99.990 E0.01972
G1 X156.964 Y99.990 E0.01690
G1 X157.561 Y100.587 E0.02661
M106 S255
;BEFORE_LAYER_CHANGE
G92 E0.0
;0.4


G1 F8640
G1 X156.964 Y99.990 E-0.19491
G1 X156.428 Y99.990 E-0.12379
G1 X156.870 Y100.432 E-0.14446
G1 X156.334 Y100.432 E-0.12379
G1 X155.892 Y99.990 E-0.14446
G1 X155.768 Y99.990 E-0.02859
G1 E-0.04000 F2100.00000
G1 Z0.800 F10800.000
;AFTER_LAYER_CHANGE
;0.4
M104 S210 ; set temperature
G1 X159.044 Y97.076
G1 Z0.400
G1 E0.80000 F2100.00000
G1 F1626
G1 X159.717 Y97.486 E0.02473
G1 X160.203 Y98.112 E0.02484
G1 X160.435 Y98.870 E0.02484
G1 X160.449 Y101.364 E0.07821
G1 X160.346 Y101.967 E0.01919
G1 X160.141 Y102.423 E0.01567
G1 X159.837 Y102.820 E0.01567
G1 X159.452 Y103.138 E0.01567
G1 X159.005 Y103.360 E0.01567
G1 X108.880 Y117.846 E1.63593
G1 X106.171 Y117.906 E0.08496
G1 X105.576 Y117.818 E0.01885
G1 X105.106 Y117.619 E0.01601
G1 X104.692 Y117.314 E0.01612
G1 X104.361 Y116.921 E0.01612
G1 X104.131 Y116.461 E0.01612
G1 X104.001 Y115.734 E0.02315
G1 X104.006 Y98.970 E0.52563
G1 X104.139 Y98.354 E0.01976
G1 X104.442 Y97.802 E0.01976
G1 X104.890 Y97.359 E0.01976
G1 X105.446 Y97.061 E0.01976
G1 X106.183 Y96.931 E0.02349
G1 X158.265 Y96.931 E1.63297
G1 X158.985 Y97.065 E0.02296
G1 F8640
G1 X159.717 Y97.486 E-0.19514
G1 X160.203 Y98.112 E-0.18296
G1 X160.435 Y98.870 E-0.18296
G1 X160.440 Y99.731 E-0.19894
G1 E-0.04000 F2100.00000
G1 Z1.000 F10800.000
G1 X107.739 Y115.085
G1 Z0.400
G1 E0.80000 F2100.00000
M204 S800
G1 F1626
G1 X106.821 Y115.085 E0.03107
G1 X106.821 Y99.752 E0.51902
G1 X157.276 Y99.752 E1.70784
G1 X157.276 Y100.670 E0.03107
G1 X144.537 Y100.670 E0.43122
G1 X144.537 Y102.777 E0.07132
G1 X144.486 Y102.777 E0.00173
G1 X144.486 Y100.670 E0.07132
G1 X107.739 Y100.670 E1.24382
G1 X107.739 Y115.025 E0.48592
M204 S1000
G1 X108.146 Y115.492 F10800.000
M204 S800
G1 F1626
G1 X106.414 Y115.492 E0.05863
G1 X106.414 Y99.345 E0.54658
G1 X157.683 Y99.345 E1.73539
G1 X157.683 Y101.077 E0.05863
G1 X144.944 Y101.077 E0.43122
G1 X144.944 Y103.184 E0.07132
G1 X144.079 Y103.184 E0.02928
G1 X144.079 Y101.077 E0.07132
G1 X108.146 Y101.077 E1.21626
G1 X108.146 Y115.432 E0.48592
M204 S1000
G1 X107.904 Y115.174 F10800.000
G1 F8640
G1 X106.414 Y115.492 E-0.40019
G1 X106.414 Y113.934 E-0.35981
G1 E-0.04000 F2100.00000
G1 Z1.000 F10800.000
G1 X107.617 Y114.507
G1 Z0.400
G1 E0.80000 F2100.00000
M204 S2000
G1 F1626
G1 X107.344 Y114.780 E0.01315
G1 X107.127 Y114.780 E0.00741
G1 X107.127 Y114.418 E0.01231
G1 X107.434 Y114.111 E0.01480
G1 X107.434 Y113.532 E0.01972
G1 X107.127 Y113.839 E0.01480
G1 X107.127 Y113.260 E0.01972
G1 X107.434 Y112.953 E0.01480
G1 X107.434 Y112.374 E0.01972
G1 X107.127 Y112.681 E0.01480
G1 X107.127 Y112.102 E0.01972
G1 X107.434 Y111.794 E0.01480
G1 X107.434 Y111.215 E0.01972
G1 X107.127 Y111.523 E0.01480
G1 X107.127 Y110.944 E0.01972
G1 X107.434 Y110.636 E0.01480
G1 X107.434 Y110.057 E0.01972
G1 X107.127 Y110.364 E0.01480
G1 X107.127 Y109.785 E0.01972
G1 X107.434 Y109.478 E0.01480
G1 X107.434 Y108.899 E0.01972
G1 X107.127 Y109.206 E0.01480
G1 X107.127 Y108.627 E0.01972
G1 X107.434 Y108.320 E0.01480
G1 X107.434 Y107.740 E0.01972
G1 X107.127 Y108.048 E0.01480
G1 X107.127 Y107.469 E0.01972
G1 X107.434 Y107.161 E0.01480
G1 X107.434 Y106.582 E0.01972
G1 X107.127 Y106.889 E0.01480
G1 X107.127 Y106.310 E0.01972
G1 X107.434 Y106.003 E0.01480
G1 X107.434 Y105.424 E0.01972
G1 X107.127 Y105.731 E0.01480
G1 X107.127 Y105.152 E0.01972
G1 X107.434 Y104.845 E0.01480
G1 X107.434 Y104.265 E0.01972
G1 X107.127 Y104.573 E0.01480
G1 X107.127 Y103.994 E0.01972
G1 X107.434 Y103.686 E0.01480
G1 X107.434 Y103.107 E0.01972
G1 X107.127 Y103.415 E0.01480
G1 X107.127 Y102.835 E0.01972
G1 X107.434 Y102.528 E0.01480
G1 X107.434 Y101.949 E0.01972
M73 P4 R25
G1 X107.127 Y102.256 E0.01480
G1 X107.127 Y101.677 E0.01972
G1 X107.434 Y101.370 E0.01480
G1 X107.434 Y100.791 E0.01972
G1 X107.127 Y101.098 E0.01480
G1 X107.127 Y100.519 E0.01972
G1 X107.588 Y100.057 E0.02223
G1 X108.167 Y100.057 E0.01972
G1 X107.860 Y100.365 E0.01480
G1 X108.439 Y100.365 E0.01972
G1 X108.747 Y100.057 E0.01480
G1 X109.326 Y100.057 E0.01972
G1 X109.018 Y100.365 E0.01480
G1 X109.597 Y100.365 E0.01972
G1 X109.905 Y100.057 E0.01480
G1 X110.484 Y100.057 E0.01972
G1 X110.177 Y100.365 E0.01480
G1 X110.756 Y100.365 E0.01972
G1 X111.063 Y100.057 E0.01480
G1 X111.642 Y100.057 E0.01972
G1 X111.335 Y100.365 E0.01480
G1 X111.914 Y100.365 E0.01972
G1 X112.221 Y100.057 E0.01480
G1 X112.801 Y100.057 E0.01972
G1 X112.493 Y100.365 E0.01480
G1 X113.072 Y100.365 E0.01972
G1 X113.380 Y100.057 E0.01480
G1 X113.959 Y100.057 E0.01972
G1 X113.652 Y100.365 E0.01480
G1 X114.231 Y100.365 E0.01972
G1 X114.538 Y100.057 E0.01480
G1 X115.117 Y100.057 E0.01972
G1 X114.810 Y100.365 E0.01480
G1 X115.389 Y100.365 E0.01972
G1 X115.696 Y100.057 E0.01480
G1 X116.276 Y100.057 E0.01972
G1 X115.968 Y100.365 E0.01480
G1 X116.547 Y100.365 E0.01972
G1 X116.855 Y100.057 E0.01480
G1 X117.434 Y100.057 E0.01972
G1 X117.127 Y100.365 E0.01480
G1 X117.706 Y100.365 E0.01972
G1 X118.013 Y100.057 E0.01480
G1 X118.592 Y100.057 E0.01972
G1 X118.285 Y100.365 E0.01480
G1 X118.864 Y100.365 E0.01972
G1 X119.171 Y100.057 E0.01480
G1 X119.751 Y100.057 E0.01972
G1 X119.443 Y100.365 E0.01480
G1 X120.022 Y100.365 E0.01972
G1 X120.330 Y100.057 E0.01480
G1 X120.909 Y100.057 E0.01972
G1 X120.601 Y100.365 E0.01480
G1 X121.181 Y100.365 E0.01972
G1 X121.488 Y100.057 E0.01480
G1 X122.067 Y100.057 E0.01972
G1 X121.760 Y100.365 E0.01480
G1 X122.339 Y100.365 E0.01972
G1 X122.646 Y100.057 E0.01480
G1 X123.225 Y100.057 E0.01972
