; generated by PrusaSlicer 2.1.1+win64 on 2020-05-14 at 18:00:13 UTC

; 

; external perimeters extrusion width = 0.45mm
; perimeters extrusion width = 0.45mm
; infill extrusion width = 0.45mm
; solid infill extrusion width = 0.45mm
; top infill extrusion width = 0.40mm
; support material extrusion width = 0.35mm
; first layer extrusion width = 0.42mm

M73 P0 R87
M201 X9000 Y9000 Z500 E10000 ; sets maximum accelerations, mm/sec^2
M203 X500 Y500 Z12 E120 ; sets maximum feedrates, mm/sec
M204 P2000 R1500 T2000 ; sets acceleration (P, T) and retract acceleration (R), mm/sec^2
M205 X10.00 Y10.00 Z0.20 E4.50 ; sets the jerk limits, mm/sec
M205 S0 T0 ; sets the minimum extruding and travel feed rate, mm/sec
M107
M862.3 P "MK2.5SMMU2S" ; printer model check
M862.1 P0.4 ; nozzle diameter check
M115 U3.8.1 ; tell printer latest fw version
G90 ; use absolute coordinates
M83 ; extruder relative mode
M104 S215 ; set extruder temp
M140 S60 ; set bed temp
Tx
M190 S60 ; wait for bed temp
M109 S215 ; wait for extruder temp
G28 W ; home all without mesh bed level
G80 ; mesh bed leveling

;go outside print area
G1 Y-3.0 F1000.0
G1 Z0.4 F1000.0
; select extruder
Tc
; purge line
G1 X55.0 F2000.0
G1 Z0.3 F1000.0
G92 E0.0
G1 X240.0 E25.0 F2200.0
M73 P0 R87
G1 Y-2.0 F1000.0
G1 X55.0 E25 F1400.0
G1 Z0.20 F1000.0
G1 X5.0 E4.0 F1000.0
G92 E0.0
G21 ; set units to millimeters
G90 ; use absolute coordinates
M83 ; use relative distances for extrusion
M900 K30 ; Filament gcode
;BEFORE_LAYER_CHANGE
G92 E0.0
;0.2


G1 E-0.80000 F2100.00000
G1 Z0.600 F10800.000
;AFTER_LAYER_CHANGE
;0.2
G1 X106.357 Y72.219
G1 Z0.200
G1 E0.80000 F2100.00000
M204 S1000
G1 F1200
G1 X106.731 Y71.694 E0.02021
G1 X114.357 Y64.069 E0.33814
G1 X115.002 Y63.634 E0.02439
G1 X115.700 Y63.456 E0.02259
G1 X121.700 Y63.073 E0.18852
G1 X128.321 Y63.071 E0.20759
G1 X132.262 Y63.437 E0.12410
G1 X132.777 Y63.585 E0.01680
G1 X133.241 Y63.854 E0.01680
G1 X142.576 Y73.161 E0.41331
G1 X142.949 Y73.700 E0.02055
G1 X143.146 Y74.321 E0.02044
G1 X139.780 Y135.216 E1.91222
G1 X139.603 Y135.833 E0.02013
G1 X139.268 Y136.464 E0.02239
G1 X138.849 Y136.946 E0.02002
G1 X138.301 Y137.325 E0.02093
G1 X137.446 Y137.681 E0.02903
G1 X134.006 Y138.570 E0.11139
G1 X124.459 Y139.026 E0.29969
G1 X115.017 Y139.207 E0.29610
G1 X111.515 Y138.466 E0.11223
G1 X111.027 Y138.292 E0.01623
G1 X110.584 Y137.998 E0.01669
G1 X110.224 Y137.606 E0.01669
G1 X109.969 Y137.138 E0.01669
G1 X109.835 Y136.623 E0.01669
G1 X106.123 Y73.337 E1.98772
G1 X106.152 Y72.834 E0.01578
G1 X106.338 Y72.276 E0.01844
G1 F8640
G1 X106.731 Y71.694 E-0.16213
G1 X108.562 Y69.863 E-0.59787
G1 E-0.04000 F2100.00000
G1 Z0.800 F10800.000
G1 X115.884 Y65.637
G1 Z0.200
G1 E0.80000 F2100.00000
G1 F1200
G1 X108.308 Y73.212 E0.33592
G1 X108.841 Y73.746 E0.02365
G1 X116.297 Y66.290 E0.33060
G1 X116.830 Y66.823 E0.02365
G1 X109.374 Y74.279 E0.33060
G1 X109.908 Y74.812 E0.02365
G1 X118.995 Y65.725 E0.40294
G1 X119.528 Y66.258 E0.02365
G1 X110.441 Y75.345 E0.40294
G1 X110.974 Y75.879 E0.02365
G1 X120.061 Y66.792 E0.40294
G1 X120.161 Y66.891 E0.00442
G1 X121.792 Y65.260 E0.07234
G1 X122.226 Y65.693 E0.01923
G1 X111.507 Y76.412 E0.47527
G1 X112.041 Y76.945 E0.02365
G1 X122.759 Y66.227 E0.47527
G1 X123.292 Y66.760 E0.02365
G1 X112.574 Y77.478 E0.47527
G1 X113.107 Y78.012 E0.02365
G1 X125.457 Y65.662 E0.54761
G1 X125.990 Y66.195 E0.02365
G1 X113.641 Y78.545 E0.54761
G1 X114.174 Y79.078 E0.02365
G1 X126.524 Y66.728 E0.54761
G1 X126.686 Y66.891 E0.00721
G1 X128.318 Y65.260 E0.07234
G1 X128.688 Y65.630 E0.01643
G1 X114.707 Y79.612 E0.61995
G1 X115.240 Y80.145 E0.02365
G1 X129.221 Y66.164 E0.61995
G1 X129.755 Y66.697 E0.02365
G1 X117.405 Y79.047 E0.54761
G1 X117.938 Y79.580 E0.02365
G1 X131.919 Y65.599 E0.61995
G1 X132.453 Y66.132 E0.02365
G1 X118.471 Y80.113 E0.61995
G1 X118.530 Y80.171 E0.00257
G1 X120.161 Y78.540 E0.07234
G1 X120.636 Y79.015 E0.02107
G1 X132.986 Y66.665 E0.54761
G1 X133.519 Y67.199 E0.02365
G1 X121.169 Y79.548 E0.54761
G1 X121.703 Y80.082 E0.02365
G1 X134.052 Y67.732 E0.54761
G1 X134.586 Y68.265 E0.02365
G1 X123.867 Y78.984 E0.47527
G1 X124.401 Y79.517 E0.02365
G1 X135.119 Y68.798 E0.47527
G1 X135.652 Y69.332 E0.02365
G1 X124.814 Y80.170 E0.48059
G1 F8640
G1 X127.141 Y77.843 E-0.76000
G1 E-0.04000 F2100.00000
G1 Z0.800 F10800.000
G1 X134.372 Y77.011
G1 Z0.200
G1 E0.80000 F2100.00000
G1 F1200
G1 X131.396 Y79.987 E0.13195
G1 X130.863 Y79.454 E0.02365
G1 X134.203 Y76.114 E0.14811
G1 X134.204 Y75.046 E0.03348
G1 X130.330 Y78.921 E0.17180
G1 X129.949 Y78.540 E0.01688
G1 X128.318 Y80.171 E0.07234
G1 X128.165 Y80.019 E0.00677
G1 X134.205 Y73.978 E0.26784
G1 X134.206 Y72.911 E0.03348
G1 X127.632 Y79.485 E0.29153
G1 X127.098 Y78.952 E0.02365
G1 X136.186 Y69.865 E0.40294
G1 X136.719 Y70.398 E0.02365
G1 X134.928 Y72.190 E0.07943
G1 X135.994 Y72.190 E0.03344
G1 X137.252 Y70.932 E0.05578
G1 X137.785 Y71.465 E0.02365
G1 X136.967 Y72.283 E0.03629
G1 X137.184 Y72.504 E0.00971
G1 X137.173 Y73.144 E0.02006
G1 X138.319 Y71.998 E0.05080
G1 X138.852 Y72.531 E0.02365
G1 X137.177 Y74.206 E0.07426
G1 X137.201 Y75.075 E0.02725
G1 X137.178 Y75.189 E0.00366
G1 X137.260 Y75.189 E0.00257
G1 X139.385 Y73.065 E0.09422
G1 X139.918 Y73.598 E0.02365
G1 X138.327 Y75.189 E0.07057
G1 X139.393 Y75.189 E0.03344
G1 X140.452 Y74.131 E0.04693
G1 X140.985 Y74.664 E0.02365
G1 X140.290 Y75.359 E0.03080
G1 F8640
G1 X140.985 Y74.664 E-0.22685
G1 X140.452 Y74.131 E-0.17414
G1 X139.393 Y75.189 E-0.34558
G1 X139.335 Y75.189 E-0.01343
G1 E-0.04000 F2100.00000
G1 Z0.800 F10800.000
G1 X124.361 Y136.244
G1 Z0.200
G1 E0.80000 F2100.00000
G1 F1200
G1 X124.137 Y136.219 E0.00706
G1 X123.964 Y136.242 E0.00547
G1 X123.584 Y136.183 E0.01204
G1 X123.444 Y136.148 E0.00453
G1 X123.256 Y136.059 E0.00653
G1 X122.948 Y135.969 E0.01005
G1 X122.674 Y135.939 E0.00863
G1 X122.465 Y135.973 E0.00666
G1 X121.765 Y136.225 E0.02331
G1 X121.499 Y136.249 E0.00839
G1 X121.254 Y136.204 E0.00781
G1 X120.788 Y136.165 E0.01466
G1 X120.570 Y136.184 E0.00685
G1 X120.326 Y136.177 E0.00766
G1 X119.885 Y136.230 E0.01393
G1 X119.546 Y136.306 E0.01089
G1 X119.080 Y136.327 E0.01463
G1 X118.609 Y136.285 E0.01482
G1 X117.866 Y136.345 E0.02338
G1 X117.296 Y136.332 E0.01786
G1 X116.874 Y136.290 E0.01329
G1 X116.423 Y136.328 E0.01422
G1 X115.794 Y136.435 E0.02000
G1 X115.523 Y136.454 E0.00851
G1 X115.108 Y136.279 E0.01413
G1 X114.983 Y136.254 E0.00398
G1 X114.871 Y136.189 E0.00407
G1 X114.690 Y136.058 E0.00700
G1 X114.169 Y135.525 E0.02336
G1 X113.974 Y135.393 E0.00739
G1 X129.043 Y135.393 E0.47248
G1 X128.607 Y135.771 E0.01810
G1 X128.514 Y135.823 E0.00335
G1 X127.349 Y135.998 E0.03692
G1 X126.037 Y136.147 E0.04142
G1 X125.408 Y136.129 E0.01972
G1 X125.006 Y136.155 E0.01263
G1 X124.713 Y136.202 E0.00932
G1 X124.587 Y136.199 E0.00394
G1 X124.419 Y136.233 E0.00536
G1 F8640
G1 X124.137 Y136.219 E-0.06532
G1 X123.964 Y136.242 E-0.04027
G1 X123.584 Y136.183 E-0.08869
G1 X123.444 Y136.148 E-0.03339
G1 X123.256 Y136.059 E-0.04806
G1 X122.948 Y135.969 E-0.07403
G1 X122.674 Y135.939 E-0.06356
G1 X122.465 Y135.973 E-0.04904
G1 X121.765 Y136.225 E-0.17166
G1 X121.499 Y136.249 E-0.06179
G1 X121.254 Y136.204 E-0.05749
G1 X121.225 Y136.201 E-0.00671
G1 E-0.04000 F2100.00000
G1 Z0.800 F10800.000
G1 X132.026 Y135.776
G1 Z0.200
G1 E0.80000 F2100.00000
G1 F1200
G1 X131.714 Y135.724 E0.00994
G1 X131.494 Y135.723 E0.00690
G1 X131.255 Y135.672 E0.00765
G1 X130.597 Y135.393 E0.02241
G1 X134.444 Y135.393 E0.12062
G1 X134.204 Y135.561 E0.00921
G1 X133.879 Y135.683 E0.01086
G1 X133.166 Y135.804 E0.02269
G1 X132.882 Y135.822 E0.00892
G1 X132.334 Y135.767 E0.01727
G1 X132.086 Y135.774 E0.00776
G1 F8640
G1 X131.714 Y135.724 E-0.08684
G1 X131.494 Y135.723 E-0.05081
G1 X131.255 Y135.672 E-0.05632
G1 X130.597 Y135.393 E-0.16505
G1 X132.334 Y135.393 E-0.40098
G1 E-0.04000 F2100.00000
G1 Z0.800 F10800.000
G1 X112.591 Y135.428
G1 Z0.200
G1 E0.80000 F2100.00000
G1 F1200
G1 X112.591 Y91.754 E1.36935
G1 X112.660 Y91.754 E0.00216
G1 X112.660 Y135.393 E1.36826
G1 X112.683 Y135.393 E0.00071
G1 X112.647 Y135.406 E0.00119
G1 F8640
G1 X112.643 Y132.115 E-0.76000
G1 E-0.04000 F2100.00000
G1 Z0.800 F10800.000
G1 X135.256 Y134.838
G1 Z0.200
G1 E0.80000 F2100.00000
G1 F1200
G1 X135.287 Y104.533 E0.95020
G1 X135.374 Y105.019 E0.01547
G1 X135.371 Y105.229 E0.00660
G1 X135.428 Y105.782 E0.01744
G1 X135.434 Y106.236 E0.01424
G1 X135.775 Y108.502 E0.07184
G1 X135.809 Y109.189 E0.02157
G1 X135.928 Y109.577 E0.01272
G1 X136.138 Y110.705 E0.03597
G1 X136.124 Y110.876 E0.00538
G1 X136.140 Y111.156 E0.00878
G1 X136.381 Y114.416 E0.10250
G1 X136.419 Y115.361 E0.02965
G1 X136.270 Y115.759 E0.01332
G1 X136.201 Y116.183 E0.01347
G1 X136.056 Y116.518 E0.01144
G1 X136.106 Y116.750 E0.00744
G1 X135.993 Y116.931 E0.00671
G1 X135.983 Y117.055 E0.00390
G1 X135.686 Y117.305 E0.01216
G1 X135.895 Y117.795 E0.01672
G1 X135.846 Y118.422 E0.01973
G1 X135.678 Y119.325 E0.02877
G1 X135.666 Y119.807 E0.01512
G1 X135.627 Y120.107 E0.00950
G1 X135.700 Y120.509 E0.01280
G1 X135.748 Y120.660 E0.00496
G1 X135.864 Y121.772 E0.03508
G1 X136.010 Y122.376 E0.01948
G1 X136.075 Y122.839 E0.01463
G1 X136.100 Y123.720 E0.02764
G1 X136.201 Y125.552 E0.05754
G1 X136.127 Y126.388 E0.02630
G1 X136.083 Y126.639 E0.00800
G1 X136.081 Y127.223 E0.01832
G1 X136.280 Y128.256 E0.03297
G1 X136.608 Y129.645 E0.04476
G1 X136.527 Y131.127 E0.04654
G1 X136.568 Y131.577 E0.01416
G1 X136.487 Y132.499 E0.02902
G1 X136.516 Y133.042 E0.01707
G1 X136.547 Y133.357 E0.00990
G1 X136.716 Y133.844 E0.01616
G1 X136.758 Y134.129 E0.00904
G1 X136.841 Y134.433 E0.00988
G1 X137.019 Y134.718 E0.01053
G1 X137.000 Y134.796 E0.00251
G1 X136.937 Y134.873 E0.00314
G1 X136.837 Y134.896 E0.00321
G1 X136.598 Y134.873 E0.00754
G1 X136.178 Y134.716 E0.01406
G1 X136.094 Y134.708 E0.00263
G1 X135.291 Y134.252 E0.02894
G1 X135.284 Y134.792 E0.01693
G1 F8640
G1 X135.285 Y131.501 E-0.76000
G1 E-0.04000 F2100.00000
G1 Z0.800 F10800.000
G1 X135.299 Y92.949
G1 Z0.200
G1 E0.80000 F2100.00000
G1 F1200
G1 X135.319 Y73.303 E0.61601
M73 P1 R86
G1 X136.055 Y73.303 E0.02308
G1 X136.047 Y73.677 E0.01173
G1 X136.083 Y74.925 E0.03916
G1 X136.028 Y75.058 E0.00451
G1 X135.821 Y75.813 E0.02455
G1 X135.652 Y76.217 E0.01376
G1 X135.566 Y76.323 E0.00426
G1 X135.399 Y76.629 E0.01094
G1 X135.421 Y77.060 E0.01352
G1 X135.392 Y77.666 E0.01904
G1 X135.486 Y78.337 E0.02122
G1 X135.631 Y78.913 E0.01862
G1 X135.649 Y79.413 E0.01570
G1 X136.006 Y80.611 E0.03918
G1 X136.151 Y82.097 E0.04683
G1 X136.223 Y82.428 E0.01063
G1 X136.230 Y83.928 E0.04701
G1 X136.006 Y85.350 E0.04514
G1 X135.920 Y85.637 E0.00940
G1 X135.900 Y86.413 E0.02433
G1 X135.992 Y86.894 E0.01538
G1 X136.017 Y87.279 E0.01208
G1 X136.003 Y88.401 E0.03519
G1 X135.968 Y88.841 E0.01383
G1 X135.971 Y89.196 E0.01114
G1 X135.873 Y90.339 E0.03599
G1 X135.837 Y90.529 E0.00606
G1 X135.759 Y91.350 E0.02586
G1 X135.313 Y92.891 E0.05029
G1 F8640
G1 X135.314 Y89.600 E-0.76000
G1 E-0.04000 F2100.00000
G1 Z0.800 F10800.000
G1 X124.376 Y136.626
G1 Z0.200
G1 E0.80000 F2100.00000
G1 F1200
G1 X124.140 Y136.599 E0.00745
G1 X123.960 Y136.623 E0.00570
G1 X123.509 Y136.553 E0.01430
G1 X123.317 Y136.504 E0.00622
G1 X123.122 Y136.413 E0.00675
G1 X122.873 Y136.340 E0.00812
G1 X122.684 Y136.319 E0.00597
G1 X122.560 Y136.340 E0.00394
G1 X121.848 Y136.596 E0.02376
G1 X121.481 Y136.629 E0.01154
G1 X121.204 Y136.578 E0.00883
G1 X120.789 Y136.544 E0.01306
G1 X120.581 Y136.562 E0.00654
G1 X120.343 Y136.555 E0.00747
G1 X119.948 Y136.602 E0.01246
G1 X119.596 Y136.681 E0.01132
G1 X119.071 Y136.705 E0.01646
G1 X118.607 Y136.663 E0.01462
G1 X117.877 Y136.723 E0.02298
G1 X117.273 Y136.709 E0.01894
G1 X116.871 Y136.668 E0.01266
G1 X116.470 Y136.702 E0.01262
G1 X115.839 Y136.810 E0.02009
G1 X115.439 Y136.837 E0.01254
G1 X115.278 Y136.749 E0.00578
G1 X115.002 Y136.642 E0.00927
G1 X114.849 Y136.612 E0.00490
G1 X114.665 Y136.506 E0.00666
G1 X114.443 Y136.344 E0.00862
G1 X113.925 Y135.816 E0.02317
G1 X113.659 Y135.634 E0.01012
G1 X113.511 Y135.589 E0.00486
G1 X113.321 Y135.602 E0.00595
G1 X112.839 Y135.737 E0.01569
G1 X112.214 Y135.975 E0.02097
G1 X112.214 Y91.377 E1.39833
G1 X113.037 Y91.377 E0.02581
G1 X113.037 Y135.016 E1.36826
G1 X134.878 Y135.016 E0.68481
G1 X134.942 Y72.926 E1.94679
G1 X136.440 Y72.926 E0.04696
G1 X136.425 Y73.675 E0.02350
G1 X136.463 Y74.994 E0.04139
G1 X136.386 Y75.180 E0.00630
G1 X136.179 Y75.936 E0.02457
G1 X135.979 Y76.413 E0.01622
G1 X135.881 Y76.534 E0.00488
G1 X135.781 Y76.716 E0.00652
G1 X135.798 Y77.059 E0.01076
G1 X135.770 Y77.649 E0.01852
G1 X135.856 Y78.264 E0.01947
G1 X136.007 Y78.859 E0.01924
G1 X136.024 Y79.351 E0.01545
G1 X136.378 Y80.538 E0.03881
G1 X136.524 Y82.038 E0.04727
G1 X136.600 Y82.387 E0.01118
G1 X136.607 Y83.956 E0.04922
G1 X136.374 Y85.434 E0.04689
G1 X136.296 Y85.697 E0.00861
G1 X136.278 Y86.382 E0.02149
G1 X136.367 Y86.847 E0.01484
G1 X136.395 Y87.269 E0.01327
G1 X136.380 Y88.419 E0.03606
G1 X136.345 Y88.854 E0.01369
G1 X136.349 Y89.210 E0.01116
G1 X136.247 Y90.391 E0.03718
G1 X136.210 Y90.583 E0.00611
G1 X136.131 Y91.421 E0.02641
G1 X135.684 Y92.958 E0.05019
G1 X135.598 Y93.322 E0.01171
G1 X135.587 Y93.540 E0.00686
G1 X135.378 Y94.965 E0.04517
G1 X135.370 Y95.476 E0.01602
G1 X135.289 Y96.378 E0.02839
G1 X135.273 Y97.606 E0.03851
G1 X135.233 Y97.867 E0.00828
G1 X135.085 Y98.382 E0.01681
G1 X135.168 Y98.803 E0.01343
G1 X135.247 Y99.042 E0.00789
G1 X135.227 Y99.440 E0.01249
G1 X135.389 Y100.071 E0.02044
G1 X135.367 Y100.328 E0.00809
G1 X135.518 Y101.497 E0.03695
G1 X135.461 Y103.107 E0.05051
G1 X135.529 Y103.742 E0.02002
G1 X135.751 Y104.987 E0.03966
G1 X135.749 Y105.212 E0.00704
G1 X135.805 Y105.761 E0.01729
G1 X135.811 Y106.206 E0.01396
G1 X136.151 Y108.465 E0.07163
G1 X136.183 Y109.123 E0.02068
G1 X136.296 Y109.490 E0.01202
G1 X136.519 Y110.682 E0.03802
G1 X136.502 Y110.881 E0.00626
G1 X136.516 Y111.131 E0.00785
G1 X136.758 Y114.394 E0.10261
G1 X136.799 Y115.422 E0.03224
G1 X136.636 Y115.856 E0.01454
G1 X136.566 Y116.289 E0.01377
G1 X136.450 Y116.556 E0.00912
G1 X136.507 Y116.819 E0.00844
G1 X136.361 Y117.054 E0.00865
G1 X136.345 Y117.243 E0.00596
G1 X136.142 Y117.413 E0.00831
G1 X136.275 Y117.726 E0.01066
G1 X136.260 Y118.073 E0.01089
G1 X136.219 Y118.476 E0.01269
G1 X136.054 Y119.364 E0.02832
G1 X136.042 Y119.835 E0.01478
G1 X136.009 Y120.097 E0.00828
G1 X136.067 Y120.418 E0.01023
G1 X136.119 Y120.582 E0.00541
G1 X136.237 Y121.708 E0.03550
G1 X136.381 Y122.306 E0.01927
G1 X136.451 Y122.807 E0.01586
G1 X136.477 Y123.704 E0.02814
G1 X136.579 Y125.558 E0.05823
G1 X136.502 Y126.437 E0.02766
G1 X136.460 Y126.672 E0.00750
G1 X136.459 Y127.188 E0.01616
G1 X136.648 Y128.176 E0.03153
G1 X136.965 Y129.475 E0.04194
G1 X136.987 Y129.629 E0.00487
G1 X136.905 Y131.120 E0.04683
G1 X136.947 Y131.576 E0.01436
G1 X136.865 Y132.505 E0.02925
G1 X136.892 Y133.014 E0.01596
G1 X136.918 Y133.275 E0.00825
G1 X137.083 Y133.753 E0.01586
G1 X137.128 Y134.051 E0.00944
G1 X137.190 Y134.280 E0.00745
G1 X137.386 Y134.593 E0.01155
G1 X137.408 Y134.716 E0.00393
G1 X137.346 Y134.968 E0.00814
G1 X137.190 Y135.160 E0.00777
G1 X137.092 Y135.225 E0.00367
G1 X136.879 Y135.279 E0.00691
G1 X136.625 Y135.254 E0.00800
G1 X136.586 Y135.271 E0.00134
G1 X136.092 Y135.086 E0.01653
G1 X135.977 Y135.075 E0.00359
G1 X135.660 Y134.895 E0.01144
G1 X135.658 Y135.061 E0.00521
G1 X135.490 Y135.133 E0.00572
G1 X134.973 Y135.520 E0.02026
G1 X134.580 Y135.750 E0.01426
G1 X134.395 Y135.889 E0.00727
G1 X133.970 Y136.051 E0.01427
G1 X133.210 Y136.179 E0.02416
G1 X132.875 Y136.200 E0.01050
G1 X132.320 Y136.145 E0.01749
G1 X132.000 Y136.153 E0.01003
G1 X131.682 Y136.101 E0.01012
G1 X131.453 Y136.100 E0.00717
G1 X131.147 Y136.034 E0.00981
G1 X130.830 Y135.912 E0.01066
G1 X129.954 Y135.516 E0.03015
G1 X129.541 Y135.506 E0.01295
G1 X129.186 Y135.752 E0.01355
G1 X128.829 Y136.079 E0.01518
G1 X128.637 Y136.186 E0.00688
G1 X127.398 Y136.372 E0.03928
G1 X126.053 Y136.525 E0.04246
G1 X125.415 Y136.507 E0.02001
G1 X125.048 Y136.531 E0.01153
G1 X124.738 Y136.579 E0.00983
G1 X124.620 Y136.577 E0.00369
G1 X124.435 Y136.614 E0.00592
G1 X124.265 Y136.416 F10800.000
