; generated by PrusaSlicer 2.2.0+win64 on 2020-07-16 at 17:16:07 UTC

; 

; external perimeters extrusion width = 0.60mm
; perimeters extrusion width = 0.43mm
; infill extrusion width = 0.45mm
; solid infill extrusion width = 0.70mm
; top infill extrusion width = 0.43mm
; first layer extrusion width = 0.42mm

M73 P0 R8
M201 X9000 Y9000 Z500 E10000 ; sets maximum accelerations, mm/sec^2
M203 X500 Y500 Z12 E120 ; sets maximum feedrates, mm/sec
M204 P2000 R1500 T2000 ; sets acceleration (P, T) and retract acceleration (R), mm/sec^2
M205 X10.00 Y10.00 Z0.20 E4.50 ; sets the jerk limits, mm/sec
M205 S0 T0 ; sets the minimum extruding and travel feed rate, mm/sec
M107
M862.3 P "MK2.5SMMU2S" ; printer model check
M862.1 P0.4 ; nozzle diameter check
M115 U3.9.0 ; tell printer latest fw version
G90 ; use absolute coordinates
M83 ; extruder relative mode
M104 S215 ; set extruder temp
M140 S60 ; set bed temp
Tx
M190 S60 ; wait for bed temp
M109 S215 ; wait for extruder temp
G28 W ; home all without mesh bed level
G80 ; mesh bed leveling

;go outside print area
G1 Y-3.0 F1000.0
G1 Z0.4 F1000.0
; select extruder
Tc
; purge line
G1 X55.0 F2000.0
G1 Z0.3 F1000.0
G92 E0.0
G1 X240.0 E25.0 F2200.0
M73 P1 R8
G1 Y-2.0 F1000.0
G1 X55.0 E25 F1400.0
G1 Z0.20 F1000.0
G1 X5.0 E4.0 F1000.0
G92 E0.0
G21 ; set units to millimeters
G90 ; use absolute coordinates
M83 ; use relative distances for extrusion
M900 K0.06 ; Filament gcode LA 1.5
M900 K30 ; Filament gcode LA 1.0
;BEFORE_LAYER_CHANGE
G92 E0.0
;0.2


G1 E-0.80000 F2100.00000
G1 Z0.600 F10800.000
;AFTER_LAYER_CHANGE
;0.2
G1 X142.509 Y95.063
G1 Z0.200
G1 E0.80000 F2100.00000
M204 S1000
G1 F1143
G1 X142.769 Y96.057 E0.03221
G1 X142.770 Y113.922 E0.56015
G1 X142.660 Y114.542 E0.01975
G1 X142.412 Y115.121 E0.01975
G1 X142.039 Y115.629 E0.01975
G1 X141.560 Y116.038 E0.01975
G1 X140.846 Y116.382 E0.02485
G1 X140.063 Y116.508 E0.02485
G1 X109.917 Y116.507 E0.94520
G1 X109.265 Y116.414 E0.02065
G1 X108.658 Y116.171 E0.02052
G1 X108.125 Y115.791 E0.02052
G1 X107.694 Y115.293 E0.02065
G1 X107.402 Y114.726 E0.02001
G1 X107.247 Y114.106 E0.02001
G1 X107.251 Y111.866 E0.07025
G1 X107.390 Y111.306 E0.01809
G1 X107.643 Y110.787 E0.01809
G1 X107.998 Y110.332 E0.01809
G1 X108.440 Y109.962 E0.01809
G1 X136.746 Y93.805 E1.02192
G1 X137.236 Y93.606 E0.01656
G1 X137.758 Y93.504 E0.01669
G1 X140.025 Y93.492 E0.07109
G1 X141.034 Y93.685 E0.03221
G1 X141.902 Y94.234 E0.03221
G1 X142.473 Y95.015 E0.03032
G1 X142.170 Y95.234 F10800.000
G1 F1143
G1 X142.394 Y96.104 E0.02818
G1 X142.395 Y113.883 E0.55746
G1 X142.300 Y114.430 E0.01740
G1 X142.083 Y114.937 E0.01728
G1 X141.756 Y115.380 E0.01728
G1 X141.335 Y115.735 E0.01728
G1 X140.724 Y116.025 E0.02119
G1 X140.053 Y116.131 E0.02130
G1 X109.929 Y116.131 E0.94451
G1 X109.365 Y116.050 E0.01787
G1 X108.833 Y115.837 E0.01799
G1 X108.370 Y115.504 E0.01787
G1 X107.997 Y115.067 E0.01799
G1 X107.747 Y114.572 E0.01740
G1 X107.618 Y114.033 E0.01740
G1 X107.624 Y111.919 E0.06625
G1 X107.745 Y111.432 E0.01574
G1 X107.966 Y110.982 E0.01574
G1 X108.279 Y110.584 E0.01585
G1 X108.665 Y110.265 E0.01574
G1 X136.920 Y94.139 E1.02003
G1 X137.814 Y93.878 E0.02919
G1 X140.025 Y93.869 E0.06934
G1 X140.899 Y94.037 E0.02790
G1 X141.653 Y94.517 E0.02802
G1 X142.135 Y95.185 E0.02583
G1 F8640.000
G1 X142.394 Y96.104 E-0.22049
G1 X142.394 Y98.441 E-0.53951
G1 E-0.04000 F2100.00000
G1 Z0.800 F10800.000
G1 X139.234 Y97.033
G1 Z0.200
G1 E0.80000 F2100.00000
G1 F1143
G1 X139.234 Y112.967 E0.49960
G1 X138.808 Y112.967 E0.01335
G1 X138.808 Y97.033 E0.49960
G1 X139.174 Y97.033 E0.01147
G1 F8640.000
G1 X139.187 Y100.324 E-0.76000
G1 E-0.04000 F2100.00000
G1 Z0.800 F10800.000
G1 X138.431 Y112.656
G1 Z0.200
G1 E0.80000 F2100.00000
G1 F1143
G1 X138.431 Y96.656 E0.50167
G1 X139.611 Y96.656 E0.03700
G1 X139.611 Y113.344 E0.52324
G1 X110.389 Y113.344 E0.91625
G1 X110.389 Y112.656 E0.02157
G1 X138.371 Y112.656 E0.87737
G1 X138.831 Y112.653 F10800.000
G1 F8640.000
G1 X138.384 Y109.365 E-0.76000
G1 E-0.04000 F2100.00000
G1 Z0.800 F10800.000
G1 X110.577 Y113.000
G1 Z0.200
G1 E0.80000 F2100.00000
G1 F1143
G1 X138.620 Y113.000 E0.72508
M106 S255
;BEFORE_LAYER_CHANGE
G92 E0.0
;0.55


G1 F8640.000
G1 X135.328 Y113.000 E-0.76000
G1 E-0.04000 F2100.00000
G1 Z0.800 F10800.000
;AFTER_LAYER_CHANGE
;0.55
M104 S210 ; set temperature
G1 X142.509 Y95.063
G1 Z0.550
G1 E0.80000 F2100.00000
G1 F1227
G1 X142.769 Y96.057 E0.05155
G1 X142.770 Y113.922 E0.89658
G1 X142.660 Y114.542 E0.03162
G1 X142.412 Y115.121 E0.03162
G1 X142.039 Y115.629 E0.03162
G1 X141.560 Y116.038 E0.03162
G1 X140.846 Y116.382 E0.03978
G1 X140.063 Y116.508 E0.03978
G1 X109.917 Y116.507 E1.51289
G1 X109.265 Y116.414 E0.03305
G1 X108.658 Y116.171 E0.03284
G1 X108.125 Y115.791 E0.03284
G1 X107.694 Y115.293 E0.03305
G1 X107.402 Y114.726 E0.03203
G1 X107.247 Y114.106 E0.03203
G1 X107.251 Y111.866 E0.11244
G1 X107.390 Y111.306 E0.02896
G1 X107.643 Y110.787 E0.02896
G1 X107.998 Y110.332 E0.02896
G1 X108.440 Y109.962 E0.02896
G1 X136.746 Y93.805 E1.63570
G1 X137.236 Y93.606 E0.02650
G1 X137.758 Y93.504 E0.02671
G1 X140.025 Y93.492 E0.11379
G1 X141.034 Y93.685 E0.05155
G1 X141.902 Y94.234 E0.05155
G1 X142.473 Y95.015 E0.04854
G1 X142.170 Y95.234 F10800.000
G1 F1227
G1 X142.394 Y96.104 E0.04511
G1 X142.395 Y113.883 E0.89228
G1 X142.300 Y114.430 E0.02785
G1 X142.083 Y114.937 E0.02766
G1 X141.756 Y115.380 E0.02766
G1 X141.335 Y115.735 E0.02766
G1 X140.724 Y116.025 E0.03391
G1 X140.053 Y116.131 E0.03410
G1 X109.929 Y116.131 E1.51178
G1 X109.365 Y116.050 E0.02860
G1 X108.833 Y115.837 E0.02879
G1 X108.370 Y115.504 E0.02860
G1 X107.997 Y115.067 E0.02879
G1 X107.747 Y114.572 E0.02785
G1 X107.618 Y114.033 E0.02785
G1 X107.624 Y111.919 E0.10605
G1 X107.745 Y111.432 E0.02519
G1 X107.966 Y110.982 E0.02519
G1 X108.279 Y110.584 E0.02538
G1 X108.665 Y110.265 E0.02519
G1 X136.920 Y94.139 E1.63267
G1 X137.814 Y93.878 E0.04672
G1 X140.025 Y93.869 E0.11098
G1 X140.899 Y94.037 E0.04466
G1 X141.653 Y94.517 E0.04485
G1 X142.135 Y95.185 E0.04135
G1 F8640.000
G1 X142.394 Y96.104 E-0.22049
G1 X142.394 Y98.441 E-0.53951
G1 E-0.04000 F2100.00000
G1 Z1.150 F10800.000
G1 X139.281 Y96.986
G1 Z0.550
G1 E0.80000 F2100.00000
M204 S800
G1 F1227
G1 X139.281 Y113.014 E0.82772
G1 X110.719 Y113.014 E1.47501
G1 X110.719 Y112.986 E0.00146
G1 X138.761 Y112.986 E1.44815
G1 X138.761 Y96.986 E0.82626
G1 X139.221 Y96.986 E0.02377
M204 S1000
G1 F8640.000
G1 X139.234 Y100.277 E-0.76000
G1 E-0.04000 F2100.00000
G1 Z1.150 F10800.000
G1 X138.321 Y112.546
G1 Z0.550
G1 E0.80000 F2100.00000
M204 S800
G1 F1227
G1 X138.321 Y96.546 E1.22205
G1 X139.721 Y96.546 E0.10693
G1 X139.721 Y113.454 E1.29141
G1 X110.279 Y113.454 E2.24877
G1 X110.279 Y112.546 E0.06935
G1 X138.261 Y112.546 E2.13726
M204 S1000
G1 X138.721 Y112.542 F10800.000
G1 F8640.000
G1 X138.274 Y109.255 E-0.76000
G1 E-0.04000 F2100.00000
G1 Z1.150 F10800.000
G1 X139.021 Y97.163
G1 Z0.550
G1 E0.80000 F2100.00000
G1 F1227
G1 X139.021 Y112.837 E0.37707
;BEFORE_LAYER_CHANGE
G92 E0.0
;0.9


G1 F8640.000
G1 X139.021 Y109.545 E-0.76000
G1 E-0.04000 F2100.00000
G1 Z1.150 F10800.000
;AFTER_LAYER_CHANGE
;0.9
G1 X142.509 Y95.063
G1 Z0.900
G1 E0.80000 F2100.00000
G1 F1226
G1 X142.769 Y96.057 E0.05155
G1 X142.770 Y113.922 E0.89658
G1 X142.660 Y114.542 E0.03162
G1 X142.412 Y115.121 E0.03162
G1 X142.039 Y115.629 E0.03162
G1 X141.560 Y116.038 E0.03162
G1 X140.846 Y116.382 E0.03978
G1 X140.063 Y116.508 E0.03978
G1 X109.917 Y116.507 E1.51289
G1 X109.265 Y116.414 E0.03305
G1 X108.658 Y116.171 E0.03284
G1 X108.125 Y115.791 E0.03284
G1 X107.694 Y115.293 E0.03305
G1 X107.402 Y114.726 E0.03203
G1 X107.247 Y114.106 E0.03203
G1 X107.251 Y111.866 E0.11244
G1 X107.390 Y111.306 E0.02896
G1 X107.643 Y110.787 E0.02896
G1 X107.998 Y110.332 E0.02896
G1 X108.440 Y109.962 E0.02896
G1 X136.746 Y93.805 E1.63570
G1 X137.236 Y93.606 E0.02650
G1 X137.758 Y93.504 E0.02671
G1 X140.025 Y93.492 E0.11379
G1 X141.034 Y93.685 E0.05155
G1 X141.902 Y94.234 E0.05155
G1 X142.473 Y95.015 E0.04854
G1 X142.170 Y95.234 F10800.000
G1 F1226
G1 X142.394 Y96.104 E0.04511
G1 X142.395 Y113.883 E0.89228
M73 P13 R7
G1 X142.300 Y114.430 E0.02785
G1 X142.083 Y114.937 E0.02766
G1 X141.756 Y115.380 E0.02766
G1 X141.335 Y115.735 E0.02766
G1 X140.724 Y116.025 E0.03391
G1 X140.053 Y116.131 E0.03410
G1 X109.929 Y116.131 E1.51178
G1 X109.365 Y116.050 E0.02860
G1 X108.833 Y115.837 E0.02879
G1 X108.370 Y115.504 E0.02860
G1 X107.997 Y115.067 E0.02879
G1 X107.747 Y114.572 E0.02785
G1 X107.618 Y114.033 E0.02785
G1 X107.624 Y111.919 E0.10605
G1 X107.745 Y111.432 E0.02519
G1 X107.966 Y110.982 E0.02519
G1 X108.279 Y110.584 E0.02538
G1 X108.665 Y110.265 E0.02519
G1 X136.920 Y94.139 E1.63267
G1 X137.814 Y93.878 E0.04672
G1 X140.025 Y93.869 E0.11098
G1 X140.899 Y94.037 E0.04466
G1 X141.653 Y94.517 E0.04485
G1 X142.135 Y95.185 E0.04135
G1 F8640.000
G1 X142.394 Y96.104 E-0.22049
G1 X142.394 Y98.441 E-0.53951
G1 E-0.04000 F2100.00000
G1 Z1.500 F10800.000
G1 X139.281 Y96.986
G1 Z0.900
G1 E0.80000 F2100.00000
M204 S800
G1 F1226
G1 X139.281 Y113.014 E0.82772
G1 X110.719 Y113.014 E1.47501
G1 X110.719 Y112.986 E0.00146
G1 X138.761 Y112.986 E1.44815
G1 X138.761 Y96.986 E0.82626
G1 X139.221 Y96.986 E0.02377
M204 S1000
G1 F8640.000
G1 X139.234 Y100.277 E-0.76000
G1 E-0.04000 F2100.00000
G1 Z1.500 F10800.000
G1 X138.321 Y112.546
G1 Z0.900
G1 E0.80000 F2100.00000
M204 S800
G1 F1226
G1 X138.321 Y96.546 E1.22205
G1 X139.721 Y96.546 E0.10693
G1 X139.721 Y113.454 E1.29141
G1 X110.279 Y113.454 E2.24877
G1 X110.279 Y112.546 E0.06935
G1 X138.261 Y112.546 E2.13726
M204 S1000
G1 X138.721 Y112.542 F10800.000
G1 F8640.000
G1 X138.274 Y109.255 E-0.76000
G1 E-0.04000 F2100.00000
G1 Z1.500 F10800.000
G1 X139.021 Y97.163
G1 Z0.900
G1 E0.80000 F2100.00000
G1 F1226
G1 X139.021 Y112.837 E0.37707
;BEFORE_LAYER_CHANGE
G92 E0.0
;1.25


G1 F8640.000
G1 X139.021 Y109.545 E-0.76000
G1 E-0.04000 F2100.00000
G1 Z1.500 F10800.000
;AFTER_LAYER_CHANGE
;1.25
G1 X138.761 Y112.986
G1 Z1.250
G1 E0.80000 F2100.00000
M204 S800
G1 F900
G1 X138.761 Y96.986 E0.82626
G1 X139.281 Y96.986 E0.02686
G1 X139.281 Y113.014 E0.82772
G1 X110.719 Y113.014 E1.47501
G1 X110.719 Y112.986 E0.00146
G1 X138.701 Y112.986 E1.44505
M204 S1000
G1 X138.321 Y112.546 F10800.000
M204 S800
G1 F900
G1 X138.321 Y96.546 E1.22205
G1 X139.721 Y96.546 E0.10693
G1 X139.721 Y113.454 E1.29141
G1 X110.279 Y113.454 E2.24877
G1 X110.279 Y112.546 E0.06935
G1 X138.261 Y112.546 E2.13726
M204 S1000
G1 X138.721 Y112.542 F10800.000
G1 F8640.000
G1 X138.274 Y109.255 E-0.76000
G1 E-0.04000 F2100.00000
G1 Z1.850 F10800.000
G1 X139.021 Y97.163
G1 Z1.250
G1 E0.80000 F2100.00000
G1 F900
G1 X139.021 Y112.837 E0.37707
;BEFORE_LAYER_CHANGE
G92 E0.0
;1.6


G1 F8640.000
G1 X139.021 Y109.545 E-0.76000
G1 E-0.04000 F2100.00000
G1 Z1.850 F10800.000
;AFTER_LAYER_CHANGE
;1.6
G1 X138.761 Y112.986
G1 Z1.600
G1 E0.80000 F2100.00000
M204 S800
G1 F900
G1 X138.761 Y96.986 E0.82626
G1 X139.281 Y96.986 E0.02686
G1 X139.281 Y113.014 E0.82772
G1 X110.719 Y113.014 E1.47501
G1 X110.719 Y112.986 E0.00146
G1 X138.701 Y112.986 E1.44505
M204 S1000
G1 X138.321 Y112.546 F10800.000
M204 S800
G1 F900
G1 X138.321 Y96.546 E1.22205
G1 X139.721 Y96.546 E0.10693
G1 X139.721 Y113.454 E1.29141
G1 X110.279 Y113.454 E2.24877
G1 X110.279 Y112.546 E0.06935
G1 X138.261 Y112.546 E2.13726
M204 S1000
G1 X138.721 Y112.542 F10800.000
G1 F8640.000
G1 X138.274 Y109.255 E-0.76000
G1 E-0.04000 F2100.00000
G1 Z2.200 F10800.000
G1 X139.021 Y97.163
G1 Z1.600
G1 E0.80000 F2100.00000
G1 F900
G1 X139.021 Y112.837 E0.37707
;BEFORE_LAYER_CHANGE
G92 E0.0
;1.95


G1 F8640.000
G1 X139.021 Y109.545 E-0.76000
G1 E-0.04000 F2100.00000
G1 Z2.200 F10800.000
;AFTER_LAYER_CHANGE
;1.95
G1 X138.761 Y112.986
G1 Z1.950
G1 E0.80000 F2100.00000
M204 S800
G1 F900
G1 X138.761 Y96.986 E0.82626
G1 X139.281 Y96.986 E0.02686
G1 X139.281 Y113.014 E0.82772
G1 X110.719 Y113.014 E1.47501
G1 X110.719 Y112.986 E0.00146
G1 X138.701 Y112.986 E1.44505
M204 S1000
G1 X138.321 Y112.546 F10800.000
M204 S800
G1 F900
G1 X138.321 Y96.546 E1.22205
G1 X139.721 Y96.546 E0.10693
G1 X139.721 Y113.454 E1.29141
G1 X110.279 Y113.454 E2.24877
G1 X110.279 Y112.546 E0.06935
G1 X138.261 Y112.546 E2.13726
M204 S1000
G1 X138.721 Y112.542 F10800.000
G1 F8640.000
G1 X138.274 Y109.255 E-0.76000
G1 E-0.04000 F2100.00000
G1 Z2.550 F10800.000
G1 X139.021 Y97.163
G1 Z1.950
G1 E0.80000 F2100.00000
G1 F900
G1 X139.021 Y112.837 E0.37707
;BEFORE_LAYER_CHANGE
G92 E0.0
;2.3


G1 F8640.000
G1 X139.021 Y109.545 E-0.76000
G1 E-0.04000 F2100.00000
G1 Z2.550 F10800.000
;AFTER_LAYER_CHANGE
;2.3
G1 X138.761 Y112.986
G1 Z2.300
G1 E0.80000 F2100.00000
M204 S800
G1 F900
G1 X138.761 Y96.986 E0.82626
G1 X139.281 Y96.986 E0.02686
G1 X139.281 Y113.014 E0.82772
M73 P25 R6
G1 X110.719 Y113.014 E1.47501
G1 X110.719 Y112.986 E0.00146
G1 X138.701 Y112.986 E1.44505
M204 S1000
G1 X138.321 Y112.546 F10800.000
M204 S800
G1 F900
G1 X138.321 Y96.546 E1.22205
G1 X139.721 Y96.546 E0.10693
G1 X139.721 Y113.454 E1.29141
G1 X110.279 Y113.454 E2.24877
G1 X110.279 Y112.546 E0.06935
G1 X138.261 Y112.546 E2.13726
M204 S1000
G1 X138.721 Y112.542 F10800.000
G1 F8640.000
G1 X138.274 Y109.255 E-0.76000
G1 E-0.04000 F2100.00000
G1 Z2.900 F10800.000
G1 X139.021 Y97.163
G1 Z2.300
G1 E0.80000 F2100.00000
G1 F900
G1 X139.021 Y112.837 E0.37707
;BEFORE_LAYER_CHANGE
G92 E0.0
;2.65


G1 F8640.000
G1 X139.021 Y109.545 E-0.76000
G1 E-0.04000 F2100.00000
G1 Z2.900 F10800.000
;AFTER_LAYER_CHANGE
;2.65
G1 X138.761 Y112.986
G1 Z2.650
G1 E0.80000 F2100.00000
M204 S800
G1 F900
G1 X138.761 Y96.986 E0.82626
G1 X139.281 Y96.986 E0.02686
G1 X139.281 Y113.014 E0.82772
G1 X110.719 Y113.014 E1.47501
G1 X110.719 Y112.986 E0.00146
G1 X138.701 Y112.986 E1.44505
M204 S1000
G1 X138.321 Y112.546 F10800.000
M204 S800
G1 F900
G1 X138.321 Y96.546 E1.22205
G1 X139.721 Y96.546 E0.10693
G1 X139.721 Y113.454 E1.29141
G1 X110.279 Y113.454 E2.24877
G1 X110.279 Y112.546 E0.06935
G1 X138.261 Y112.546 E2.13726
M204 S1000
G1 X138.721 Y112.542 F10800.000
G1 F8640.000
G1 X138.274 Y109.255 E-0.76000
G1 E-0.04000 F2100.00000
G1 Z3.250 F10800.000
G1 X139.021 Y97.163
G1 Z2.650
G1 E0.80000 F2100.00000
G1 F900
G1 X139.021 Y112.837 E0.37707
;BEFORE_LAYER_CHANGE
G92 E0.0
;3


G1 F8640.000
G1 X139.021 Y109.545 E-0.76000
G1 E-0.04000 F2100.00000
G1 Z3.250 F10800.000
;AFTER_LAYER_CHANGE
;3
G1 X138.761 Y112.986
G1 Z3.000
G1 E0.80000 F2100.00000
M204 S800
G1 F900
G1 X138.761 Y96.986 E0.82626
G1 X139.281 Y96.986 E0.02686
G1 X139.281 Y113.014 E0.82772
G1 X110.719 Y113.014 E1.47501
G1 X110.719 Y112.986 E0.00146
G1 X138.701 Y112.986 E1.44505
M204 S1000
G1 X138.321 Y112.546 F10800.000
M204 S800
G1 F900
G1 X138.321 Y96.546 E1.22205
G1 X139.721 Y96.546 E0.10693
G1 X139.721 Y113.454 E1.29141
G1 X110.279 Y113.454 E2.24877
G1 X110.279 Y112.546 E0.06935
G1 X138.261 Y112.546 E2.13726
M204 S1000
G1 X138.721 Y112.542 F10800.000
G1 F8640.000
G1 X138.274 Y109.255 E-0.76000
G1 E-0.04000 F2100.00000
G1 Z3.600 F10800.000
G1 X139.021 Y97.163
G1 Z3.000
G1 E0.80000 F2100.00000
G1 F900
G1 X139.021 Y112.837 E0.37707
;BEFORE_LAYER_CHANGE
G92 E0.0
;3.35


G1 F8640.000
G1 X139.021 Y109.545 E-0.76000
G1 E-0.04000 F2100.00000
G1 Z3.600 F10800.000
;AFTER_LAYER_CHANGE
;3.35
G1 X138.761 Y112.986
G1 Z3.350
G1 E0.80000 F2100.00000
M204 S800
G1 F900
G1 X138.761 Y96.986 E0.82626
G1 X139.281 Y96.986 E0.02686
G1 X139.281 Y113.014 E0.82772
G1 X110.719 Y113.014 E1.47501
G1 X110.719 Y112.986 E0.00146
G1 X138.701 Y112.986 E1.44505
M204 S1000
G1 X138.321 Y112.546 F10800.000
M204 S800
G1 F900
G1 X138.321 Y96.546 E1.22205
G1 X139.721 Y96.546 E0.10693
G1 X139.721 Y113.454 E1.29141
G1 X110.279 Y113.454 E2.24877
G1 X110.279 Y112.546 E0.06935
G1 X138.261 Y112.546 E2.13726
M204 S1000
G1 X138.721 Y112.542 F10800.000
G1 F8640.000
G1 X138.274 Y109.255 E-0.76000
G1 E-0.04000 F2100.00000
G1 Z3.950 F10800.000
G1 X139.021 Y97.163
G1 Z3.350
G1 E0.80000 F2100.00000
G1 F900
G1 X139.021 Y112.837 E0.37707
;BEFORE_LAYER_CHANGE
G92 E0.0
;3.7


G1 F8640.000
G1 X139.021 Y109.545 E-0.76000
G1 E-0.04000 F2100.00000
G1 Z3.950 F10800.000
;AFTER_LAYER_CHANGE
;3.7
G1 X138.761 Y112.986
G1 Z3.700
