; generated by PrusaSlicer 2.2.0+win64 on 2020-11-03 at 18:06:05 UTC

; 

; external perimeters extrusion width = 0.45mm
; perimeters extrusion width = 0.45mm
; infill extrusion width = 0.45mm
; solid infill extrusion width = 0.45mm
; top infill extrusion width = 0.40mm
; first layer extrusion width = 0.42mm

M73 P0 R24
M201 X9000 Y9000 Z500 E10000 ; sets maximum accelerations, mm/sec^2
M203 X500 Y500 Z12 E120 ; sets maximum feedrates, mm/sec
M204 P2000 R1500 T2000 ; sets acceleration (P, T) and retract acceleration (R), mm/sec^2
M205 X10.00 Y10.00 Z0.20 E2.50 ; sets the jerk limits, mm/sec
M205 S0 T0 ; sets the minimum extruding and travel feed rate, mm/sec
M107
M862.3 P "MK2.5SMMU2S" ; printer model check
M862.1 P0.4 ; nozzle diameter check
M115 U3.8.0 ; tell printer latest fw version
G90 ; use absolute coordinates
M83 ; extruder relative mode
M104 S215 ; set extruder temp
M140 S60 ; set bed temp
Tx
M190 S60 ; wait for bed temp
M109 S215 ; wait for extruder temp
G28 W ; home all without mesh bed level
G80 ; mesh bed leveling

G21 ; set units to millimeters

;go outside print area
G1 Y-3.0 F1000.0
G1 Z0.4 F1000.0
; select extruder
Tc
; purge line
G1 X55.0 F2000.0
G1 Z0.3 F1000.0
G92 E0.0
G1 X240.0 E25.0 F2200.0
M73 P0 R24
G1 Y-2.0 F1000.0
G1 X55.0 E25 F1400.0
G1 Z0.20 F1000.0
G1 X5.0 E4.0 F1000.0
G92 E0.0
G21 ; set units to millimeters
G90 ; use absolute coordinates
M83 ; use relative distances for extrusion
M900 K0.06 ; Filament gcode LA 1.5
M900 K30 ; Filament gcode LA 1.0
;BEFORE_LAYER_CHANGE
G92 E0.0
;0.2


G1 E-0.80000 F2100.00000
G1 Z0.600 F10800.000
;AFTER_LAYER_CHANGE
;0.2
G1 X113.860 Y97.082
G1 Z0.200
G1 E0.80000 F2100.00000
M204 S1000
G1 F1078
G1 X114.328 Y96.160 E0.03241
G1 X115.654 Y94.700 E0.06186
G1 X117.186 Y93.463 E0.06174
G1 X118.847 Y92.479 E0.06051
G1 X119.866 Y92.016 E0.03510
G1 X121.886 Y91.354 E0.06665
G1 X123.447 Y91.053 E0.04986
G1 X125.493 Y90.910 E0.06430
G1 X126.661 Y90.953 E0.03665
G1 X128.053 Y91.124 E0.04396
G1 X129.631 Y91.483 E0.05076
G1 X131.128 Y92.004 E0.04970
G1 X132.668 Y92.751 E0.05365
G1 X133.878 Y93.522 E0.04499
G1 X134.556 Y94.098 E0.02792
G1 X135.083 Y94.858 E0.02898
G1 X135.279 Y95.427 E0.01886
G1 X135.348 Y96.028 E0.01899
G1 X135.269 Y110.394 E0.45043
G1 X135.141 Y111.255 E0.02729
G1 X134.853 Y111.883 E0.02167
G1 X134.418 Y112.420 E0.02167
G1 X132.596 Y114.133 E0.07841
G1 X132.133 Y114.427 E0.01720
G1 X131.617 Y114.625 E0.01733
G1 X118.700 Y116.152 E0.40783
G1 X118.143 Y116.152 E0.01745
G1 X117.598 Y116.040 E0.01745
G1 X115.378 Y114.874 E0.07863
G1 X114.663 Y114.400 E0.02689
G1 X114.058 Y113.683 E0.02942
G1 X113.706 Y112.763 E0.03088
G1 X113.654 Y112.225 E0.01694
G1 X113.734 Y97.881 E0.44975
G1 X113.851 Y97.142 E0.02348
G1 X114.220 Y97.201 F10800.000
G1 F1078
G1 X114.473 Y96.623 E0.01976
G1 X114.846 Y96.111 E0.01987
G1 X116.163 Y94.745 E0.05950
G1 X117.429 Y93.753 E0.05043
G1 X119.045 Y92.801 E0.05881
G1 X120.001 Y92.368 E0.03290
G1 X121.976 Y91.720 E0.06517
G1 X123.494 Y91.427 E0.04847
G1 X125.491 Y91.287 E0.06276
G1 X126.627 Y91.328 E0.03567
G1 X127.978 Y91.494 E0.04268
G1 X129.525 Y91.845 E0.04972
G1 X130.971 Y92.347 E0.04799
G1 X132.482 Y93.079 E0.05265
G1 X133.643 Y93.817 E0.04315
G1 X134.270 Y94.344 E0.02569
G1 X134.747 Y95.031 E0.02620
G1 X134.914 Y95.520 E0.01621
G1 X134.971 Y96.034 E0.01621
G1 X134.892 Y110.387 E0.45003
G1 X134.777 Y111.154 E0.02432
G1 X134.526 Y111.695 E0.01870
G1 X134.151 Y112.154 E0.01858
G1 X132.373 Y113.828 E0.07656
G1 X131.960 Y114.092 E0.01538
G1 X131.501 Y114.266 E0.01538
G1 X118.667 Y115.777 E0.40519
G1 X118.180 Y115.777 E0.01526
G1 X117.700 Y115.676 E0.01538
G1 X115.561 Y114.544 E0.07589
G1 X114.917 Y114.122 E0.02414
G1 X114.381 Y113.489 E0.02602
G1 X114.072 Y112.670 E0.02743
G1 X114.111 Y97.888 E0.46348
G1 X114.211 Y97.260 E0.01994
G1 E-0.80000 F2100.00000
G1 Z0.800 F10800.000
G1 X118.787 Y97.899
G1 Z0.200
G1 E0.80000 F2100.00000
G1 F1078
G1 X117.823 Y97.255 E0.03635
G1 X118.452 Y96.688 E0.02656
G1 X118.756 Y96.450 E0.01212
G1 X119.087 Y96.211 E0.01280
G1 X119.798 Y95.761 E0.02636
G1 X120.410 Y95.432 E0.02178
G1 X121.045 Y95.142 E0.02188
G1 X122.067 Y94.771 E0.03409
G1 X122.662 Y94.604 E0.01939
G1 X123.274 Y94.468 E0.01966
G1 X123.867 Y94.368 E0.01885
G1 X124.464 Y94.299 E0.01886
G1 X125.148 Y94.257 E0.02147
G1 X125.939 Y94.259 E0.02483
G1 X126.919 Y94.334 E0.03080
G1 X127.428 Y94.407 E0.01614
G1 X128.126 Y94.544 E0.02229
G1 X128.713 Y94.696 E0.01901
G1 X129.292 Y94.880 E0.01906
G1 X129.856 Y95.093 E0.01890
G1 X130.461 Y95.365 E0.02080
G1 X130.778 Y95.534 E0.01126
G1 X130.070 Y96.366 E0.03427
G1 X129.747 Y96.188 E0.01156
G1 X129.217 Y95.950 E0.01822
G1 X128.728 Y95.765 E0.01639
G1 X128.229 Y95.606 E0.01644
G1 X127.721 Y95.475 E0.01645
G1 X127.128 Y95.358 E0.01896
G1 X126.676 Y95.294 E0.01428
G1 X125.852 Y95.230 E0.02592
G1 X125.312 Y95.225 E0.01695
G1 X124.588 Y95.264 E0.02271
G1 X124.069 Y95.324 E0.01641
G1 X123.559 Y95.410 E0.01619
G1 X123.035 Y95.527 E0.01686
G1 X122.512 Y95.673 E0.01701
G1 X121.651 Y95.986 E0.02873
G1 X121.094 Y96.240 E0.01919
G1 X120.548 Y96.534 E0.01946
G1 X119.957 Y96.909 E0.02193
G1 X119.656 Y97.127 E0.01166
G1 X119.128 Y97.558 E0.02136
G1 X118.829 Y97.857 E0.01325
G1 X118.842 Y98.377 F10800.000
G1 F1078
G1 X118.273 Y98.025 E0.02098
G1 X117.240 Y97.310 E0.03940
G1 X117.667 Y96.876 E0.01909
G1 X118.212 Y96.398 E0.02274
G1 X118.876 Y95.898 E0.02607
G1 X119.607 Y95.435 E0.02715
G1 X120.242 Y95.094 E0.02259
G1 X120.902 Y94.793 E0.02274
G1 X121.951 Y94.412 E0.03500
G1 X122.570 Y94.239 E0.02015
G1 X123.201 Y94.098 E0.02029
G1 X123.814 Y93.995 E0.01946
G1 X124.431 Y93.923 E0.01949
G1 X125.137 Y93.880 E0.02216
G1 X125.954 Y93.882 E0.02564
G1 X126.960 Y93.959 E0.03162
G1 X127.492 Y94.035 E0.01684
G1 X128.210 Y94.177 E0.02295
G1 X128.817 Y94.333 E0.01967
G1 X129.416 Y94.523 E0.01971
G1 X130.000 Y94.745 E0.01957
G1 X130.627 Y95.026 E0.02155
G1 X131.361 Y95.433 E0.02631
G1 X130.407 Y96.546 E0.04595
G1 X130.172 Y96.854 E0.01216
G1 X129.579 Y96.525 E0.02126
G1 X129.073 Y96.299 E0.01737
G1 X128.604 Y96.121 E0.01572
G1 X128.124 Y95.969 E0.01579
G1 X127.637 Y95.843 E0.01578
G1 X127.064 Y95.730 E0.01830
G1 X126.635 Y95.669 E0.01359
G1 X125.836 Y95.607 E0.02514
G1 X125.320 Y95.602 E0.01617
G1 X124.620 Y95.640 E0.02198
G1 X124.122 Y95.697 E0.01574
G1 X123.632 Y95.780 E0.01557
G1 X123.127 Y95.893 E0.01623
G1 X122.628 Y96.033 E0.01624
G1 X121.794 Y96.335 E0.02782
G1 X121.262 Y96.578 E0.01833
G1 X120.738 Y96.860 E0.01865
G1 X120.169 Y97.222 E0.02116
G1 X119.885 Y97.426 E0.01095
G1 X119.381 Y97.838 E0.02041
G1 X118.885 Y98.335 E0.02203
G1 X118.686 Y98.009 F10800.000
G1 E-0.80000 F2100.00000
G1 Z0.800 F10800.000
G1 X130.237 Y95.995
G1 Z0.200
G1 E0.80000 F2100.00000
G1 F1078
G1 X129.504 Y95.262 E0.03361
G1 X128.669 Y94.979 E0.02859
G1 X129.422 Y95.732 E0.03454
G1 X128.821 Y95.498 E0.02091
G1 X128.550 Y95.412 E0.00922
G1 X127.933 Y94.795 E0.02829
G1 X127.255 Y94.668 E0.02237
G1 X127.788 Y95.200 E0.02442
G1 X127.105 Y95.069 E0.02253
G1 X126.632 Y94.596 E0.02171
G1 X126.034 Y94.550 E0.01943
G1 X126.479 Y94.995 E0.02042
G1 X125.882 Y94.949 E0.01943
G1 X125.474 Y94.541 E0.01872
G1 X124.935 Y94.553 E0.01746
G1 X125.324 Y94.942 E0.01784
G1 X124.800 Y94.969 E0.01703
G1 X124.419 Y94.589 E0.01745
G1 X123.925 Y94.646 E0.01613
G1 X124.292 Y95.013 E0.01685
G1 X123.808 Y95.081 E0.01584
G1 X123.452 Y94.725 E0.01634
G1 X122.996 Y94.820 E0.01511
G1 X123.344 Y95.168 E0.01597
G1 X122.896 Y95.272 E0.01490
G1 X122.553 Y94.929 E0.01574
G1 X122.124 Y95.051 E0.01446
G1 X122.466 Y95.393 E0.01565
G1 X122.059 Y95.537 E0.01400
G1 X121.720 Y95.198 E0.01554
G1 X121.315 Y95.345 E0.01395
G1 X121.654 Y95.684 E0.01554
G1 X121.269 Y95.850 E0.01361
G1 X120.926 Y95.507 E0.01570
G1 X120.548 Y95.680 E0.01349
G1 X120.894 Y96.027 E0.01589
G1 X120.536 Y96.220 E0.01320
G1 X120.188 Y95.872 E0.01594
G1 X119.940 Y96.005 E0.00912
G1 X119.836 Y96.071 E0.00401
G1 X120.191 Y96.426 E0.01627
G1 X119.853 Y96.640 E0.01295
G1 X119.498 Y96.285 E0.01627
G1 X119.248 Y96.444 E0.00960
G1 X119.167 Y96.505 E0.00331
G1 X119.530 Y96.868 E0.01667
G1 X119.224 Y97.114 E0.01272
G1 X118.852 Y96.742 E0.01707
G1 X118.545 Y96.986 E0.01272
G1 X119.042 Y97.483 E0.02282
G1 E-0.80000 F2100.00000
G1 Z0.800 F10800.000
G1 X118.708 Y112.220
G1 Z0.200
G1 E0.80000 F2100.00000
G1 F1078
G1 X117.744 Y111.576 E0.03635
G1 X118.373 Y111.009 E0.02656
G1 X118.677 Y110.770 E0.01212
G1 X119.008 Y110.531 E0.01280
G1 X119.718 Y110.081 E0.02636
G1 X120.331 Y109.753 E0.02178
G1 X120.966 Y109.463 E0.02188
G1 X121.987 Y109.092 E0.03409
G1 X122.583 Y108.925 E0.01939
G1 X123.195 Y108.789 E0.01966
G1 X123.787 Y108.689 E0.01885
G1 X124.385 Y108.619 E0.01886
G1 X125.068 Y108.578 E0.02147
G1 X125.860 Y108.579 E0.02483
G1 X126.840 Y108.655 E0.03080
G1 X127.349 Y108.727 E0.01614
G1 X128.047 Y108.865 E0.02229
G1 X128.634 Y109.017 E0.01901
G1 X129.213 Y109.200 E0.01906
G1 X129.777 Y109.414 E0.01890
G1 X130.382 Y109.685 E0.02080
G1 X130.699 Y109.854 E0.01126
G1 X129.991 Y110.687 E0.03427
G1 X129.668 Y110.508 E0.01156
G1 X129.138 Y110.271 E0.01822
G1 X128.649 Y110.085 E0.01639
G1 X128.149 Y109.927 E0.01644
G1 X127.641 Y109.796 E0.01645
G1 X127.048 Y109.679 E0.01896
G1 X126.597 Y109.614 E0.01428
G1 X125.773 Y109.551 E0.02592
G1 X125.233 Y109.546 E0.01695
G1 X124.509 Y109.585 E0.02271
G1 X123.989 Y109.645 E0.01641
G1 X123.480 Y109.730 E0.01619
G1 X122.955 Y109.847 E0.01686
G1 X122.433 Y109.994 E0.01701
G1 X121.572 Y110.307 E0.02873
G1 X121.015 Y110.561 E0.01919
G1 X120.469 Y110.855 E0.01946
G1 X119.878 Y111.230 E0.02193
G1 X119.576 Y111.447 E0.01166
G1 X119.049 Y111.878 E0.02136
G1 X118.750 Y112.177 E0.01325
G1 X118.763 Y112.698 F10800.000
G1 F1078
G1 X118.194 Y112.345 E0.02098
G1 X117.160 Y111.631 E0.03940
G1 X117.587 Y111.197 E0.01909
G1 X118.132 Y110.719 E0.02274
G1 X118.797 Y110.219 E0.02607
G1 X119.528 Y109.755 E0.02715
G1 X120.163 Y109.415 E0.02259
G1 X120.823 Y109.114 E0.02274
G1 X121.872 Y108.733 E0.03500
G1 X122.491 Y108.559 E0.02015
G1 X123.122 Y108.418 E0.02029
G1 X123.734 Y108.315 E0.01946
G1 X124.352 Y108.244 E0.01949
G1 X125.057 Y108.201 E0.02216
G1 X125.875 Y108.202 E0.02564
G1 X126.881 Y108.280 E0.03162
G1 X127.412 Y108.356 E0.01684
G1 X128.130 Y108.497 E0.02295
G1 X128.738 Y108.654 E0.01967
G1 X129.337 Y108.844 E0.01971
G1 X129.921 Y109.065 E0.01957
G1 X130.548 Y109.346 E0.02155
G1 X131.282 Y109.753 E0.02631
G1 X130.328 Y110.866 E0.04595
G1 X130.093 Y111.174 E0.01216
G1 X129.500 Y110.846 E0.02126
G1 X128.994 Y110.619 E0.01737
G1 X128.525 Y110.442 E0.01572
G1 X128.045 Y110.289 E0.01579
G1 X127.558 Y110.164 E0.01578
G1 X126.985 Y110.051 E0.01830
G1 X126.556 Y109.989 E0.01359
G1 X125.757 Y109.928 E0.02514
G1 X125.241 Y109.923 E0.01617
G1 X124.541 Y109.960 E0.02198
G1 X124.042 Y110.018 E0.01574
G1 X123.553 Y110.101 E0.01557
G1 X123.047 Y110.213 E0.01623
G1 X122.549 Y110.353 E0.01624
G1 X121.715 Y110.656 E0.02782
G1 X121.183 Y110.899 E0.01833
G1 X120.659 Y111.181 E0.01865
G1 X120.089 Y111.542 E0.02116
G1 X119.806 Y111.747 E0.01095
G1 X119.302 Y112.158 E0.02041
G1 X118.805 Y112.655 E0.02203
G1 X118.607 Y112.329 F10800.000
G1 E-0.80000 F2100.00000
G1 Z0.800 F10800.000
G1 X130.158 Y110.316
G1 Z0.200
G1 E0.80000 F2100.00000
G1 F1078
G1 X129.425 Y109.583 E0.03361
G1 X128.590 Y109.299 E0.02859
G1 X129.343 Y110.053 E0.03454
G1 X128.742 Y109.818 E0.02091
G1 X128.471 Y109.732 E0.00922
G1 X127.854 Y109.115 E0.02829
G1 X127.176 Y108.988 E0.02237
G1 X127.708 Y109.521 E0.02442
G1 X127.026 Y109.390 E0.02253
G1 X126.552 Y108.916 E0.02171
G1 X125.955 Y108.870 E0.01943
G1 X126.400 Y109.316 E0.02042
G1 X125.803 Y109.269 E0.01943
G1 X125.394 Y108.861 E0.01872
G1 X124.856 Y108.874 E0.01746
G1 X125.245 Y109.263 E0.01784
G1 X124.720 Y109.290 E0.01703
G1 X124.340 Y108.909 E0.01745
G1 X123.846 Y108.967 E0.01613
G1 X124.213 Y109.334 E0.01685
G1 X123.729 Y109.402 E0.01584
G1 X123.373 Y109.045 E0.01634
G1 X122.916 Y109.140 E0.01511
G1 X123.265 Y109.489 E0.01597
G1 X122.817 Y109.592 E0.01490
G1 X122.474 Y109.249 E0.01574
G1 X122.045 Y109.372 E0.01446
G1 X122.387 Y109.713 E0.01565
G1 X121.980 Y109.858 E0.01400
G1 X121.641 Y109.519 E0.01554
G1 X121.236 Y109.666 E0.01395
G1 X121.575 Y110.005 E0.01554
G1 X121.189 Y110.170 E0.01361
G1 X120.847 Y109.828 E0.01570
G1 X120.468 Y110.001 E0.01349
G1 X120.815 Y110.347 E0.01589
G1 X120.457 Y110.540 E0.01320
G1 X120.109 Y110.193 E0.01594
G1 X119.861 Y110.326 E0.00912
G1 X119.757 Y110.392 E0.00401
G1 X120.111 Y110.747 E0.01627
G1 X119.774 Y110.961 E0.01295
G1 X119.419 Y110.606 E0.01627
G1 X119.169 Y110.764 E0.00960
G1 X119.088 Y110.826 E0.00331
G1 X119.451 Y111.189 E0.01667
G1 X119.145 Y111.434 E0.01272
G1 X118.773 Y111.062 E0.01707
G1 X118.466 Y111.306 E0.01272
G1 X118.963 Y111.804 E0.02282
M106 S175.95
;BEFORE_LAYER_CHANGE
G92 E0.0
;0.4


G1 E-0.80000 F2100.00000
G1 Z0.800 F10800.000
;AFTER_LAYER_CHANGE
;0.4
G1 X117.598 Y116.040
G1 Z0.400
G1 E0.80000 F2100.00000
G1 F1056
G1 X115.378 Y114.874 E0.07863
G1 X114.663 Y114.400 E0.02689
G1 X114.058 Y113.683 E0.02942
G1 X113.706 Y112.763 E0.03088
G1 X113.654 Y112.225 E0.01694
G1 X113.734 Y97.881 E0.44975
G1 X113.860 Y97.082 E0.02536
G1 X114.328 Y96.160 E0.03241
G1 X115.654 Y94.700 E0.06186
G1 X117.186 Y93.463 E0.06174
G1 X118.847 Y92.479 E0.06051
G1 X119.866 Y92.016 E0.03510
G1 X121.886 Y91.354 E0.06665
G1 X123.447 Y91.053 E0.04986
G1 X125.493 Y90.910 E0.06430
G1 X126.661 Y90.953 E0.03665
G1 X128.053 Y91.124 E0.04396
G1 X129.631 Y91.483 E0.05076
G1 X131.128 Y92.004 E0.04970
G1 X132.668 Y92.751 E0.05365
G1 X133.878 Y93.522 E0.04499
G1 X134.556 Y94.098 E0.02792
G1 X135.083 Y94.858 E0.02898
G1 X135.279 Y95.427 E0.01886
G1 X135.348 Y96.028 E0.01899
G1 X135.269 Y110.394 E0.45043
G1 X135.141 Y111.255 E0.02729
G1 X134.853 Y111.883 E0.02167
G1 X134.418 Y112.420 E0.02167
G1 X132.596 Y114.133 E0.07841
G1 X132.133 Y114.427 E0.01720
G1 X131.617 Y114.625 E0.01733
G1 X118.700 Y116.152 E0.40783
G1 X118.143 Y116.152 E0.01745
G1 X117.657 Y116.052 E0.01557
G1 E-0.80000 F2100.00000
G1 Z1.000 F10800.000
G1 X114.072 Y112.670
G1 Z0.400
G1 E0.80000 F2100.00000
G1 F1056
G1 X114.111 Y97.888 E0.46348
G1 X114.223 Y97.187 E0.02225
G1 X114.473 Y96.623 E0.01935
G1 X114.846 Y96.111 E0.01987
G1 X116.163 Y94.745 E0.05950
G1 X117.429 Y93.753 E0.05043
G1 X119.045 Y92.801 E0.05881
G1 X120.001 Y92.368 E0.03290
G1 X121.976 Y91.720 E0.06517
G1 X123.494 Y91.427 E0.04847
G1 X125.491 Y91.287 E0.06276
G1 X126.627 Y91.328 E0.03567
G1 X127.978 Y91.494 E0.04268
G1 X129.525 Y91.845 E0.04972
G1 X130.971 Y92.347 E0.04799
G1 X132.482 Y93.079 E0.05265
G1 X133.643 Y93.817 E0.04315
G1 X134.270 Y94.344 E0.02569
G1 X134.747 Y95.031 E0.02620
G1 X134.914 Y95.520 E0.01621
G1 X134.971 Y96.034 E0.01621
G1 X134.892 Y110.387 E0.45003
G1 X134.777 Y111.154 E0.02432
G1 X134.526 Y111.695 E0.01870
G1 X134.151 Y112.154 E0.01858
G1 X132.373 Y113.828 E0.07656
G1 X131.960 Y114.092 E0.01538
G1 X131.501 Y114.266 E0.01538
G1 X118.667 Y115.777 E0.40519
G1 X118.180 Y115.777 E0.01526
G1 X117.700 Y115.676 E0.01538
G1 X115.561 Y114.544 E0.07589
G1 X114.917 Y114.122 E0.02414
G1 X114.381 Y113.489 E0.02602
G1 X114.094 Y112.726 E0.02555
G1 E-0.80000 F2100.00000
G1 Z1.000 F10800.000
G1 X118.562 Y98.048
G1 Z0.400
G1 E0.80000 F2100.00000
M204 S800
G1 F1056
G1 X117.656 Y97.492 E0.03597
G1 X118.188 Y96.973 E0.02514
G1 X118.789 Y96.482 E0.02626
G1 X119.113 Y96.247 E0.01356
G1 X119.820 Y95.800 E0.02832
G1 X120.430 Y95.473 E0.02341
G1 X121.062 Y95.184 E0.02352
G1 X122.080 Y94.814 E0.03668
G1 X122.673 Y94.648 E0.02083
G1 X123.282 Y94.512 E0.02114
G1 X123.873 Y94.413 E0.02027
G1 X124.468 Y94.344 E0.02028
G1 X125.150 Y94.302 E0.02313
G1 X125.934 Y94.303 E0.02654
G1 X126.909 Y94.379 E0.03310
G1 X127.421 Y94.451 E0.01750
G1 X128.116 Y94.588 E0.02398
G1 X128.701 Y94.739 E0.02044
G1 X129.278 Y94.922 E0.02049
G1 X129.839 Y95.135 E0.02031
G1 X130.443 Y95.406 E0.02242
G1 X131.019 Y95.709 E0.02202
G1 X131.321 Y95.899 E0.01208
G1 X130.625 Y96.626 E0.03407
G1 X130.268 Y96.411 E0.01410
G1 X129.761 Y96.145 E0.01939
G1 X129.234 Y95.908 E0.01955
G1 X128.743 Y95.722 E0.01778
G1 X128.241 Y95.563 E0.01783
G1 X127.731 Y95.431 E0.01784
G1 X127.135 Y95.314 E0.02055
