; generated by PrusaSlicer 2.2.0+win64 on 2020-11-03 at 18:04:35 UTC

; 

; external perimeters extrusion width = 0.60mm
; perimeters extrusion width = 0.43mm
; infill extrusion width = 0.45mm
; solid infill extrusion width = 0.70mm
; top infill extrusion width = 0.43mm
; support material extrusion width = 0.37mm
; first layer extrusion width = 0.42mm

M73 P0 R11
M201 X9000 Y9000 Z500 E10000 ; sets maximum accelerations, mm/sec^2
M203 X500 Y500 Z12 E120 ; sets maximum feedrates, mm/sec
M204 P2000 R1500 T2000 ; sets acceleration (P, T) and retract acceleration (R), mm/sec^2
M205 X10.00 Y10.00 Z0.20 E2.50 ; sets the jerk limits, mm/sec
M205 S0 T0 ; sets the minimum extruding and travel feed rate, mm/sec
M107
M862.3 P "MK2.5SMMU2S" ; printer model check
M862.1 P0.4 ; nozzle diameter check
M115 U3.8.0 ; tell printer latest fw version
G90 ; use absolute coordinates
M83 ; extruder relative mode
M104 S215 ; set extruder temp
M140 S60 ; set bed temp
Tx
M190 S60 ; wait for bed temp
M109 S215 ; wait for extruder temp
G28 W ; home all without mesh bed level
G80 ; mesh bed leveling

G21 ; set units to millimeters

;go outside print area
G1 Y-3.0 F1000.0
G1 Z0.4 F1000.0
; select extruder
Tc
; purge line
G1 X55.0 F2000.0
G1 Z0.3 F1000.0
G92 E0.0
G1 X240.0 E25.0 F2200.0
M73 P1 R11
G1 Y-2.0 F1000.0
G1 X55.0 E25 F1400.0
G1 Z0.20 F1000.0
G1 X5.0 E4.0 F1000.0
G92 E0.0
G21 ; set units to millimeters
G90 ; use absolute coordinates
M83 ; use relative distances for extrusion
M900 K0.06 ; Filament gcode LA 1.5
M900 K30 ; Filament gcode LA 1.0
;BEFORE_LAYER_CHANGE
G92 E0.0
;0.2


G1 E-0.80000 F2100.00000
G1 Z0.600 F10800.000
;AFTER_LAYER_CHANGE
;0.2
G1 X88.692 Y96.436
G1 Z0.200
G1 E0.80000 F2100.00000
M204 S1000
G1 F1200.000
G1 X160.845 Y96.390 E2.26230
G1 X161.532 Y96.491 E0.02178
G1 X162.160 Y96.787 E0.02178
G1 X162.679 Y97.255 E0.02190
G1 X163.037 Y97.850 E0.02178
G1 X166.026 Y108.783 E0.35540
G1 X166.068 Y111.321 E0.07957
G1 X165.906 Y112.100 E0.02496
G1 X165.620 Y112.624 E0.01870
G1 X165.216 Y113.057 E0.01858
G1 X164.717 Y113.378 E0.01858
G1 X164.155 Y113.565 E0.01858
G1 X86.251 Y113.609 E2.44264
G1 X85.466 Y113.456 E0.02508
G1 X84.776 Y113.051 E0.02508
G1 X84.260 Y112.440 E0.02508
G1 X83.976 Y111.696 E0.02496
G1 X83.931 Y109.229 E0.07735
G1 X83.983 Y108.738 E0.01550
G1 X86.884 Y98.066 E0.34674
G1 X87.152 Y97.487 E0.02000
G1 X87.565 Y97.001 E0.02000
G1 X88.088 Y96.643 E0.01989
G1 X88.635 Y96.455 E0.01812
G1 E-0.80000 F2100.00000
G1 Z0.800 F10800.000
G1 X89.943 Y99.550
G1 Z0.200
G1 E0.80000 F2100.00000
G1 F1200.000
G1 X90.623 Y99.546 E0.02133
G1 X91.008 Y99.512 E0.01211
G1 X90.774 Y99.748 E0.01040
G1 X90.386 Y100.431 E0.02464
G1 X90.162 Y101.165 E0.02405
G1 X90.087 Y101.921 E0.02383
G1 X90.162 Y102.678 E0.02382
G1 X90.382 Y103.405 E0.02382
G1 X90.741 Y104.075 E0.02382
G1 X91.223 Y104.662 E0.02382
G1 X91.810 Y105.144 E0.02382
G1 X92.480 Y105.502 E0.02382
G1 X93.207 Y105.722 E0.02382
G1 X93.963 Y105.797 E0.02382
G1 X94.719 Y105.722 E0.02382
G1 X95.446 Y105.502 E0.02382
G1 X96.116 Y105.144 E0.02382
G1 X96.703 Y104.662 E0.02382
G1 X97.185 Y104.075 E0.02382
G1 X97.543 Y103.405 E0.02382
G1 X97.764 Y102.678 E0.02382
G1 X97.838 Y101.921 E0.02382
G1 X97.764 Y101.165 E0.02383
G1 X97.540 Y100.431 E0.02405
G1 X97.152 Y99.748 E0.02464
G1 X96.917 Y99.511 E0.01045
G1 X97.287 Y99.545 E0.01163
G1 X97.968 Y99.550 E0.02137
G1 X97.968 Y110.020 E0.32829
G1 X152.032 Y110.020 E1.69512
G1 X152.032 Y99.550 E0.32829
G1 X152.713 Y99.545 E0.02137
G1 X153.083 Y99.511 E0.01163
G1 X152.848 Y99.748 E0.01045
G1 X152.460 Y100.431 E0.02464
G1 X152.236 Y101.165 E0.02405
G1 X152.162 Y101.921 E0.02383
G1 X152.236 Y102.678 E0.02382
G1 X152.457 Y103.405 E0.02382
G1 X152.815 Y104.075 E0.02382
G1 X153.297 Y104.662 E0.02382
G1 X153.884 Y105.144 E0.02382
G1 X154.554 Y105.502 E0.02382
G1 X155.281 Y105.722 E0.02382
G1 X156.037 Y105.797 E0.02382
G1 X156.793 Y105.722 E0.02382
G1 X157.520 Y105.502 E0.02382
G1 X158.190 Y105.144 E0.02382
G1 X158.777 Y104.662 E0.02382
G1 X159.259 Y104.075 E0.02382
G1 X159.618 Y103.405 E0.02382
G1 X159.838 Y102.678 E0.02382
G1 X159.913 Y101.921 E0.02382
G1 X159.838 Y101.165 E0.02383
G1 X159.614 Y100.431 E0.02405
G1 X159.226 Y99.748 E0.02464
G1 X158.992 Y99.512 E0.01040
G1 X159.377 Y99.546 E0.01211
G1 X160.057 Y99.550 E0.02133
G1 X160.057 Y110.020 E0.32827
G1 X162.905 Y110.020 E0.08929
G1 X162.905 Y110.446 E0.01335
G1 X87.095 Y110.446 E2.37698
G1 X87.095 Y110.020 E0.01335
G1 X89.943 Y110.020 E0.08929
G1 X89.943 Y99.610 E0.32639
G1 E-0.80000 F2100.00000
G1 Z0.800 F10800.000
G1 X98.345 Y109.643
G1 Z0.200
G1 E0.80000 F2100.00000
G1 F1200.000
G1 X151.655 Y109.643 E1.67147
G1 X151.655 Y99.175 E0.32820
G1 X152.695 Y99.168 E0.03262
G1 X153.196 Y99.122 E0.01578
G1 X153.676 Y99.020 E0.01540
G1 X154.134 Y98.977 E0.01442
G1 X154.588 Y98.977 E0.01424
G1 X154.206 Y99.181 E0.01359
G1 X153.979 Y99.368 E0.00922
G1 X153.684 Y99.497 E0.01010
G1 X153.406 Y99.721 E0.01120
G1 X153.151 Y99.978 E0.01133
G1 X152.808 Y100.581 E0.02175
G1 X152.608 Y101.239 E0.02157
G1 X152.541 Y101.921 E0.02150
G1 X152.608 Y102.604 E0.02149
G1 X152.807 Y103.260 E0.02149
G1 X153.130 Y103.864 E0.02149
G1 X153.565 Y104.394 E0.02149
G1 X154.095 Y104.829 E0.02149
G1 X154.699 Y105.152 E0.02149
G1 X155.355 Y105.351 E0.02149
G1 X156.037 Y105.418 E0.02149
G1 X156.719 Y105.351 E0.02149
G1 X157.375 Y105.152 E0.02149
G1 X157.980 Y104.829 E0.02149
G1 X158.510 Y104.394 E0.02149
G1 X158.944 Y103.864 E0.02149
G1 X159.267 Y103.260 E0.02149
G1 X159.466 Y102.604 E0.02149
G1 X159.534 Y101.921 E0.02149
G1 X159.466 Y101.239 E0.02150
G1 X159.266 Y100.581 E0.02157
G1 X158.923 Y99.978 E0.02175
G1 X158.669 Y99.721 E0.01133
G1 X158.390 Y99.497 E0.01120
G1 X158.095 Y99.368 E0.01010
G1 X157.868 Y99.181 E0.00922
G1 X157.486 Y98.977 E0.01359
G1 X157.954 Y98.977 E0.01467
G1 X158.412 Y99.024 E0.01445
G1 X158.894 Y99.125 E0.01543
G1 X159.395 Y99.169 E0.01577
G1 X160.435 Y99.176 E0.03260
G1 X160.435 Y109.643 E0.32820
G1 X163.282 Y109.643 E0.08929
G1 X163.282 Y110.823 E0.03700
G1 X86.718 Y110.823 E2.40062
G1 X86.718 Y109.643 E0.03700
G1 X89.565 Y109.643 E0.08929
G1 X89.565 Y99.176 E0.32820
G1 X90.605 Y99.169 E0.03260
G1 X91.106 Y99.125 E0.01577
G1 X91.588 Y99.024 E0.01543
G1 X92.046 Y98.977 E0.01445
G1 X92.514 Y98.977 E0.01467
G1 X92.132 Y99.181 E0.01359
G1 X91.905 Y99.368 E0.00922
G1 X91.610 Y99.497 E0.01010
G1 X91.331 Y99.721 E0.01120
G1 X91.077 Y99.978 E0.01133
G1 X90.734 Y100.581 E0.02175
G1 X90.534 Y101.239 E0.02157
G1 X90.466 Y101.921 E0.02150
G1 X90.534 Y102.604 E0.02149
G1 X90.733 Y103.260 E0.02149
G1 X91.056 Y103.864 E0.02149
G1 X91.490 Y104.394 E0.02149
G1 X92.020 Y104.829 E0.02149
G1 X92.625 Y105.152 E0.02149
G1 X93.281 Y105.351 E0.02149
G1 X93.963 Y105.418 E0.02149
G1 X94.645 Y105.351 E0.02149
G1 X95.301 Y105.152 E0.02149
G1 X95.905 Y104.829 E0.02149
G1 X96.435 Y104.394 E0.02149
G1 X96.870 Y103.864 E0.02149
G1 X97.193 Y103.260 E0.02149
G1 X97.392 Y102.604 E0.02149
G1 X97.459 Y101.921 E0.02149
G1 X97.392 Y101.239 E0.02150
G1 X97.192 Y100.581 E0.02157
G1 X96.849 Y99.978 E0.02175
G1 X96.594 Y99.721 E0.01133
G1 X96.316 Y99.497 E0.01120
G1 X96.021 Y99.368 E0.01010
G1 X95.794 Y99.181 E0.00922
G1 X95.412 Y98.977 E0.01359
G1 X95.866 Y98.977 E0.01424
G1 X96.324 Y99.020 E0.01442
G1 X96.804 Y99.122 E0.01540
G1 X97.305 Y99.168 E0.01578
G1 X98.345 Y99.175 E0.03262
G1 X98.345 Y109.583 E0.32632
G1 X98.359 Y110.043 F10800.000
G1 X96.521 Y110.333
G1 F1200.000
G1 X90.363 Y104.175 E0.27356
G1 X90.225 Y104.203 E0.00442
G1 X90.225 Y104.572 E0.01158
G1 X95.817 Y110.163 E0.24841
G1 X95.282 Y110.163 E0.01679
G1 X90.225 Y105.106 E0.22468
G1 X90.225 Y105.640 E0.01679
G1 X94.748 Y110.163 E0.20094
G1 X94.214 Y110.163 E0.01679
G1 X90.225 Y106.175 E0.17720
G1 X90.225 Y106.709 E0.01679
G1 X93.680 Y110.163 E0.15346
G1 X93.145 Y110.163 E0.01679
G1 X90.225 Y107.243 E0.12972
G1 X90.225 Y107.778 E0.01679
G1 X92.611 Y110.163 E0.10599
G1 X92.077 Y110.163 E0.01679
G1 X90.225 Y108.312 E0.08225
G1 X90.225 Y108.846 E0.01679
G1 X91.542 Y110.163 E0.05851
G1 X91.008 Y110.163 E0.01679
G1 X90.225 Y109.380 E0.03477
G1 X90.225 Y109.915 E0.01679
G1 X90.643 Y110.333 E0.01857
G1 E-0.80000 F2100.00000
G1 Z0.800 F10800.000
G1 X90.298 Y99.736
G1 Z0.200
G1 E0.80000 F2100.00000
G1 F1200.000
G1 X90.153 Y100.476 E0.00538
G1 E-0.80000 F2100.00000
G1 Z0.800 F10800.000
G1 X90.153 Y103.370
G1 Z0.200
G1 E0.80000 F2100.00000
G1 F1200.000
G1 X90.254 Y103.909 E0.00370
G1 E-0.80000 F2100.00000
G1 Z0.800 F10800.000
G1 X92.206 Y105.484
G1 Z0.200
G1 E0.80000 F2100.00000
G1 F1200.000
G1 X96.885 Y110.163 E0.20789
G1 X97.420 Y110.163 E0.01679
G1 X93.269 Y106.013 E0.18439
G1 X93.862 Y106.071 E0.01871
G1 X97.686 Y109.895 E0.16987
G1 X97.686 Y109.360 E0.01679
G1 X94.366 Y106.041 E0.14746
G1 X94.841 Y105.981 E0.01501
G1 X97.686 Y108.826 E0.12640
G1 X97.686 Y108.292 E0.01679
G1 X95.250 Y105.857 E0.10819
G1 X95.555 Y105.764 E0.00999
G1 X95.645 Y105.716 E0.00320
G1 X97.686 Y107.757 E0.09068
G1 X97.686 Y107.223 E0.01679
G1 X95.993 Y105.530 E0.07521
G1 X96.330 Y105.334 E0.01228
G1 X97.686 Y106.689 E0.06021
G1 X97.686 Y106.155 E0.01679
G1 X96.624 Y105.093 E0.04717
G1 X96.915 Y104.850 E0.01192
G1 X97.686 Y105.620 E0.03424
G1 X97.686 Y105.086 E0.01679
G1 X97.156 Y104.556 E0.02354
G1 X97.397 Y104.263 E0.01193
G1 X97.855 Y104.721 E0.02038
G1 X97.659 Y103.937 F10800.000
G1 F1200.000
G1 X97.758 Y103.419 E0.00287
G1 E-0.80000 F2100.00000
G1 Z0.800 F10800.000
G1 X97.758 Y100.427
G1 Z0.200
G1 E0.80000 F2100.00000
G1 F1200.000
G1 X97.620 Y99.736 E0.00392
G1 E-0.80000 F2100.00000
G1 Z0.800 F10800.000
G1 X152.380 Y99.736
G1 Z0.200
G1 E0.80000 F2100.00000
G1 F1200.000
G1 X152.242 Y100.427 E0.00411
G1 E-0.80000 F2100.00000
G1 Z0.800 F10800.000
G1 X152.242 Y103.419
G1 Z0.200
G1 E0.80000 F2100.00000
G1 F1200.000
G1 X152.342 Y103.937 E0.00287
G1 E-0.80000 F2100.00000
G1 Z0.800 F10800.000
G1 X152.145 Y109.855
G1 Z0.200
G1 E0.80000 F2100.00000
G1 F1200.000
G1 X152.453 Y110.163 E0.01370
G1 X152.987 Y110.163 E0.01679
G1 X152.314 Y109.490 E0.02990
G1 X152.314 Y108.956 E0.01679
G1 X153.522 Y110.163 E0.05364
G1 X154.056 Y110.163 E0.01679
G1 X152.314 Y108.421 E0.07738
G1 X152.314 Y107.887 E0.01679
G1 X154.590 Y110.163 E0.10111
G1 X155.125 Y110.163 E0.01679
G1 X152.314 Y107.353 E0.12485
G1 X152.314 Y106.819 E0.01679
G1 X155.659 Y110.163 E0.14859
G1 X156.193 Y110.163 E0.01679
G1 X152.314 Y106.284 E0.17233
G1 X152.314 Y105.750 E0.01679
G1 X156.728 Y110.163 E0.19607
G1 X157.262 Y110.163 E0.01679
G1 X152.314 Y105.216 E0.21980
G1 X152.314 Y104.681 E0.01679
G1 X157.796 Y110.163 E0.24354
G1 X158.330 Y110.163 E0.01679
G1 X152.384 Y104.217 E0.26417
G1 X152.552 Y104.183 E0.00538
G1 X153.096 Y104.863 E0.02733
G1 X153.726 Y105.380 E0.02562
G1 X154.475 Y105.773 E0.02658
G1 X158.865 Y110.163 E0.19502
G1 X159.399 Y110.163 E0.01679
G1 X155.238 Y106.002 E0.18485
G1 X155.831 Y106.061 E0.01871
G1 X159.775 Y110.004 E0.17521
G1 X159.775 Y109.470 E0.01679
G1 X156.354 Y106.050 E0.15195
G1 X156.841 Y106.002 E0.01535
G1 X159.775 Y108.936 E0.13034
G1 X159.775 Y108.401 E0.01679
G1 X157.252 Y105.879 E0.11208
G1 X157.657 Y105.749 E0.01336
G1 X159.775 Y107.867 E0.09408
G1 X159.775 Y107.333 E0.01679
G1 X158.005 Y105.563 E0.07862
G1 X158.353 Y105.376 E0.01239
G1 X159.775 Y106.799 E0.06318
G1 X159.775 Y106.264 E0.01679
G1 X158.646 Y105.136 E0.05015
G1 X158.939 Y104.895 E0.01193
G1 X159.775 Y105.730 E0.03711
G1 X159.775 Y105.196 E0.01679
G1 X159.187 Y104.608 E0.02610
G1 X159.428 Y104.315 E0.01193
G1 X159.944 Y104.831 E0.02294
G1 X159.746 Y103.909 F10800.000
G1 F1200.000
G1 X159.847 Y103.370 E0.00370
G1 E-0.80000 F2100.00000
G1 Z0.800 F10800.000
G1 X159.847 Y100.476
G1 Z0.200
G1 E0.80000 F2100.00000
G1 F1200.000
G1 X159.702 Y99.736 E0.00515
M106 S175.95
;BEFORE_LAYER_CHANGE
G92 E0.0
;0.55


G1 E-0.80000 F2100.00000
G1 Z0.800 F10800.000
;AFTER_LAYER_CHANGE
;0.55
G1 X161.532 Y96.491
G1 Z0.550
G1 E0.80000 F2100.00000
G1 F2971
G1 X162.160 Y96.787 E0.03486
G1 X162.679 Y97.255 E0.03505
G1 X163.037 Y97.850 E0.03486
G1 X166.026 Y108.783 E0.56885
M73 P9 R10
G1 X166.068 Y111.321 E0.12735
G1 X165.906 Y112.100 E0.03995
G1 X165.620 Y112.624 E0.02993
G1 X165.216 Y113.057 E0.02974
G1 X164.717 Y113.378 E0.02974
G1 X164.155 Y113.565 E0.02974
G1 X86.251 Y113.609 E3.90970
G1 X85.466 Y113.456 E0.04014
G1 X84.776 Y113.051 E0.04014
G1 X84.260 Y112.440 E0.04014
G1 X83.976 Y111.696 E0.03995
G1 X83.931 Y109.229 E0.12381
G1 X83.983 Y108.738 E0.02481
G1 X86.884 Y98.066 E0.55500
G1 X87.152 Y97.487 E0.03202
G1 X87.565 Y97.001 E0.03202
G1 X88.088 Y96.643 E0.03183
G1 X88.692 Y96.436 E0.03202
G1 X160.845 Y96.390 E3.62105
G1 X161.472 Y96.483 E0.03185
G1 E-0.80000 F2100.00000
G1 Z1.150 F10800.000
G1 X160.105 Y99.507
G1 Z0.550
G1 E0.80000 F2100.00000
M204 S800
G1 F2971
G1 X160.105 Y109.973 E0.54047
G1 X162.952 Y109.973 E0.14706
G1 X162.952 Y110.493 E0.02686
G1 X87.048 Y110.493 E3.91979
G1 X87.048 Y109.973 E0.02686
G1 X89.895 Y109.973 E0.14706
G1 X89.895 Y99.507 E0.54047
G1 X91.016 Y99.507 E0.05788
G1 X90.780 Y99.795 E0.01923
G1 X90.426 Y100.457 E0.03875
G1 X90.208 Y101.175 E0.03875
G1 X90.135 Y101.921 E0.03875
G1 X90.208 Y102.668 E0.03875
G1 X90.426 Y103.386 E0.03875
G1 X90.780 Y104.048 E0.03875
G1 X91.256 Y104.628 E0.03875
G1 X91.836 Y105.104 E0.03875
G1 X92.498 Y105.458 E0.03875
G1 X93.216 Y105.676 E0.03875
G1 X93.963 Y105.749 E0.03875
G1 X94.710 Y105.676 E0.03875
G1 X95.428 Y105.458 E0.03875
G1 X96.090 Y105.104 E0.03875
G1 X96.670 Y104.628 E0.03875
G1 X97.146 Y104.048 E0.03875
G1 X97.499 Y103.386 E0.03875
G1 X97.717 Y102.668 E0.03875
G1 X97.791 Y101.921 E0.03875
G1 X97.717 Y101.175 E0.03875
G1 X97.499 Y100.457 E0.03875
G1 X97.146 Y99.795 E0.03875
G1 X96.910 Y99.507 E0.01923
G1 X98.016 Y99.507 E0.05712
G1 X98.016 Y109.973 E0.54047
G1 X151.984 Y109.973 E2.78701
G1 X151.984 Y99.507 E0.54047
G1 X153.090 Y99.507 E0.05712
G1 X152.854 Y99.795 E0.01923
G1 X152.501 Y100.457 E0.03875
G1 X152.283 Y101.175 E0.03875
G1 X152.209 Y101.921 E0.03875
G1 X152.283 Y102.668 E0.03875
G1 X152.501 Y103.386 E0.03875
G1 X152.854 Y104.048 E0.03875
G1 X153.330 Y104.628 E0.03875
G1 X153.910 Y105.104 E0.03875
G1 X154.572 Y105.458 E0.03875
G1 X155.290 Y105.676 E0.03875
G1 X156.037 Y105.749 E0.03875
G1 X156.784 Y105.676 E0.03875
G1 X157.502 Y105.458 E0.03875
G1 X158.164 Y105.104 E0.03875
G1 X158.744 Y104.628 E0.03875
G1 X159.220 Y104.048 E0.03875
G1 X159.574 Y103.386 E0.03875
G1 X159.792 Y102.668 E0.03875
G1 X159.865 Y101.921 E0.03875
G1 X159.792 Y101.175 E0.03875
G1 X159.574 Y100.457 E0.03875
G1 X159.220 Y99.795 E0.03875
G1 X158.984 Y99.507 E0.01923
G1 X160.045 Y99.507 E0.05479
M204 S1000
G1 E-0.80000 F2100.00000
G1 Z1.150 F10800.000
G1 X98.455 Y109.533
G1 Z0.550
G1 E0.80000 F2100.00000
M204 S800
G1 F2400.000
G1 X151.545 Y109.533 E4.05485
G1 X151.545 Y99.067 E0.79937
G1 X154.229 Y99.067 E0.20504
G1 X154.156 Y99.106 E0.00634
G1 X153.643 Y99.527 E0.05070
G1 X153.222 Y100.040 E0.05070
G1 X152.909 Y100.626 E0.05070
G1 X152.716 Y101.261 E0.05070
G1 X152.651 Y101.921 E0.05070
G1 X152.716 Y102.582 E0.05070
G1 X152.909 Y103.217 E0.05070
G1 X153.222 Y103.803 E0.05070
G1 X153.643 Y104.316 E0.05070
G1 X154.156 Y104.737 E0.05070
G1 X154.741 Y105.050 E0.05070
G1 X155.377 Y105.242 E0.05070
G1 X156.037 Y105.307 E0.05070
G1 X156.698 Y105.242 E0.05070
G1 X157.333 Y105.050 E0.05070
G1 X157.918 Y104.737 E0.05070
G1 X158.431 Y104.316 E0.05070
G1 X158.852 Y103.803 E0.05070
G1 X159.165 Y103.217 E0.05070
G1 X159.358 Y102.582 E0.05070
G1 X159.423 Y101.921 E0.05070
G1 X159.358 Y101.261 E0.05070
G1 X159.165 Y100.626 E0.05070
G1 X158.852 Y100.040 E0.05070
G1 X158.431 Y99.527 E0.05070
G1 X157.918 Y99.106 E0.05070
G1 X157.845 Y99.067 E0.00634
G1 X160.545 Y99.067 E0.20618
G1 X160.545 Y109.533 E0.79937
G1 X163.392 Y109.533 E0.21750
G1 X163.392 Y110.933 E0.10693
G1 X86.608 Y110.933 E5.86466
G1 X86.608 Y109.533 E0.10693
G1 X89.455 Y109.533 E0.21750
G1 X89.455 Y99.067 E0.79937
G1 X92.155 Y99.067 E0.20618
G1 X92.082 Y99.106 E0.00634
G1 X91.569 Y99.527 E0.05070
G1 X91.148 Y100.040 E0.05070
G1 X90.835 Y100.626 E0.05070
G1 X90.642 Y101.261 E0.05070
G1 X90.577 Y101.921 E0.05070
G1 X90.642 Y102.582 E0.05070
G1 X90.835 Y103.217 E0.05070
