; generated by PrusaSlicer 2.2.0+win64 on 2020-11-03 at 18:07:04 UTC

; 

; external perimeters extrusion width = 0.45mm
; perimeters extrusion width = 0.45mm
; infill extrusion width = 0.45mm
; solid infill extrusion width = 0.45mm
; top infill extrusion width = 0.40mm
; first layer extrusion width = 0.42mm

M73 P0 R21
M201 X9000 Y9000 Z500 E10000 ; sets maximum accelerations, mm/sec^2
M203 X500 Y500 Z12 E120 ; sets maximum feedrates, mm/sec
M204 P2000 R1500 T2000 ; sets acceleration (P, T) and retract acceleration (R), mm/sec^2
M205 X10.00 Y10.00 Z0.20 E2.50 ; sets the jerk limits, mm/sec
M205 S0 T0 ; sets the minimum extruding and travel feed rate, mm/sec
M107
M862.3 P "MK2.5SMMU2S" ; printer model check
M862.1 P0.4 ; nozzle diameter check
M115 U3.8.0 ; tell printer latest fw version
G90 ; use absolute coordinates
M83 ; extruder relative mode
M104 S215 ; set extruder temp
M140 S60 ; set bed temp
Tx
M190 S60 ; wait for bed temp
M109 S215 ; wait for extruder temp
G28 W ; home all without mesh bed level
G80 ; mesh bed leveling

G21 ; set units to millimeters

;go outside print area
G1 Y-3.0 F1000.0
G1 Z0.4 F1000.0
; select extruder
Tc
; purge line
G1 X55.0 F2000.0
G1 Z0.3 F1000.0
G92 E0.0
G1 X240.0 E25.0 F2200.0
M73 P0 R21
G1 Y-2.0 F1000.0
G1 X55.0 E25 F1400.0
G1 Z0.20 F1000.0
G1 X5.0 E4.0 F1000.0
G92 E0.0
G21 ; set units to millimeters
G90 ; use absolute coordinates
M83 ; use relative distances for extrusion
M900 K0.06 ; Filament gcode LA 1.5
M900 K30 ; Filament gcode LA 1.0
;BEFORE_LAYER_CHANGE
G92 E0.0
;0.2


G1 E-0.80000 F2100.00000
G1 Z0.600 F10800.000
;AFTER_LAYER_CHANGE
;0.2
G1 X107.061 Y87.304
G1 Z0.200
G1 E0.80000 F2100.00000
M204 S1000
G1 F1200.000
G1 X108.017 Y86.239 E0.04487
G1 X109.358 Y85.085 E0.05546
G1 X110.583 Y84.284 E0.04590
G1 X112.177 Y83.515 E0.05550
G1 X113.538 Y83.065 E0.04495
G1 X115.307 Y82.728 E0.05645
G1 X116.742 Y82.645 E0.04507
G1 X118.078 Y82.718 E0.04197
G1 X119.043 Y82.861 E0.03057
G1 X120.346 Y83.183 E0.04209
G1 X121.295 Y83.515 E0.03153
G1 X122.488 Y84.062 E0.04113
G1 X123.359 Y84.566 E0.03157
G1 X124.455 Y85.346 E0.04217
G1 X125.460 Y86.241 E0.04221
G1 X126.144 Y86.978 E0.03153
G1 X142.927 Y107.236 E0.82484
G1 X143.520 Y108.040 E0.03133
G1 X144.223 Y109.213 E0.04288
G1 X144.777 Y110.419 E0.04161
G1 X145.109 Y111.370 E0.03157
G1 X145.431 Y112.676 E0.04217
G1 X145.608 Y114.010 E0.04221
G1 X145.646 Y115.015 E0.03153
G1 X145.569 Y116.359 E0.04221
G1 X145.345 Y117.686 E0.04221
G1 X145.095 Y118.629 E0.03057
G1 X144.629 Y119.888 E0.04209
G1 X144.193 Y120.794 E0.03153
G1 X143.495 Y121.949 E0.04233
G1 X142.677 Y123.018 E0.04221
G1 X141.993 Y123.755 E0.03153
G1 X140.988 Y124.651 E0.04221
G1 X139.888 Y125.434 E0.04233
G1 X139.031 Y125.929 E0.03105
G1 X137.359 Y126.657 E0.05717
G1 X135.610 Y127.129 E0.05681
G1 X134.155 Y127.321 E0.04602
G1 X132.339 Y127.318 E0.05693
G1 X130.517 Y127.043 E0.05776
G1 X128.785 Y126.512 E0.05681
G1 X127.446 Y125.897 E0.04618
G1 X125.897 Y124.917 E0.05748
G1 X124.847 Y124.045 E0.04280
G1 X123.862 Y123.019 E0.04459
G1 X107.074 Y102.756 E0.82507
G1 X106.281 Y101.644 E0.04280
G1 X105.783 Y100.784 E0.03117
G1 X105.068 Y99.148 E0.05598
G1 X104.670 Y97.775 E0.04483
G1 X104.433 Y96.363 E0.04487
G1 X104.368 Y94.561 E0.05654
G1 X104.505 Y93.133 E0.04498
G1 X104.909 Y91.376 E0.05653
G1 X105.409 Y90.036 E0.04483
G1 X106.236 Y88.471 E0.05550
G1 X107.026 Y87.353 E0.04295
G1 E-0.80000 F2100.00000
G1 Z0.800 F10800.000
G1 X116.737 Y98.774
G1 Z0.200
G1 E0.80000 F2100.00000
G1 F1200.000
G1 X116.005 Y98.702 E0.02306
G1 X115.301 Y98.488 E0.02306
G1 X114.652 Y98.142 E0.02306
G1 X114.084 Y97.675 E0.02306
G1 X113.617 Y97.106 E0.02306
G1 X113.270 Y96.458 E0.02306
G1 X113.057 Y95.754 E0.02306
G1 X112.985 Y95.022 E0.02306
G1 X113.057 Y94.290 E0.02306
G1 X113.270 Y93.586 E0.02306
G1 X113.617 Y92.937 E0.02306
G1 X114.084 Y92.369 E0.02306
G1 X114.652 Y91.902 E0.02306
G1 X115.302 Y91.555 E0.02309
G1 X116.014 Y91.341 E0.02332
G1 X116.736 Y91.270 E0.02276
G1 X117.467 Y91.341 E0.02301
G1 X118.173 Y91.555 E0.02313
G1 X118.821 Y91.902 E0.02306
G1 X119.390 Y92.369 E0.02306
G1 X119.857 Y92.937 E0.02306
G1 X120.203 Y93.586 E0.02306
G1 X120.417 Y94.290 E0.02306
G1 X120.489 Y95.022 E0.02306
G1 X120.417 Y95.754 E0.02306
G1 X120.203 Y96.458 E0.02306
G1 X119.857 Y97.106 E0.02306
G1 X119.390 Y97.675 E0.02306
G1 X118.821 Y98.142 E0.02306
G1 X118.173 Y98.488 E0.02306
G1 X117.469 Y98.702 E0.02306
G1 X116.797 Y98.768 E0.02118
G1 X116.737 Y98.395 F10800.000
G1 F1200.000
G1 X116.079 Y98.330 E0.02073
G1 X115.446 Y98.138 E0.02073
G1 X114.863 Y97.827 E0.02073
G1 X114.352 Y97.407 E0.02073
G1 X113.932 Y96.896 E0.02073
G1 X113.620 Y96.313 E0.02073
G1 X113.428 Y95.680 E0.02073
G1 X113.364 Y95.022 E0.02073
G1 X113.428 Y94.364 E0.02073
G1 X113.620 Y93.731 E0.02073
G1 X113.932 Y93.148 E0.02073
G1 X114.352 Y92.637 E0.02073
G1 X114.863 Y92.217 E0.02073
G1 X115.446 Y91.905 E0.02074
G1 X116.087 Y91.713 E0.02099
G1 X116.737 Y91.649 E0.02046
G1 X117.393 Y91.713 E0.02068
G1 X118.028 Y91.905 E0.02079
G1 X118.611 Y92.217 E0.02073
G1 X119.122 Y92.637 E0.02073
G1 X119.542 Y93.148 E0.02073
G1 X119.853 Y93.731 E0.02073
G1 X120.045 Y94.364 E0.02073
G1 X120.110 Y95.022 E0.02073
G1 X120.045 Y95.680 E0.02073
G1 X119.853 Y96.313 E0.02073
G1 X119.542 Y96.896 E0.02073
G1 X119.122 Y97.407 E0.02073
G1 X118.611 Y97.827 E0.02073
G1 X118.028 Y98.138 E0.02073
G1 X117.395 Y98.330 E0.02073
G1 X116.797 Y98.389 E0.01885
G1 X116.537 Y98.741 F10800.000
G1 E-0.80000 F2100.00000
G1 Z0.800 F10800.000
G1 X116.745 Y104.434
G1 Z0.200
G1 E0.80000 F2100.00000
G1 F1200.000
G1 X115.870 Y104.392 E0.02749
G1 X114.984 Y104.269 E0.02805
G1 X114.295 Y104.112 E0.02213
G1 X113.966 Y104.017 E0.01076
G1 X113.474 Y103.849 E0.01630
G1 X112.974 Y103.650 E0.01687
G1 X112.339 Y103.344 E0.02212
G1 X111.724 Y102.989 E0.02224
G1 X111.439 Y102.802 E0.01069
G1 X110.868 Y102.381 E0.02224
G1 X110.331 Y101.918 E0.02224
G1 X110.087 Y101.684 E0.01059
G1 X109.498 Y101.035 E0.02749
G1 X108.957 Y100.320 E0.02812
G1 X108.682 Y99.889 E0.01602
G1 X108.418 Y99.425 E0.01676
G1 X108.038 Y98.612 E0.02811
G1 X107.742 Y97.793 E0.02731
G1 X107.559 Y97.111 E0.02214
G1 X107.488 Y96.772 E0.01087
G1 X107.430 Y96.430 E0.01087
G1 X107.351 Y95.725 E0.02224
G1 X107.324 Y95.022 E0.02207
G1 X107.351 Y94.313 E0.02224
G1 X107.383 Y93.971 E0.01076
G1 X107.457 Y93.457 E0.01630
G1 X107.561 Y92.924 E0.01704
G1 X107.643 Y92.591 E0.01075
G1 X107.853 Y91.913 E0.02224
G1 X108.109 Y91.261 E0.02197
G1 X108.495 Y90.480 E0.02731
G1 X108.962 Y89.717 E0.02805
G1 X109.381 Y89.149 E0.02213
G1 X109.599 Y88.886 E0.01069
G1 X110.083 Y88.365 E0.02230
G1 X110.457 Y88.012 E0.01613
G1 X110.868 Y87.663 E0.01693
G1 X111.281 Y87.353 E0.01618
G1 X111.725 Y87.055 E0.01677
G1 X112.486 Y86.626 E0.02737
G1 X113.298 Y86.260 E0.02796
G1 X114.120 Y85.982 E0.02721
G1 X114.992 Y85.772 E0.02812
G1 X115.497 Y85.693 E0.01602
G1 X116.029 Y85.636 E0.01677
G1 X116.901 Y85.613 E0.02737
G1 X117.796 Y85.669 E0.02811
G1 X118.325 Y85.746 E0.01676
G1 X118.826 Y85.844 E0.01603
G1 X119.667 Y86.079 E0.02738
G1 X120.504 Y86.396 E0.02805
G1 X121.135 Y86.700 E0.02196
G1 X121.749 Y87.055 E0.02224
G1 X122.032 Y87.240 E0.01059
G1 X122.732 Y87.768 E0.02749
G1 X123.399 Y88.372 E0.02823
G1 X123.633 Y88.616 E0.01058
G1 X124.096 Y89.153 E0.02224
G1 X124.514 Y89.720 E0.02207
G1 X124.891 Y90.320 E0.02224
G1 X125.057 Y90.620 E0.01076
G1 X125.286 Y91.087 E0.01630
G1 X125.498 Y91.581 E0.01687
G1 X125.732 Y92.249 E0.02219
G1 X125.868 Y92.745 E0.01613
G1 X125.985 Y93.272 E0.01693
G1 X126.066 Y93.782 E0.01618
G1 X126.123 Y94.317 E0.01687
G1 X126.149 Y95.019 E0.02202
G1 X126.107 Y95.889 E0.02731
G1 X125.984 Y96.781 E0.02823
G1 X125.915 Y97.111 E0.01058
G1 X125.731 Y97.796 E0.02224
G1 X125.499 Y98.461 E0.02207
G1 X125.215 Y99.111 E0.02224
G1 X125.061 Y99.415 E0.01069
G1 X124.707 Y100.030 E0.02224
G1 X124.307 Y100.616 E0.02224
G1 X124.098 Y100.888 E0.01076
G1 X123.762 Y101.284 E0.01630
G1 X123.396 Y101.674 E0.01676
G1 X122.732 Y102.276 E0.02811
G1 X122.032 Y102.804 E0.02749
G1 X121.749 Y102.989 E0.01059
G1 X121.138 Y103.342 E0.02214
G1 X120.349 Y103.712 E0.02731
G1 X119.506 Y104.018 E0.02812
G1 X119.013 Y104.153 E0.01602
G1 X118.488 Y104.270 E0.01687
G1 X117.791 Y104.375 E0.02212
G1 X116.805 Y104.433 E0.03095
G1 X116.740 Y104.812 F10800.000
G1 F1200.000
G1 X115.835 Y104.768 E0.02841
G1 X114.916 Y104.641 E0.02910
G1 X114.201 Y104.478 E0.02298
G1 X113.852 Y104.377 E0.01138
G1 X113.343 Y104.203 E0.01688
G1 X112.822 Y103.995 E0.01757
G1 X112.162 Y103.677 E0.02297
G1 X111.527 Y103.310 E0.02302
G1 X111.224 Y103.112 E0.01136
G1 X110.633 Y102.676 E0.02302
G1 X110.077 Y102.197 E0.02302
G1 X109.816 Y101.947 E0.01132
G1 X109.207 Y101.276 E0.02841
G1 X108.647 Y100.535 E0.02912
G1 X108.359 Y100.084 E0.01678
G1 X108.082 Y99.598 E0.01753
G1 X107.689 Y98.757 E0.02912
G1 X107.382 Y97.906 E0.02835
G1 X107.192 Y97.198 E0.02298
G1 X107.118 Y96.842 E0.01142
G1 X107.057 Y96.483 E0.01142
G1 X106.974 Y95.753 E0.02302
G1 X106.947 Y95.022 E0.02295
G1 X106.974 Y94.288 E0.02302
G1 X107.008 Y93.927 E0.01138
G1 X107.085 Y93.394 E0.01688
G1 X107.193 Y92.842 E0.01763
G1 X107.280 Y92.490 E0.01138
G1 X107.496 Y91.788 E0.02302
G1 X107.763 Y91.108 E0.02292
G1 X108.164 Y90.298 E0.02835
G1 X108.649 Y89.506 E0.02910
G1 X109.084 Y88.916 E0.02298
G1 X109.315 Y88.637 E0.01136
G1 X109.815 Y88.099 E0.02304
G1 X110.206 Y87.731 E0.01682
G1 X110.633 Y87.368 E0.01759
G1 X111.063 Y87.046 E0.01684
G1 X111.527 Y86.733 E0.01753
G1 X112.315 Y86.289 E0.02837
G1 X113.160 Y85.909 E0.02906
G1 X114.016 Y85.620 E0.02831
G1 X114.919 Y85.402 E0.02912
G1 X115.447 Y85.319 E0.01678
G1 X116.004 Y85.259 E0.01753
G1 X116.908 Y85.235 E0.02837
G1 X117.835 Y85.294 E0.02912
G1 X118.388 Y85.374 E0.01753
G1 X118.913 Y85.477 E0.01679
G1 X119.785 Y85.721 E0.02837
G1 X120.653 Y86.049 E0.02910
G1 X121.311 Y86.366 E0.02292
G1 X121.947 Y86.733 E0.02302
G1 X122.249 Y86.931 E0.01132
G1 X122.972 Y87.477 E0.02841
G1 X123.662 Y88.102 E0.02916
G1 X123.912 Y88.362 E0.01132
G1 X124.391 Y88.918 E0.02302
G1 X124.826 Y89.507 E0.02295
G1 X125.216 Y90.129 E0.02302
G1 X125.392 Y90.446 E0.01138
G1 X125.629 Y90.930 E0.01688
G1 X125.850 Y91.445 E0.01757
G1 X126.092 Y92.137 E0.02300
G1 X126.234 Y92.654 E0.01682
G1 X126.356 Y93.202 E0.01759
G1 X126.440 Y93.732 E0.01684
G1 X126.499 Y94.290 E0.01757
G1 X126.527 Y95.021 E0.02294
G1 X126.483 Y95.924 E0.02835
G1 X126.355 Y96.845 E0.02916
G1 X126.282 Y97.198 E0.01132
G1 X126.092 Y97.907 E0.02302
G1 X125.850 Y98.598 E0.02295
G1 X125.556 Y99.271 E0.02302
G1 X125.393 Y99.595 E0.01136
G1 X125.026 Y100.230 E0.02302
G1 X124.613 Y100.837 E0.02302
G1 X124.392 Y101.125 E0.01138
G1 X124.043 Y101.535 E0.01688
G1 X123.661 Y101.943 E0.01753
G1 X122.972 Y102.567 E0.02912
G1 X122.249 Y103.112 E0.02841
G1 X121.947 Y103.310 E0.01132
G1 X121.312 Y103.677 E0.02298
G1 X120.493 Y104.060 E0.02835
G1 X119.621 Y104.377 E0.02912
G1 X119.104 Y104.519 E0.01678
G1 X118.557 Y104.641 E0.01757
G1 X117.833 Y104.750 E0.02297
G1 X116.800 Y104.811 E0.03245
G1 X116.540 Y104.465 F10800.000
G1 E-0.80000 F2100.00000
G1 Z0.800 F10800.000
G1 X119.645 Y103.847
G1 Z0.200
G1 E0.80000 F2100.00000
G1 F1200.000
G1 X108.045 Y92.247 E0.51880
G1 X107.919 Y92.658 E0.01361
G1 X119.097 Y103.837 E0.49997
G1 X118.664 Y103.941 E0.01410
G1 X107.816 Y93.093 E0.48517
G1 X107.730 Y93.545 E0.01455
G1 X118.210 Y104.026 E0.46875
G1 X117.742 Y104.095 E0.01498
G1 X107.663 Y94.016 E0.45079
G1 X107.626 Y94.517 E0.01590
G1 X117.242 Y104.133 E0.43005
G1 X116.721 Y104.150 E0.01647
G1 X107.608 Y95.037 E0.40759
G1 X107.629 Y95.596 E0.01768
G1 X116.156 Y104.123 E0.38139
G1 X115.896 Y104.111 E0.00823
G1 X115.559 Y104.064 E0.01076
G1 X107.688 Y96.193 E0.35203
G1 X107.790 Y96.832 E0.02048
G1 X114.923 Y103.966 E0.31903
G1 X114.214 Y103.795 E0.02306
G1 X107.969 Y97.550 E0.27930
G1 X108.251 Y98.369 E0.02741
G1 X113.394 Y103.513 E0.23004
G1 X113.088 Y103.391 E0.01042
G1 X112.391 Y103.047 E0.02459
G1 X108.710 Y99.366 E0.16464
G1 X109.189 Y100.158 E0.02928
G1 X109.716 Y100.854 E0.02760
G1 X110.269 Y101.463 E0.02601
G1 X111.536 Y102.731 E0.05671
G1 E-0.80000 F2100.00000
G1 Z0.800 F10800.000
G1 X113.429 Y86.335
G1 Z0.200
G1 E0.80000 F2100.00000
G1 F1200.000
G1 X118.507 Y91.413 E0.22711
G1 X118.281 Y91.293 E0.00809
G1 X117.660 Y91.104 E0.02053
G1 X113.180 Y86.624 E0.20039
G1 X112.809 Y86.791 E0.01286
G1 X117.033 Y91.015 E0.18891
G1 X116.736 Y90.986 E0.00942
G1 X116.490 Y91.010 E0.00782
G1 X112.451 Y86.970 E0.18067
G1 X112.107 Y87.164 E0.01249
G1 X116.001 Y91.058 E0.17416
G1 X115.580 Y91.176 E0.01380
G1 X111.770 Y87.365 E0.17043
G1 X111.448 Y87.582 E0.01226
G1 X115.171 Y91.304 E0.16648
G1 X114.820 Y91.492 E0.01257
G1 X111.141 Y87.812 E0.16457
G1 X110.845 Y88.054 E0.01209
G1 X114.474 Y91.683 E0.16230
G1 X114.178 Y91.925 E0.01209
G1 X110.558 Y88.305 E0.16189
G1 X110.281 Y88.566 E0.01203
G1 X113.883 Y92.168 E0.16107
G1 X113.640 Y92.463 E0.01209
G1 X110.022 Y88.845 E0.16181
G1 X109.766 Y89.127 E0.01204
G1 X113.398 Y92.759 E0.16242
G1 X113.207 Y93.105 E0.01252
G1 X109.528 Y89.426 E0.16454
G1 X109.299 Y89.736 E0.01216
G1 X113.019 Y93.456 E0.16637
G1 X112.890 Y93.865 E0.01356
G1 X109.084 Y90.059 E0.17022
G1 X108.880 Y90.392 E0.01237
G1 X112.773 Y94.285 E0.17411
G1 X112.725 Y94.775 E0.01556
G1 X108.684 Y90.735 E0.18071
G1 X108.506 Y91.094 E0.01270
G1 X112.730 Y95.318 E0.18889
G1 X112.778 Y95.809 E0.01562
G1 X112.819 Y95.945 E0.00449
G1 X108.334 Y91.460 E0.20060
G1 X108.183 Y91.846 E0.01312
G1 X113.128 Y96.792 E0.22121
G1 X113.381 Y97.264 E0.01693
G1 X113.883 Y97.876 E0.02502
G1 X114.494 Y98.378 E0.02502
G1 X114.966 Y98.630 E0.01693
G1 X119.907 Y103.571 E0.22098
G1 X120.297 Y103.423 E0.01319
G1 X115.813 Y98.939 E0.20055
G1 X115.949 Y98.981 E0.00449
G1 X116.441 Y99.029 E0.01562
G1 X120.664 Y103.252 E0.18886
G1 X121.028 Y103.079 E0.01277
G1 X116.984 Y99.034 E0.18090
G1 X117.473 Y98.986 E0.01556
G1 X121.369 Y102.882 E0.17425
G1 X121.705 Y102.680 E0.01240
G1 X117.894 Y98.868 E0.17046
G1 X118.303 Y98.739 E0.01356
G1 X122.021 Y102.458 E0.16630
G1 X122.328 Y102.226 E0.01215
G1 X118.653 Y98.552 E0.16433
G1 X119.000 Y98.361 E0.01252
G1 X122.628 Y101.988 E0.16225
G1 X122.910 Y101.733 E0.01204
G1 X119.295 Y98.118 E0.16165
G1 X119.591 Y97.876 E0.01209
G1 X123.192 Y101.477 E0.16106
G1 X123.453 Y101.200 E0.01203
G1 X119.833 Y97.581 E0.16188
G1 X120.076 Y97.285 E0.01209
G1 X123.705 Y100.914 E0.16231
G1 X123.948 Y100.619 E0.01208
G1 X120.267 Y96.938 E0.16462
G1 X120.454 Y96.588 E0.01257
G1 X124.174 Y100.308 E0.16638
G1 X124.393 Y99.988 E0.01224
G1 X120.583 Y96.179 E0.17036
G1 X120.701 Y95.758 E0.01381
G1 X124.597 Y99.654 E0.17425
G1 X124.794 Y99.313 E0.01245
G1 X120.749 Y95.269 E0.18090
G1 X120.773 Y95.022 E0.00785
G1 X120.744 Y94.726 E0.00940
G1 X124.974 Y98.956 E0.18919
G1 X125.137 Y98.581 E0.01292
G1 X120.654 Y94.098 E0.20050
G1 X120.466 Y93.477 E0.02053
G1 X120.345 Y93.252 E0.00809
G1 X125.291 Y98.197 E0.22120
G1 X125.431 Y97.799 E0.01335
G1 X113.965 Y86.333 E0.51280
G1 X114.380 Y86.211 E0.01369
G1 X125.550 Y97.380 E0.49956
G1 X125.659 Y96.952 E0.01399
G1 X114.814 Y86.106 E0.48506
G1 X115.262 Y86.016 E0.01445
G1 X125.738 Y96.493 E0.46856
G1 X125.804 Y96.020 E0.01508
G1 X115.735 Y85.952 E0.45032
G1 X116.234 Y85.913 E0.01584
G1 X125.842 Y95.521 E0.42969
G1 X125.866 Y95.007 E0.01627
G1 X116.758 Y85.899 E0.40733
G1 X117.319 Y85.922 E0.01775
G1 X125.845 Y94.448 E0.38131
G1 X125.789 Y93.854 E0.01886
G1 X117.905 Y85.971 E0.35260
G1 X118.551 Y86.078 E0.02069
G1 X125.682 Y93.209 E0.31892
G1 X125.506 Y92.496 E0.02323
G1 X119.273 Y86.263 E0.27878
G1 X119.579 Y86.348 E0.01004
G1 X120.090 Y86.542 E0.01729
G1 X125.235 Y91.687 E0.23013
G1 X125.029 Y91.205 E0.01658
G1 X124.768 Y90.682 E0.01851
G1 X121.083 Y86.996 E0.16482
G1 X121.869 Y87.471 E0.02906
G1 X122.551 Y87.986 E0.02702
G1 X123.178 Y88.554 E0.02674
G1 X124.442 Y89.818 E0.05654
G1 E-0.80000 F2100.00000
G1 Z0.800 F10800.000
G1 X133.269 Y118.728
G1 Z0.200
G1 E0.80000 F2100.00000
G1 F1200.000
G1 X132.537 Y118.656 E0.02306
G1 X131.833 Y118.442 E0.02306
G1 X131.184 Y118.095 E0.02306
G1 X130.616 Y117.629 E0.02306
G1 X130.149 Y117.060 E0.02306
G1 X129.802 Y116.411 E0.02306
