; generated by PrusaSlicer 2.0.0+ on 2019-08-05 at 11:06:48

; 

; external perimeters extrusion width = 0.45mm
; perimeters extrusion width = 0.45mm
; infill extrusion width = 0.45mm
; solid infill extrusion width = 0.45mm
; top infill extrusion width = 0.40mm
; support material extrusion width = 0.35mm
; first layer extrusion width = 0.42mm

; external perimeters extrusion width = 0.45mm
; perimeters extrusion width = 0.45mm
; infill extrusion width = 0.45mm
; solid infill extrusion width = 0.45mm
; top infill extrusion width = 0.40mm
; support material extrusion width = 0.35mm
; first layer extrusion width = 0.42mm

M73 P0 R87
M201 X9000 Y9000 Z500 E10000 ; sets maximum accelerations, mm/sec^2
M203 X500 Y500 Z12 E120 ; sets maximum feedrates, mm/sec
M204 P2000 R1500 T2000 ; sets acceleration (P, T) and retract acceleration (R), mm/sec^2
M205 X10.00 Y10.00 Z0.20 E2.50 ; sets the jerk limits, mm/sec
M205 S0 T0 ; sets the minimum extruding and travel feed rate, mm/sec
M107
M115 U3.7.2 ; tell printer latest fw version
G90 ; use absolute coordinates
M83 ; extruder relative mode
M104 S215 ; set extruder temp
M140 S60 ; set bed temp
M190 S60 ; wait for bed temp
M109 S215 ; wait for extruder temp
G28 W ; home all without mesh bed level
G80 ; mesh bed leveling
G21 ; set units to millimeters

; Send the filament type to the MMU2.0 unit.
; E stands for extruder number, F stands for filament type (0: default; 1:flex; 2: PVA)
M403 E0 F0
M403 E1 F0
M403 E2 F0
M403 E3 F0
M403 E4 F0


;go outside print area
G1 Y-3.0 F1000.0
G1 Z0.4 F1000.0
; select extruder
T1
; initial load
G1 X55.0 E29.0 F1073.0
M73 P0 R87
G1 X5.0 E29.0 F1800.0
G1 X55.0 E8.0 F2000.0
G1 Z0.3 F1000.0
G92 E0.0
G1 X240.0 E25.0 F2200.0
G1 Y-2.0 F1000.0
G1 X55.0 E25 F1400.0
G1 Z0.20 F1000.0
G1 X5.0 E4.0 F1000.0
G92 E0.0

G92 E0.0
G21 ; set units to millimeters
G90 ; use absolute coordinates
M83 ; use relative distances for extrusion
T1
M900 K30 ; Filament gcode
G1 Z0.200 F10800.000
;BEFORE_LAYER_CHANGE
G92 E0.0
;0.2


G1 E-0.80000 F2100.00000
G1 Z0.800 F10800.000
G1 Z0.200
;AFTER_LAYER_CHANGE
;0.2
M900 K0
G1 E-2.20000 F2100.00000
G1 Z0.800 F10800.000
G1 X233.000 Y140.000
G1 Z0.200
G1 E3.00000 F2100.00000
;-------------------------------------
; CP WIPE TOWER FIRST LAYER BRIM START
G1 X233.000 Y154.060 E0.8016 F2400
G1 X230.457 Y154.517  F7000
G1 Y139.543 E0.6260 F2100
G1 X169.543 E2.5466
G1 Y154.517 E0.6260
G1 X230.457 E2.5466
G1 X230.914 Y154.974  F7000
G1 Y139.086 E0.6642 F2100
G1 X169.086 E2.5849
G1 Y154.974 E0.6642
G1 X230.914 E2.5849
G1 X231.371 Y155.431  F7000
G1 Y138.629 E0.7025 F2100
G1 X168.629 E2.6231
G1 Y155.431 E0.7025
G1 X231.371 E2.6231
G1 X231.828 Y155.888  F7000
G1 Y138.172 E0.7407 F2100
G1 X168.172 E2.6613
G1 Y155.888 E0.7407
G1 X231.828 E2.6613
G1 X230.000 Y154.060  F7000
G1 X170.000
G1 X230.000
; CP WIPE TOWER FIRST LAYER BRIM END
;-----------------------------------
G1 X229.500 Y140.500  F7200
;--------------------
; CP EMPTY GRID START
; layer #1
G1 X230.000
G1 Y140.000
G1 Y154.060 E0.5344 F1450
G1 X170.000 E2.2804
G1 Y140.000 E0.5344
G1 X230.000 E2.2804
G1 X229.500
G1 Y140.500
G1 Y153.560 E0.4964
G1 X170.500 E2.2424
G1 Y140.500 E0.4964
G1 X229.500 E2.2424
G1 Y153.560
G1 X229.000 Y153.037  E0.0275
G1 X171.000 E2.2044
G1 Y152.513 E0.0199
G1 X229.000 E2.2044
G1 Y151.990 E0.0199
G1 X171.000 E2.2044
M73 P1 R86
G1 Y151.467 E0.0199
G1 X229.000 E2.2044
G1 Y150.943 E0.0199
G1 X171.000 E2.2044
G1 Y150.420 E0.0199
G1 X229.000 E2.2044
G1 Y149.897 E0.0199
G1 X171.000 E2.2044
G1 Y149.373 E0.0199
G1 X229.000 E2.2044
G1 Y148.850 E0.0199
G1 X171.000 E2.2044
G1 Y148.327 E0.0199
G1 X229.000 E2.2044
G1 Y147.803 E0.0199
G1 X171.000 E2.2044
G1 Y147.280 E0.0199
G1 X229.000 E2.2044
G1 Y146.757 E0.0199
G1 X171.000 E2.2044
G1 Y146.233 E0.0199
G1 X229.000 E2.2044
G1 Y145.710 E0.0199
G1 X171.000 E2.2044
G1 Y145.187 E0.0199
G1 X229.000 E2.2044
G1 Y144.663 E0.0199
G1 X171.000 E2.2044
G1 Y144.140 E0.0199
G1 X229.000 E2.2044
G1 Y143.617 E0.0199
G1 X171.000 E2.2044
G1 Y143.093 E0.0199
G1 X229.000 E2.2044
G1 Y142.570 E0.0199
G1 X171.000 E2.2044
G1 Y142.047 E0.0199
G1 X229.000 E2.2044
G1 Y141.523 E0.0199
G1 X171.000 E2.2044
G1 Y141.000 E0.0199
G1 X229.000 E2.2044
G1 X171.000
; CP EMPTY GRID END
;------------------







M900 K30 ; Filament gcode
G1 F8640
G1 X167.709 Y141.000 E-0.76000
G1 E-0.04000 F2100.00000
G1 Z0.800 F10800.000
G1 X133.323 Y128.338
G1 Z0.200
G1 E0.80000 F2100.00000
M204 S1000
G1 F1200
G1 X132.777 Y128.614 E0.01919
G1 X125.542 Y130.986 E0.23873
G1 X120.567 Y131.208 E0.15614
G1 X112.771 Y131.128 E0.24446
G1 X112.113 Y130.952 E0.02134
G1 X111.542 Y130.582 E0.02134
G1 X111.113 Y130.058 E0.02123
G1 X110.865 Y129.424 E0.02134
G1 X110.813 Y128.952 E0.01490
G1 X110.815 Y76.525 E1.64383
G1 X111.006 Y75.711 E0.02620
G1 X111.485 Y75.031 E0.02608
G1 X112.187 Y74.578 E0.02620
G1 X113.007 Y74.420 E0.02620
G1 X137.011 Y74.614 E0.75265
G1 X137.703 Y74.840 E0.02281
G1 X138.279 Y75.278 E0.02270
G1 X140.394 Y77.772 E0.10254
G1 X140.780 Y78.613 E0.02900
G1 X140.832 Y79.081 E0.01475
G1 X140.832 Y119.795 E1.27656
M73 P2 R85
G1 X140.744 Y120.404 E0.01930
G1 X140.545 Y120.874 E0.01601
G1 X140.242 Y121.285 E0.01601
G1 X133.365 Y128.295 E0.30792
G1 F8640
G1 X132.777 Y128.614 E-0.15450
G1 X130.285 Y129.431 E-0.60550
G1 E-0.04000 F2100.00000
G1 Z0.800 F10800.000
G1 X130.984 Y121.409
G1 Z0.200
G1 E0.80000 F2100.00000
G1 F1200
G1 X130.984 Y119.999 E0.03600
G1 X130.823 Y119.959 E0.00422
G1 X130.641 Y120.112 E0.00606
G1 X130.477 Y120.195 E0.00471
G1 X130.477 Y121.271 E0.02746
G1 X129.970 Y121.271 E0.01295
G1 X129.970 Y120.405 E0.02210
G1 X129.852 Y120.476 E0.00351
G1 X129.696 Y120.636 E0.00570
G1 X129.556 Y120.731 E0.00431
G1 X129.463 Y120.742 E0.00241
G1 X129.463 Y121.409 E0.01702
G1 X125.823 Y121.162 F10800.000
G1 F1200
G1 X125.823 Y126.543 E0.16870
G1 X126.577 Y126.543 E0.02365
G1 X126.577 Y121.030 E0.17285
G1 X126.702 Y120.953 E0.00462
G1 X126.821 Y120.836 E0.00521
G1 X126.952 Y120.821 E0.00412
G1 X127.331 Y120.851 E0.01193
G1 X127.331 Y126.543 E0.17845
G1 X128.085 Y126.543 E0.02365
G1 X128.085 Y114.845 E0.36678
G1 X128.227 Y114.703 E0.00627
G1 X128.227 Y113.692 E0.03172
G1 X128.449 Y113.692 E0.00697
G1 X128.449 Y95.084 E0.58341
G1 X128.313 Y95.015 E0.00478
G1 X128.085 Y94.787 E0.01012
G1 X128.085 Y94.476 E0.00975
G1 X128.839 Y94.476 E0.02365
G1 X128.839 Y126.543 E1.00542
G1 X129.593 Y126.543 E0.02365
G1 X129.593 Y121.613 E0.15457
G1 X130.348 Y121.613 E0.02365
G1 X130.348 Y126.543 E0.15457
G1 X131.102 Y126.543 E0.02365
G1 X131.102 Y121.613 E0.15457
G1 X131.756 Y121.613 E0.02051
G1 X131.756 Y119.487 E0.06663
G1 X131.856 Y119.611 E0.00497
G1 X131.856 Y126.543 E0.21735
G1 X132.072 Y126.543 E0.00677
G1 X132.072 Y124.236 E0.07234
G1 X132.610 Y124.236 E0.01688
G1 X132.610 Y119.449 E0.15009
G1 X132.785 Y119.309 E0.00702
G1 X133.270 Y119.019 E0.01770
G1 X133.364 Y119.142 E0.00487
G1 X133.364 Y124.236 E0.15969
G1 X134.118 Y124.236 E0.02365
G1 X134.118 Y119.025 E0.16339
G1 X134.450 Y118.644 E0.01581
G1 X134.687 Y118.804 E0.00897
G1 X134.873 Y118.705 E0.00659
G1 X134.873 Y119.791 E0.03405
G1 X138.643 Y119.791 F10800.000
G1 F1200
G1 X138.643 Y79.085 E1.27630
G1 X137.889 Y79.085 E0.02365
G1 X137.889 Y119.621 E1.27098
G1 X137.135 Y119.621 E0.02365
G1 X137.135 Y79.085 E1.27098
G1 X136.686 Y79.085 E0.01408
G1 X136.686 Y76.778 E0.07234
G1 X136.381 Y76.778 E0.00957
G1 X136.381 Y119.621 E1.34332
G1 X135.627 Y119.621 E0.02365
G1 X135.627 Y76.778 E1.34332
G1 X134.873 Y76.778 E0.02365
G1 X134.873 Y89.357 E0.39438
G1 X134.118 Y89.357 E0.02365
G1 X134.118 Y76.778 E0.39438
G1 X133.364 Y76.778 E0.02365
G1 X133.364 Y89.357 E0.39438
G1 X132.610 Y89.357 E0.02365
G1 X132.610 Y76.778 E0.39438
G1 X131.856 Y76.778 E0.02365
G1 X131.856 Y89.357 E0.39438
G1 X131.102 Y89.357 E0.02365
G1 X131.102 Y76.778 E0.39438
G1 X130.348 Y76.778 E0.02365
G1 X130.348 Y89.357 E0.39438
G1 X129.593 Y89.357 E0.02365
G1 X129.593 Y76.778 E0.39438
G1 X128.839 Y76.778 E0.02365
G1 X128.839 Y89.357 E0.39438
G1 X128.085 Y89.357 E0.02365
G1 X128.085 Y79.085 E0.32205
G1 X127.331 Y79.085 E0.02365
G1 X127.331 Y89.357 E0.32205
G1 X126.577 Y89.357 E0.02365
G1 X126.577 Y79.085 E0.32205
G1 X125.823 Y79.085 E0.02365
G1 X125.823 Y89.357 E0.32205
G1 X125.068 Y89.357 E0.02365
G1 X125.069 Y79.085 E0.32205
G1 X124.314 Y79.085 E0.02365
G1 X124.314 Y89.357 E0.32205
G1 X123.560 Y89.357 E0.02365
G1 X123.560 Y79.085 E0.32205
G1 X122.806 Y79.085 E0.02365
G1 X122.806 Y89.357 E0.32205
G1 X122.052 Y89.357 E0.02365
G1 X122.052 Y79.085 E0.32205
G1 X121.298 Y79.085 E0.02365
G1 X121.298 Y89.357 E0.32205
G1 X120.544 Y89.357 E0.02365
G1 X120.536 Y76.778 E0.39438
G1 X119.789 Y76.778 E0.02342
G1 X119.789 Y89.357 E0.39438
G1 X119.035 Y89.357 E0.02365
G1 X119.035 Y76.778 E0.39438
G1 X118.281 Y76.778 E0.02365
G1 X118.281 Y89.357 E0.39438
G1 X117.527 Y89.357 E0.02365
G1 X117.527 Y76.778 E0.39438
G1 X116.773 Y76.778 E0.02365
G1 X116.773 Y89.357 E0.39438
G1 X116.019 Y89.357 E0.02365
G1 X116.019 Y76.778 E0.39438
G1 X115.264 Y76.778 E0.02365
G1 X115.264 Y89.357 E0.39438
G1 X115.093 Y89.357 E0.00537
G1 X114.851 Y89.599 E0.01074
G1 X114.851 Y94.234 E0.14533
G1 X115.093 Y94.476 E0.01074
G1 X115.264 Y94.476 E0.00537
G1 X115.264 Y95.501 E0.03212
G1 X116.019 Y95.501 E0.02365
G1 X116.019 Y94.476 E0.03212
G1 X116.773 Y94.476 E0.02365
G1 X116.773 Y95.501 E0.03212
G1 X117.527 Y95.501 E0.02365
G1 X117.527 Y94.476 E0.03212
G1 X118.281 Y94.476 E0.02365
G1 X118.281 Y95.501 E0.03212
G1 X119.035 Y95.501 E0.02365
G1 X119.035 Y94.476 E0.03212
G1 X119.789 Y94.476 E0.02365
G1 X119.789 Y95.501 E0.03212
G1 X120.544 Y95.501 E0.02365
G1 X120.544 Y94.476 E0.03212
G1 X121.298 Y94.476 E0.02365
G1 X121.298 Y128.850 E1.07776
G1 X122.052 Y128.850 E0.02365
G1 X122.052 Y124.922 E0.12315
G1 X122.377 Y124.998 E0.01046
G1 X122.806 Y125.009 E0.01346
G1 X122.806 Y128.850 E0.12042
G1 X123.560 Y128.850 E0.02365
G1 X123.560 Y124.822 E0.12627
G1 X123.675 Y124.720 E0.00484
G1 X123.767 Y124.583 E0.00518
G1 X123.884 Y124.213 E0.01215
G1 X123.925 Y124.139 E0.00266
G1 X124.047 Y124.044 E0.00484
G1 X124.314 Y123.918 E0.00928
G1 X124.314 Y128.850 E0.15464
G1 X125.068 Y128.850 E0.02365
G1 X125.068 Y121.745 E0.22275
G1 X125.014 Y121.759 E0.00177
G1 X124.382 Y121.759 E0.01982
G1 X124.357 Y121.739 E0.00099
G1 X124.314 Y121.752 E0.00141
G1 X124.314 Y122.618 E0.02716
G1 X123.560 Y122.618 E0.02365
G1 X123.560 Y121.759 E0.02694
G1 X122.806 Y121.759 E0.02365
G1 X122.806 Y122.618 E0.02694
G1 X122.052 Y122.618 E0.02365
G1 X122.052 Y121.759 E0.02694
G1 X121.922 Y121.759 E0.00407
G1 X121.680 Y121.517 E0.01074
G1 X121.680 Y115.968 E0.17398
G1 X121.922 Y115.726 E0.01074
G1 X122.052 Y115.726 E0.00407
G1 X122.052 Y114.945 E0.02446
G1 X122.806 Y114.945 E0.02365
G1 X122.806 Y115.895 E0.02979
G1 X120.544 Y115.895 F10800.000
G1 F1200
G1 X120.544 Y114.945 E0.02979
G1 X119.789 Y114.945 E0.02365
G1 X119.789 Y115.726 E0.02446
G1 X119.035 Y115.726 E0.02365
G1 X119.035 Y114.945 E0.02446
G1 X118.281 Y114.945 E0.02365
G1 X118.281 Y115.726 E0.02446
G1 X117.527 Y115.726 E0.02365
G1 X117.527 Y114.945 E0.02446
G1 X116.773 Y114.945 E0.02365
G1 X116.773 Y115.726 E0.02446
G1 X116.019 Y115.726 E0.02365
G1 X116.019 Y114.945 E0.02446
G1 X115.264 Y114.945 E0.02365
G1 X115.264 Y115.895 E0.02979
G1 F8640
G1 X115.264 Y114.945 E-0.21935
G1 X116.019 Y114.945 E-0.17414
G1 X116.019 Y115.726 E-0.18017
G1 X116.773 Y115.726 E-0.17414
G1 X116.773 Y115.673 E-0.01221
G1 E-0.04000 F2100.00000
G1 Z0.800 F10800.000
G1 X115.264 Y109.256
G1 Z0.200
G1 E0.80000 F2100.00000
G1 F1200
G1 X115.264 Y108.097 E0.03636
G1 X116.019 Y108.097 E0.02365
G1 X116.019 Y109.087 E0.03104
G1 X116.773 Y109.087 E0.02365
G1 X116.773 Y108.097 E0.03104
G1 X117.527 Y108.097 E0.02365
G1 X117.527 Y109.087 E0.03104
G1 X118.281 Y109.087 E0.02365
G1 X118.281 Y108.097 E0.03104
G1 X119.035 Y108.097 E0.02365
G1 X119.035 Y109.087 E0.03104
G1 X119.789 Y109.087 E0.02365
G1 X119.789 Y108.097 E0.03104
G1 X120.544 Y108.097 E0.02365
G1 X120.544 Y109.256 E0.03636
G1 X122.052 Y109.256 F10800.000
G1 F1200
G1 X122.052 Y108.097 E0.03636
G1 X122.806 Y108.097 E0.02365
G1 X122.806 Y109.256 E0.03636
G1 F8640
G1 X122.806 Y108.097 E-0.26776
G1 X122.052 Y108.097 E-0.17414
G1 X122.052 Y109.256 E-0.26776
G1 E-0.09035 F2100.00000
G1 Z0.800 F10800.000
G1 X125.823 Y114.776
G1 Z0.200
G1 E0.80000 F2100.00000
G1 F1200
G1 X125.823 Y115.726 E0.02979
G1 X126.577 Y115.726 E0.02365
G1 X126.577 Y114.945 E0.02446
G1 X127.331 Y114.945 E0.02365
G1 X127.331 Y115.895 E0.02979
G1 X129.593 Y115.895 F10800.000
G1 F1200
G1 X129.593 Y114.945 E0.02979
G1 X130.348 Y114.945 E0.02365
G1 X130.348 Y115.726 E0.02446
G1 X131.102 Y115.726 E0.02365
G1 X131.102 Y114.945 E0.02446
G1 X131.856 Y114.945 E0.02365
G1 X131.856 Y115.726 E0.02446
G1 X132.610 Y115.726 E0.02365
G1 X132.610 Y114.945 E0.02446
G1 X133.364 Y114.945 E0.02365
G1 X133.364 Y115.726 E0.02446
G1 X134.118 Y115.726 E0.02365
G1 X134.118 Y114.945 E0.02446
G1 X134.873 Y114.945 E0.02365
G1 X134.873 Y115.955 E0.03166
G1 F8640
G1 X134.873 Y114.945 E-0.23317
G1 X134.118 Y114.945 E-0.17414
G1 X134.118 Y115.726 E-0.18017
G1 X133.371 Y115.726 E-0.17252
G1 E-0.04000 F2100.00000
G1 Z0.800 F10800.000
G1 X134.873 Y109.316
G1 Z0.200
G1 E0.80000 F2100.00000
G1 F1200
G1 X134.873 Y108.097 E0.03824
G1 X134.118 Y108.097 E0.02365
G1 X134.118 Y109.087 E0.03104
G1 X133.364 Y109.087 E0.02365
G1 X133.364 Y108.097 E0.03104
G1 X132.610 Y108.097 E0.02365
G1 X132.610 Y109.087 E0.03104
G1 X131.856 Y109.087 E0.02365
G1 X131.856 Y108.097 E0.03104
G1 X131.102 Y108.097 E0.02365
G1 X131.102 Y109.087 E0.03104
G1 X130.348 Y109.087 E0.02365
G1 X130.348 Y108.097 E0.03104
G1 X129.593 Y108.097 E0.02365
G1 X129.593 Y109.256 E0.03636
G1 F8640
G1 X129.593 Y108.097 E-0.26776
G1 X130.348 Y108.097 E-0.17414
G1 X130.348 Y109.087 E-0.22858
G1 X130.735 Y109.087 E-0.08953
G1 E-0.04000 F2100.00000
G1 Z0.800 F10800.000
G1 X129.593 Y102.547
G1 Z0.200
G1 E0.80000 F2100.00000
G1 F1200
G1 X129.593 Y101.388 E0.03636
G1 X130.348 Y101.388 E0.02365
G1 X130.348 Y102.378 E0.03104
G1 X131.102 Y102.378 E0.02365
G1 X131.102 Y101.388 E0.03104
G1 X131.856 Y101.388 E0.02365
G1 X131.856 Y102.378 E0.03104
G1 X132.610 Y102.378 E0.02365
G1 X132.610 Y101.388 E0.03104
G1 X133.364 Y101.388 E0.02365
G1 X133.364 Y102.378 E0.03104
G1 X134.118 Y102.378 E0.02365
G1 X134.118 Y101.388 E0.03104
G1 X134.873 Y101.388 E0.02365
G1 X134.873 Y102.607 E0.03824
G1 F8640
G1 X134.873 Y101.388 E-0.28158
G1 X134.118 Y101.388 E-0.17414
G1 X134.118 Y102.378 E-0.22857
G1 X133.791 Y102.378 E-0.07571
G1 E-0.04000 F2100.00000
G1 Z0.800 F10800.000
G1 X134.873 Y95.730
G1 Z0.200
G1 E0.80000 F2100.00000
G1 F1200
G1 X134.873 Y94.476 E0.03932
G1 X134.118 Y94.476 E0.02365
G1 X134.118 Y95.501 E0.03213
G1 X133.364 Y95.501 E0.02365
G1 X133.364 Y94.476 E0.03214
G1 X132.610 Y94.476 E0.02365
G1 X132.610 Y95.501 E0.03214
G1 X131.856 Y95.501 E0.02365
G1 X131.856 Y94.476 E0.03214
G1 X131.102 Y94.476 E0.02365
G1 X131.102 Y95.501 E0.03214
G1 X130.348 Y95.501 E0.02365
G1 X130.348 Y94.476 E0.03214
G1 X129.593 Y94.476 E0.02365
G1 X129.593 Y95.670 E0.03746
G1 F8640
G1 X129.593 Y94.476 E-0.27584
G1 X130.348 Y94.476 E-0.17414
G1 X130.348 Y95.501 E-0.23666
G1 X130.665 Y95.501 E-0.07336
G1 E-0.04000 F2100.00000
G1 Z0.800 F10800.000
G1 X133.012 Y92.741
G1 Z0.200
G1 E0.80000 F2100.00000
G1 F1200
G1 X133.011 Y91.246 E0.03817
G1 X132.836 Y91.157 E0.00500
G1 X132.505 Y91.122 E0.00850
G1 X132.505 Y92.711 E0.04058
G1 X131.998 Y92.711 E0.01295
G1 X131.998 Y91.122 E0.04058
G1 X131.491 Y91.122 E0.01295
G1 X131.491 Y92.711 E0.04058
G1 X130.984 Y92.711 E0.01295
G1 X130.984 Y91.122 E0.04058
G1 X130.477 Y91.122 E0.01295
G1 X130.477 Y92.711 E0.04058
G1 X130.253 Y92.676 E0.00577
G1 X130.079 Y92.587 E0.00500
G1 X129.970 Y92.477 E0.00394
G1 X129.970 Y91.160 E0.03365
G1 F8640
G1 X129.970 Y92.477 E-0.30427
G1 X130.079 Y92.587 E-0.03565
G1 X130.253 Y92.676 E-0.04523
G1 X130.477 Y92.711 E-0.05217
G1 X130.477 Y91.313 E-0.32268
G1 E-0.04000 F2100.00000
G1 Z0.800 F10800.000
G1 X122.806 Y95.670
G1 Z0.200
G1 E0.80000 F2100.00000
G1 F1200
G1 X122.806 Y94.476 E0.03744
G1 X122.052 Y94.476 E0.02365
G1 X122.052 Y95.670 E0.03744
G1 F8640
