; generated by PrusaSlicer 2.2.0+win64 on 2020-09-08 at 22:23:24 UTC

; 

; external perimeters extrusion width = 0.45mm
; perimeters extrusion width = 0.45mm
; infill extrusion width = 0.45mm
; solid infill extrusion width = 0.45mm
; top infill extrusion width = 0.40mm
; first layer extrusion width = 0.42mm

M73 P0 R35
M201 X9000 Y9000 Z500 E10000 ; sets maximum accelerations, mm/sec^2
M203 X500 Y500 Z12 E120 ; sets maximum feedrates, mm/sec
M204 P2000 R1500 T2000 ; sets acceleration (P, T) and retract acceleration (R), mm/sec^2
M205 X10.00 Y10.00 Z0.20 E2.50 ; sets the jerk limits, mm/sec
M205 S0 T0 ; sets the minimum extruding and travel feed rate, mm/sec
M107
M862.3 P "MK2.5SMMU2S" ; printer model check
M862.1 P0.4 ; nozzle diameter check
M115 U3.8.0 ; tell printer latest fw version
G90 ; use absolute coordinates
M83 ; extruder relative mode
M104 S215 ; set extruder temp
M140 S60 ; set bed temp
Tx
M190 S60 ; wait for bed temp
M109 S215 ; wait for extruder temp
G28 W ; home all without mesh bed level
G80 ; mesh bed leveling

G21 ; set units to millimeters

;go outside print area
G1 Y-3.0 F1000.0
G1 Z0.4 F1000.0
; select extruder
Tc
; purge line
G1 X55.0 F2000.0
G1 Z0.3 F1000.0
G92 E0.0
G1 X240.0 E25.0 F2200.0
M73 P0 R35
G1 Y-2.0 F1000.0
G1 X55.0 E25 F1400.0
G1 Z0.20 F1000.0
G1 X5.0 E4.0 F1000.0
G92 E0.0
G21 ; set units to millimeters
G90 ; use absolute coordinates
M83 ; use relative distances for extrusion
M900 K0.06 ; Filament gcode LA 1.5
M900 K30 ; Filament gcode LA 1.0
;BEFORE_LAYER_CHANGE
G92 E0.0
;0.2


G1 E-0.80000 F2100.00000
G1 Z0.600 F10800.000
;AFTER_LAYER_CHANGE
;0.2
G1 X94.576 Y85.564
G1 Z0.200
G1 E0.80000 F2100.00000
M204 S1000
G1 F1200.000
G1 X95.065 Y84.826 E0.02778
G1 X98.919 Y81.018 E0.16987
G1 X99.351 Y80.707 E0.01668
G1 X99.841 Y80.499 E0.01668
G1 X135.164 Y72.975 E1.13239
G1 X151.710 Y72.925 E0.51877
G1 X152.673 Y73.051 E0.03046
G1 X153.496 Y73.532 E0.02989
G1 X154.066 Y74.301 E0.03001
G1 X154.286 Y75.232 E0.03001
G1 X154.287 Y134.725 E1.86534
G1 X154.106 Y135.607 E0.02825
G1 X153.610 Y136.360 E0.02825
G1 X152.873 Y136.871 E0.02813
G1 X151.999 Y137.073 E0.02813
G1 X135.284 Y137.046 E0.52408
G1 X101.508 Y129.420 E1.08569
G1 X100.396 Y129.060 E0.03663
G1 X99.439 Y128.570 E0.03370
G1 X98.240 Y127.669 E0.04702
G1 X97.458 Y126.815 E0.03632
G1 X96.819 Y125.835 E0.03669
G1 X94.586 Y121.820 E0.14404
G1 X94.415 Y121.360 E0.01538
G1 X94.317 Y120.776 E0.01857
G1 X94.390 Y86.434 E1.07677
G1 X94.563 Y85.623 E0.02602
G1 E-0.80000 F2100.00000
G1 Z0.800 F10800.000
G1 X103.116 Y91.779
G1 Z0.200
G1 E0.80000 F2100.00000
G1 F1200.000
G1 X102.661 Y91.739 E0.01433
G1 X102.220 Y91.621 E0.01433
G1 X101.805 Y91.428 E0.01433
G1 X101.431 Y91.166 E0.01433
G1 X101.108 Y90.843 E0.01433
G1 X100.846 Y90.468 E0.01433
G1 X100.653 Y90.054 E0.01433
G1 X100.535 Y89.613 E0.01433
G1 X100.495 Y89.158 E0.01433
G1 X100.535 Y88.702 E0.01433
G1 X100.653 Y88.261 E0.01433
G1 X100.846 Y87.847 E0.01433
G1 X101.108 Y87.473 E0.01433
G1 X101.431 Y87.150 E0.01433
G1 X101.805 Y86.888 E0.01433
G1 X102.220 Y86.694 E0.01433
G1 X102.661 Y86.576 E0.01433
G1 X103.102 Y86.538 E0.01389
G1 X103.570 Y86.576 E0.01471
G1 X104.013 Y86.694 E0.01438
G1 X104.427 Y86.888 E0.01433
G1 X104.801 Y87.150 E0.01433
G1 X105.124 Y87.473 E0.01433
G1 X105.386 Y87.847 E0.01433
G1 X105.579 Y88.261 E0.01433
G1 X105.698 Y88.702 E0.01433
G1 X105.737 Y89.158 E0.01433
G1 X105.698 Y89.613 E0.01433
G1 X105.579 Y90.054 E0.01433
G1 X105.386 Y90.468 E0.01433
G1 X105.124 Y90.843 E0.01433
G1 X104.811 Y91.156 E0.01389
G1 X104.428 Y91.427 E0.01471
G1 X104.013 Y91.621 E0.01438
G1 X103.571 Y91.739 E0.01433
G1 X103.176 Y91.774 E0.01245
G1 X103.116 Y91.400 F10800.000
G1 F1200.000
G1 X102.727 Y91.366 E0.01226
G1 X102.349 Y91.265 E0.01226
G1 X101.995 Y91.100 E0.01226
G1 X101.674 Y90.876 E0.01226
G1 X101.398 Y90.599 E0.01226
G1 X101.174 Y90.279 E0.01226
G1 X101.009 Y89.925 E0.01226
G1 X100.907 Y89.547 E0.01226
G1 X100.873 Y89.158 E0.01226
G1 X100.907 Y88.768 E0.01226
G1 X101.009 Y88.391 E0.01226
G1 X101.174 Y88.036 E0.01226
G1 X101.398 Y87.716 E0.01226
G1 X101.674 Y87.440 E0.01226
G1 X101.995 Y87.215 E0.01226
G1 X102.349 Y87.050 E0.01226
G1 X102.727 Y86.949 E0.01226
G1 X103.103 Y86.916 E0.01185
G1 X103.505 Y86.949 E0.01264
G1 X103.883 Y87.050 E0.01228
G1 X104.238 Y87.215 E0.01226
G1 X104.558 Y87.440 E0.01226
G1 X104.834 Y87.716 E0.01226
G1 X105.058 Y88.036 E0.01226
G1 X105.224 Y88.391 E0.01226
G1 X105.325 Y88.768 E0.01226
G1 X105.359 Y89.158 E0.01226
G1 X105.325 Y89.547 E0.01226
G1 X105.224 Y89.925 E0.01226
G1 X105.058 Y90.279 E0.01226
G1 X104.834 Y90.599 E0.01226
G1 X104.567 Y90.867 E0.01185
G1 X104.238 Y91.100 E0.01264
G1 X103.883 Y91.265 E0.01228
G1 X103.506 Y91.366 E0.01226
G1 X103.176 Y91.395 E0.01038
G1 X102.921 Y91.739 F10800.000
G1 E-0.80000 F2100.00000
G1 Z0.800 F10800.000
G1 X102.945 Y126.642
G1 Z0.200
G1 E0.80000 F2100.00000
G1 F1200.000
G1 X102.222 Y126.541 E0.02290
G1 X101.526 Y126.317 E0.02292
G1 X100.879 Y125.978 E0.02292
G1 X100.299 Y125.534 E0.02292
G1 X99.802 Y124.997 E0.02292
G1 X99.388 Y124.358 E0.02388
G1 X97.271 Y120.529 E0.13719
G1 X97.262 Y120.313 E0.00676
G1 X97.283 Y120.133 E0.00571
G1 X97.338 Y119.940 E0.00629
G1 X97.438 Y119.723 E0.00747
G1 X97.654 Y119.406 E0.01204
G1 X97.744 Y119.309 E0.00412
G1 X97.812 Y119.266 E0.00254
G1 X97.961 Y119.429 E0.00693
G1 X97.710 Y119.666 E0.01085
G1 X97.559 Y119.912 E0.00904
G1 X97.495 Y120.213 E0.00962
G1 X97.562 Y120.622 E0.01299
G1 X97.869 Y121.375 E0.02550
G1 X98.094 Y121.719 E0.01290
G1 X98.399 Y121.949 E0.01200
G1 X98.997 Y122.243 E0.02087
G1 X99.220 Y122.330 E0.00752
G1 X99.542 Y122.378 E0.01020
G1 X99.874 Y122.314 E0.01059
G1 X100.043 Y122.218 E0.00610
G1 X101.531 Y123.706 E0.06597
G1 X104.543 Y120.660 E0.13431
G1 X103.011 Y119.154 E0.06735
G1 X103.067 Y118.812 E0.01088
G1 X103.026 Y118.413 E0.01257
G1 X102.937 Y118.114 E0.00979
G1 X102.784 Y117.802 E0.01087
G1 X102.582 Y117.522 E0.01084
G1 X102.344 Y117.285 E0.01053
G1 X102.106 Y117.111 E0.00925
G1 X101.805 Y116.956 E0.01062
G1 X101.498 Y116.856 E0.01011
G1 X101.183 Y116.804 E0.01002
G1 X100.905 Y116.803 E0.00871
G1 X100.536 Y116.889 E0.01188
G1 X100.241 Y117.076 E0.01096
G1 X100.070 Y117.248 E0.00758
G1 X99.788 Y117.614 E0.01451
G1 X99.653 Y117.506 E0.00543
G1 X99.571 Y117.363 E0.00517
G1 X99.575 Y117.265 E0.00307
G1 X99.635 Y117.051 E0.00696
G1 X99.635 Y93.854 E0.72734
G1 X97.326 Y91.518 E0.10300
G1 X97.352 Y86.732 E0.15006
G1 X100.756 Y83.367 E0.15006
G1 X105.541 Y83.394 E0.15006
G1 X108.907 Y86.797 E0.15006
G1 X108.880 Y91.583 E0.15006
G1 X106.597 Y93.840 E0.10066
G1 X106.597 Y119.778 E0.81326
G1 X107.059 Y120.593 E0.02936
G1 X107.307 Y121.280 E0.02292
G1 X107.433 Y122.000 E0.02292
G1 X107.435 Y122.731 E0.02292
G1 X107.312 Y123.452 E0.02292
G1 X107.068 Y124.141 E0.02292
G1 X106.710 Y124.778 E0.02292
G1 X106.249 Y125.345 E0.02292
G1 X105.698 Y125.826 E0.02292
G1 X105.073 Y126.205 E0.02292
G1 X104.393 Y126.472 E0.02292
G1 X103.688 Y126.617 E0.02255
G1 X103.005 Y126.640 E0.02143
G1 X102.926 Y127.020 F10800.000
G1 F1200.000
G1 X102.138 Y126.910 E0.02494
G1 X101.380 Y126.666 E0.02495
G1 X100.675 Y126.297 E0.02495
G1 X100.044 Y125.813 E0.02495
G1 X99.504 Y125.229 E0.02495
G1 X99.065 Y124.552 E0.02529
G1 X96.917 Y120.694 E0.13845
G1 X96.895 Y120.570 E0.00395
G1 X96.884 Y120.299 E0.00849
G1 X96.913 Y120.058 E0.00761
G1 X96.984 Y119.808 E0.00814
G1 X97.109 Y119.537 E0.00937
G1 X97.358 Y119.171 E0.01389
G1 X97.494 Y119.023 E0.00629
G1 X97.649 Y118.916 E0.00591
G1 X97.758 Y118.883 E0.00358
G1 X97.948 Y118.909 E0.00599
G1 X98.055 Y118.971 E0.00389
G1 X98.188 Y119.107 E0.00597
G1 X98.341 Y119.301 E0.00774
G1 X98.366 Y119.370 E0.00231
G1 X98.367 Y119.473 E0.00322
G1 X98.338 Y119.563 E0.00296
G1 X98.269 Y119.656 E0.00364
G1 X98.005 Y119.906 E0.01140
G1 X97.915 Y120.054 E0.00544
G1 X97.879 Y120.222 E0.00538
G1 X97.927 Y120.519 E0.00944
G1 X98.204 Y121.199 E0.02302
G1 X98.373 Y121.458 E0.00969
G1 X98.598 Y121.627 E0.00880
G1 X99.318 Y121.963 E0.02493
G1 X99.534 Y121.995 E0.00685
G1 X99.742 Y121.955 E0.00664
G1 X99.966 Y121.828 E0.00808
G1 X100.072 Y121.713 E0.00489
G1 X101.529 Y123.171 E0.06464
G1 X104.009 Y120.663 E0.11056
G1 X102.553 Y119.232 E0.06401
G1 X102.645 Y119.056 E0.00624
G1 X102.687 Y118.800 E0.00812
G1 X102.655 Y118.487 E0.00987
G1 X102.585 Y118.252 E0.00770
G1 X102.460 Y117.997 E0.00890
G1 X102.294 Y117.767 E0.00887
G1 X102.099 Y117.573 E0.00865
G1 X101.907 Y117.433 E0.00743
G1 X101.659 Y117.305 E0.00876
G1 X101.408 Y117.224 E0.00826
G1 X101.151 Y117.181 E0.00818
G1 X100.947 Y117.181 E0.00639
G1 X100.684 Y117.242 E0.00849
G1 X100.478 Y117.372 E0.00763
G1 X100.354 Y117.497 E0.00551
G1 X99.959 Y118.010 E0.02033
G1 X99.855 Y118.054 E0.00351
G1 X99.693 Y118.002 E0.00535
G1 X99.511 Y117.884 E0.00681
G1 X99.370 Y117.759 E0.00591
G1 X99.242 Y117.579 E0.00693
G1 X99.192 Y117.411 E0.00547
G1 X99.199 Y117.205 E0.00646
G1 X99.258 Y116.999 E0.00673
G1 X99.258 Y94.009 E0.72083
G1 X96.948 Y91.672 E0.10303
G1 X96.976 Y86.574 E0.15986
G1 X100.601 Y82.989 E0.15986
G1 X105.700 Y83.018 E0.15986
G1 X109.285 Y86.643 E0.15986
G1 X109.256 Y91.741 E0.15986
G1 X106.974 Y93.998 E0.10063
G1 X106.974 Y119.679 E0.80520
G1 X107.403 Y120.435 E0.02725
G1 X107.672 Y121.183 E0.02495
G1 X107.810 Y121.967 E0.02495
G1 X107.812 Y122.763 E0.02495
G1 X107.678 Y123.547 E0.02495
G1 X107.413 Y124.297 E0.02495
G1 X107.023 Y124.991 E0.02495
G1 X106.521 Y125.608 E0.02495
G1 X105.921 Y126.131 E0.02495
G1 X105.241 Y126.544 E0.02495
G1 X104.500 Y126.835 E0.02495
G1 X103.733 Y126.993 E0.02456
G1 X102.985 Y127.018 E0.02346
G1 X102.745 Y126.664 F10800.000
G1 E-0.80000 F2100.00000
G1 Z0.800 F10800.000
G1 X99.522 Y124.356
G1 Z0.200
G1 E0.80000 F2100.00000
G1 F1200.000
G1 X100.491 Y125.325 E0.04314
G1 X101.032 Y125.739 E0.02142
G1 X101.636 Y126.055 E0.02148
G1 X101.814 Y126.113 E0.00588
G1 X99.282 Y123.580 E0.11274
G1 X98.619 Y122.382 E0.04308
G1 X102.536 Y126.299 E0.17438
G1 X102.960 Y126.359 E0.01348
G1 X103.126 Y126.353 E0.00521
G1 X99.418 Y122.645 E0.16508
G1 X99.549 Y122.664 E0.00417
G1 X99.904 Y122.596 E0.01139
G1 X103.643 Y126.336 E0.16648
G1 X104.089 Y126.246 E0.01431
G1 X101.740 Y123.897 E0.10459
G1 X102.006 Y123.627 E0.01192
G1 X104.503 Y126.125 E0.11118
G1 X104.888 Y125.974 E0.01300
G1 X102.272 Y123.358 E0.11644
G1 X102.538 Y123.089 E0.01192
G1 X105.229 Y125.780 E0.11978
G1 X105.558 Y125.573 E0.01222
G1 X102.805 Y122.820 E0.12256
G1 X103.071 Y122.551 E0.01192
G1 X105.844 Y125.324 E0.12345
G1 X106.045 Y125.148 E0.00840
G1 X106.116 Y125.061 E0.00355
G1 X103.337 Y122.281 E0.12373
G1 X103.603 Y122.012 E0.01192
G1 X106.356 Y124.765 E0.12257
G1 X106.476 Y124.619 E0.00595
G1 X106.572 Y124.446 E0.00624
G1 X103.869 Y121.743 E0.12034
G1 X104.136 Y121.474 E0.01192
G1 X106.765 Y124.103 E0.11705
G1 X106.917 Y123.720 E0.01298
G1 X104.402 Y121.205 E0.11198
G1 X104.668 Y120.935 E0.01192
G1 X107.048 Y123.316 E0.10596
G1 X107.126 Y122.858 E0.01461
G1 X103.315 Y119.047 E0.16967
G1 X103.352 Y118.820 E0.00724
G1 X103.321 Y118.518 E0.00956
G1 X107.151 Y122.348 E0.17049
G1 X107.150 Y122.025 E0.01014
G1 X107.105 Y121.766 E0.00830
G1 X99.918 Y114.579 E0.31994
G1 X99.918 Y114.044 E0.01685
G1 X106.923 Y121.048 E0.31184
G1 X106.801 Y120.711 E0.01129
G1 X106.382 Y119.972 E0.02673
G1 X99.918 Y113.508 E0.28777
G1 X99.918 Y112.973 E0.01685
G1 X106.314 Y119.369 E0.28475
G1 X106.314 Y118.834 E0.01685
G1 X99.918 Y112.438 E0.28475
G1 X99.918 Y111.902 E0.01685
G1 X106.314 Y118.298 E0.28475
G1 X106.314 Y117.763 E0.01685
G1 X99.918 Y111.367 E0.28475
G1 X99.918 Y110.831 E0.01685
G1 X106.314 Y117.228 E0.28475
G1 X106.314 Y116.692 E0.01685
G1 X99.918 Y110.296 E0.28475
G1 X99.918 Y109.761 E0.01685
G1 X106.314 Y116.157 E0.28475
G1 X106.314 Y115.621 E0.01685
G1 X99.918 Y109.225 E0.28475
G1 X99.918 Y108.690 E0.01685
G1 X106.314 Y115.086 E0.28475
G1 X106.314 Y114.551 E0.01685
G1 X99.918 Y108.154 E0.28475
G1 X99.918 Y107.619 E0.01685
G1 X106.314 Y114.015 E0.28475
G1 X106.314 Y113.480 E0.01685
G1 X99.918 Y107.084 E0.28475
G1 X99.918 Y106.548 E0.01685
G1 X106.314 Y112.944 E0.28475
G1 X106.314 Y112.409 E0.01685
G1 X99.918 Y106.013 E0.28475
G1 X99.918 Y105.477 E0.01685
G1 X106.314 Y111.874 E0.28475
G1 X106.314 Y111.338 E0.01685
G1 X99.918 Y104.942 E0.28475
G1 X99.918 Y104.407 E0.01685
G1 X106.314 Y110.803 E0.28475
G1 X106.314 Y110.267 E0.01685
G1 X99.918 Y103.871 E0.28475
G1 X99.918 Y103.336 E0.01685
G1 X106.314 Y109.732 E0.28475
G1 X106.314 Y109.197 E0.01685
G1 X99.918 Y102.800 E0.28475
G1 X99.918 Y102.265 E0.01685
G1 X106.314 Y108.661 E0.28475
G1 X106.314 Y108.126 E0.01685
G1 X99.918 Y101.730 E0.28475
G1 X99.918 Y101.194 E0.01685
G1 X106.314 Y107.590 E0.28475
G1 X106.314 Y107.055 E0.01685
G1 X99.918 Y100.659 E0.28475
G1 X99.918 Y100.123 E0.01685
G1 X106.314 Y106.520 E0.28475
G1 X106.314 Y105.984 E0.01685
G1 X99.918 Y99.588 E0.28475
G1 X99.918 Y99.053 E0.01685
G1 X106.314 Y105.449 E0.28475
G1 X106.314 Y104.913 E0.01685
G1 X99.918 Y98.517 E0.28475
G1 X99.918 Y97.982 E0.01685
G1 X106.314 Y104.378 E0.28475
G1 X106.314 Y103.842 E0.01685
G1 X99.918 Y97.446 E0.28475
G1 X99.918 Y96.911 E0.01685
G1 X106.314 Y103.307 E0.28475
G1 X106.314 Y102.772 E0.01685
G1 X99.918 Y96.376 E0.28475
G1 X99.918 Y95.840 E0.01685
G1 X106.314 Y102.236 E0.28475
M73 P3 R34
G1 X106.314 Y101.701 E0.01685
G1 X99.918 Y95.305 E0.28475
G1 X99.918 Y94.769 E0.01685
G1 X106.314 Y101.165 E0.28475
G1 X106.314 Y100.630 E0.01685
G1 X99.918 Y94.234 E0.28475
G1 X99.918 Y93.738 E0.01562
G1 X97.609 Y91.390 E0.10367
G1 X106.314 Y100.095 E0.38754
G1 X106.314 Y99.559 E0.01685
G1 X97.612 Y90.857 E0.38741
G1 X97.615 Y90.325 E0.01676
G1 X106.314 Y99.024 E0.38728
G1 X106.314 Y98.488 E0.01685
G1 X97.618 Y89.792 E0.38715
G1 X97.621 Y89.260 E0.01676
G1 X106.314 Y97.953 E0.38701
G1 X106.314 Y97.418 E0.01685
G1 X97.624 Y88.727 E0.38688
G1 X97.627 Y88.195 E0.01676
G1 X106.484 Y97.052 E0.39430
G1 E-0.80000 F2100.00000
G1 Z0.800 F10800.000
G1 X108.792 Y87.046
G1 Z0.200
G1 E0.80000 F2100.00000
G1 F1200.000
G1 X105.422 Y83.676 E0.15003
G1 X104.884 Y83.673 E0.01695
G1 X108.620 Y87.410 E0.16635
G1 X108.617 Y87.942 E0.01676
G1 X104.345 Y83.670 E0.19019
G1 X103.807 Y83.667 E0.01695
G1 X108.615 Y88.475 E0.21403
G1 X108.612 Y89.007 E0.01676
G1 X103.269 Y83.664 E0.23786
G1 X102.730 Y83.661 E0.01695
G1 X108.609 Y89.539 E0.26170
G1 X108.606 Y90.072 E0.01676
G1 X102.192 Y83.658 E0.28554
G1 X101.653 Y83.655 E0.01695
G1 X108.603 Y90.604 E0.30937
G1 X108.600 Y91.137 E0.01676
G1 X105.926 Y88.463 E0.11901
G1 X105.977 Y88.653 E0.00619
G1 X106.015 Y89.088 E0.01373
G1 X108.494 Y91.567 E0.11037
G1 X108.225 Y91.833 E0.01192
G1 X105.983 Y89.591 E0.09980
G1 X105.880 Y90.024 E0.01399
G1 X107.956 Y92.099 E0.09240
G1 X107.687 Y92.365 E0.01192
G1 X105.727 Y90.406 E0.08723
G1 X105.632 Y90.610 E0.00710
G1 X105.535 Y90.749 E0.00533
G1 X107.417 Y92.631 E0.08381
G1 X107.148 Y92.898 E0.01192
G1 X105.309 Y91.058 E0.08190
G1 X105.041 Y91.326 E0.01192
G1 X106.879 Y93.164 E0.08183
G1 X106.610 Y93.430 E0.01192
G1 X104.736 Y91.556 E0.08344
G1 X104.571 Y91.673 E0.00635
G1 X104.398 Y91.753 E0.00602
G1 X106.341 Y93.696 E0.08650
G1 X106.314 Y93.722 E0.00117
G1 X106.314 Y94.205 E0.01520
G1 X104.021 Y91.912 E0.10211
G1 X103.595 Y92.021 E0.01384
G1 X106.314 Y94.741 E0.12108
G1 X106.314 Y95.276 E0.01685
G1 X103.100 Y92.061 E0.14311
G1 X102.612 Y92.019 E0.01542
G1 X102.488 Y91.986 E0.00401
G1 X106.314 Y95.811 E0.17032
G1 X106.314 Y96.347 E0.01685
G1 X97.630 Y87.663 E0.38661
G1 X97.633 Y87.130 E0.01676
G1 X100.288 Y89.785 E0.11820
G1 X100.255 Y89.662 E0.00401
G1 X100.212 Y89.174 E0.01542
G1 X97.763 Y86.724 E0.10906
G1 X98.032 Y86.458 E0.01192
G1 X100.253 Y88.679 E0.09888
G1 X100.362 Y88.253 E0.01384
G1 X98.301 Y86.192 E0.09177
G1 X98.570 Y85.926 E0.01192
G1 X100.520 Y87.876 E0.08682
G1 X100.600 Y87.705 E0.00594
G1 X100.717 Y87.538 E0.00643
G1 X98.839 Y85.660 E0.08361
G1 X99.109 Y85.393 E0.01192
G1 X100.948 Y87.233 E0.08189
G1 X101.216 Y86.965 E0.01192
G1 X99.378 Y85.127 E0.08182
G1 X99.647 Y84.861 E0.01192
G1 X101.525 Y86.739 E0.08360
G1 X101.664 Y86.642 E0.00533
G1 X101.868 Y86.546 E0.00710
G1 X99.916 Y84.595 E0.08689
G1 X100.185 Y84.329 E0.01192
