; generated by PrusaSlicer 2.2.0+win64 on 2020-09-08 at 22:24:15 UTC

; 

; external perimeters extrusion width = 0.45mm
; perimeters extrusion width = 0.45mm
; infill extrusion width = 0.45mm
; solid infill extrusion width = 0.45mm
; top infill extrusion width = 0.40mm
; first layer extrusion width = 0.42mm

M73 P0 R40
M201 X9000 Y9000 Z500 E10000 ; sets maximum accelerations, mm/sec^2
M203 X500 Y500 Z12 E120 ; sets maximum feedrates, mm/sec
M204 P2000 R1500 T2000 ; sets acceleration (P, T) and retract acceleration (R), mm/sec^2
M205 X10.00 Y10.00 Z0.20 E2.50 ; sets the jerk limits, mm/sec
M205 S0 T0 ; sets the minimum extruding and travel feed rate, mm/sec
M107
M862.3 P "MK2.5SMMU2S" ; printer model check
M862.1 P0.4 ; nozzle diameter check
M115 U3.8.0 ; tell printer latest fw version
G90 ; use absolute coordinates
M83 ; extruder relative mode
M104 S215 ; set extruder temp
M140 S60 ; set bed temp
Tx
M190 S60 ; wait for bed temp
M109 S215 ; wait for extruder temp
G28 W ; home all without mesh bed level
G80 ; mesh bed leveling

G21 ; set units to millimeters

;go outside print area
G1 Y-3.0 F1000.0
G1 Z0.4 F1000.0
; select extruder
Tc
; purge line
G1 X55.0 F2000.0
G1 Z0.3 F1000.0
G92 E0.0
G1 X240.0 E25.0 F2200.0
M73 P0 R39
G1 Y-2.0 F1000.0
G1 X55.0 E25 F1400.0
G1 Z0.20 F1000.0
G1 X5.0 E4.0 F1000.0
G92 E0.0
G21 ; set units to millimeters
G90 ; use absolute coordinates
M83 ; use relative distances for extrusion
M900 K0.06 ; Filament gcode LA 1.5
M900 K30 ; Filament gcode LA 1.0
;BEFORE_LAYER_CHANGE
G92 E0.0
;0.2


G1 E-0.80000 F2100.00000
G1 Z0.600 F10800.000
;AFTER_LAYER_CHANGE
;0.2
G1 X95.737 Y66.078
G1 Z0.200
G1 E0.80000 F2100.00000
M204 S1000
G1 F1200.000
G1 X95.998 Y65.374 E0.02355
G1 X96.466 Y64.786 E0.02355
G1 X97.094 Y64.374 E0.02355
G1 X97.820 Y64.179 E0.02355
G1 X113.926 Y64.166 E0.50500
G1 X114.686 Y64.193 E0.02386
G1 X115.305 Y64.377 E0.02024
G1 X150.717 Y80.778 E1.22361
G1 X151.307 Y81.205 E0.02284
G1 X155.319 Y85.324 E0.18028
G1 X155.597 Y85.890 E0.01977
G1 X155.716 Y86.512 E0.01989
G1 X155.689 Y91.995 E0.17189
G1 X154.244 Y122.986 E0.97276
G1 X154.061 Y124.154 E0.03708
G1 X153.638 Y125.406 E0.04144
G1 X153.116 Y126.364 E0.03418
G1 X152.116 Y127.604 E0.04997
G1 X132.631 Y144.362 E0.80581
G1 X131.506 Y145.069 E0.04165
G1 X130.482 Y145.485 E0.03465
G1 X129.149 Y145.787 E0.04286
G1 X128.007 Y145.837 E0.03585
G1 X97.602 Y145.788 E0.95332
G1 X96.855 Y145.502 E0.02508
G1 X96.248 Y144.987 E0.02496
G1 X95.845 Y144.300 E0.02496
G1 X95.691 Y143.515 E0.02508
G1 X95.737 Y66.138 E2.42612
G1 E-0.80000 F2100.00000
G1 Z0.800 F10800.000
G1 X146.964 Y91.866
G1 Z0.200
G1 E0.80000 F2100.00000
G1 F1200.000
G1 X146.509 Y91.826 E0.01433
G1 X146.067 Y91.708 E0.01433
G1 X145.653 Y91.515 E0.01433
G1 X145.279 Y91.253 E0.01433
G1 X144.956 Y90.930 E0.01433
G1 X144.694 Y90.556 E0.01433
G1 X144.501 Y90.141 E0.01433
G1 X144.382 Y89.700 E0.01433
G1 X144.342 Y89.245 E0.01433
G1 X144.382 Y88.790 E0.01433
G1 X144.501 Y88.348 E0.01433
G1 X144.694 Y87.934 E0.01433
G1 X144.956 Y87.560 E0.01433
G1 X145.279 Y87.237 E0.01433
G1 X145.653 Y86.975 E0.01433
G1 X146.067 Y86.782 E0.01433
G1 X146.509 Y86.663 E0.01433
G1 X146.950 Y86.625 E0.01389
G1 X147.417 Y86.663 E0.01471
G1 X147.860 Y86.782 E0.01438
G1 X148.274 Y86.975 E0.01433
G1 X148.649 Y87.237 E0.01433
G1 X148.972 Y87.560 E0.01433
G1 X149.234 Y87.934 E0.01433
G1 X149.427 Y88.348 E0.01433
G1 X149.545 Y88.790 E0.01433
G1 X149.585 Y89.245 E0.01433
G1 X149.545 Y89.700 E0.01433
G1 X149.427 Y90.141 E0.01433
G1 X149.234 Y90.556 E0.01433
G1 X148.972 Y90.930 E0.01433
G1 X148.659 Y91.243 E0.01389
G1 X148.276 Y91.514 E0.01471
G1 X147.860 Y91.708 E0.01438
G1 X147.419 Y91.826 E0.01433
G1 X147.024 Y91.861 E0.01245
G1 X146.964 Y91.488 F10800.000
G1 F1200.000
G1 X146.574 Y91.454 E0.01226
G1 X146.197 Y91.352 E0.01226
G1 X145.842 Y91.187 E0.01226
G1 X145.522 Y90.963 E0.01226
G1 X145.246 Y90.687 E0.01226
G1 X145.021 Y90.366 E0.01226
G1 X144.856 Y90.012 E0.01226
G1 X144.755 Y89.634 E0.01226
G1 X144.721 Y89.245 E0.01226
G1 X144.755 Y88.855 E0.01226
G1 X144.856 Y88.478 E0.01226
G1 X145.021 Y88.123 E0.01226
G1 X145.246 Y87.803 E0.01226
G1 X145.522 Y87.527 E0.01226
G1 X145.842 Y87.303 E0.01226
G1 X146.197 Y87.137 E0.01226
G1 X146.574 Y87.036 E0.01226
G1 X146.951 Y87.003 E0.01185
G1 X147.353 Y87.036 E0.01264
G1 X147.731 Y87.137 E0.01228
G1 X148.085 Y87.303 E0.01226
G1 X148.405 Y87.527 E0.01226
G1 X148.682 Y87.803 E0.01226
G1 X148.906 Y88.123 E0.01226
G1 X149.071 Y88.478 E0.01226
G1 X149.172 Y88.855 E0.01226
G1 X149.207 Y89.245 E0.01226
G1 X149.172 Y89.634 E0.01226
G1 X149.071 Y90.012 E0.01226
G1 X148.906 Y90.366 E0.01226
G1 X148.682 Y90.687 E0.01226
G1 X148.415 Y90.954 E0.01185
G1 X148.086 Y91.187 E0.01264
G1 X147.731 Y91.352 E0.01228
G1 X147.353 Y91.454 E0.01226
G1 X147.024 Y91.482 E0.01038
G1 X146.768 Y91.826 F10800.000
G1 E-0.80000 F2100.00000
G1 Z0.800 F10800.000
G1 X146.793 Y126.730
G1 Z0.200
G1 E0.80000 F2100.00000
G1 F1200.000
G1 X146.070 Y126.628 E0.02290
G1 X145.374 Y126.404 E0.02292
G1 X144.727 Y126.065 E0.02292
G1 X144.146 Y125.621 E0.02292
G1 X143.650 Y125.084 E0.02292
G1 X143.236 Y124.445 E0.02388
G1 X141.119 Y120.616 E0.13719
G1 X141.109 Y120.401 E0.00676
G1 X141.131 Y120.220 E0.00571
G1 X141.186 Y120.027 E0.00629
G1 X141.286 Y119.811 E0.00747
G1 X141.502 Y119.493 E0.01204
G1 X141.591 Y119.397 E0.00412
G1 X141.659 Y119.353 E0.00254
G1 X141.809 Y119.516 E0.00693
G1 X141.557 Y119.754 E0.01085
G1 X141.407 Y120.000 E0.00904
G1 X141.343 Y120.300 E0.00962
G1 X141.409 Y120.709 E0.01299
G1 X141.716 Y121.462 E0.02550
G1 X141.941 Y121.807 E0.01290
G1 X142.247 Y122.037 E0.01200
G1 X142.845 Y122.330 E0.02087
G1 X143.068 Y122.417 E0.00752
G1 X143.390 Y122.465 E0.01020
G1 X143.722 Y122.401 E0.01059
G1 X143.891 Y122.305 E0.00610
G1 X145.379 Y123.793 E0.06597
G1 X148.391 Y120.747 E0.13431
G1 X146.859 Y119.241 E0.06735
G1 X146.915 Y118.899 E0.01088
G1 X146.874 Y118.500 E0.01257
G1 X146.784 Y118.201 E0.00979
G1 X146.632 Y117.889 E0.01087
G1 X146.430 Y117.609 E0.01084
G1 X146.192 Y117.372 E0.01053
G1 X145.953 Y117.198 E0.00925
G1 X145.652 Y117.043 E0.01062
G1 X145.346 Y116.943 E0.01011
G1 X145.030 Y116.891 E0.01002
G1 X144.752 Y116.891 E0.00871
G1 X144.383 Y116.976 E0.01188
G1 X144.088 Y117.164 E0.01096
G1 X143.918 Y117.335 E0.00758
G1 X143.635 Y117.701 E0.01451
G1 X143.500 Y117.593 E0.00543
G1 X143.418 Y117.450 E0.00517
G1 X143.422 Y117.352 E0.00307
G1 X143.483 Y117.139 E0.00696
G1 X143.483 Y93.941 E0.72734
G1 X141.173 Y91.605 E0.10300
G1 X141.200 Y86.819 E0.15006
G1 X144.603 Y83.454 E0.15006
G1 X149.389 Y83.481 E0.15006
G1 X152.754 Y86.884 E0.15006
G1 X152.728 Y91.670 E0.15006
G1 X150.445 Y93.928 E0.10066
G1 X150.445 Y119.865 E0.81326
G1 X150.907 Y120.680 E0.02936
G1 X151.154 Y121.368 E0.02292
G1 X151.280 Y122.088 E0.02292
G1 X151.282 Y122.818 E0.02292
G1 X151.159 Y123.539 E0.02292
G1 X150.916 Y124.228 E0.02292
G1 X150.558 Y124.866 E0.02292
G1 X150.097 Y125.433 E0.02292
G1 X149.546 Y125.913 E0.02292
G1 X148.921 Y126.292 E0.02292
G1 X148.240 Y126.559 E0.02292
G1 X147.536 Y126.704 E0.02255
G1 X146.853 Y126.728 E0.02143
G1 X146.773 Y127.108 F10800.000
G1 F1200.000
G1 X145.985 Y126.997 E0.02494
G1 X145.228 Y126.753 E0.02495
G1 X144.523 Y126.384 E0.02495
G1 X143.891 Y125.901 E0.02495
G1 X143.351 Y125.316 E0.02495
G1 X142.913 Y124.639 E0.02529
G1 X140.765 Y120.781 E0.13845
G1 X140.743 Y120.657 E0.00395
G1 X140.731 Y120.386 E0.00849
G1 X140.760 Y120.145 E0.00761
G1 X140.831 Y119.896 E0.00814
G1 X140.957 Y119.624 E0.00937
G1 X141.206 Y119.258 E0.01389
G1 X141.342 Y119.111 E0.00629
G1 X141.497 Y119.003 E0.00591
G1 X141.606 Y118.970 E0.00358
G1 X141.795 Y118.996 E0.00599
G1 X141.902 Y119.058 E0.00389
G1 X142.035 Y119.194 E0.00597
G1 X142.188 Y119.388 E0.00774
G1 X142.213 Y119.458 E0.00231
G1 X142.215 Y119.560 E0.00322
G1 X142.186 Y119.650 E0.00296
G1 X142.117 Y119.743 E0.00364
G1 X141.853 Y119.993 E0.01140
G1 X141.762 Y120.141 E0.00544
G1 X141.727 Y120.309 E0.00538
G1 X141.775 Y120.606 E0.00944
G1 X142.052 Y121.286 E0.02302
G1 X142.221 Y121.545 E0.00969
G1 X142.445 Y121.714 E0.00880
G1 X143.165 Y122.051 E0.02493
G1 X143.381 Y122.082 E0.00685
G1 X143.590 Y122.042 E0.00664
G1 X143.814 Y121.915 E0.00808
G1 X143.919 Y121.800 E0.00489
G1 X145.377 Y123.258 E0.06464
G1 X147.856 Y120.751 E0.11056
G1 X146.401 Y119.319 E0.06401
G1 X146.493 Y119.143 E0.00624
G1 X146.535 Y118.887 E0.00812
G1 X146.503 Y118.574 E0.00987
G1 X146.432 Y118.339 E0.00770
G1 X146.307 Y118.084 E0.00890
G1 X146.142 Y117.854 E0.00887
G1 X145.946 Y117.660 E0.00865
G1 X145.755 Y117.520 E0.00743
G1 X145.507 Y117.392 E0.00876
G1 X145.256 Y117.311 E0.00826
G1 X144.999 Y117.268 E0.00818
G1 X144.795 Y117.268 E0.00639
G1 X144.531 Y117.329 E0.00849
G1 X144.326 Y117.459 E0.00763
G1 X144.202 Y117.584 E0.00551
G1 X143.806 Y118.098 E0.02033
G1 X143.703 Y118.141 E0.00351
G1 X143.541 Y118.089 E0.00535
G1 X143.358 Y117.971 E0.00681
G1 X143.218 Y117.846 E0.00591
G1 X143.090 Y117.666 E0.00693
G1 X143.039 Y117.499 E0.00547
G1 X143.047 Y117.293 E0.00646
G1 X143.106 Y117.086 E0.00673
G1 X143.106 Y94.096 E0.72083
G1 X140.795 Y91.760 E0.10303
G1 X140.824 Y86.661 E0.15986
G1 X144.449 Y83.076 E0.15986
G1 X149.547 Y83.105 E0.15986
G1 X153.132 Y86.730 E0.15986
G1 X153.104 Y91.829 E0.15986
G1 X150.822 Y94.085 E0.10063
G1 X150.822 Y119.766 E0.80520
G1 X151.251 Y120.522 E0.02725
G1 X151.520 Y121.271 E0.02495
G1 X151.657 Y122.054 E0.02495
G1 X151.659 Y122.850 E0.02495
G1 X151.526 Y123.634 E0.02495
G1 X151.260 Y124.384 E0.02495
G1 X150.871 Y125.078 E0.02495
G1 X150.369 Y125.696 E0.02495
G1 X149.769 Y126.218 E0.02495
G1 X149.089 Y126.631 E0.02495
G1 X148.348 Y126.922 E0.02495
G1 X147.581 Y127.080 E0.02456
G1 X146.833 Y127.106 E0.02346
G1 X146.592 Y126.751 F10800.000
G1 E-0.80000 F2100.00000
G1 Z0.800 F10800.000
G1 X143.370 Y124.443
G1 Z0.200
G1 E0.80000 F2100.00000
G1 F1200.000
G1 X144.339 Y125.412 E0.04314
G1 X144.879 Y125.826 E0.02142
G1 X145.484 Y126.143 E0.02148
G1 X145.662 Y126.200 E0.00588
G1 X143.129 Y123.667 E0.11274
G1 X142.467 Y122.470 E0.04308
G1 X146.384 Y126.387 E0.17438
G1 X146.808 Y126.446 E0.01348
G1 X146.973 Y126.441 E0.00521
G1 X143.265 Y122.732 E0.16508
G1 X143.396 Y122.752 E0.00417
G1 X143.752 Y122.683 E0.01139
G1 X147.491 Y126.423 E0.16648
G1 X147.937 Y126.333 E0.01431
G1 X145.587 Y123.984 E0.10459
G1 X145.854 Y123.715 E0.01192
G1 X148.351 Y126.212 E0.11118
G1 X148.735 Y126.061 E0.01300
G1 X146.120 Y123.445 E0.11644
G1 X146.386 Y123.176 E0.01192
G1 X149.077 Y125.867 E0.11978
G1 X149.405 Y125.660 E0.01222
G1 X146.652 Y122.907 E0.12256
G1 X146.918 Y122.638 E0.01192
G1 X149.691 Y125.411 E0.12345
G1 X149.893 Y125.235 E0.00840
G1 X149.964 Y125.148 E0.00355
G1 X147.185 Y122.369 E0.12373
G1 X147.451 Y122.099 E0.01192
G1 X150.204 Y124.853 E0.12257
G1 X150.323 Y124.706 E0.00595
G1 X150.420 Y124.533 E0.00624
G1 X147.717 Y121.830 E0.12034
G1 X147.983 Y121.561 E0.01192
G1 X150.613 Y124.190 E0.11705
G1 X150.765 Y123.807 E0.01298
G1 X148.249 Y121.292 E0.11198
G1 X148.516 Y121.023 E0.01192
G1 X150.896 Y123.403 E0.10596
G1 X150.974 Y122.945 E0.01461
G1 X147.163 Y119.134 E0.16967
G1 X147.200 Y118.907 E0.00724
G1 X147.169 Y118.605 E0.00956
G1 X150.999 Y122.435 E0.17049
G1 X150.998 Y122.113 E0.01014
G1 X150.952 Y121.853 E0.00830
G1 X143.766 Y114.666 E0.31994
G1 X143.766 Y114.131 E0.01685
G1 X150.770 Y121.136 E0.31184
G1 X150.649 Y120.798 E0.01129
G1 X150.230 Y120.060 E0.02673
G1 X143.766 Y113.596 E0.28777
G1 X143.766 Y113.060 E0.01685
G1 X150.162 Y119.456 E0.28475
G1 X150.162 Y118.921 E0.01685
G1 X143.766 Y112.525 E0.28475
G1 X143.766 Y111.989 E0.01685
G1 X150.162 Y118.386 E0.28475
G1 X150.162 Y117.850 E0.01685
G1 X143.766 Y111.454 E0.28475
G1 X143.766 Y110.919 E0.01685
G1 X150.162 Y117.315 E0.28475
G1 X150.162 Y116.779 E0.01685
G1 X143.766 Y110.383 E0.28475
G1 X143.766 Y109.848 E0.01685
G1 X150.162 Y116.244 E0.28475
G1 X150.162 Y115.709 E0.01685
G1 X143.766 Y109.312 E0.28475
G1 X143.766 Y108.777 E0.01685
G1 X150.162 Y115.173 E0.28475
G1 X150.162 Y114.638 E0.01685
G1 X143.766 Y108.242 E0.28475
G1 X143.766 Y107.706 E0.01685
G1 X150.162 Y114.102 E0.28475
G1 X150.162 Y113.567 E0.01685
G1 X143.766 Y107.171 E0.28475
G1 X143.766 Y106.635 E0.01685
G1 X150.162 Y113.032 E0.28475
G1 X150.162 Y112.496 E0.01685
G1 X143.766 Y106.100 E0.28475
G1 X143.766 Y105.565 E0.01685
G1 X150.162 Y111.961 E0.28475
G1 X150.162 Y111.425 E0.01685
G1 X143.766 Y105.029 E0.28475
G1 X143.766 Y104.494 E0.01685
G1 X150.162 Y110.890 E0.28475
G1 X150.162 Y110.355 E0.01685
G1 X143.766 Y103.958 E0.28475
G1 X143.766 Y103.423 E0.01685
G1 X150.162 Y109.819 E0.28475
G1 X150.162 Y109.284 E0.01685
G1 X143.766 Y102.888 E0.28475
G1 X143.766 Y102.352 E0.01685
G1 X150.162 Y108.748 E0.28475
G1 X150.162 Y108.213 E0.01685
G1 X143.766 Y101.817 E0.28475
G1 X143.766 Y101.281 E0.01685
G1 X150.162 Y107.678 E0.28475
G1 X150.162 Y107.142 E0.01685
G1 X143.766 Y100.746 E0.28475
G1 X143.766 Y100.211 E0.01685
G1 X150.162 Y106.607 E0.28475
G1 X150.162 Y106.071 E0.01685
G1 X143.766 Y99.675 E0.28475
G1 X143.766 Y99.140 E0.01685
G1 X150.162 Y105.536 E0.28475
G1 X150.162 Y105.000 E0.01685
G1 X143.766 Y98.604 E0.28475
G1 X143.766 Y98.069 E0.01685
G1 X150.162 Y104.465 E0.28475
G1 X150.162 Y103.930 E0.01685
G1 X143.766 Y97.534 E0.28475
M73 P2 R38
G1 X143.766 Y96.998 E0.01685
G1 X150.162 Y103.394 E0.28475
G1 X150.162 Y102.859 E0.01685
G1 X143.766 Y96.463 E0.28475
G1 X143.766 Y95.927 E0.01685
G1 X150.162 Y102.323 E0.28475
G1 X150.162 Y101.788 E0.01685
G1 X143.766 Y95.392 E0.28475
G1 X143.766 Y94.857 E0.01685
G1 X150.162 Y101.253 E0.28475
G1 X150.162 Y100.717 E0.01685
G1 X143.766 Y94.321 E0.28475
G1 X143.766 Y93.825 E0.01562
G1 X141.457 Y91.477 E0.10367
G1 X150.162 Y100.182 E0.38754
G1 X150.162 Y99.646 E0.01685
G1 X141.460 Y90.944 E0.38741
G1 X141.463 Y90.412 E0.01676
G1 X150.162 Y99.111 E0.38728
G1 X150.162 Y98.576 E0.01685
G1 X141.466 Y89.879 E0.38715
G1 X141.469 Y89.347 E0.01676
G1 X150.162 Y98.040 E0.38701
G1 X150.162 Y97.505 E0.01685
G1 X141.472 Y88.815 E0.38688
G1 X141.475 Y88.282 E0.01676
G1 X150.332 Y97.139 E0.39430
G1 E-0.80000 F2100.00000
G1 Z0.800 F10800.000
G1 X152.640 Y87.133
G1 Z0.200
G1 E0.80000 F2100.00000
G1 F1200.000
G1 X149.270 Y83.763 E0.15003
G1 X148.731 Y83.760 E0.01695
G1 X152.468 Y87.497 E0.16635
G1 X152.465 Y88.029 E0.01676
G1 X148.193 Y83.757 E0.19019
G1 X147.655 Y83.754 E0.01695
G1 X152.462 Y88.562 E0.21403
G1 X152.459 Y89.094 E0.01676
G1 X147.116 Y83.751 E0.23786
G1 X146.578 Y83.748 E0.01695
G1 X152.456 Y89.627 E0.26170
G1 X152.453 Y90.159 E0.01676
G1 X146.039 Y83.745 E0.28554
G1 X145.501 Y83.742 E0.01695
G1 X152.450 Y90.691 E0.30937
G1 X152.447 Y91.224 E0.01676
G1 X149.774 Y88.551 E0.11901
G1 X149.825 Y88.740 E0.00619
G1 X149.863 Y89.175 E0.01373
G1 X152.342 Y91.654 E0.11037
G1 X152.073 Y91.920 E0.01192
G1 X149.831 Y89.678 E0.09980
G1 X149.728 Y90.111 E0.01399
G1 X151.803 Y92.186 E0.09240
G1 X151.534 Y92.452 E0.01192
G1 X149.575 Y90.493 E0.08723
G1 X149.480 Y90.697 E0.00710
G1 X149.383 Y90.836 E0.00533
G1 X151.265 Y92.719 E0.08381
G1 X150.996 Y92.985 E0.01192
G1 X149.156 Y91.145 E0.08190
G1 X148.889 Y91.413 E0.01192
G1 X150.727 Y93.251 E0.08183
G1 X150.457 Y93.517 E0.01192
G1 X148.583 Y91.643 E0.08344
G1 X148.419 Y91.760 E0.00635
G1 X148.245 Y91.841 E0.00602
G1 X150.188 Y93.783 E0.08650
G1 X150.162 Y93.810 E0.00117
G1 X150.162 Y94.292 E0.01520
G1 X147.868 Y91.999 E0.10211
G1 X147.442 Y92.108 E0.01384
G1 X150.162 Y94.828 E0.12108
G1 X150.162 Y95.363 E0.01685
G1 X146.947 Y92.149 E0.14311
G1 X146.459 Y92.106 E0.01542
G1 X146.336 Y92.073 E0.00401
G1 X150.162 Y95.899 E0.17032
G1 X150.162 Y96.434 E0.01685
G1 X141.478 Y87.750 E0.38661
G1 X141.481 Y87.217 E0.01676
G1 X144.136 Y89.873 E0.11820
G1 X144.103 Y89.749 E0.00401
G1 X144.060 Y89.261 E0.01542
G1 X141.610 Y86.812 E0.10906
G1 X141.879 Y86.545 E0.01192
G1 X144.100 Y88.766 E0.09888
G1 X144.210 Y88.340 E0.01384
G1 X142.149 Y86.279 E0.09177
G1 X142.418 Y86.013 E0.01192
G1 X144.368 Y87.963 E0.08682
G1 X144.448 Y87.792 E0.00594
G1 X144.565 Y87.625 E0.00643
G1 X142.687 Y85.747 E0.08361
G1 X142.956 Y85.481 E0.01192
G1 X144.796 Y87.320 E0.08189
G1 X145.063 Y87.052 E0.01192
