; generated by PrusaSlicer 2.2.0+win64 on 2020-09-08 at 22:23:37 UTC

; 

; external perimeters extrusion width = 0.45mm
; perimeters extrusion width = 0.45mm
; infill extrusion width = 0.45mm
; solid infill extrusion width = 0.45mm
; top infill extrusion width = 0.40mm
; first layer extrusion width = 0.42mm

M73 P0 R69
M201 X9000 Y9000 Z500 E10000 ; sets maximum accelerations, mm/sec^2
M203 X500 Y500 Z12 E120 ; sets maximum feedrates, mm/sec
M204 P2000 R1500 T2000 ; sets acceleration (P, T) and retract acceleration (R), mm/sec^2
M205 X10.00 Y10.00 Z0.20 E2.50 ; sets the jerk limits, mm/sec
M205 S0 T0 ; sets the minimum extruding and travel feed rate, mm/sec
M107
M862.3 P "MK2.5SMMU2S" ; printer model check
M862.1 P0.4 ; nozzle diameter check
M115 U3.8.0 ; tell printer latest fw version
G90 ; use absolute coordinates
M83 ; extruder relative mode
M104 S215 ; set extruder temp
M140 S60 ; set bed temp
Tx
M190 S60 ; wait for bed temp
M109 S215 ; wait for extruder temp
G28 W ; home all without mesh bed level
G80 ; mesh bed leveling

G21 ; set units to millimeters

;go outside print area
G1 Y-3.0 F1000.0
G1 Z0.4 F1000.0
; select extruder
Tc
; purge line
G1 X55.0 F2000.0
G1 Z0.3 F1000.0
G92 E0.0
G1 X240.0 E25.0 F2200.0
M73 P0 R69
G1 Y-2.0 F1000.0
G1 X55.0 E25 F1400.0
G1 Z0.20 F1000.0
G1 X5.0 E4.0 F1000.0
G92 E0.0
G21 ; set units to millimeters
G90 ; use absolute coordinates
M83 ; use relative distances for extrusion
M900 K0.06 ; Filament gcode LA 1.5
M900 K30 ; Filament gcode LA 1.0
;BEFORE_LAYER_CHANGE
G92 E0.0
;0.2


G1 E-0.80000 F2100.00000
G1 Z0.600 F10800.000
;AFTER_LAYER_CHANGE
;0.2
G1 X88.295 Y63.725
G1 Z0.200
G1 E0.80000 F2100.00000
M204 S1000
G1 F1200.000
G1 X88.803 Y62.958 E0.02884
G1 X92.601 Y59.202 E0.16748
G1 X93.134 Y58.819 E0.02060
G1 X128.372 Y40.451 E1.24594
G1 X129.261 Y40.230 E0.02872
G1 X132.890 Y40.227 E0.11380
G1 X133.496 Y40.262 E0.01902
G1 X134.042 Y40.426 E0.01787
G1 X134.539 Y40.719 E0.01811
G1 X134.953 Y41.127 E0.01823
G1 X160.080 Y73.870 E1.29409
G1 X160.397 Y74.437 E0.02036
G1 X160.548 Y75.064 E0.02024
G1 X160.532 Y135.062 E1.88119
G1 X160.403 Y135.547 E0.01574
G1 X147.826 Y168.322 E1.10069
G1 X147.503 Y168.868 E0.01989
G1 X147.048 Y169.309 E0.01989
G1 X146.492 Y169.614 E0.01989
G1 X145.875 Y169.761 E0.01989
G1 X129.371 Y169.773 E0.51747
G1 X128.838 Y169.711 E0.01680
G1 X94.237 Y157.676 E1.14867
G1 X92.858 Y156.946 E0.04890
G1 X92.003 Y156.276 E0.03406
G1 X91.160 Y155.354 E0.03918
G1 X90.551 Y154.418 E0.03502
G1 X88.337 Y150.440 E0.14272
G1 X88.154 Y149.977 E0.01562
G1 X88.049 Y149.410 E0.01809
G1 X88.023 Y98.434 E1.59830
G1 X88.087 Y69.896 E0.89480
G1 X88.118 Y64.547 E0.16771
G1 X88.282 Y63.783 E0.02449
G1 E-0.80000 F2100.00000
G1 Z0.800 F10800.000
G1 X96.843 Y69.922
G1 Z0.200
G1 E0.80000 F2100.00000
G1 F1200.000
G1 X96.388 Y69.882 E0.01433
G1 X95.946 Y69.764 E0.01433
G1 X95.532 Y69.571 E0.01433
G1 X95.158 Y69.309 E0.01433
G1 X94.835 Y68.986 E0.01433
G1 X94.573 Y68.611 E0.01433
G1 X94.380 Y68.197 E0.01433
G1 X94.261 Y67.756 E0.01433
G1 X94.222 Y67.301 E0.01433
G1 X94.261 Y66.846 E0.01433
G1 X94.380 Y66.404 E0.01433
G1 X94.573 Y65.990 E0.01433
G1 X94.835 Y65.616 E0.01433
G1 X95.158 Y65.293 E0.01433
G1 X95.532 Y65.031 E0.01433
G1 X95.946 Y64.838 E0.01433
G1 X96.388 Y64.719 E0.01433
G1 X96.829 Y64.681 E0.01389
G1 X97.296 Y64.719 E0.01471
G1 X97.739 Y64.838 E0.01438
G1 X98.154 Y65.031 E0.01433
G1 X98.528 Y65.293 E0.01433
G1 X98.851 Y65.616 E0.01433
G1 X99.113 Y65.990 E0.01433
G1 X99.306 Y66.404 E0.01433
G1 X99.424 Y66.846 E0.01433
G1 X99.464 Y67.301 E0.01433
G1 X99.424 Y67.756 E0.01433
G1 X99.306 Y68.197 E0.01433
G1 X99.113 Y68.611 E0.01433
G1 X98.851 Y68.986 E0.01433
G1 X98.538 Y69.299 E0.01389
G1 X98.155 Y69.570 E0.01471
G1 X97.739 Y69.764 E0.01438
G1 X97.298 Y69.882 E0.01433
G1 X96.903 Y69.917 E0.01245
G1 X96.843 Y69.544 F10800.000
G1 F1200.000
G1 X96.453 Y69.509 E0.01226
G1 X96.076 Y69.408 E0.01226
G1 X95.721 Y69.243 E0.01226
G1 X95.401 Y69.019 E0.01226
G1 X95.125 Y68.742 E0.01226
G1 X94.901 Y68.422 E0.01226
G1 X94.735 Y68.068 E0.01226
G1 X94.634 Y67.690 E0.01226
G1 X94.600 Y67.301 E0.01226
G1 X94.634 Y66.911 E0.01226
G1 X94.735 Y66.534 E0.01226
G1 X94.901 Y66.179 E0.01226
G1 X95.125 Y65.859 E0.01226
G1 X95.401 Y65.583 E0.01226
G1 X95.721 Y65.358 E0.01226
G1 X96.076 Y65.193 E0.01226
G1 X96.453 Y65.092 E0.01226
G1 X96.830 Y65.059 E0.01185
G1 X97.232 Y65.092 E0.01264
G1 X97.610 Y65.193 E0.01228
G1 X97.964 Y65.358 E0.01226
G1 X98.284 Y65.583 E0.01226
G1 X98.561 Y65.859 E0.01226
G1 X98.785 Y66.179 E0.01226
G1 X98.950 Y66.534 E0.01226
G1 X99.052 Y66.911 E0.01226
G1 X99.086 Y67.301 E0.01226
G1 X99.052 Y67.690 E0.01226
G1 X98.950 Y68.068 E0.01226
G1 X98.785 Y68.422 E0.01226
G1 X98.561 Y68.742 E0.01226
G1 X98.294 Y69.010 E0.01185
G1 X97.965 Y69.243 E0.01264
G1 X97.610 Y69.408 E0.01228
G1 X97.232 Y69.509 E0.01226
G1 X96.903 Y69.538 E0.01038
G1 X96.647 Y69.882 F10800.000
G1 E-0.80000 F2100.00000
G1 Z0.800 F10800.000
G1 X96.672 Y104.786
G1 Z0.200
G1 E0.80000 F2100.00000
G1 F1200.000
G1 X95.949 Y104.684 E0.02290
G1 X95.253 Y104.460 E0.02292
G1 X94.606 Y104.121 E0.02292
G1 X94.025 Y103.677 E0.02292
G1 X93.529 Y103.140 E0.02292
G1 X93.115 Y102.501 E0.02388
G1 X90.998 Y98.672 E0.13719
G1 X90.988 Y98.456 E0.00676
G1 X91.010 Y98.276 E0.00571
G1 X91.065 Y98.083 E0.00629
G1 X91.165 Y97.866 E0.00747
G1 X91.381 Y97.549 E0.01204
G1 X91.470 Y97.452 E0.00412
G1 X91.538 Y97.409 E0.00254
G1 X91.688 Y97.572 E0.00693
G1 X91.436 Y97.809 E0.01085
G1 X91.286 Y98.056 E0.00904
G1 X91.222 Y98.356 E0.00962
G1 X91.289 Y98.765 E0.01299
G1 X91.596 Y99.518 E0.02550
G1 X91.820 Y99.863 E0.01290
G1 X92.126 Y100.092 E0.01200
G1 X92.724 Y100.386 E0.02087
G1 X92.947 Y100.473 E0.00752
G1 X93.269 Y100.521 E0.01020
G1 X93.601 Y100.457 E0.01059
G1 X93.770 Y100.361 E0.00610
G1 X95.258 Y101.849 E0.06597
G1 X98.270 Y98.803 E0.13431
G1 X96.738 Y97.297 E0.06735
G1 X96.794 Y96.955 E0.01088
G1 X96.753 Y96.556 E0.01257
G1 X96.664 Y96.257 E0.00979
G1 X96.511 Y95.945 E0.01087
G1 X96.309 Y95.665 E0.01084
G1 X96.071 Y95.428 E0.01053
G1 X95.833 Y95.254 E0.00925
G1 X95.531 Y95.099 E0.01062
G1 X95.225 Y94.999 E0.01011
G1 X94.909 Y94.947 E0.01002
G1 X94.632 Y94.946 E0.00871
G1 X94.263 Y95.032 E0.01188
G1 X93.967 Y95.219 E0.01096
G1 X93.797 Y95.391 E0.00758
G1 X93.514 Y95.757 E0.01451
G1 X93.379 Y95.649 E0.00543
G1 X93.298 Y95.506 E0.00517
G1 X93.301 Y95.408 E0.00307
G1 X93.362 Y95.195 E0.00696
G1 X93.362 Y71.997 E0.72734
G1 X91.052 Y69.661 E0.10300
G1 X91.079 Y64.875 E0.15006
G1 X94.482 Y61.510 E0.15006
G1 X99.268 Y61.537 E0.15006
G1 X102.633 Y64.940 E0.15006
G1 X102.607 Y69.726 E0.15006
G1 X100.324 Y71.984 E0.10066
G1 X100.324 Y97.921 E0.81326
G1 X100.786 Y98.736 E0.02936
G1 X101.033 Y99.423 E0.02292
G1 X101.160 Y100.143 E0.02292
G1 X101.161 Y100.874 E0.02292
G1 X101.039 Y101.595 E0.02292
G1 X100.795 Y102.284 E0.02292
G1 X100.437 Y102.921 E0.02292
G1 X99.976 Y103.489 E0.02292
G1 X99.425 Y103.969 E0.02292
G1 X98.800 Y104.348 E0.02292
G1 X98.119 Y104.615 E0.02292
G1 X97.415 Y104.760 E0.02255
G1 X96.732 Y104.784 E0.02143
G1 X96.652 Y105.164 F10800.000
G1 F1200.000
G1 X95.865 Y105.053 E0.02494
G1 X95.107 Y104.809 E0.02495
G1 X94.402 Y104.440 E0.02495
G1 X93.770 Y103.957 E0.02495
G1 X93.230 Y103.372 E0.02495
G1 X92.792 Y102.695 E0.02529
G1 X90.644 Y98.837 E0.13845
G1 X90.622 Y98.713 E0.00395
G1 X90.610 Y98.442 E0.00849
G1 X90.639 Y98.201 E0.00761
G1 X90.710 Y97.951 E0.00814
G1 X90.836 Y97.680 E0.00937
G1 X91.085 Y97.314 E0.01389
G1 X91.221 Y97.166 E0.00629
G1 X91.376 Y97.059 E0.00591
G1 X91.485 Y97.026 E0.00358
G1 X91.674 Y97.052 E0.00599
G1 X91.782 Y97.114 E0.00389
G1 X91.915 Y97.250 E0.00597
G1 X92.067 Y97.444 E0.00774
G1 X92.092 Y97.513 E0.00231
G1 X92.094 Y97.616 E0.00322
G1 X92.065 Y97.706 E0.00296
G1 X91.996 Y97.799 E0.00364
G1 X91.732 Y98.049 E0.01140
G1 X91.641 Y98.197 E0.00544
G1 X91.606 Y98.365 E0.00538
G1 X91.654 Y98.662 E0.00944
G1 X91.931 Y99.342 E0.02302
G1 X92.100 Y99.601 E0.00969
G1 X92.324 Y99.770 E0.00880
G1 X93.045 Y100.107 E0.02493
G1 X93.261 Y100.138 E0.00685
G1 X93.469 Y100.098 E0.00664
G1 X93.693 Y99.971 E0.00808
G1 X93.799 Y99.856 E0.00489
G1 X95.256 Y101.314 E0.06464
G1 X97.736 Y98.807 E0.11056
G1 X96.280 Y97.375 E0.06401
G1 X96.372 Y97.199 E0.00624
G1 X96.414 Y96.943 E0.00812
G1 X96.382 Y96.630 E0.00987
G1 X96.311 Y96.395 E0.00770
G1 X96.186 Y96.140 E0.00890
G1 X96.021 Y95.910 E0.00887
G1 X95.825 Y95.716 E0.00865
G1 X95.634 Y95.576 E0.00743
G1 X95.386 Y95.448 E0.00876
G1 X95.135 Y95.367 E0.00826
G1 X94.878 Y95.324 E0.00818
G1 X94.674 Y95.324 E0.00639
G1 X94.410 Y95.385 E0.00849
G1 X94.205 Y95.515 E0.00763
G1 X94.081 Y95.640 E0.00551
G1 X93.685 Y96.154 E0.02033
G1 X93.582 Y96.197 E0.00351
G1 X93.420 Y96.145 E0.00535
G1 X93.237 Y96.027 E0.00681
G1 X93.097 Y95.902 E0.00591
G1 X92.969 Y95.722 E0.00693
G1 X92.918 Y95.554 E0.00547
G1 X92.926 Y95.349 E0.00646
G1 X92.985 Y95.142 E0.00673
G1 X92.985 Y72.152 E0.72083
G1 X90.674 Y69.815 E0.10303
G1 X90.703 Y64.717 E0.15986
G1 X94.328 Y61.132 E0.15986
G1 X99.427 Y61.161 E0.15986
G1 X103.011 Y64.786 E0.15986
G1 X102.983 Y69.884 E0.15986
G1 X100.701 Y72.141 E0.10063
G1 X100.701 Y97.822 E0.80520
G1 X101.130 Y98.578 E0.02725
G1 X101.399 Y99.326 E0.02495
G1 X101.537 Y100.110 E0.02495
G1 X101.539 Y100.906 E0.02495
G1 X101.405 Y101.690 E0.02495
G1 X101.139 Y102.440 E0.02495
G1 X100.750 Y103.134 E0.02495
G1 X100.248 Y103.752 E0.02495
G1 X99.648 Y104.274 E0.02495
G1 X98.968 Y104.687 E0.02495
G1 X98.227 Y104.978 E0.02495
G1 X97.460 Y105.136 E0.02456
G1 X96.712 Y105.161 E0.02346
G1 X96.471 Y104.807 F10800.000
G1 E-0.80000 F2100.00000
G1 Z0.800 F10800.000
G1 X93.249 Y102.499
G1 Z0.200
G1 E0.80000 F2100.00000
G1 F1200.000
G1 X94.218 Y103.468 E0.04314
G1 X94.758 Y103.882 E0.02142
G1 X95.363 Y104.198 E0.02148
G1 X95.541 Y104.256 E0.00588
G1 X93.008 Y101.723 E0.11274
G1 X92.346 Y100.526 E0.04308
G1 X96.263 Y104.442 E0.17438
G1 X96.687 Y104.502 E0.01348
G1 X96.852 Y104.496 E0.00521
G1 X93.144 Y100.788 E0.16508
G1 X93.275 Y100.808 E0.00417
G1 X93.631 Y100.739 E0.01139
G1 X97.370 Y104.479 E0.16648
G1 X97.816 Y104.389 E0.01431
G1 X95.467 Y102.040 E0.10459
G1 X95.733 Y101.771 E0.01192
G1 X98.230 Y104.268 E0.11118
G1 X98.615 Y104.117 E0.01300
G1 X95.999 Y101.501 E0.11644
G1 X96.265 Y101.232 E0.01192
G1 X98.956 Y103.923 E0.11978
G1 X99.284 Y103.716 E0.01222
G1 X96.531 Y100.963 E0.12256
G1 X96.798 Y100.694 E0.01192
G1 X99.570 Y103.467 E0.12345
G1 X99.772 Y103.291 E0.00840
G1 X99.843 Y103.204 E0.00355
G1 X97.064 Y100.425 E0.12373
G1 X97.330 Y100.155 E0.01192
G1 X100.083 Y102.908 E0.12257
G1 X100.202 Y102.762 E0.00595
G1 X100.299 Y102.589 E0.00624
G1 X97.596 Y99.886 E0.12034
G1 X97.862 Y99.617 E0.01192
G1 X100.492 Y102.246 E0.11705
G1 X100.644 Y101.863 E0.01298
G1 X98.129 Y99.348 E0.11198
G1 X98.395 Y99.078 E0.01192
G1 X100.775 Y101.459 E0.10596
G1 X100.853 Y101.001 E0.01461
G1 X97.042 Y97.190 E0.16967
G1 X97.079 Y96.963 E0.00724
G1 X97.048 Y96.661 E0.00956
G1 X100.878 Y100.491 E0.17049
G1 X100.877 Y100.168 E0.01014
G1 X100.831 Y99.909 E0.00830
G1 X93.645 Y92.722 E0.31994
G1 X93.645 Y92.187 E0.01685
G1 X100.649 Y99.192 E0.31184
G1 X100.528 Y98.854 E0.01129
G1 X100.109 Y98.116 E0.02673
G1 X93.645 Y91.652 E0.28777
G1 X93.645 Y91.116 E0.01685
G1 X100.041 Y97.512 E0.28475
G1 X100.041 Y96.977 E0.01685
G1 X93.645 Y90.581 E0.28475
G1 X93.645 Y90.045 E0.01685
G1 X100.041 Y96.441 E0.28475
G1 X100.041 Y95.906 E0.01685
G1 X93.645 Y89.510 E0.28475
G1 X93.645 Y88.975 E0.01685
G1 X100.041 Y95.371 E0.28475
G1 X100.041 Y94.835 E0.01685
G1 X93.645 Y88.439 E0.28475
G1 X93.645 Y87.904 E0.01685
G1 X100.041 Y94.300 E0.28475
G1 X100.041 Y93.764 E0.01685
G1 X93.645 Y87.368 E0.28475
G1 X93.645 Y86.833 E0.01685
G1 X100.041 Y93.229 E0.28475
G1 X100.041 Y92.694 E0.01685
G1 X93.645 Y86.297 E0.28475
G1 X93.645 Y85.762 E0.01685
G1 X100.041 Y92.158 E0.28475
G1 X100.041 Y91.623 E0.01685
G1 X93.645 Y85.227 E0.28475
G1 X93.645 Y84.691 E0.01685
G1 X100.041 Y91.087 E0.28475
G1 X100.041 Y90.552 E0.01685
G1 X93.645 Y84.156 E0.28475
G1 X93.645 Y83.620 E0.01685
G1 X100.041 Y90.017 E0.28475
G1 X100.041 Y89.481 E0.01685
G1 X93.645 Y83.085 E0.28475
G1 X93.645 Y82.550 E0.01685
G1 X100.041 Y88.946 E0.28475
G1 X100.041 Y88.410 E0.01685
G1 X93.645 Y82.014 E0.28475
G1 X93.645 Y81.479 E0.01685
G1 X100.041 Y87.875 E0.28475
G1 X100.041 Y87.340 E0.01685
G1 X93.645 Y80.943 E0.28475
G1 X93.645 Y80.408 E0.01685
G1 X100.041 Y86.804 E0.28475
M73 P1 R68
G1 X100.041 Y86.269 E0.01685
G1 X93.645 Y79.873 E0.28475
G1 X93.645 Y79.337 E0.01685
G1 X100.041 Y85.733 E0.28475
G1 X100.041 Y85.198 E0.01685
G1 X93.645 Y78.802 E0.28475
G1 X93.645 Y78.266 E0.01685
G1 X100.041 Y84.663 E0.28475
G1 X100.041 Y84.127 E0.01685
G1 X93.645 Y77.731 E0.28475
G1 X93.645 Y77.196 E0.01685
G1 X100.041 Y83.592 E0.28475
G1 X100.041 Y83.056 E0.01685
G1 X93.645 Y76.660 E0.28475
G1 X93.645 Y76.125 E0.01685
G1 X100.041 Y82.521 E0.28475
G1 X100.041 Y81.986 E0.01685
G1 X93.645 Y75.589 E0.28475
G1 X93.645 Y75.054 E0.01685
G1 X100.041 Y81.450 E0.28475
G1 X100.041 Y80.915 E0.01685
G1 X93.645 Y74.519 E0.28475
G1 X93.645 Y73.983 E0.01685
G1 X100.041 Y80.379 E0.28475
G1 X100.041 Y79.844 E0.01685
G1 X93.645 Y73.448 E0.28475
G1 X93.645 Y72.912 E0.01685
G1 X100.041 Y79.309 E0.28475
G1 X100.041 Y78.773 E0.01685
G1 X93.645 Y72.377 E0.28475
G1 X93.645 Y71.881 E0.01562
G1 X91.336 Y69.533 E0.10367
G1 X100.041 Y78.238 E0.38754
G1 X100.041 Y77.702 E0.01685
G1 X91.339 Y69.000 E0.38741
G1 X91.342 Y68.468 E0.01676
G1 X100.041 Y77.167 E0.38728
G1 X100.041 Y76.632 E0.01685
G1 X91.345 Y67.935 E0.38715
G1 X91.348 Y67.403 E0.01676
G1 X100.041 Y76.096 E0.38701
G1 X100.041 Y75.561 E0.01685
G1 X91.351 Y66.871 E0.38688
G1 X91.354 Y66.338 E0.01676
G1 X100.211 Y75.195 E0.39430
G1 E-0.80000 F2100.00000
G1 Z0.800 F10800.000
G1 X102.519 Y65.189
G1 Z0.200
G1 E0.80000 F2100.00000
G1 F1200.000
G1 X99.149 Y61.819 E0.15003
G1 X98.611 Y61.816 E0.01695
G1 X102.347 Y65.553 E0.16635
G1 X102.344 Y66.085 E0.01676
G1 X98.072 Y61.813 E0.19019
G1 X97.534 Y61.810 E0.01695
G1 X102.341 Y66.618 E0.21403
G1 X102.338 Y67.150 E0.01676
G1 X96.995 Y61.807 E0.23786
G1 X96.457 Y61.804 E0.01695
G1 X102.335 Y67.682 E0.26170
G1 X102.332 Y68.215 E0.01676
G1 X95.918 Y61.801 E0.28554
G1 X95.380 Y61.798 E0.01695
G1 X102.329 Y68.747 E0.30937
G1 X102.326 Y69.280 E0.01676
G1 X99.653 Y66.606 E0.11901
G1 X99.704 Y66.796 E0.00619
G1 X99.742 Y67.231 E0.01373
G1 X102.221 Y69.710 E0.11037
G1 X101.952 Y69.976 E0.01192
G1 X99.710 Y67.734 E0.09980
G1 X99.607 Y68.167 E0.01399
G1 X101.683 Y70.242 E0.09240
G1 X101.413 Y70.508 E0.01192
G1 X99.454 Y68.549 E0.08723
G1 X99.359 Y68.753 E0.00710
G1 X99.262 Y68.892 E0.00533
G1 X101.144 Y70.775 E0.08381
G1 X100.875 Y71.041 E0.01192
G1 X99.035 Y69.201 E0.08190
G1 X98.768 Y69.469 E0.01192
G1 X100.606 Y71.307 E0.08183
G1 X100.337 Y71.573 E0.01192
G1 X98.462 Y69.699 E0.08344
G1 X98.298 Y69.816 E0.00635
G1 X98.124 Y69.896 E0.00602
G1 X100.067 Y71.839 E0.08650
G1 X100.041 Y71.865 E0.00117
G1 X100.041 Y72.348 E0.01520
G1 X97.747 Y70.055 E0.10211
G1 X97.321 Y70.164 E0.01384
G1 X100.041 Y72.884 E0.12108
G1 X100.041 Y73.419 E0.01685
G1 X96.826 Y70.205 E0.14311
G1 X96.338 Y70.162 E0.01542
G1 X96.215 Y70.129 E0.00401
G1 X100.041 Y73.955 E0.17032
G1 X100.041 Y74.490 E0.01685
G1 X91.357 Y65.806 E0.38661
G1 X91.360 Y65.273 E0.01676
G1 X94.015 Y67.928 E0.11820
G1 X93.982 Y67.805 E0.00401
G1 X93.939 Y67.317 E0.01542
G1 X91.489 Y64.867 E0.10906
G1 X91.758 Y64.601 E0.01192
G1 X93.980 Y66.822 E0.09888
G1 X94.089 Y66.396 E0.01384
G1 X92.028 Y64.335 E0.09177
G1 X92.297 Y64.069 E0.01192
G1 X94.247 Y66.019 E0.08682
G1 X94.327 Y65.848 E0.00594
G1 X94.444 Y65.681 E0.00643
G1 X92.566 Y63.803 E0.08361
G1 X92.835 Y63.536 E0.01192
G1 X94.675 Y65.376 E0.08189
G1 X94.942 Y65.108 E0.01192
G1 X93.104 Y63.270 E0.08182
G1 X93.374 Y63.004 E0.01192
G1 X95.252 Y64.882 E0.08360
G1 X95.390 Y64.785 E0.00533
G1 X95.595 Y64.690 E0.00710
G1 X93.643 Y62.738 E0.08689
G1 X93.912 Y62.472 E0.01192
G1 X95.977 Y64.537 E0.09193
G1 X96.409 Y64.433 E0.01399
G1 X94.181 Y62.205 E0.09919
G1 X94.450 Y61.939 E0.01192
G1 X96.915 Y64.404 E0.10973
G1 X97.345 Y64.439 E0.01357
