; generated by PrusaSlicer 2.2.0+win64 on 2020-10-02 at 21:04:54 UTC

; 

; external perimeters extrusion width = 0.60mm
; perimeters extrusion width = 0.43mm
; infill extrusion width = 0.45mm
; solid infill extrusion width = 0.70mm
; top infill extrusion width = 0.43mm
; first layer extrusion width = 0.42mm

M73 P0 R171
M201 X9000 Y9000 Z500 E10000 ; sets maximum accelerations, mm/sec^2
M203 X500 Y500 Z12 E120 ; sets maximum feedrates, mm/sec
M204 P2000 R1500 T2000 ; sets acceleration (P, T) and retract acceleration (R), mm/sec^2
M205 X10.00 Y10.00 Z0.20 E4.50 ; sets the jerk limits, mm/sec
M205 S0 T0 ; sets the minimum extruding and travel feed rate, mm/sec
M107
M862.3 P "MK2.5SMMU2S" ; printer model check
M862.1 P0.4 ; nozzle diameter check
M115 U3.9.0 ; tell printer latest fw version
G90 ; use absolute coordinates
M83 ; extruder relative mode
M104 S215 ; set extruder temp
M140 S60 ; set bed temp
Tx
M190 S60 ; wait for bed temp
M109 S215 ; wait for extruder temp
G28 W ; home all without mesh bed level
G80 ; mesh bed leveling

;go outside print area
G1 Y-3.0 F1000.0
G1 Z0.4 F1000.0
; select extruder
Tc
; purge line
G1 X55.0 F2000.0
G1 Z0.3 F1000.0
G92 E0.0
G1 X240.0 E25.0 F2200.0
M73 P0 R171
G1 Y-2.0 F1000.0
G1 X55.0 E25 F1400.0
G1 Z0.20 F1000.0
G1 X5.0 E4.0 F1000.0
G92 E0.0
G21 ; set units to millimeters
G90 ; use absolute coordinates
M83 ; use relative distances for extrusion
M900 K0.06 ; Filament gcode LA 1.5
M900 K30 ; Filament gcode LA 1.0
;BEFORE_LAYER_CHANGE
G92 E0.0
;0.2


G1 E-0.80000 F2100.00000
G1 Z0.600 F10800.000
;AFTER_LAYER_CHANGE
;0.2
G1 X60.820 Y26.052
G1 Z0.200
G1 E0.80000 F2100.00000
M204 S1000
G1 F1200.000
G1 X61.173 Y25.480 E0.02107
G1 X61.674 Y25.027 E0.02119
G1 X62.283 Y24.734 E0.02119
G1 X62.950 Y24.623 E0.02119
G1 X187.057 Y24.624 E3.89131
G1 X187.734 Y24.739 E0.02154
G1 X188.350 Y25.044 E0.02154
G1 X188.853 Y25.512 E0.02154
G1 X189.202 Y26.104 E0.02154
G1 X189.377 Y26.995 E0.02849
G1 X189.377 Y174.045 E4.61064
G1 X189.180 Y174.993 E0.03036
G1 X188.823 Y175.571 E0.02130
G1 X188.313 Y176.026 E0.02142
G1 X187.699 Y176.317 E0.02130
G1 X187.024 Y176.422 E0.02142
G1 X62.996 Y176.422 E3.88880
G1 X62.052 Y176.225 E0.03024
G1 X61.471 Y175.865 E0.02142
G1 X61.019 Y175.358 E0.02130
G1 X60.727 Y174.740 E0.02142
G1 X60.623 Y174.065 E0.02142
G1 X60.623 Y26.996 E4.61124
G1 X60.808 Y26.111 E0.02836
G1 F8640.000
G1 X61.173 Y25.480 E-0.16825
G1 X61.674 Y25.027 E-0.15602
G1 X62.283 Y24.734 E-0.15602
G1 X62.950 Y24.623 E-0.15602
G1 X63.485 Y24.623 E-0.12368
G1 E-0.04000 F2100.00000
G1 Z0.800 F10800.000
G1 X128.787 Y108.787
G1 Z0.200
G1 E0.80000 F2100.00000
G1 F1200.000
G1 X186.213 Y108.787 E1.80055
G1 X186.213 Y172.911 E2.01057
G1 X128.787 Y172.911 E1.80055
G1 X128.787 Y108.847 E2.00869
G1 X128.410 Y108.410 F10800.000
G1 F1200.000
G1 X186.590 Y108.410 E1.82419
G1 X186.590 Y173.288 E2.03421
G1 X128.410 Y173.288 E1.82419
M73 P0 R169
G1 X128.410 Y108.470 E2.03233
G1 X128.794 Y108.520 F10800.000
G1 F8640.000
G1 X131.701 Y108.467 E-0.76000
G1 E-0.04000 F2100.00000
G1 Z0.800 F10800.000
G1 X128.900 Y172.035
G1 Z0.200
G1 E0.80000 F2100.00000
G1 F1200.000
G1 X129.494 Y172.628 E0.02634
G1 X130.027 Y172.628 E0.01675
G1 X129.070 Y171.671 E0.04250
G1 X129.070 Y171.137 E0.01675
G1 X130.561 Y172.628 E0.06620
G1 X131.095 Y172.628 E0.01675
G1 X129.070 Y170.603 E0.08989
G1 X129.070 Y170.069 E0.01675
G1 X131.629 Y172.628 E0.11358
G1 X132.163 Y172.628 E0.01675
G1 X129.070 Y169.536 E0.13728
G1 X129.070 Y169.002 E0.01675
G1 X132.696 Y172.628 E0.16097
G1 X133.230 Y172.628 E0.01675
G1 X129.070 Y168.468 E0.18466
G1 X129.070 Y167.934 E0.01675
G1 X133.764 Y172.628 E0.20836
G1 X134.298 Y172.628 E0.01675
G1 X129.070 Y167.400 E0.23205
G1 X129.070 Y166.867 E0.01675
G1 X134.832 Y172.628 E0.25574
G1 X135.365 Y172.628 E0.01675
G1 X129.070 Y166.333 E0.27944
G1 X129.070 Y165.799 E0.01675
G1 X135.899 Y172.628 E0.30313
G1 X136.433 Y172.628 E0.01675
G1 X129.070 Y165.265 E0.32682
G1 X129.070 Y164.731 E0.01675
G1 X136.967 Y172.628 E0.35051
G1 X137.501 Y172.628 E0.01675
G1 X129.070 Y164.198 E0.37421
G1 X129.070 Y163.664 E0.01675
G1 X138.034 Y172.628 E0.39790
G1 X138.568 Y172.628 E0.01675
G1 X129.070 Y163.130 E0.42159
G1 X129.070 Y162.596 E0.01675
G1 X139.102 Y172.628 E0.44529
G1 X139.636 Y172.628 E0.01675
G1 X129.070 Y162.062 E0.46898
G1 X129.070 Y161.529 E0.01675
G1 X140.170 Y172.628 E0.49267
G1 X140.703 Y172.628 E0.01675
G1 X129.070 Y160.995 E0.51637
G1 X129.070 Y160.461 E0.01675
G1 X141.237 Y172.628 E0.54006
G1 X141.771 Y172.628 E0.01675
G1 X129.070 Y159.927 E0.56375
G1 X129.070 Y159.393 E0.01675
G1 X142.305 Y172.628 E0.58745
G1 X142.839 Y172.628 E0.01675
G1 X129.070 Y158.860 E0.61114
G1 X129.070 Y158.326 E0.01675
G1 X143.372 Y172.628 E0.63483
G1 X143.906 Y172.628 E0.01675
G1 X129.070 Y157.792 E0.65853
G1 X129.070 Y157.258 E0.01675
G1 X144.440 Y172.628 E0.68222
G1 X144.974 Y172.628 E0.01675
G1 X129.070 Y156.724 E0.70591
G1 X129.070 Y156.191 E0.01675
G1 X145.508 Y172.628 E0.72960
G1 X146.041 Y172.628 E0.01675
G1 X129.070 Y155.657 E0.75330
G1 X129.070 Y155.123 E0.01675
G1 X146.575 Y172.628 E0.77699
G1 X147.109 Y172.628 E0.01675
G1 X129.070 Y154.589 E0.80068
G1 X129.070 Y154.055 E0.01675
G1 X147.643 Y172.628 E0.82438
G1 X148.177 Y172.628 E0.01675
G1 X129.070 Y153.522 E0.84807
G1 X129.070 Y152.988 E0.01675
G1 X148.710 Y172.628 E0.87176
G1 X149.244 Y172.628 E0.01675
G1 X129.070 Y152.454 E0.89546
G1 X129.070 Y151.920 E0.01675
G1 X149.778 Y172.628 E0.91915
G1 X150.312 Y172.628 E0.01675
G1 X129.070 Y151.386 E0.94284
G1 X129.070 Y150.853 E0.01675
G1 X150.846 Y172.628 E0.96654
G1 X151.379 Y172.628 E0.01675
G1 X129.070 Y150.319 E0.99023
G1 X129.070 Y149.785 E0.01675
G1 X151.913 Y172.628 E1.01392
G1 X152.447 Y172.628 E0.01675
G1 X129.070 Y149.251 E1.03761
G1 X129.070 Y148.717 E0.01675
G1 X152.981 Y172.628 E1.06131
G1 X153.515 Y172.628 E0.01675
G1 X129.070 Y148.184 E1.08500
G1 X129.070 Y147.650 E0.01675
G1 X154.049 Y172.628 E1.10869
G1 X154.582 Y172.628 E0.01675
G1 X129.070 Y147.116 E1.13239
G1 X129.070 Y146.582 E0.01675
G1 X155.116 Y172.628 E1.15608
G1 X155.650 Y172.628 E0.01675
G1 X129.070 Y146.048 E1.17977
G1 X129.070 Y145.515 E0.01675
G1 X156.184 Y172.628 E1.20347
G1 X156.718 Y172.628 E0.01675
G1 X129.070 Y144.981 E1.22716
G1 X129.070 Y144.447 E0.01675
G1 X157.251 Y172.628 E1.25085
G1 X157.785 Y172.628 E0.01675
G1 X129.070 Y143.913 E1.27455
M73 P1 R168
G1 X129.070 Y143.379 E0.01675
G1 X158.319 Y172.628 E1.29824
G1 X158.853 Y172.628 E0.01675
G1 X129.070 Y142.846 E1.32193
G1 X129.070 Y142.312 E0.01675
G1 X159.387 Y172.628 E1.34563
G1 X159.920 Y172.628 E0.01675
G1 X129.070 Y141.778 E1.36932
G1 X129.070 Y141.244 E0.01675
G1 X160.454 Y172.628 E1.39301
G1 X160.988 Y172.628 E0.01675
G1 X129.070 Y140.710 E1.41670
G1 X129.070 Y140.177 E0.01675
G1 X161.522 Y172.628 E1.44040
G1 X162.056 Y172.628 E0.01675
G1 X129.070 Y139.643 E1.46409
G1 X129.070 Y139.109 E0.01675
G1 X162.589 Y172.628 E1.48778
G1 X163.123 Y172.628 E0.01675
G1 X129.070 Y138.575 E1.51148
G1 X129.070 Y138.041 E0.01675
G1 X163.657 Y172.628 E1.53517
G1 X164.191 Y172.628 E0.01675
G1 X129.070 Y137.508 E1.55886
G1 X129.070 Y136.974 E0.01675
G1 X164.725 Y172.628 E1.58256
G1 X165.258 Y172.628 E0.01675
G1 X129.070 Y136.440 E1.60625
G1 X129.070 Y135.906 E0.01675
G1 X165.792 Y172.628 E1.62994
G1 X166.326 Y172.628 E0.01675
G1 X129.070 Y135.372 E1.65364
G1 X129.070 Y134.839 E0.01675
G1 X166.860 Y172.628 E1.67733
G1 X167.394 Y172.628 E0.01675
G1 X129.070 Y134.305 E1.70102
G1 X129.070 Y133.771 E0.01675
G1 X167.927 Y172.628 E1.72471
G1 X168.461 Y172.628 E0.01675
G1 X129.070 Y133.237 E1.74841
G1 X129.070 Y132.703 E0.01675
G1 X168.995 Y172.628 E1.77210
G1 X169.529 Y172.628 E0.01675
G1 X129.070 Y132.170 E1.79579
G1 X129.070 Y131.636 E0.01675
G1 X170.063 Y172.628 E1.81949
G1 X170.596 Y172.629 E0.01675
G1 X129.070 Y131.102 E1.84318
M73 P1 R167
G1 X129.070 Y130.568 E0.01675
G1 X171.130 Y172.629 E1.86687
G1 X171.664 Y172.629 E0.01675
G1 X129.070 Y130.034 E1.89057
G1 X129.070 Y129.501 E0.01675
G1 X172.198 Y172.629 E1.91426
G1 X172.732 Y172.629 E0.01675
G1 X129.070 Y128.967 E1.93795
G1 X129.070 Y128.433 E0.01675
G1 X173.265 Y172.629 E1.96165
G1 X173.799 Y172.629 E0.01675
G1 X129.070 Y127.899 E1.98534
G1 X129.070 Y127.365 E0.01675
G1 X174.333 Y172.629 E2.00903
G1 X174.867 Y172.629 E0.01675
G1 X129.070 Y126.832 E2.03272
G1 X129.070 Y126.298 E0.01675
G1 X175.401 Y172.629 E2.05642
G1 X175.934 Y172.629 E0.01675
G1 X129.070 Y125.764 E2.08011
G1 X129.070 Y125.230 E0.01675
G1 X176.468 Y172.629 E2.10380
G1 X177.002 Y172.629 E0.01675
G1 X129.070 Y124.696 E2.12750
G1 X129.070 Y124.163 E0.01675
G1 X177.536 Y172.629 E2.15119
G1 X178.070 Y172.629 E0.01675
G1 X129.070 Y123.629 E2.17488
G1 X129.070 Y123.095 E0.01675
G1 X178.603 Y172.629 E2.19858
G1 X179.137 Y172.629 E0.01675
G1 X129.070 Y122.561 E2.22227
G1 X129.070 Y122.027 E0.01675
G1 X179.671 Y172.629 E2.24596
G1 X180.205 Y172.629 E0.01675
G1 X129.070 Y121.494 E2.26966
G1 X129.070 Y120.960 E0.01675
G1 X180.739 Y172.629 E2.29335
M73 P2 R166
G1 X181.272 Y172.629 E0.01675
G1 X129.070 Y120.426 E2.31704
G1 X129.070 Y119.892 E0.01675
G1 X181.806 Y172.629 E2.34074
G1 X182.340 Y172.629 E0.01675
G1 X129.070 Y119.358 E2.36443
G1 X129.070 Y118.825 E0.01675
G1 X182.874 Y172.629 E2.38812
G1 X183.408 Y172.629 E0.01675
G1 X129.070 Y118.291 E2.41181
G1 X129.070 Y117.757 E0.01675
G1 X183.941 Y172.629 E2.43551
G1 X184.475 Y172.629 E0.01675
G1 X129.070 Y117.223 E2.45920
G1 X129.070 Y116.689 E0.01675
G1 X185.009 Y172.629 E2.48289
G1 X185.543 Y172.629 E0.01675
G1 X129.070 Y116.156 E2.50659
G1 X129.070 Y115.622 E0.01675
G1 X185.930 Y172.482 E2.52378
G1 X185.930 Y171.948 E0.01675
G1 X129.070 Y115.088 E2.52378
G1 X129.070 Y114.554 E0.01675
G1 X185.930 Y171.414 E2.52378
G1 X185.930 Y170.881 E0.01675
G1 X129.070 Y114.020 E2.52378
G1 X129.070 Y113.487 E0.01675
G1 X185.930 Y170.347 E2.52378
G1 X185.930 Y169.813 E0.01675
G1 X129.070 Y112.953 E2.52378
G1 X129.070 Y112.419 E0.01675
G1 X185.930 Y169.279 E2.52378
M73 P3 R165
G1 X185.930 Y168.745 E0.01675
G1 X129.070 Y111.885 E2.52378
G1 X129.070 Y111.351 E0.01675
G1 X185.930 Y168.212 E2.52378
G1 X185.930 Y167.678 E0.01675
G1 X129.070 Y110.818 E2.52378
G1 X129.070 Y110.284 E0.01675
G1 X185.930 Y167.144 E2.52378
G1 X185.930 Y166.610 E0.01675
G1 X129.070 Y109.750 E2.52378
G1 X129.070 Y109.216 E0.01675
G1 X185.930 Y166.076 E2.52378
G1 X185.930 Y165.543 E0.01675
G1 X129.457 Y109.070 E2.50658
G1 X129.991 Y109.070 E0.01675
G1 X185.930 Y165.009 E2.48289
G1 X185.930 Y164.475 E0.01675
G1 X130.525 Y109.070 E2.45920
G1 X131.059 Y109.070 E0.01675
G1 X185.930 Y163.941 E2.43550
G1 X185.930 Y163.407 E0.01675
G1 X131.592 Y109.070 E2.41181
G1 X132.126 Y109.070 E0.01675
G1 X185.930 Y162.874 E2.38812
G1 X185.930 Y162.340 E0.01675
G1 X132.660 Y109.070 E2.36443
G1 X133.194 Y109.070 E0.01675
G1 X185.930 Y161.806 E2.34073
G1 X185.930 Y161.272 E0.01675
G1 X133.728 Y109.070 E2.31704
G1 X134.262 Y109.070 E0.01675
G1 X185.930 Y160.738 E2.29335
M73 P3 R164
G1 X185.930 Y160.205 E0.01675
G1 X134.795 Y109.070 E2.26965
G1 X135.329 Y109.070 E0.01675
G1 X185.930 Y159.671 E2.24596
G1 X185.930 Y159.137 E0.01675
G1 X135.863 Y109.070 E2.22227
G1 X136.397 Y109.070 E0.01675
G1 X185.930 Y158.603 E2.19857
G1 X185.930 Y158.069 E0.01675
G1 X136.931 Y109.070 E2.17488
G1 X137.464 Y109.070 E0.01675
G1 X185.930 Y157.536 E2.15119
G1 X185.930 Y157.002 E0.01675
G1 X137.998 Y109.070 E2.12749
G1 X138.532 Y109.070 E0.01675
G1 X185.930 Y156.468 E2.10380
G1 X185.930 Y155.934 E0.01675
G1 X139.066 Y109.070 E2.08011
G1 X139.600 Y109.070 E0.01675
G1 X185.930 Y155.400 E2.05641
G1 X185.930 Y154.867 E0.01675
G1 X140.133 Y109.070 E2.03272
G1 X140.667 Y109.070 E0.01675
G1 X185.930 Y154.333 E2.00903
G1 X185.930 Y153.799 E0.01675
G1 X141.201 Y109.070 E1.98534
G1 X141.735 Y109.070 E0.01675
G1 X185.930 Y153.265 E1.96164
G1 X185.930 Y152.731 E0.01675
G1 X142.269 Y109.070 E1.93795
G1 X142.802 Y109.070 E0.01675
G1 X185.930 Y152.198 E1.91426
G1 X185.930 Y151.664 E0.01675
G1 X143.336 Y109.070 E1.89056
G1 X143.870 Y109.070 E0.01675
G1 X185.930 Y151.130 E1.86687
G1 X185.930 Y150.596 E0.01675
G1 X144.404 Y109.070 E1.84318
M73 P4 R163
G1 X144.938 Y109.070 E0.01675
G1 X185.930 Y150.062 E1.81948
G1 X185.930 Y149.529 E0.01675
G1 X145.471 Y109.070 E1.79579
G1 X146.005 Y109.070 E0.01675
G1 X185.930 Y148.995 E1.77210
G1 X185.930 Y148.461 E0.01675
G1 X146.539 Y109.070 E1.74840
G1 X147.073 Y109.070 E0.01675
G1 X185.930 Y147.927 E1.72471
G1 X185.930 Y147.393 E0.01675
G1 X147.607 Y109.070 E1.70102
G1 X148.140 Y109.070 E0.01675
G1 X185.930 Y146.860 E1.67732
G1 X185.930 Y146.326 E0.01675
G1 X148.674 Y109.070 E1.65363
G1 X149.208 Y109.070 E0.01675
G1 X185.930 Y145.792 E1.62994
G1 X185.930 Y145.258 E0.01675
G1 X149.742 Y109.070 E1.60625
G1 X150.276 Y109.070 E0.01675
G1 X185.930 Y144.724 E1.58255
G1 X185.930 Y144.191 E0.01675
G1 X150.809 Y109.070 E1.55886
G1 X151.343 Y109.070 E0.01675
G1 X185.930 Y143.657 E1.53517
G1 X185.930 Y143.123 E0.01675
G1 X151.877 Y109.070 E1.51147
G1 X152.411 Y109.070 E0.01675
G1 X185.930 Y142.589 E1.48778
G1 X185.930 Y142.055 E0.01675
G1 X152.945 Y109.070 E1.46409
G1 X153.478 Y109.070 E0.01675
G1 X185.930 Y141.522 E1.44039
G1 X185.930 Y140.988 E0.01675
G1 X154.012 Y109.070 E1.41670
G1 X154.546 Y109.070 E0.01675
G1 X185.930 Y140.454 E1.39301
G1 X185.930 Y139.920 E0.01675
G1 X155.080 Y109.070 E1.36931
G1 X155.614 Y109.070 E0.01675
G1 X185.930 Y139.386 E1.34562
G1 X185.930 Y138.853 E0.01675
G1 X156.147 Y109.070 E1.32193
G1 X156.681 Y109.070 E0.01675
G1 X185.930 Y138.319 E1.29823
G1 X185.930 Y137.785 E0.01675
G1 X157.215 Y109.070 E1.27454
G1 X157.749 Y109.070 E0.01675
G1 X185.930 Y137.251 E1.25085
M73 P4 R162
G1 X185.930 Y136.717 E0.01675
G1 X158.283 Y109.070 E1.22716
G1 X158.816 Y109.070 E0.01675
G1 X185.930 Y136.184 E1.20346
G1 X185.930 Y135.650 E0.01675
G1 X159.350 Y109.070 E1.17977
G1 X159.884 Y109.070 E0.01675
G1 X185.930 Y135.116 E1.15608
G1 X185.930 Y134.582 E0.01675
G1 X160.418 Y109.070 E1.13238
G1 X160.952 Y109.070 E0.01675
G1 X185.930 Y134.048 E1.10869
G1 X185.930 Y133.515 E0.01675
G1 X161.485 Y109.070 E1.08500
G1 X162.019 Y109.070 E0.01675
G1 X185.930 Y132.981 E1.06130
G1 X185.930 Y132.447 E0.01675
G1 X162.553 Y109.070 E1.03761
G1 X163.087 Y109.070 E0.01675
G1 X185.930 Y131.913 E1.01392
G1 X185.930 Y131.379 E0.01675
G1 X163.621 Y109.070 E0.99022
G1 X164.154 Y109.070 E0.01675
G1 X185.930 Y130.846 E0.96653
G1 X185.930 Y130.312 E0.01675
G1 X164.688 Y109.070 E0.94284
G1 X165.222 Y109.070 E0.01675
G1 X185.930 Y129.778 E0.91914
G1 X185.930 Y129.244 E0.01675
G1 X165.756 Y109.070 E0.89545
G1 X166.290 Y109.070 E0.01675
G1 X185.930 Y128.710 E0.87176
G1 X185.930 Y128.177 E0.01675
G1 X166.823 Y109.070 E0.84807
G1 X167.357 Y109.070 E0.01675
G1 X185.930 Y127.643 E0.82437
G1 X185.930 Y127.109 E0.01675
G1 X167.891 Y109.070 E0.80068
G1 X168.425 Y109.070 E0.01675
G1 X185.930 Y126.575 E0.77699
G1 X185.930 Y126.041 E0.01675
G1 X168.959 Y109.070 E0.75329
G1 X169.492 Y109.070 E0.01675
G1 X185.930 Y125.508 E0.72960
G1 X185.930 Y124.974 E0.01675
G1 X170.026 Y109.070 E0.70591
G1 X170.560 Y109.070 E0.01675
G1 X185.930 Y124.440 E0.68221
G1 X185.930 Y123.906 E0.01675
G1 X171.094 Y109.070 E0.65852
G1 X171.628 Y109.070 E0.01675
G1 X185.930 Y123.372 E0.63483
G1 X185.930 Y122.839 E0.01675
G1 X172.161 Y109.070 E0.61113
G1 X172.695 Y109.070 E0.01675
G1 X185.930 Y122.305 E0.58744
G1 X185.930 Y121.771 E0.01675
G1 X173.229 Y109.070 E0.56375
G1 X173.763 Y109.070 E0.01675
G1 X185.930 Y121.237 E0.54005
G1 X185.930 Y120.703 E0.01675
G1 X174.297 Y109.070 E0.51636
G1 X174.830 Y109.070 E0.01675
G1 X185.930 Y120.170 E0.49267
G1 X185.930 Y119.636 E0.01675
G1 X175.364 Y109.070 E0.46898
G1 X175.898 Y109.070 E0.01675
G1 X185.930 Y119.102 E0.44528
G1 X185.930 Y118.568 E0.01675
G1 X176.432 Y109.070 E0.42159
G1 X176.966 Y109.070 E0.01675
G1 X185.930 Y118.034 E0.39790
G1 X185.930 Y117.501 E0.01675
G1 X177.499 Y109.070 E0.37420
G1 X178.033 Y109.070 E0.01675
G1 X185.930 Y116.967 E0.35051
G1 X185.930 Y116.433 E0.01675
G1 X178.567 Y109.070 E0.32682
G1 X179.101 Y109.070 E0.01675
G1 X185.930 Y115.899 E0.30312
G1 X185.930 Y115.365 E0.01675
