; generated by PrusaSlicer 2.2.0+win64 on 2020-10-02 at 21:04:37 UTC

; 

; external perimeters extrusion width = 0.60mm
; perimeters extrusion width = 0.43mm
; infill extrusion width = 0.45mm
; solid infill extrusion width = 0.70mm
; top infill extrusion width = 0.43mm
; first layer extrusion width = 0.42mm

M73 P0 R86
M201 X9000 Y9000 Z500 E10000 ; sets maximum accelerations, mm/sec^2
M203 X500 Y500 Z12 E120 ; sets maximum feedrates, mm/sec
M204 P2000 R1500 T2000 ; sets acceleration (P, T) and retract acceleration (R), mm/sec^2
M205 X10.00 Y10.00 Z0.20 E4.50 ; sets the jerk limits, mm/sec
M205 S0 T0 ; sets the minimum extruding and travel feed rate, mm/sec
M107
M862.3 P "MK2.5SMMU2S" ; printer model check
M862.1 P0.4 ; nozzle diameter check
M115 U3.9.0 ; tell printer latest fw version
G90 ; use absolute coordinates
M83 ; extruder relative mode
M104 S215 ; set extruder temp
M140 S60 ; set bed temp
Tx
M190 S60 ; wait for bed temp
M109 S215 ; wait for extruder temp
G28 W ; home all without mesh bed level
G80 ; mesh bed leveling

;go outside print area
G1 Y-3.0 F1000.0
G1 Z0.4 F1000.0
; select extruder
Tc
; purge line
G1 X55.0 F2000.0
G1 Z0.3 F1000.0
G92 E0.0
G1 X240.0 E25.0 F2200.0
M73 P0 R85
G1 Y-2.0 F1000.0
G1 X55.0 E25 F1400.0
G1 Z0.20 F1000.0
G1 X5.0 E4.0 F1000.0
G92 E0.0
G21 ; set units to millimeters
G90 ; use absolute coordinates
M83 ; use relative distances for extrusion
M900 K0.06 ; Filament gcode LA 1.5
M900 K30 ; Filament gcode LA 1.0
;BEFORE_LAYER_CHANGE
G92 E0.0
;0.2


G1 E-0.80000 F2100.00000
G1 Z0.600 F10800.000
;AFTER_LAYER_CHANGE
;0.2
G1 X62.048 Y65.322
G1 Z0.200
G1 E0.80000 F2100.00000
M204 S1000
G1 F1200.000
G1 X62.972 Y65.123 E0.02966
G1 X187.031 Y65.123 E3.88976
G1 X187.525 Y65.182 E0.01562
G1 X188.000 Y65.344 E0.01574
G1 X188.431 Y65.602 E0.01574
G1 X188.797 Y65.944 E0.01574
G1 X189.224 Y66.660 E0.02614
G1 X189.377 Y67.480 E0.02614
G1 X189.377 Y133.549 E2.07154
G1 X189.206 Y134.430 E0.02813
G1 X188.724 Y135.182 E0.02802
G1 X187.938 Y135.729 E0.03001
G1 X187.000 Y135.922 E0.03004
G1 X62.989 Y135.922 E3.88829
G1 X62.112 Y135.750 E0.02802
G1 X61.363 Y135.269 E0.02790
G1 X60.818 Y134.487 E0.02989
G1 X60.623 Y133.550 E0.03001
G1 X60.623 Y67.477 E2.07166
G1 X60.797 Y66.608 E0.02778
G1 X61.276 Y65.863 E0.02778
G1 X61.999 Y65.356 E0.02766
G1 F8640.000
G1 X62.972 Y65.123 E-0.23123
G1 X65.262 Y65.123 E-0.52877
G1 E-0.04000 F2100.00000
G1 Z0.800 F10800.000
G1 X63.787 Y68.287
G1 Z0.200
G1 E0.80000 F2100.00000
G1 F1200.000
G1 X121.213 Y68.287 E1.80055
G1 X121.213 Y132.411 E2.01057
G1 X63.787 Y132.411 E1.80055
G1 X63.787 Y68.347 E2.00869
G1 X63.410 Y67.910 F10800.000
G1 F1200.000
G1 X121.590 Y67.910 E1.82419
G1 X121.590 Y132.788 E2.03421
G1 X63.410 Y132.788 E1.82419
G1 X63.410 Y67.970 E2.03233
G1 X63.795 Y68.020 F10800.000
G1 F8640.000
G1 X66.702 Y67.967 E-0.76000
G1 E-0.04000 F2100.00000
G1 Z0.800 F10800.000
G1 X63.900 Y131.535
G1 Z0.200
G1 E0.80000 F2100.00000
G1 F1200.000
G1 X64.494 Y132.128 E0.02634
G1 X65.027 Y132.128 E0.01675
G1 X64.070 Y131.171 E0.04250
G1 X64.070 Y130.637 E0.01675
G1 X65.561 Y132.128 E0.06620
G1 X66.095 Y132.128 E0.01675
G1 X64.070 Y130.103 E0.08989
G1 X64.070 Y129.569 E0.01675
G1 X66.629 Y132.128 E0.11358
G1 X67.163 Y132.128 E0.01675
G1 X64.070 Y129.036 E0.13728
G1 X64.070 Y128.502 E0.01675
G1 X67.696 Y132.128 E0.16097
G1 X68.230 Y132.128 E0.01675
G1 X64.070 Y127.968 E0.18466
G1 X64.070 Y127.434 E0.01675
G1 X68.764 Y132.128 E0.20836
G1 X69.298 Y132.128 E0.01675
G1 X64.070 Y126.900 E0.23205
G1 X64.070 Y126.367 E0.01675
G1 X69.832 Y132.128 E0.25574
M73 P1 R84
G1 X70.365 Y132.128 E0.01675
G1 X64.070 Y125.833 E0.27944
G1 X64.070 Y125.299 E0.01675
G1 X70.899 Y132.128 E0.30313
G1 X71.433 Y132.128 E0.01675
G1 X64.070 Y124.765 E0.32682
G1 X64.070 Y124.231 E0.01675
G1 X71.967 Y132.128 E0.35051
G1 X72.501 Y132.128 E0.01675
G1 X64.070 Y123.698 E0.37421
G1 X64.070 Y123.164 E0.01675
G1 X73.034 Y132.128 E0.39790
G1 X73.568 Y132.128 E0.01675
G1 X64.070 Y122.630 E0.42159
G1 X64.070 Y122.096 E0.01675
G1 X74.102 Y132.128 E0.44529
G1 X74.636 Y132.128 E0.01675
G1 X64.070 Y121.562 E0.46898
G1 X64.070 Y121.029 E0.01675
G1 X75.170 Y132.128 E0.49267
G1 X75.704 Y132.128 E0.01675
G1 X64.070 Y120.495 E0.51637
G1 X64.070 Y119.961 E0.01675
G1 X76.237 Y132.128 E0.54006
G1 X76.771 Y132.128 E0.01675
G1 X64.070 Y119.427 E0.56375
G1 X64.070 Y118.893 E0.01675
G1 X77.305 Y132.128 E0.58745
G1 X77.839 Y132.128 E0.01675
G1 X64.070 Y118.360 E0.61114
G1 X64.070 Y117.826 E0.01675
G1 X78.373 Y132.128 E0.63483
G1 X78.906 Y132.128 E0.01675
G1 X64.070 Y117.292 E0.65853
G1 X64.070 Y116.758 E0.01675
G1 X79.440 Y132.128 E0.68222
G1 X79.974 Y132.128 E0.01675
G1 X64.070 Y116.224 E0.70591
G1 X64.070 Y115.691 E0.01675
G1 X80.508 Y132.128 E0.72960
G1 X81.042 Y132.128 E0.01675
G1 X64.070 Y115.157 E0.75330
G1 X64.070 Y114.623 E0.01675
G1 X81.575 Y132.128 E0.77699
G1 X82.109 Y132.128 E0.01675
G1 X64.070 Y114.089 E0.80068
G1 X64.070 Y113.555 E0.01675
G1 X82.643 Y132.128 E0.82438
G1 X83.177 Y132.128 E0.01675
G1 X64.070 Y113.022 E0.84807
G1 X64.070 Y112.488 E0.01675
G1 X83.711 Y132.128 E0.87176
G1 X84.244 Y132.128 E0.01675
G1 X64.070 Y111.954 E0.89546
G1 X64.070 Y111.420 E0.01675
G1 X84.778 Y132.128 E0.91915
G1 X85.312 Y132.128 E0.01675
G1 X64.070 Y110.886 E0.94284
G1 X64.070 Y110.353 E0.01675
G1 X85.846 Y132.128 E0.96654
G1 X86.380 Y132.128 E0.01675
G1 X64.070 Y109.819 E0.99023
G1 X64.070 Y109.285 E0.01675
G1 X86.913 Y132.128 E1.01392
G1 X87.447 Y132.128 E0.01675
G1 X64.070 Y108.751 E1.03761
G1 X64.070 Y108.217 E0.01675
G1 X87.981 Y132.128 E1.06131
G1 X88.515 Y132.128 E0.01675
G1 X64.070 Y107.684 E1.08500
G1 X64.070 Y107.150 E0.01675
G1 X89.049 Y132.128 E1.10869
G1 X89.582 Y132.128 E0.01675
G1 X64.070 Y106.616 E1.13239
G1 X64.070 Y106.082 E0.01675
G1 X90.116 Y132.128 E1.15608
G1 X90.650 Y132.128 E0.01675
G1 X64.070 Y105.548 E1.17977
G1 X64.070 Y105.015 E0.01675
G1 X91.184 Y132.128 E1.20347
G1 X91.718 Y132.128 E0.01675
G1 X64.070 Y104.481 E1.22716
G1 X64.070 Y103.947 E0.01675
G1 X92.251 Y132.128 E1.25085
G1 X92.785 Y132.128 E0.01675
G1 X64.070 Y103.413 E1.27455
G1 X64.070 Y102.879 E0.01675
G1 X93.319 Y132.128 E1.29824
G1 X93.853 Y132.128 E0.01675
G1 X64.070 Y102.346 E1.32193
G1 X64.070 Y101.812 E0.01675
G1 X94.387 Y132.128 E1.34563
M73 P2 R83
G1 X94.920 Y132.128 E0.01675
G1 X64.070 Y101.278 E1.36932
G1 X64.070 Y100.744 E0.01675
G1 X95.454 Y132.128 E1.39301
G1 X95.988 Y132.128 E0.01675
G1 X64.070 Y100.210 E1.41670
G1 X64.070 Y99.677 E0.01675
G1 X96.522 Y132.128 E1.44040
G1 X97.056 Y132.128 E0.01675
G1 X64.070 Y99.143 E1.46409
G1 X64.070 Y98.609 E0.01675
G1 X97.589 Y132.128 E1.48778
G1 X98.123 Y132.128 E0.01675
G1 X64.070 Y98.075 E1.51148
G1 X64.070 Y97.541 E0.01675
G1 X98.657 Y132.128 E1.53517
G1 X99.191 Y132.128 E0.01675
G1 X64.070 Y97.008 E1.55886
G1 X64.070 Y96.474 E0.01675
G1 X99.725 Y132.128 E1.58256
G1 X100.258 Y132.128 E0.01675
G1 X64.070 Y95.940 E1.60625
G1 X64.070 Y95.406 E0.01675
G1 X100.792 Y132.128 E1.62994
G1 X101.326 Y132.128 E0.01675
G1 X64.070 Y94.872 E1.65364
G1 X64.070 Y94.339 E0.01675
G1 X101.860 Y132.128 E1.67733
G1 X102.394 Y132.128 E0.01675
G1 X64.070 Y93.805 E1.70102
G1 X64.070 Y93.271 E0.01675
G1 X102.927 Y132.128 E1.72471
G1 X103.461 Y132.128 E0.01675
G1 X64.070 Y92.737 E1.74841
G1 X64.070 Y92.203 E0.01675
G1 X103.995 Y132.129 E1.77210
G1 X104.529 Y132.129 E0.01675
G1 X64.070 Y91.670 E1.79579
G1 X64.070 Y91.136 E0.01675
G1 X105.063 Y132.129 E1.81949
G1 X105.596 Y132.129 E0.01675
G1 X64.070 Y90.602 E1.84318
G1 X64.070 Y90.068 E0.01675
G1 X106.130 Y132.129 E1.86687
G1 X106.664 Y132.129 E0.01675
G1 X64.070 Y89.534 E1.89057
M73 P3 R82
G1 X64.070 Y89.001 E0.01675
G1 X107.198 Y132.129 E1.91426
G1 X107.732 Y132.129 E0.01675
G1 X64.070 Y88.467 E1.93795
G1 X64.070 Y87.933 E0.01675
G1 X108.265 Y132.129 E1.96165
G1 X108.799 Y132.129 E0.01675
G1 X64.070 Y87.399 E1.98534
G1 X64.070 Y86.865 E0.01675
G1 X109.333 Y132.129 E2.00903
G1 X109.867 Y132.129 E0.01675
G1 X64.070 Y86.332 E2.03272
G1 X64.070 Y85.798 E0.01675
G1 X110.401 Y132.129 E2.05642
G1 X110.934 Y132.129 E0.01675
G1 X64.070 Y85.264 E2.08011
G1 X64.070 Y84.730 E0.01675
G1 X111.468 Y132.129 E2.10380
G1 X112.002 Y132.129 E0.01675
G1 X64.070 Y84.196 E2.12750
G1 X64.070 Y83.663 E0.01675
G1 X112.536 Y132.129 E2.15119
G1 X113.070 Y132.129 E0.01675
G1 X64.070 Y83.129 E2.17488
G1 X64.070 Y82.595 E0.01675
G1 X113.603 Y132.129 E2.19858
G1 X114.137 Y132.129 E0.01675
G1 X64.070 Y82.061 E2.22227
G1 X64.070 Y81.527 E0.01675
G1 X114.671 Y132.129 E2.24596
G1 X115.205 Y132.129 E0.01675
G1 X64.070 Y80.994 E2.26966
G1 X64.070 Y80.460 E0.01675
G1 X115.739 Y132.129 E2.29335
G1 X116.272 Y132.129 E0.01675
G1 X64.070 Y79.926 E2.31704
M73 P4 R81
G1 X64.070 Y79.392 E0.01675
G1 X116.806 Y132.129 E2.34074
G1 X117.340 Y132.129 E0.01675
G1 X64.070 Y78.858 E2.36443
G1 X64.070 Y78.325 E0.01675
G1 X117.874 Y132.129 E2.38812
G1 X118.408 Y132.129 E0.01675
G1 X64.070 Y77.791 E2.41181
G1 X64.070 Y77.257 E0.01675
G1 X118.941 Y132.129 E2.43551
G1 X119.475 Y132.129 E0.01675
G1 X64.070 Y76.723 E2.45920
G1 X64.070 Y76.189 E0.01675
G1 X120.009 Y132.129 E2.48289
G1 X120.543 Y132.129 E0.01675
G1 X64.070 Y75.656 E2.50659
G1 X64.070 Y75.122 E0.01675
G1 X120.930 Y131.982 E2.52378
G1 X120.930 Y131.448 E0.01675
G1 X64.070 Y74.588 E2.52378
G1 X64.070 Y74.054 E0.01675
G1 X120.930 Y130.914 E2.52378
G1 X120.930 Y130.381 E0.01675
G1 X64.070 Y73.520 E2.52378
G1 X64.070 Y72.987 E0.01675
G1 X120.930 Y129.847 E2.52378
G1 X120.930 Y129.313 E0.01675
G1 X64.070 Y72.453 E2.52378
G1 X64.070 Y71.919 E0.01675
G1 X120.930 Y128.779 E2.52378
G1 X120.930 Y128.245 E0.01675
G1 X64.070 Y71.385 E2.52378
M73 P6 R80
G1 X64.070 Y70.851 E0.01675
G1 X120.930 Y127.712 E2.52378
G1 X120.930 Y127.178 E0.01675
G1 X64.070 Y70.318 E2.52378
G1 X64.070 Y69.784 E0.01675
G1 X120.930 Y126.644 E2.52378
G1 X120.930 Y126.110 E0.01675
G1 X64.070 Y69.250 E2.52378
G1 X64.070 Y68.716 E0.01675
G1 X120.930 Y125.576 E2.52378
G1 X120.930 Y125.043 E0.01675
G1 X64.457 Y68.570 E2.50658
G1 X64.991 Y68.570 E0.01675
G1 X120.930 Y124.509 E2.48289
G1 X120.930 Y123.975 E0.01675
G1 X65.525 Y68.570 E2.45920
G1 X66.059 Y68.570 E0.01675
G1 X120.930 Y123.441 E2.43550
G1 X120.930 Y122.907 E0.01675
G1 X66.593 Y68.570 E2.41181
G1 X67.126 Y68.570 E0.01675
G1 X120.930 Y122.374 E2.38812
G1 X120.930 Y121.840 E0.01675
G1 X67.660 Y68.570 E2.36443
G1 X68.194 Y68.570 E0.01675
G1 X120.930 Y121.306 E2.34073
G1 X120.930 Y120.772 E0.01675
G1 X68.728 Y68.570 E2.31704
G1 X69.262 Y68.570 E0.01675
G1 X120.930 Y120.238 E2.29335
G1 X120.930 Y119.705 E0.01675
G1 X69.795 Y68.570 E2.26965
M73 P7 R79
G1 X70.329 Y68.570 E0.01675
G1 X120.930 Y119.171 E2.24596
G1 X120.930 Y118.637 E0.01675
G1 X70.863 Y68.570 E2.22227
G1 X71.397 Y68.570 E0.01675
G1 X120.930 Y118.103 E2.19857
G1 X120.930 Y117.569 E0.01675
G1 X71.931 Y68.570 E2.17488
G1 X72.464 Y68.570 E0.01675
G1 X120.930 Y117.036 E2.15119
G1 X120.930 Y116.502 E0.01675
G1 X72.998 Y68.570 E2.12749
G1 X73.532 Y68.570 E0.01675
G1 X120.930 Y115.968 E2.10380
G1 X120.930 Y115.434 E0.01675
G1 X74.066 Y68.570 E2.08011
G1 X74.600 Y68.570 E0.01675
G1 X120.930 Y114.900 E2.05641
G1 X120.930 Y114.367 E0.01675
G1 X75.133 Y68.570 E2.03272
G1 X75.667 Y68.570 E0.01675
G1 X120.930 Y113.833 E2.00903
G1 X120.930 Y113.299 E0.01675
G1 X76.201 Y68.570 E1.98534
G1 X76.735 Y68.570 E0.01675
G1 X120.930 Y112.765 E1.96164
G1 X120.930 Y112.231 E0.01675
G1 X77.269 Y68.570 E1.93795
G1 X77.802 Y68.570 E0.01675
G1 X120.930 Y111.698 E1.91426
G1 X120.930 Y111.164 E0.01675
G1 X78.336 Y68.570 E1.89056
G1 X78.870 Y68.570 E0.01675
G1 X120.930 Y110.630 E1.86687
G1 X120.930 Y110.096 E0.01675
G1 X79.404 Y68.570 E1.84318
G1 X79.938 Y68.570 E0.01675
G1 X120.930 Y109.562 E1.81948
M73 P8 R78
G1 X120.930 Y109.029 E0.01675
G1 X80.471 Y68.570 E1.79579
G1 X81.005 Y68.570 E0.01675
G1 X120.930 Y108.495 E1.77210
G1 X120.930 Y107.961 E0.01675
G1 X81.539 Y68.570 E1.74840
G1 X82.073 Y68.570 E0.01675
G1 X120.930 Y107.427 E1.72471
G1 X120.930 Y106.893 E0.01675
G1 X82.607 Y68.570 E1.70102
G1 X83.140 Y68.570 E0.01675
G1 X120.930 Y106.360 E1.67732
G1 X120.930 Y105.826 E0.01675
G1 X83.674 Y68.570 E1.65363
G1 X84.208 Y68.570 E0.01675
G1 X120.930 Y105.292 E1.62994
G1 X120.930 Y104.758 E0.01675
G1 X84.742 Y68.570 E1.60625
G1 X85.276 Y68.570 E0.01675
G1 X120.930 Y104.224 E1.58255
G1 X120.930 Y103.691 E0.01675
G1 X85.809 Y68.570 E1.55886
G1 X86.343 Y68.570 E0.01675
G1 X120.930 Y103.157 E1.53517
G1 X120.930 Y102.623 E0.01675
G1 X86.877 Y68.570 E1.51147
G1 X87.411 Y68.570 E0.01675
G1 X120.930 Y102.089 E1.48778
G1 X120.930 Y101.555 E0.01675
G1 X87.945 Y68.570 E1.46409
G1 X88.478 Y68.570 E0.01675
G1 X120.930 Y101.022 E1.44039
G1 X120.930 Y100.488 E0.01675
G1 X89.012 Y68.570 E1.41670
G1 X89.546 Y68.570 E0.01675
G1 X120.930 Y99.954 E1.39301
G1 X120.930 Y99.420 E0.01675
G1 X90.080 Y68.570 E1.36931
G1 X90.614 Y68.570 E0.01675
G1 X120.930 Y98.886 E1.34562
G1 X120.930 Y98.353 E0.01675
G1 X91.147 Y68.570 E1.32193
G1 X91.681 Y68.570 E0.01675
G1 X120.930 Y97.819 E1.29823
G1 X120.930 Y97.285 E0.01675
G1 X92.215 Y68.570 E1.27454
G1 X92.749 Y68.570 E0.01675
G1 X120.930 Y96.751 E1.25085
G1 X120.930 Y96.217 E0.01675
G1 X93.283 Y68.570 E1.22716
M73 P9 R77
G1 X93.816 Y68.570 E0.01675
G1 X120.930 Y95.684 E1.20346
G1 X120.930 Y95.150 E0.01675
G1 X94.350 Y68.570 E1.17977
G1 X94.884 Y68.570 E0.01675
G1 X120.930 Y94.616 E1.15608
G1 X120.930 Y94.082 E0.01675
G1 X95.418 Y68.570 E1.13238
G1 X95.952 Y68.570 E0.01675
G1 X120.930 Y93.548 E1.10869
G1 X120.930 Y93.015 E0.01675
G1 X96.485 Y68.570 E1.08500
G1 X97.019 Y68.570 E0.01675
G1 X120.930 Y92.481 E1.06130
G1 X120.930 Y91.947 E0.01675
G1 X97.553 Y68.570 E1.03761
G1 X98.087 Y68.570 E0.01675
G1 X120.930 Y91.413 E1.01392
G1 X120.930 Y90.879 E0.01675
G1 X98.621 Y68.570 E0.99022
G1 X99.154 Y68.570 E0.01675
G1 X120.930 Y90.346 E0.96653
G1 X120.930 Y89.812 E0.01675
G1 X99.688 Y68.570 E0.94284
G1 X100.222 Y68.570 E0.01675
G1 X120.930 Y89.278 E0.91914
G1 X120.930 Y88.744 E0.01675
G1 X100.756 Y68.570 E0.89545
G1 X101.290 Y68.570 E0.01675
G1 X120.930 Y88.210 E0.87176
G1 X120.930 Y87.677 E0.01675
G1 X101.823 Y68.570 E0.84807
G1 X102.357 Y68.570 E0.01675
G1 X120.930 Y87.143 E0.82437
G1 X120.930 Y86.609 E0.01675
G1 X102.891 Y68.570 E0.80068
G1 X103.425 Y68.570 E0.01675
G1 X120.930 Y86.075 E0.77699
G1 X120.930 Y85.541 E0.01675
G1 X103.959 Y68.570 E0.75329
G1 X104.492 Y68.570 E0.01675
G1 X120.930 Y85.008 E0.72960
G1 X120.930 Y84.474 E0.01675
G1 X105.026 Y68.570 E0.70591
G1 X105.560 Y68.570 E0.01675
G1 X120.930 Y83.940 E0.68221
G1 X120.930 Y83.406 E0.01675
G1 X106.094 Y68.570 E0.65852
G1 X106.628 Y68.570 E0.01675
G1 X120.930 Y82.872 E0.63483
G1 X120.930 Y82.339 E0.01675
G1 X107.161 Y68.570 E0.61113
G1 X107.695 Y68.570 E0.01675
G1 X120.930 Y81.805 E0.58744
G1 X120.930 Y81.271 E0.01675
G1 X108.229 Y68.570 E0.56375
G1 X108.763 Y68.570 E0.01675
G1 X120.930 Y80.737 E0.54005
G1 X120.930 Y80.203 E0.01675
G1 X109.297 Y68.570 E0.51636
G1 X109.830 Y68.570 E0.01675
G1 X120.930 Y79.670 E0.49267
G1 X120.930 Y79.136 E0.01675
G1 X110.364 Y68.570 E0.46898
G1 X110.898 Y68.570 E0.01675
G1 X120.930 Y78.602 E0.44528
G1 X120.930 Y78.068 E0.01675
G1 X111.432 Y68.570 E0.42159
G1 X111.966 Y68.570 E0.01675
G1 X120.930 Y77.534 E0.39790
G1 X120.930 Y77.001 E0.01675
G1 X112.499 Y68.570 E0.37420
G1 X113.033 Y68.570 E0.01675
G1 X120.930 Y76.467 E0.35051
G1 X120.930 Y75.933 E0.01675
G1 X113.567 Y68.570 E0.32682
G1 X114.101 Y68.570 E0.01675
G1 X120.930 Y75.399 E0.30312
G1 X120.930 Y74.865 E0.01675
G1 X114.635 Y68.570 E0.27943
G1 X115.168 Y68.570 E0.01675
G1 X120.930 Y74.332 E0.25574
G1 X120.930 Y73.798 E0.01675
G1 X115.702 Y68.570 E0.23204
G1 X116.236 Y68.570 E0.01675
G1 X120.930 Y73.264 E0.20835
G1 X120.930 Y72.730 E0.01675
G1 X116.770 Y68.570 E0.18466
G1 X117.304 Y68.570 E0.01675
G1 X120.930 Y72.196 E0.16096
G1 X120.930 Y71.663 E0.01675
G1 X117.837 Y68.570 E0.13727
G1 X118.371 Y68.570 E0.01675
G1 X120.930 Y71.129 E0.11358
G1 X120.930 Y70.595 E0.01675
G1 X118.905 Y68.570 E0.08989
G1 X119.439 Y68.570 E0.01675
G1 X120.930 Y70.061 E0.06619
G1 X120.930 Y69.527 E0.01675
G1 X119.973 Y68.570 E0.04250
G1 X120.506 Y68.570 E0.01675
