; generated by PrusaSlicer 2.1.1+win64 on 2020-06-03 at 16:17:45 UTC

; 

; external perimeters extrusion width = 0.45mm
; perimeters extrusion width = 0.45mm
; infill extrusion width = 0.45mm
; solid infill extrusion width = 0.45mm
; top infill extrusion width = 0.40mm
; support material extrusion width = 0.35mm
; first layer extrusion width = 0.42mm

M73 P0 R122
M201 X9000 Y9000 Z500 E10000 ; sets maximum accelerations, mm/sec^2
M203 X500 Y500 Z12 E120 ; sets maximum feedrates, mm/sec
M204 P2000 R1500 T2000 ; sets acceleration (P, T) and retract acceleration (R), mm/sec^2
M205 X10.00 Y10.00 Z0.20 E2.50 ; sets the jerk limits, mm/sec
M205 S0 T0 ; sets the minimum extruding and travel feed rate, mm/sec
M107
M862.3 P "MK2.5SMMU2S" ; printer model check
M862.1 P0.4 ; nozzle diameter check
M115 U3.8.0 ; tell printer latest fw version
G90 ; use absolute coordinates
M83 ; extruder relative mode
M104 S215 ; set extruder temp
M140 S60 ; set bed temp
Tx
M190 S60 ; wait for bed temp
M109 S215 ; wait for extruder temp
G28 W ; home all without mesh bed level
G80 ; mesh bed leveling

G21 ; set units to millimeters

;go outside print area
G1 Y-3.0 F1000.0
G1 Z0.4 F1000.0
; select extruder
Tc
; purge line
G1 X55.0 F2000.0
G1 Z0.3 F1000.0
G92 E0.0
G1 X240.0 E25.0 F2200.0
M73 P0 R122
G1 Y-2.0 F1000.0
G1 X55.0 E25 F1400.0
G1 Z0.20 F1000.0
G1 X5.0 E4.0 F1000.0
G92 E0.0
G21 ; set units to millimeters
G90 ; use absolute coordinates
M83 ; use relative distances for extrusion
M900 K30 ; Filament gcode
;BEFORE_LAYER_CHANGE
G92 E0.0
;0.2


G1 E-0.80000 F2100.00000
G1 Z0.600 F10800.000
;AFTER_LAYER_CHANGE
;0.2
G1 X108.727 Y81.026
G1 Z0.200
G1 E0.80000 F2100.00000
M204 S1000
G1 F1200
G1 X109.027 Y80.535 E0.01805
G1 X109.445 Y80.139 E0.01805
G1 X109.952 Y79.866 E0.01805
G1 X110.513 Y79.735 E0.01805
G1 X136.087 Y77.740 E0.80428
G1 X144.496 Y77.526 E0.26376
G1 X145.957 Y77.584 E0.04582
G1 X147.443 Y77.812 E0.04715
G1 X148.890 Y78.206 E0.04703
G1 X150.286 Y78.764 E0.04715
G1 X151.579 Y79.458 E0.04600
G1 X158.855 Y83.838 E0.26629
G1 X159.251 Y84.154 E0.01589
G1 X159.562 Y84.550 E0.01578
G1 X159.766 Y84.978 E0.01487
G1 X169.333 Y112.774 E0.92168
G1 X169.393 Y113.675 E0.02833
G1 X168.873 Y116.559 E0.09190
G1 X168.727 Y117.018 E0.01510
G1 X168.412 Y117.526 E0.01873
G1 X162.882 Y124.064 E0.26851
G1 X156.855 Y130.092 E0.26725
G1 X156.189 Y130.534 E0.02507
G1 X118.674 Y138.980 E1.20569
G1 X117.991 Y139.017 E0.02146
G1 X117.329 Y138.841 E0.02146
G1 X116.805 Y138.512 E0.01942
G1 X114.454 Y136.412 E0.09883
G1 X107.900 Y129.849 E0.29081
G1 X101.117 Y120.333 E0.36643
G1 X100.886 Y119.897 E0.01544
G1 X100.758 Y119.418 E0.01555
G1 X100.780 Y118.651 E0.02405
G1 X108.714 Y81.084 E1.20387
G1 E-0.80000 F2100.00000
G1 Z0.800 F10800.000
G1 X119.393 Y122.865
G1 Z0.200
G1 E0.80000 F2100.00000
G1 F1200
G1 X117.418 Y124.840 E0.08756
G1 X116.885 Y124.306 E0.02365
G1 X118.740 Y122.452 E0.08224
G1 X118.207 Y121.918 E0.02365
G1 X110.751 Y129.374 E0.33060
G1 X111.284 Y129.907 E0.02365
G1 X113.139 Y128.053 E0.08224
G1 X113.672 Y128.586 E0.02365
G1 X111.817 Y130.441 E0.08224
G1 X112.351 Y130.974 E0.02365
G1 X114.205 Y129.119 E0.08224
G1 X114.739 Y129.653 E0.02365
G1 X112.884 Y131.507 E0.08224
G1 X113.417 Y132.040 E0.02365
G1 X115.272 Y130.186 E0.08224
G1 X115.805 Y130.719 E0.02365
G1 X113.950 Y132.574 E0.08224
G1 X114.484 Y133.107 E0.02365
G1 X116.338 Y131.252 E0.08224
G1 X116.872 Y131.786 E0.02365
G1 X115.017 Y133.640 E0.08224
G1 X115.550 Y134.174 E0.02365
G1 X117.405 Y132.319 E0.08224
G1 X117.938 Y132.852 E0.02365
G1 X115.964 Y134.827 E0.08756
G1 E-0.80000 F2100.00000
G1 Z0.800 F10800.000
G1 X117.972 Y132.597
G1 Z0.200
G1 E0.80000 F2100.00000
G1 F1200
G1 X121.332 Y129.237 E0.12135
G1 X120.973 Y128.878 E0.01295
G1 X117.711 Y132.141 E0.11782
G1 X117.352 Y131.782 E0.01295
G1 X120.713 Y128.422 E0.12135
G1 E-0.80000 F2100.00000
G1 Z0.800 F10800.000
G1 X118.025 Y129.566
G1 Z0.200
G1 E0.80000 F2100.00000
G1 F1200
G1 X118.626 Y128.964 E0.02667
G1 X118.029 Y128.495 E0.02382
G1 X117.548 Y128.976 E0.02131
G1 X116.951 Y128.507 E0.02382
G1 X117.432 Y128.026 E0.02131
G1 X116.834 Y127.557 E0.02382
G1 X116.233 Y128.158 E0.02667
G1 E-0.80000 F2100.00000
G1 Z0.800 F10800.000
G1 X113.669 Y128.295
G1 Z0.200
G1 E0.80000 F2100.00000
G1 F1200
G1 X117.029 Y124.934 E0.12135
G1 X117.388 Y125.293 E0.01295
G1 X114.125 Y128.555 E0.11782
G1 X114.484 Y128.914 E0.01295
G1 X116.562 Y126.836 E0.07504
G1 X116.112 Y127.409 E0.01860
G1 X116.117 Y127.451 E0.00109
G1 X115.959 Y127.651 E0.00650
G1 X116.013 Y128.101 E0.01158
G1 X114.842 Y129.272 E0.04229
G1 X115.201 Y129.631 E0.01295
G1 X116.357 Y128.475 E0.04175
G1 X116.759 Y128.790 E0.01304
G1 X115.559 Y129.990 E0.04331
G1 X115.918 Y130.348 E0.01295
G1 X117.160 Y129.106 E0.04486
G1 X117.562 Y129.421 E0.01304
G1 X116.276 Y130.707 E0.04641
G1 X116.635 Y131.065 E0.01295
G1 X117.963 Y129.737 E0.04797
G1 X118.043 Y129.800 E0.00259
G1 X118.022 Y129.821 E0.00077
G1 X118.344 Y130.074 E0.01045
G1 X116.896 Y131.522 E0.05227
G1 X123.627 Y132.496 F10800.000
G1 F1200
G1 X124.357 Y131.766 E0.03239
G1 X123.945 Y131.354 E0.01828
G1 X125.793 Y129.505 E0.08197
G1 X125.672 Y129.384 E0.00537
G1 X118.217 Y136.840 E0.33060
G1 X117.683 Y136.307 E0.02365
G1 X125.139 Y128.851 E0.33060
G1 X124.606 Y128.318 E0.02365
G1 X117.150 Y135.773 E0.33060
G1 X116.617 Y135.240 E0.02365
G1 X124.073 Y127.784 E0.33060
G1 X123.539 Y127.251 E0.02365
G1 X121.685 Y129.106 E0.08224
G1 X121.151 Y128.572 E0.02365
G1 X123.126 Y126.598 E0.08756
G1 E-0.80000 F2100.00000
G1 Z0.800 F10800.000
G1 X110.098 Y128.961
G1 Z0.200
G1 E0.80000 F2100.00000
G1 F1200
G1 X117.673 Y121.385 E0.33592
G1 X117.140 Y120.852 E0.02365
G1 X109.564 Y128.428 E0.33592
G1 E-0.80000 F2100.00000
G1 Z0.800 F10800.000
G1 X144.072 Y123.783
G1 Z0.200
G1 E0.80000 F2100.00000
G1 F1200
G1 X144.467 Y123.388 E0.01752
G1 X145.527 Y123.395 E0.03322
G1 X144.725 Y124.196 E0.03553
G1 X145.259 Y124.729 E0.02365
G1 X146.586 Y123.402 E0.05886
G1 X147.646 Y123.409 E0.03322
G1 X145.792 Y125.263 E0.08220
G1 X146.325 Y125.796 E0.02365
G1 X148.705 Y123.416 E0.10553
G1 X149.765 Y123.423 E0.03322
G1 X146.858 Y126.329 E0.12886
G1 X147.392 Y126.863 E0.02365
G1 X158.110 Y116.144 E0.47527
G1 X158.643 Y116.677 E0.02365
G1 X147.925 Y127.396 E0.47527
G1 X148.458 Y127.929 E0.02365
G1 X159.177 Y117.211 E0.47527
G1 X159.710 Y117.744 E0.02365
G1 X148.992 Y128.462 E0.47527
G1 X149.333 Y128.804 E0.01516
G1 X150.965 Y127.173 E0.07234
G1 X151.156 Y127.364 E0.00849
G1 X160.243 Y118.277 E0.40294
G1 X160.777 Y118.810 E0.02365
G1 X151.689 Y127.898 E0.40294
G1 X152.223 Y128.431 E0.02365
G1 X161.310 Y119.344 E0.40294
G1 X161.683 Y119.717 E0.01656
G1 X160.052 Y121.348 E0.07234
G1 X160.212 Y121.508 E0.00709
G1 X154.387 Y127.333 E0.25826
G1 X154.921 Y127.866 E0.02365
G1 X160.745 Y122.042 E0.25826
G1 X161.278 Y122.575 E0.02365
G1 X155.334 Y128.519 E0.26358
G1 X150.870 Y122.318 F10800.000
G1 F1200
G1 X157.577 Y115.611 E0.29741
G1 X157.044 Y115.078 E0.02365
G1 X151.048 Y121.073 E0.26587
G1 X151.055 Y120.000 E0.03367
G1 X156.510 Y114.544 E0.24191
G1 X155.977 Y114.011 E0.02365
G1 X150.611 Y119.377 E0.23792
G1 X149.552 Y119.370 E0.03322
G1 X153.812 Y115.109 E0.18892
G1 X153.279 Y114.576 E0.02365
G1 X148.492 Y119.363 E0.21225
G1 X147.433 Y119.355 E0.03322
G1 X152.746 Y114.043 E0.23558
G1 X152.596 Y113.893 E0.00664
G1 X150.965 Y115.524 E0.07234
G1 X150.581 Y115.141 E0.01700
G1 X146.374 Y119.348 E0.18658
G1 X145.314 Y119.341 E0.03322
G1 X150.048 Y114.607 E0.20991
G1 X149.515 Y114.074 E0.02365
G1 X144.086 Y119.503 E0.24072
G1 E-0.80000 F2100.00000
G1 Z0.800 F10800.000
G1 X119.287 Y128.068
G1 Z0.200
G1 E0.80000 F2100.00000
G1 F1200
G1 X117.851 Y126.940 E0.05725
G1 X123.064 Y120.306 E0.26452
G1 X149.938 Y120.485 E0.84266
G1 X149.926 Y122.311 E0.05725
G1 X123.946 Y122.138 E0.81460
G1 X119.324 Y128.021 E0.23458
G1 X119.350 Y128.597 F10800.000
G1 F1200
G1 X117.322 Y127.003 E0.08089
G1 X122.881 Y119.928 E0.28214
G1 X150.318 Y120.111 E0.86028
G1 X150.301 Y122.691 E0.08089
G1 X124.129 Y122.516 E0.82063
G1 X119.387 Y128.550 E0.24061
G1 X119.294 Y128.201 F10800.000
G1 E-0.80000 F2100.00000
G1 Z0.800 F10800.000
G1 X118.352 Y126.485
G1 Z0.200
G1 E0.80000 F2100.00000
G1 F1200
G1 X119.370 Y127.504 E0.04557
G1 X119.607 Y127.202 E0.01212
G1 X118.710 Y126.305 E0.04016
G1 X118.946 Y126.004 E0.01212
G1 X119.844 Y126.901 E0.04016
G1 X120.081 Y126.600 E0.01212
G1 X119.183 Y125.702 E0.04016
G1 X119.420 Y125.401 E0.01212
G1 X120.318 Y126.298 E0.04016
G1 X120.554 Y125.997 E0.01212
G1 X119.657 Y125.100 E0.04016
G1 X119.894 Y124.798 E0.01212
G1 X120.791 Y125.696 E0.04016
G1 X121.028 Y125.394 E0.01212
G1 X120.130 Y124.497 E0.04016
G1 X120.367 Y124.196 E0.01212
G1 X121.265 Y125.093 E0.04016
G1 X121.501 Y124.792 E0.01212
G1 X120.604 Y123.894 E0.04016
G1 X120.841 Y123.593 E0.01212
G1 X121.738 Y124.490 E0.04016
G1 X121.975 Y124.189 E0.01212
G1 X121.077 Y123.292 E0.04016
G1 X121.314 Y122.990 E0.01212
G1 X122.212 Y123.888 E0.04016
G1 X122.448 Y123.587 E0.01212
G1 X121.551 Y122.689 E0.04016
G1 X121.788 Y122.388 E0.01212
G1 X122.685 Y123.285 E0.04016
G1 X122.922 Y122.984 E0.01212
G1 X122.025 Y122.086 E0.04016
G1 X122.261 Y121.785 E0.01212
G1 X123.159 Y122.683 E0.04016
G1 X123.396 Y122.381 E0.01212
G1 X122.498 Y121.484 E0.04016
G1 X122.735 Y121.182 E0.01212
G1 X123.632 Y122.080 E0.04016
G1 X123.810 Y121.854 E0.00908
G1 X123.946 Y121.855 E0.00430
G1 X122.972 Y120.881 E0.04358
G1 X123.200 Y120.590 E0.01172
G1 X123.219 Y120.590 E0.00058
G1 X124.487 Y121.859 E0.05677
G1 X125.029 Y121.862 E0.01714
G1 X123.760 Y120.594 E0.05677
G1 X124.302 Y120.597 E0.01714
G1 X125.571 Y121.866 E0.05677
G1 X126.113 Y121.870 E0.01714
G1 X124.844 Y120.601 E0.05677
G1 X125.385 Y120.604 E0.01714
G1 X126.654 Y121.873 E0.05677
G1 X127.196 Y121.877 E0.01714
G1 X125.927 Y120.608 E0.05677
G1 X126.469 Y120.612 E0.01714
G1 X127.738 Y121.880 E0.05677
G1 X128.279 Y121.884 E0.01714
G1 X127.011 Y120.615 E0.05677
G1 X127.552 Y120.619 E0.01714
G1 X128.821 Y121.888 E0.05677
G1 X129.363 Y121.891 E0.01714
G1 X128.094 Y120.622 E0.05677
G1 X128.636 Y120.626 E0.01714
G1 X129.905 Y121.895 E0.05677
G1 X130.446 Y121.898 E0.01714
G1 X129.177 Y120.630 E0.05677
G1 X129.719 Y120.633 E0.01714
G1 X130.988 Y121.902 E0.05677
G1 X131.530 Y121.906 E0.01714
G1 X130.261 Y120.637 E0.05677
G1 X130.803 Y120.641 E0.01714
G1 X132.071 Y121.909 E0.05677
G1 X132.613 Y121.913 E0.01714
G1 X131.344 Y120.644 E0.05677
G1 X131.886 Y120.648 E0.01714
G1 X133.155 Y121.916 E0.05677
G1 X133.696 Y121.920 E0.01714
G1 X132.428 Y120.651 E0.05677
G1 X132.969 Y120.655 E0.01714
G1 X134.238 Y121.924 E0.05677
G1 X134.780 Y121.927 E0.01714
G1 X133.511 Y120.659 E0.05677
G1 X134.053 Y120.662 E0.01714
G1 X135.322 Y121.931 E0.05677
G1 X135.863 Y121.935 E0.01714
G1 X134.595 Y120.666 E0.05677
G1 X135.136 Y120.669 E0.01714
G1 X136.405 Y121.938 E0.05677
G1 X136.947 Y121.942 E0.01714
G1 X135.678 Y120.673 E0.05677
G1 X136.220 Y120.677 E0.01714
G1 X137.488 Y121.945 E0.05677
M73 P0 R121
G1 X138.030 Y121.949 E0.01714
G1 X136.761 Y120.680 E0.05677
G1 X137.303 Y120.684 E0.01714
G1 X138.572 Y121.953 E0.05677
G1 X139.114 Y121.956 E0.01714
G1 X137.845 Y120.687 E0.05677
G1 X138.387 Y120.691 E0.01714
G1 X139.655 Y121.960 E0.05677
G1 X140.197 Y121.963 E0.01714
G1 X138.928 Y120.695 E0.05677
G1 X139.470 Y120.698 E0.01714
G1 X140.739 Y121.967 E0.05677
G1 X141.280 Y121.971 E0.01714
G1 X140.012 Y120.702 E0.05677
G1 X140.553 Y120.706 E0.01714
G1 X141.822 Y121.974 E0.05677
G1 X142.364 Y121.978 E0.01714
G1 X141.095 Y120.709 E0.05677
G1 X141.637 Y120.713 E0.01714
G1 X142.906 Y121.981 E0.05677
G1 X143.447 Y121.985 E0.01714
G1 X142.179 Y120.716 E0.05677
G1 X142.720 Y120.720 E0.01714
G1 X143.989 Y121.989 E0.05677
G1 X144.531 Y121.992 E0.01714
G1 X143.262 Y120.724 E0.05677
G1 X143.804 Y120.727 E0.01714
G1 X145.072 Y121.996 E0.05677
G1 X145.614 Y122.000 E0.01714
G1 X144.345 Y120.731 E0.05677
G1 X144.887 Y120.734 E0.01714
G1 X146.156 Y122.003 E0.05677
G1 X146.698 Y122.007 E0.01714
G1 X145.429 Y120.738 E0.05677
G1 X145.970 Y120.742 E0.01714
G1 X147.239 Y122.010 E0.05677
G1 X147.781 Y122.014 E0.01714
G1 X146.512 Y120.745 E0.05677
G1 X147.054 Y120.749 E0.01714
G1 X148.323 Y122.018 E0.05677
G1 X148.864 Y122.021 E0.01714
G1 X147.596 Y120.752 E0.05677
G1 X148.137 Y120.756 E0.01714
G1 X149.406 Y122.025 E0.05677
G1 X149.645 Y122.026 E0.00757
G1 X149.647 Y121.728 E0.00944
G1 X148.679 Y120.760 E0.04333
G1 X149.221 Y120.763 E0.01714
G1 X149.820 Y121.362 E0.02679
G1 E-0.80000 F2100.00000
G1 Z0.800 F10800.000
G1 X151.986 Y112.694
G1 Z0.200
G1 E0.80000 F2100.00000
G1 F1200
G1 X153.984 Y110.696 E0.08859
G1 X152.918 Y110.696 E0.03343
G1 X151.573 Y112.041 E0.05964
G1 X151.040 Y111.508 E0.02365
G1 X151.852 Y110.696 E0.03601
G1 X150.786 Y110.695 E0.03343
G1 X150.387 Y111.094 E0.01770
G1 E-0.80000 F2100.00000
G1 Z0.800 F10800.000
G1 X158.417 Y115.862
G1 Z0.200
G1 E0.80000 F2100.00000
G1 F1200
G1 X164.362 Y109.918 E0.26358
G1 X163.828 Y109.385 E0.02365
G1 X158.004 Y115.209 E0.25826
G1 X157.471 Y114.676 E0.02365
G1 X163.295 Y108.851 E0.25826
G1 X163.230 Y108.786 E0.00289
G1 X164.861 Y107.155 E0.07234
G1 X164.393 Y106.687 E0.02075
G1 X155.306 Y115.774 E0.40294
G1 X154.773 Y115.241 E0.02365
G1 X163.860 Y106.154 E0.40294
G1 X163.327 Y105.620 E0.02365
G1 X154.240 Y114.707 E0.40294
G1 X153.706 Y114.174 E0.02365
G1 X162.793 Y105.087 E0.40294
G1 X162.260 Y104.554 E0.02365
G1 X153.173 Y113.641 E0.40294
G1 X152.640 Y113.108 E0.02365
G1 X161.727 Y104.020 E0.40294
G1 X161.194 Y103.487 E0.02365
G1 X155.195 Y109.486 E0.26599
G1 X155.195 Y108.419 E0.03345
G1 X160.660 Y102.954 E0.24233
G1 X160.127 Y102.421 E0.02365
G1 X155.196 Y107.352 E0.21866
G1 X155.196 Y106.953 E0.01251
G1 X154.888 Y106.645 E0.01366
G1 X154.836 Y106.645 E0.00161
G1 X159.594 Y101.887 E0.21095
G1 X159.060 Y101.354 E0.02365
G1 X153.770 Y106.644 E0.23457
G1 X152.704 Y106.644 E0.03343
G1 X156.896 Y102.452 E0.18587
G1 X156.363 Y101.919 E0.02365
G1 X151.638 Y106.643 E0.20949
G1 X150.572 Y106.643 E0.03343
G1 X155.949 Y101.266 E0.23844
G1 E-0.80000 F2100.00000
G1 Z0.800 F10800.000
G1 X114.351 Y115.134
G1 Z0.200
G1 E0.80000 F2100.00000
G1 F1200
G1 X113.724 Y115.760 E0.02780
G1 X112.926 Y117.625 E0.06359
G1 X114.765 Y115.787 E0.08150
G1 X115.298 Y116.320 E0.02365
G1 X113.323 Y118.295 E0.08756
G1 X111.180 Y118.305 F10800.000
G1 F1200
G1 X111.823 Y117.661 E0.02853
G1 X111.076 Y117.342 E0.02547
G1 X110.562 Y117.856 E0.02280
G1 X109.815 Y117.536 E0.02547
G1 X110.329 Y117.022 E0.02280
G1 X109.583 Y116.703 E0.02547
G1 X109.082 Y117.204 E0.02222
G1 X108.852 Y117.525 F10800.000
G1 F1200
G1 X108.975 Y117.401 E0.00446
G1 X108.835 Y117.052 E0.00962
G1 X108.935 Y116.818 E0.00650
G1 X108.919 Y116.778 E0.00109
G1 X108.948 Y116.712 E0.00185
G1 X108.493 Y117.166 E0.01643
G1 X109.479 Y117.614 F10800.000
G1 F1200
G1 X109.308 Y117.786 E0.00620
G1 X109.666 Y118.144 E0.01295
G1 X109.876 Y117.934 E0.00758
G1 X110.379 Y118.149 E0.01395
G1 X110.025 Y118.503 E0.01277
G1 X110.383 Y118.862 E0.01295
G1 X110.881 Y118.364 E0.01796
G1 X111.383 Y118.579 E0.01395
G1 X110.742 Y119.220 E0.02314
G1 X111.101 Y119.579 E0.01295
G1 X111.885 Y118.794 E0.02833
G1 X111.913 Y118.806 E0.00078
G1 X112.441 Y118.595 E0.01451
G1 X112.541 Y118.361 E0.00650
G1 X112.580 Y118.345 E0.00109
G1 X112.745 Y117.960 E0.01068
G1 X113.091 Y118.306 E0.01248
G1 X111.361 Y120.035 E0.06244
G1 X109.855 Y126.029 F10800.000
G1 F1200
G1 X117.431 Y118.453 E0.33592
G1 X116.898 Y117.920 E0.02365
G1 X109.442 Y125.376 E0.33060
G1 X108.909 Y124.842 E0.02365
G1 X116.364 Y117.387 E0.33060
G1 X115.831 Y116.853 E0.02365
G1 X108.375 Y124.309 E0.33060
G1 X107.842 Y123.776 E0.02365
G1 X111.328 Y120.290 E0.15457
G1 X110.795 Y119.757 E0.02365
G1 X107.309 Y123.243 E0.15457
G1 X106.776 Y122.709 E0.02365
G1 X110.261 Y119.223 E0.15457
G1 X109.728 Y118.690 E0.02365
G1 X106.242 Y122.176 E0.15457
G1 X105.709 Y121.643 E0.02365
G1 X109.195 Y118.157 E0.15457
G1 X108.662 Y117.623 E0.02365
G1 X105.176 Y121.109 E0.15457
G1 X104.642 Y120.576 E0.02365
G1 X108.128 Y117.090 E0.15457
G1 X107.981 Y116.943 E0.00653
G1 X109.324 Y115.600 E0.05954
G1 X108.938 Y115.214 E0.01711
G1 X104.109 Y120.043 E0.21411
