; generated by PrusaSlicer 2.1.1+win64 on 2020-06-03 at 16:29:37 UTC

; 

; external perimeters extrusion width = 0.45mm
; perimeters extrusion width = 0.45mm
; infill extrusion width = 0.45mm
; solid infill extrusion width = 0.45mm
; top infill extrusion width = 0.40mm
; first layer extrusion width = 0.42mm

M73 P0 R52
M201 X9000 Y9000 Z500 E10000 ; sets maximum accelerations, mm/sec^2
M203 X500 Y500 Z12 E120 ; sets maximum feedrates, mm/sec
M204 P2000 R1500 T2000 ; sets acceleration (P, T) and retract acceleration (R), mm/sec^2
M205 X10.00 Y10.00 Z0.20 E2.50 ; sets the jerk limits, mm/sec
M205 S0 T0 ; sets the minimum extruding and travel feed rate, mm/sec
M107
M862.3 P "MK2.5SMMU2S" ; printer model check
M862.1 P0.4 ; nozzle diameter check
M115 U3.8.0 ; tell printer latest fw version
G90 ; use absolute coordinates
M83 ; extruder relative mode
M104 S215 ; set extruder temp
M140 S60 ; set bed temp
Tx
M190 S60 ; wait for bed temp
M109 S215 ; wait for extruder temp
G28 W ; home all without mesh bed level
G80 ; mesh bed leveling

G21 ; set units to millimeters

;go outside print area
G1 Y-3.0 F1000.0
G1 Z0.4 F1000.0
; select extruder
Tc
; purge line
G1 X55.0 F2000.0
G1 Z0.3 F1000.0
G92 E0.0
G1 X240.0 E25.0 F2200.0
M73 P0 R52
G1 Y-2.0 F1000.0
G1 X55.0 E25 F1400.0
G1 Z0.20 F1000.0
G1 X5.0 E4.0 F1000.0
G92 E0.0
G21 ; set units to millimeters
G90 ; use absolute coordinates
M83 ; use relative distances for extrusion
M900 K30 ; Filament gcode
;BEFORE_LAYER_CHANGE
G92 E0.0
;0.2


G1 E-0.80000 F2100.00000
G1 Z0.600 F10800.000
;AFTER_LAYER_CHANGE
;0.2
G1 X69.856 Y89.880
G1 Z0.200
G1 E0.80000 F2100.00000
M204 S1000
G1 F1200
G1 X71.064 Y89.051 E0.04593
G1 X116.334 Y64.152 E1.61994
G1 X117.333 Y63.715 E0.03420
G1 X118.371 Y63.440 E0.03365
G1 X119.659 Y63.302 E0.04061
G1 X130.184 Y63.298 E0.33002
G1 X131.603 Y63.440 E0.04470
G1 X132.658 Y63.720 E0.03422
G1 X133.752 Y64.206 E0.03755
G1 X178.881 Y89.034 E1.61500
G1 X179.975 Y89.757 E0.04110
G1 X180.836 Y90.548 E0.03668
G1 X181.776 Y91.734 E0.04741
G1 X182.393 Y92.887 E0.04103
G1 X182.782 Y94.010 E0.03725
G1 X183.046 Y95.591 E0.05026
G1 X183.047 Y138.168 E1.33496
G1 X183.032 Y139.347 E0.03699
G1 X182.801 Y140.672 E0.04217
G1 X182.365 Y141.914 E0.04126
G1 X181.672 Y143.155 E0.04457
G1 X180.922 Y144.105 E0.03794
G1 X180.065 Y144.901 E0.03668
G1 X178.814 Y145.738 E0.04718
G1 X177.433 Y146.317 E0.04695
G1 X176.301 Y146.595 E0.03657
G1 X175.025 Y146.702 E0.04012
G1 X74.955 Y146.702 E3.13765
G1 X73.659 Y146.592 E0.04076
G1 X72.373 Y146.267 E0.04160
G1 X71.160 Y145.738 E0.04149
G1 X70.082 Y145.041 E0.04023
G1 X68.957 Y143.993 E0.04821
G1 X68.238 Y143.061 E0.03691
G1 X67.677 Y142.047 E0.03634
G1 X67.167 Y140.643 E0.04684
G1 X66.934 Y139.208 E0.04559
G1 X66.929 Y95.588 E1.36766
G1 X67.139 Y94.203 E0.04394
G1 X67.510 Y93.070 E0.03737
G1 X68.277 Y91.621 E0.05139
G1 X69.011 Y90.678 E0.03748
G1 X69.813 Y89.921 E0.03457
G1 E-0.80000 F2100.00000
G1 Z0.800 F10800.000
G1 X124.988 Y101.413
G1 Z0.200
G1 E0.80000 F2100.00000
G1 F1200
G1 X75.012 Y101.413 E1.56696
G1 X74.118 Y101.339 E0.02813
G1 X73.271 Y101.125 E0.02737
G1 X72.471 Y100.775 E0.02737
G1 X71.740 Y100.299 E0.02737
G1 X71.123 Y99.734 E0.02621
G1 X70.558 Y99.020 E0.02857
G1 X70.141 Y98.255 E0.02731
G1 X69.855 Y97.430 E0.02737
G1 X69.708 Y96.570 E0.02737
G1 X69.704 Y95.697 E0.02737
G1 X69.844 Y94.835 E0.02737
G1 X70.123 Y94.008 E0.02737
G1 X70.535 Y93.238 E0.02737
G1 X71.044 Y92.575 E0.02621
G1 X71.707 Y91.949 E0.02857
G1 X72.453 Y91.455 E0.02808
G1 X117.507 Y66.668 E1.61230
G1 X118.248 Y66.337 E0.02545
G1 X119.010 Y66.141 E0.02467
G1 X119.819 Y66.074 E0.02545
G1 X130.156 Y66.074 E0.32410
G1 X130.931 Y66.139 E0.02440
G1 X131.729 Y66.338 E0.02577
G1 X132.468 Y66.668 E0.02539
G1 X177.522 Y91.455 E1.61230
G1 X178.270 Y91.950 E0.02813
G1 X178.908 Y92.546 E0.02737
G1 X179.440 Y93.238 E0.02737
G1 X179.852 Y94.008 E0.02737
G1 X180.131 Y94.835 E0.02737
G1 X180.271 Y95.697 E0.02737
G1 X180.267 Y96.570 E0.02737
G1 X180.120 Y97.430 E0.02737
G1 X179.834 Y98.255 E0.02737
G1 X179.417 Y99.021 E0.02737
G1 X178.879 Y99.709 E0.02737
G1 X178.235 Y100.299 E0.02737
G1 X177.504 Y100.775 E0.02737
G1 X176.704 Y101.125 E0.02737
G1 X175.858 Y101.339 E0.02737
G1 X174.963 Y101.413 E0.02813
G1 X125.048 Y101.413 E1.56507
G1 X124.988 Y101.790 F10800.000
G1 F1200
G1 X74.996 Y101.790 E1.56744
G1 X74.055 Y101.712 E0.02960
G1 X73.149 Y101.483 E0.02933
G1 X72.292 Y101.108 E0.02933
G1 X71.508 Y100.598 E0.02933
G1 X70.847 Y99.992 E0.02813
G1 X70.242 Y99.229 E0.03053
G1 X69.795 Y98.408 E0.02931
G1 X69.488 Y97.524 E0.02933
G1 X69.331 Y96.602 E0.02933
G1 X69.327 Y95.667 E0.02933
G1 X69.477 Y94.744 E0.02933
G1 X69.776 Y93.858 E0.02933
G1 X70.217 Y93.033 E0.02933
G1 X70.764 Y92.321 E0.02813
G1 X71.472 Y91.653 E0.03053
G1 X72.258 Y91.132 E0.02958
G1 X117.339 Y66.330 E1.61328
G1 X118.124 Y65.980 E0.02694
G1 X118.947 Y65.768 E0.02666
G1 X119.803 Y65.696 E0.02694
G1 X130.172 Y65.696 E0.32509
G1 X130.993 Y65.765 E0.02585
G1 X131.852 Y65.980 E0.02776
G1 X132.636 Y66.330 E0.02692
G1 X177.717 Y91.132 E1.61328
G1 X178.504 Y91.653 E0.02960
G1 X179.188 Y92.291 E0.02933
G1 X179.758 Y93.033 E0.02933
G1 X180.199 Y93.858 E0.02933
G1 X180.498 Y94.744 E0.02933
G1 X180.648 Y95.667 E0.02933
G1 X180.644 Y96.602 E0.02933
G1 X180.487 Y97.524 E0.02933
G1 X180.180 Y98.408 E0.02933
G1 X179.733 Y99.229 E0.02933
G1 X179.157 Y99.966 E0.02933
G1 X178.467 Y100.598 E0.02933
G1 X177.683 Y101.108 E0.02933
G1 X176.827 Y101.483 E0.02933
G1 X175.920 Y101.712 E0.02933
G1 X174.979 Y101.790 E0.02960
G1 X125.048 Y101.790 E1.56556
G1 X124.787 Y101.444 F10800.000
G1 E-0.80000 F2100.00000
G1 Z0.800 F10800.000
G1 X141.995 Y72.038
G1 Z0.200
G1 E0.80000 F2100.00000
G1 F1200
G1 X171.257 Y101.300 E1.29812
G1 X170.723 Y101.300 F10800.000
G1 F1200
G1 X140.808 Y71.385 E1.32707
G1 X139.622 Y70.733 F10800.000
G1 F1200
G1 X170.190 Y101.300 E1.35602
M73 P2 R50
G1 X169.656 Y101.300 F10800.000
G1 F1200
G1 X138.436 Y70.080 E1.38496
G1 X137.250 Y69.428 F10800.000
G1 F1200
G1 X169.123 Y101.300 E1.41391
G1 X168.589 Y101.300 F10800.000
G1 F1200
G1 X136.064 Y68.775 E1.44286
G1 X134.878 Y68.123 F10800.000
G1 F1200
G1 X168.056 Y101.300 E1.47180
G1 X167.522 Y101.300 F10800.000
G1 F1200
G1 X133.692 Y67.470 E1.50075
G1 X132.506 Y66.818 F10800.000
G1 F1200
G1 X166.988 Y101.300 E1.52970
G1 X166.455 Y101.300 F10800.000
G1 F1200
G1 X131.862 Y66.707 E1.53459
G1 X131.636 Y66.606 E0.00777
G1 X131.092 Y66.470 E0.01759
G1 X165.752 Y101.130 E1.53757
G1 X165.218 Y101.130 E0.01674
G1 X130.472 Y66.384 E1.54141
G1 X130.144 Y66.356 E0.01032
G1 X129.911 Y66.356 E0.00731
G1 X164.685 Y101.130 E1.54263
G1 X164.151 Y101.130 E0.01674
G1 X129.377 Y66.356 E1.54263
G1 X128.844 Y66.356 E0.01674
G1 X163.618 Y101.130 E1.54263
G1 X163.084 Y101.130 E0.01674
G1 X128.310 Y66.356 E1.54263
G1 X127.777 Y66.356 E0.01674
G1 X162.551 Y101.130 E1.54263
G1 X162.017 Y101.130 E0.01674
G1 X127.243 Y66.356 E1.54263
G1 X126.710 Y66.356 E0.01674
G1 X161.484 Y101.130 E1.54263
G1 X160.950 Y101.130 E0.01674
G1 X126.176 Y66.356 E1.54263
G1 X125.643 Y66.356 E0.01674
G1 X160.417 Y101.130 E1.54263
G1 X159.883 Y101.130 E0.01674
G1 X125.109 Y66.356 E1.54263
G1 X124.576 Y66.356 E0.01674
G1 X159.350 Y101.130 E1.54263
G1 X158.816 Y101.130 E0.01674
G1 X124.042 Y66.356 E1.54263
G1 X123.509 Y66.356 E0.01674
G1 X158.283 Y101.130 E1.54263
G1 X157.749 Y101.130 E0.01674
G1 X122.975 Y66.356 E1.54263
G1 X122.442 Y66.356 E0.01674
G1 X157.216 Y101.130 E1.54263
G1 X156.682 Y101.130 E0.01674
G1 X121.908 Y66.356 E1.54263
M73 P4 R49
G1 X121.375 Y66.356 E0.01674
G1 X156.149 Y101.130 E1.54263
G1 X155.615 Y101.130 E0.01674
G1 X120.841 Y66.356 E1.54263
G1 X120.308 Y66.356 E0.01674
G1 X155.081 Y101.130 E1.54263
G1 X154.548 Y101.130 E0.01674
G1 X119.779 Y66.361 E1.54244
G1 X119.286 Y66.402 E0.01549
G1 X154.014 Y101.130 E1.54060
G1 X153.481 Y101.130 E0.01674
G1 X118.830 Y66.480 E1.53716
G1 X118.406 Y66.589 E0.01375
G1 X152.947 Y101.130 E1.53232
G1 X152.414 Y101.130 E0.01674
G1 X118.029 Y66.745 E1.52540
G1 X117.659 Y66.909 E0.01267
G1 X151.880 Y101.130 E1.51811
G1 X151.347 Y101.130 E0.01674
G1 X117.313 Y67.097 E1.50979
G1 X116.969 Y67.286 E0.01232
G1 X150.813 Y101.130 E1.50139
G1 X150.280 Y101.130 E0.01674
G1 X116.625 Y67.475 E1.49299
G1 X116.281 Y67.665 E0.01232
G1 X149.746 Y101.130 E1.48459
G1 X149.213 Y101.130 E0.01674
G1 X115.937 Y67.854 E1.47619
G1 X115.593 Y68.044 E0.01232
G1 X148.679 Y101.130 E1.46779
G1 X148.146 Y101.130 E0.01674
G1 X115.249 Y68.233 E1.45939
G1 X114.904 Y68.422 E0.01232
G1 X147.612 Y101.130 E1.45099
G1 X147.079 Y101.130 E0.01674
G1 X114.560 Y68.612 E1.44259
G1 X114.216 Y68.801 E0.01232
G1 X146.545 Y101.130 E1.43419
G1 X146.012 Y101.130 E0.01674
G1 X113.872 Y68.990 E1.42579
G1 X113.528 Y69.180 E0.01232
G1 X145.478 Y101.130 E1.41739
G1 X144.945 Y101.130 E0.01674
G1 X113.184 Y69.369 E1.40899
G1 X112.839 Y69.558 E0.01232
G1 X144.411 Y101.130 E1.40059
G1 X143.878 Y101.130 E0.01674
G1 X112.495 Y69.748 E1.39219
G1 X112.151 Y69.937 E0.01232
G1 X143.344 Y101.130 E1.38379
G1 X142.811 Y101.130 E0.01674
G1 X111.807 Y70.126 E1.37539
M73 P6 R48
G1 X111.463 Y70.316 E0.01232
G1 X142.277 Y101.130 E1.36699
G1 X141.744 Y101.130 E0.01674
G1 X111.119 Y70.505 E1.35859
G1 X110.774 Y70.694 E0.01232
G1 X141.210 Y101.130 E1.35019
G1 X140.677 Y101.130 E0.01674
G1 X110.430 Y70.884 E1.34179
G1 X110.086 Y71.073 E0.01232
G1 X140.143 Y101.130 E1.33339
G1 X139.610 Y101.130 E0.01674
G1 X109.742 Y71.262 E1.32499
G1 X109.398 Y71.452 E0.01232
G1 X139.076 Y101.130 E1.31659
G1 X138.543 Y101.130 E0.01674
G1 X109.054 Y71.641 E1.30819
G1 X108.709 Y71.830 E0.01232
G1 X138.009 Y101.130 E1.29979
G1 X137.475 Y101.130 E0.01674
G1 X108.365 Y72.020 E1.29139
G1 X108.021 Y72.209 E0.01232
G1 X136.942 Y101.130 E1.28299
G1 X136.408 Y101.130 E0.01674
G1 X107.677 Y72.399 E1.27459
G1 X107.333 Y72.588 E0.01232
G1 X135.875 Y101.130 E1.26619
G1 X135.341 Y101.130 E0.01674
G1 X106.989 Y72.777 E1.25779
G1 X106.644 Y72.967 E0.01232
G1 X134.808 Y101.130 E1.24939
G1 X134.274 Y101.130 E0.01674
G1 X106.300 Y73.156 E1.24099
G1 X105.956 Y73.345 E0.01232
G1 X133.741 Y101.130 E1.23259
G1 X133.207 Y101.130 E0.01674
G1 X105.612 Y73.535 E1.22419
G1 X105.268 Y73.724 E0.01232
G1 X132.674 Y101.130 E1.21579
G1 X132.140 Y101.130 E0.01674
G1 X104.924 Y73.913 E1.20739
G1 X104.579 Y74.103 E0.01232
G1 X131.607 Y101.130 E1.19899
G1 X131.073 Y101.130 E0.01674
G1 X104.235 Y74.292 E1.19059
G1 X103.891 Y74.481 E0.01232
G1 X130.540 Y101.130 E1.18219
G1 X130.006 Y101.130 E0.01674
G1 X103.547 Y74.671 E1.17379
G1 X103.203 Y74.860 E0.01232
G1 X129.473 Y101.130 E1.16539
G1 X128.939 Y101.130 E0.01674
G1 X102.859 Y75.049 E1.15699
G1 X102.514 Y75.239 E0.01232
G1 X128.406 Y101.130 E1.14859
G1 X127.872 Y101.130 E0.01674
G1 X102.170 Y75.428 E1.14019
G1 X101.826 Y75.617 E0.01232
G1 X127.339 Y101.130 E1.13179
G1 X126.805 Y101.130 E0.01674
G1 X101.482 Y75.807 E1.12339
M73 P8 R47
G1 X101.138 Y75.996 E0.01232
G1 X126.272 Y101.130 E1.11499
G1 X125.738 Y101.130 E0.01674
G1 X100.794 Y76.185 E1.10659
G1 X100.449 Y76.375 E0.01232
G1 X125.205 Y101.130 E1.09819
G1 X124.671 Y101.130 E0.01674
G1 X100.105 Y76.564 E1.08979
G1 X99.761 Y76.754 E0.01232
G1 X124.138 Y101.130 E1.08139
G1 X123.604 Y101.130 E0.01674
G1 X99.417 Y76.943 E1.07299
G1 X99.073 Y77.132 E0.01232
G1 X123.071 Y101.130 E1.06459
G1 X122.537 Y101.130 E0.01674
G1 X98.729 Y77.322 E1.05619
G1 X98.384 Y77.511 E0.01232
G1 X122.004 Y101.130 E1.04779
G1 X121.470 Y101.130 E0.01674
G1 X98.040 Y77.700 E1.03939
G1 X97.696 Y77.890 E0.01232
G1 X120.937 Y101.130 E1.03099
G1 X120.403 Y101.130 E0.01674
G1 X97.352 Y78.079 E1.02259
G1 X97.008 Y78.268 E0.01232
G1 X119.869 Y101.130 E1.01419
G1 X119.336 Y101.130 E0.01674
G1 X96.664 Y78.458 E1.00579
G1 X96.319 Y78.647 E0.01232
G1 X118.802 Y101.130 E0.99740
G1 X118.269 Y101.130 E0.01674
G1 X95.975 Y78.836 E0.98900
G1 X95.631 Y79.026 E0.01232
G1 X117.735 Y101.130 E0.98060
G1 X117.202 Y101.130 E0.01674
G1 X95.287 Y79.215 E0.97220
G1 X94.943 Y79.404 E0.01232
G1 X116.668 Y101.130 E0.96380
G1 X116.135 Y101.130 E0.01674
G1 X94.599 Y79.594 E0.95540
G1 X94.254 Y79.783 E0.01232
G1 X115.601 Y101.130 E0.94700
G1 X115.068 Y101.130 E0.01674
G1 X93.910 Y79.972 E0.93860
G1 X93.566 Y80.162 E0.01232
G1 X114.534 Y101.130 E0.93020
G1 X114.001 Y101.130 E0.01674
G1 X93.222 Y80.351 E0.92180
G1 X92.878 Y80.540 E0.01232
G1 X113.467 Y101.130 E0.91340
G1 X112.934 Y101.130 E0.01674
G1 X92.534 Y80.730 E0.90500
G1 X92.189 Y80.919 E0.01232
G1 X112.400 Y101.130 E0.89660
G1 X111.867 Y101.130 E0.01674
G1 X91.845 Y81.109 E0.88820
G1 X91.501 Y81.298 E0.01232
G1 X111.333 Y101.130 E0.87980
G1 X110.800 Y101.130 E0.01674
G1 X91.157 Y81.487 E0.87140
G1 X90.813 Y81.677 E0.01232
G1 X110.266 Y101.130 E0.86300
G1 X109.733 Y101.130 E0.01674
G1 X90.469 Y81.866 E0.85460
G1 X90.124 Y82.055 E0.01232
G1 X109.199 Y101.130 E0.84620
G1 X108.666 Y101.130 E0.01674
G1 X89.780 Y82.245 E0.83780
G1 X89.436 Y82.434 E0.01232
G1 X108.132 Y101.130 E0.82940
G1 X107.599 Y101.130 E0.01674
G1 X89.092 Y82.623 E0.82100
G1 X88.748 Y82.813 E0.01232
G1 X107.065 Y101.130 E0.81260
G1 X106.532 Y101.130 E0.01674
G1 X88.404 Y83.002 E0.80420
G1 X88.059 Y83.191 E0.01232
G1 X105.998 Y101.130 E0.79580
M73 P10 R46
G1 X105.465 Y101.130 E0.01674
G1 X87.715 Y83.381 E0.78740
G1 X87.371 Y83.570 E0.01232
G1 X104.931 Y101.130 E0.77900
G1 X104.398 Y101.130 E0.01674
G1 X87.027 Y83.759 E0.77060
G1 X86.683 Y83.949 E0.01232
G1 X103.864 Y101.130 E0.76220
G1 X103.331 Y101.130 E0.01674
G1 X86.339 Y84.138 E0.75380
G1 X85.994 Y84.327 E0.01232
G1 X102.797 Y101.130 E0.74540
G1 X102.264 Y101.130 E0.01674
G1 X85.650 Y84.517 E0.73700
G1 X85.306 Y84.706 E0.01232
G1 X101.730 Y101.130 E0.72860
G1 X101.196 Y101.130 E0.01674
G1 X84.962 Y84.896 E0.72020
G1 X84.618 Y85.085 E0.01232
G1 X100.663 Y101.130 E0.71180
G1 X100.129 Y101.130 E0.01674
G1 X84.274 Y85.274 E0.70340
G1 X83.929 Y85.464 E0.01232
G1 X99.596 Y101.130 E0.69500
G1 X99.062 Y101.130 E0.01674
G1 X83.585 Y85.653 E0.68660
G1 X83.241 Y85.842 E0.01232
G1 X98.529 Y101.130 E0.67820
G1 X97.995 Y101.130 E0.01674
G1 X82.897 Y86.032 E0.66980
G1 X82.553 Y86.221 E0.01232
G1 X97.462 Y101.130 E0.66140
G1 X96.928 Y101.130 E0.01674
G1 X82.209 Y86.410 E0.65300
G1 X81.864 Y86.600 E0.01232
G1 X96.395 Y101.130 E0.64460
G1 X95.861 Y101.130 E0.01674
G1 X81.520 Y86.789 E0.63620
G1 X81.176 Y86.978 E0.01232
G1 X95.328 Y101.130 E0.62780
G1 X94.794 Y101.130 E0.01674
G1 X80.832 Y87.168 E0.61940
G1 X80.488 Y87.357 E0.01232
G1 X94.261 Y101.130 E0.61100
G1 X93.727 Y101.130 E0.01674
G1 X80.144 Y87.546 E0.60260
G1 X79.799 Y87.736 E0.01232
G1 X93.194 Y101.130 E0.59420
G1 X92.660 Y101.130 E0.01674
G1 X79.455 Y87.925 E0.58580
G1 X79.111 Y88.114 E0.01232
G1 X92.127 Y101.130 E0.57740
G1 X91.593 Y101.130 E0.01674
G1 X78.767 Y88.304 E0.56900
G1 X78.423 Y88.493 E0.01232
G1 X91.060 Y101.130 E0.56060
G1 X90.526 Y101.130 E0.01674
G1 X78.079 Y88.682 E0.55220
G1 X77.734 Y88.872 E0.01232
G1 X89.993 Y101.130 E0.54380
G1 X89.459 Y101.130 E0.01674
G1 X77.390 Y89.061 E0.53540
G1 X77.046 Y89.251 E0.01232
G1 X88.926 Y101.130 E0.52700
G1 X88.392 Y101.130 E0.01674
G1 X76.702 Y89.440 E0.51860
G1 X76.358 Y89.629 E0.01232
G1 X87.859 Y101.130 E0.51020
G1 X87.325 Y101.130 E0.01674
G1 X76.014 Y89.819 E0.50180
G1 X75.669 Y90.008 E0.01232
G1 X86.792 Y101.130 E0.49340
G1 X86.258 Y101.130 E0.01674
G1 X75.325 Y90.197 E0.48500
G1 X74.981 Y90.387 E0.01232
G1 X85.725 Y101.130 E0.47660
G1 X85.191 Y101.130 E0.01674
G1 X74.637 Y90.576 E0.46820
G1 X74.293 Y90.765 E0.01232
G1 X84.658 Y101.130 E0.45980
G1 X84.124 Y101.130 E0.01674
G1 X73.949 Y90.955 E0.45140
G1 X73.604 Y91.144 E0.01232
G1 X83.590 Y101.130 E0.44300
G1 X83.057 Y101.130 E0.01674
G1 X73.260 Y91.333 E0.43460
G1 X72.916 Y91.523 E0.01232
G1 X82.523 Y101.130 E0.42620
G1 X81.990 Y101.130 E0.01674
G1 X72.574 Y91.714 E0.41772
G1 X72.253 Y91.927 E0.01207
G1 X81.456 Y101.130 E0.40828
G1 X80.923 Y101.130 E0.01674
G1 X71.932 Y92.139 E0.39885
G1 X71.651 Y92.391 E0.01185
G1 X80.389 Y101.130 E0.38767
G1 X79.856 Y101.130 E0.01674
G1 X71.376 Y92.650 E0.37617
G1 X71.255 Y92.765 E0.00524
G1 X71.125 Y92.933 E0.00665
G1 X79.322 Y101.130 E0.36363
G1 X78.789 Y101.130 E0.01674
