; generated by PrusaSlicer 2.1.1+win64 on 2020-06-03 at 16:34:45 UTC

; 

; external perimeters extrusion width = 0.45mm
; perimeters extrusion width = 0.45mm
; infill extrusion width = 0.45mm
; solid infill extrusion width = 0.45mm
; top infill extrusion width = 0.45mm
; support material extrusion width = 0.35mm
; first layer extrusion width = 0.42mm

M73 P0 R92
M201 X9000 Y9000 Z500 E10000 ; sets maximum accelerations, mm/sec^2
M203 X500 Y500 Z12 E120 ; sets maximum feedrates, mm/sec
M204 P2000 R1500 T2000 ; sets acceleration (P, T) and retract acceleration (R), mm/sec^2
M205 X10.00 Y10.00 Z0.20 E4.50 ; sets the jerk limits, mm/sec
M205 S0 T0 ; sets the minimum extruding and travel feed rate, mm/sec
M107
M862.3 P "MK2.5SMMU2S" ; printer model check
M862.1 P0.4 ; nozzle diameter check
M115 U3.8.1 ; tell printer latest fw version
G90 ; use absolute coordinates
M83 ; extruder relative mode
M104 S215 ; set extruder temp
M140 S60 ; set bed temp
Tx
M190 S60 ; wait for bed temp
M109 S215 ; wait for extruder temp
G28 W ; home all without mesh bed level
G80 ; mesh bed leveling

;go outside print area
G1 Y-3.0 F1000.0
G1 Z0.4 F1000.0
; select extruder
Tc
; purge line
G1 X55.0 F2000.0
G1 Z0.3 F1000.0
G92 E0.0
G1 X240.0 E25.0 F2200.0
M73 P0 R92
G1 Y-2.0 F1000.0
G1 X55.0 E25 F1400.0
G1 Z0.20 F1000.0
G1 X5.0 E4.0 F1000.0
G92 E0.0
G21 ; set units to millimeters
G90 ; use absolute coordinates
M83 ; use relative distances for extrusion
M900 K30 ; Filament gcode
;BEFORE_LAYER_CHANGE
G92 E0.0
;0.2


G1 E-0.80000 F2100.00000
G1 Z0.600 F10800.000
;AFTER_LAYER_CHANGE
;0.2
G1 X67.984 Y126.780
G1 Z0.200
G1 E0.80000 F2100.00000
M204 S1000
G1 F1200
G1 X66.089 Y123.240 E0.12590
G1 X65.572 Y121.793 E0.04818
G1 X65.263 Y120.094 E0.05413
G1 X65.250 Y118.487 E0.05039
G1 X65.514 Y116.851 E0.05197
G1 X66.101 Y115.180 E0.05551
G1 X66.780 Y113.924 E0.04476
G1 X67.656 Y112.772 E0.04539
G1 X68.939 Y111.546 E0.05563
G1 X116.886 Y76.000 E1.87142
G1 X117.385 Y75.794 E0.01692
G1 X117.922 Y75.717 E0.01703
G1 X132.292 Y75.717 E0.45056
G1 X132.979 Y75.827 E0.02179
G1 X133.593 Y76.145 E0.02168
G1 X181.014 Y111.510 E1.85481
G1 X182.161 Y112.565 E0.04887
G1 X183.205 Y113.901 E0.05316
G1 X183.978 Y115.346 E0.05138
G1 X184.493 Y116.879 E0.05071
G1 X184.754 Y118.630 E0.05551
G1 X184.740 Y120.058 E0.04476
G1 X184.507 Y121.478 E0.04513
G1 X183.998 Y123.032 E0.05127
G1 X183.176 Y124.580 E0.05494
G1 X182.114 Y125.923 E0.05369
G1 X180.856 Y127.040 E0.05275
G1 X179.650 Y127.818 E0.04500
G1 X178.334 Y128.403 E0.04516
G1 X176.632 Y128.858 E0.05524
G1 X175.016 Y128.995 E0.05084
G1 X74.956 Y128.995 E3.13731
G1 X73.404 Y128.864 E0.04884
G1 X71.886 Y128.485 E0.04905
G1 X68.822 Y127.424 E0.10168
G1 X68.363 Y127.153 E0.01669
G1 X68.027 Y126.822 E0.01481
G1 F8640
G1 X66.461 Y123.927 E-0.76000
G1 E-0.04000 F2100.00000
G1 Z0.800 F10800.000
G1 X69.697 Y125.418
G1 Z0.200
G1 E0.80000 F2100.00000
G1 F1200
G1 X69.697 Y124.947 E0.01476
G1 F8640
G1 X69.697 Y125.418 E-0.10868
G1 E-0.69132 F2100.00000
G1 Z0.800 F10800.000
G1 X69.506 Y121.160
G1 Z0.200
G1 E0.80000 F2100.00000
G1 F1200
G1 X69.506 Y117.722 E0.08779
G1 X69.765 Y116.954 E0.02069
G1 X70.024 Y116.470 E0.01401
G1 X70.024 Y121.965 E0.14031
G1 X70.233 Y122.350 E0.01119
G1 X70.541 Y122.744 E0.01277
G1 X70.541 Y115.692 E0.18007
G1 X70.780 Y115.381 E0.01001
G1 X71.059 Y115.121 E0.00973
G1 X71.059 Y123.317 E0.20927
G1 X71.577 Y123.772 E0.01761
G1 X71.577 Y114.668 E0.23247
G1 X72.095 Y114.324 E0.01586
G1 X72.095 Y124.109 E0.24985
G1 X72.292 Y124.238 E0.00601
G1 X72.613 Y124.378 E0.00894
G1 X72.613 Y114.020 E0.26447
G1 X73.130 Y113.735 E0.01509
G1 X73.130 Y124.604 E0.27753
G1 X73.648 Y124.739 E0.01366
G1 X73.648 Y113.451 E0.28824
G1 X74.166 Y113.166 E0.01509
G1 X74.166 Y124.853 E0.29841
G1 X74.684 Y124.895 E0.01327
G1 X74.684 Y112.881 E0.30678
G1 X75.202 Y112.596 E0.01509
G1 X75.202 Y124.923 E0.31475
G1 X75.720 Y124.923 E0.01322
G1 X75.720 Y112.311 E0.32203
G1 X76.237 Y112.026 E0.01509
G1 X76.237 Y124.923 E0.32930
G1 X76.755 Y124.914 E0.01322
G1 X76.755 Y111.741 E0.33634
G1 X77.273 Y111.456 E0.01509
G1 X77.273 Y125.057 E0.34727
G1 F8640
G1 X77.273 Y121.765 E-0.76000
G1 E-0.04000 F2100.00000
G1 Z0.800 F10800.000
G1 X117.963 Y86.914
G1 Z0.200
G1 E0.80000 F2100.00000
G1 F1200
G1 X117.963 Y77.905 E0.28245
G1 X118.717 Y77.905 E0.02365
G1 X118.717 Y86.570 E0.27167
G1 X119.472 Y86.506 E0.02373
G1 X119.472 Y77.905 E0.26969
G1 X120.226 Y77.905 E0.02365
G1 X120.226 Y86.480 E0.26885
G1 X120.980 Y86.480 E0.02365
G1 X120.980 Y77.905 E0.26885
G1 X121.734 Y77.905 E0.02365
G1 X121.734 Y86.480 E0.26885
G1 X122.488 Y86.480 E0.02365
G1 X122.488 Y77.905 E0.26885
G1 X123.242 Y77.905 E0.02365
G1 X123.242 Y86.480 E0.26885
G1 X123.996 Y86.480 E0.02365
G1 X123.996 Y77.905 E0.26885
G1 X124.751 Y77.905 E0.02365
G1 X124.751 Y86.480 E0.26885
G1 X125.505 Y86.480 E0.02365
G1 X125.505 Y77.905 E0.26885
G1 X126.259 Y77.905 E0.02365
G1 X126.259 Y86.480 E0.26885
G1 X127.013 Y86.480 E0.02365
G1 X127.013 Y77.905 E0.26885
G1 X127.767 Y77.905 E0.02365
G1 X127.767 Y86.480 E0.26885
G1 X128.521 Y86.480 E0.02365
G1 X128.521 Y77.905 E0.26885
G1 X129.276 Y77.905 E0.02365
G1 X129.276 Y86.480 E0.26885
G1 X130.030 Y86.480 E0.02365
G1 X130.030 Y77.905 E0.26885
G1 X130.784 Y77.905 E0.02365
G1 X130.784 Y86.528 E0.27036
G1 X131.411 Y86.581 E0.01973
G1 X131.538 Y86.610 E0.00409
G1 X131.538 Y77.905 E0.27294
G1 X132.292 Y77.905 E0.02365
G1 X132.292 Y86.979 E0.28451
G1 F8640
G1 X132.292 Y83.688 E-0.76000
G1 E-0.04000 F2100.00000
G1 Z0.800 F10800.000
G1 X173.068 Y111.480
G1 Z0.200
G1 E0.80000 F2100.00000
G1 F1200
G1 X173.068 Y118.642 E0.18287
G1 X172.550 Y118.642 E0.01322
G1 X172.550 Y111.359 E0.18598
G1 X172.032 Y111.074 E0.01509
G1 X172.032 Y118.642 E0.19325
G1 X171.514 Y118.642 E0.01322
G1 X171.514 Y110.789 E0.20053
G1 X170.996 Y110.504 E0.01509
G1 X170.996 Y118.642 E0.20780
G1 X170.479 Y118.642 E0.01322
G1 X170.479 Y110.219 E0.21507
G1 X169.961 Y109.934 E0.01509
G1 X169.961 Y118.642 E0.22235
G1 X169.443 Y118.642 E0.01322
G1 X169.443 Y109.650 E0.22962
G1 X168.925 Y109.365 E0.01509
G1 X168.925 Y118.642 E0.23690
G1 X168.736 Y118.642 E0.00483
G1 X168.736 Y116.325 E0.05918
G1 X168.407 Y116.325 E0.00839
G1 X168.407 Y109.080 E0.18499
G1 X167.890 Y108.795 E0.01509
G1 X167.890 Y116.325 E0.19226
G1 X167.372 Y116.325 E0.01322
G1 X167.372 Y108.510 E0.19954
G1 X166.854 Y108.225 E0.01509
G1 X166.854 Y116.325 E0.20681
G1 X166.418 Y116.325 E0.01112
G1 X166.418 Y114.007 E0.05918
G1 X166.336 Y114.007 E0.00210
G1 X166.336 Y107.940 E0.15490
G1 X165.818 Y107.655 E0.01509
G1 X165.818 Y114.007 E0.16218
G1 X165.300 Y114.007 E0.01322
G1 X165.300 Y107.371 E0.16945
G1 X164.783 Y107.086 E0.01509
G1 X164.783 Y114.007 E0.17672
G1 X164.265 Y114.007 E0.01322
G1 X164.265 Y106.801 E0.18400
G1 X163.747 Y106.516 E0.01509
G1 X163.747 Y114.007 E0.19127
G1 X163.229 Y114.007 E0.01322
G1 X163.229 Y106.231 E0.19855
G1 X162.711 Y105.946 E0.01509
G1 X162.711 Y114.007 E0.20582
G1 X162.194 Y114.007 E0.01322
G1 X162.194 Y105.661 E0.21310
G1 X161.676 Y105.376 E0.01509
G1 X161.676 Y111.689 E0.16119
G1 X161.158 Y111.689 E0.01322
G1 X161.158 Y105.091 E0.16846
G1 X160.640 Y104.807 E0.01509
G1 X160.640 Y111.689 E0.17574
G1 X160.122 Y111.689 E0.01322
G1 X160.122 Y104.522 E0.18301
G1 X159.605 Y104.237 E0.01509
G1 X159.605 Y111.689 E0.19028
G1 X159.087 Y111.689 E0.01322
G1 X159.087 Y103.952 E0.19756
G1 X158.569 Y103.667 E0.01509
G1 X158.569 Y111.689 E0.20483
G1 X158.051 Y111.689 E0.01322
G1 X158.051 Y103.382 E0.21211
G1 X157.533 Y103.097 E0.01509
G1 X157.533 Y111.689 E0.21938
M73 P1 R91
G1 X157.147 Y111.689 E0.00987
G1 X157.147 Y109.371 E0.05918
G1 X157.016 Y109.371 E0.00336
G1 X157.016 Y102.812 E0.16747
G1 X156.498 Y102.528 E0.01509
G1 X156.498 Y109.371 E0.17475
G1 X155.980 Y109.371 E0.01322
G1 X155.980 Y102.243 E0.18202
G1 X155.462 Y101.958 E0.01509
G1 X155.462 Y109.371 E0.18929
G1 X154.944 Y109.371 E0.01322
G1 X154.944 Y101.673 E0.19657
G1 X154.426 Y101.388 E0.01509
G1 X154.426 Y109.371 E0.20384
G1 X153.909 Y109.371 E0.01322
G1 X153.909 Y101.103 E0.21112
G1 X153.391 Y100.818 E0.01509
G1 X153.391 Y109.371 E0.21839
G1 X152.873 Y109.371 E0.01322
G1 X152.873 Y100.533 E0.22566
G1 X152.355 Y100.249 E0.01509
G1 X152.355 Y107.053 E0.17376
G1 X151.837 Y107.053 E0.01322
G1 X151.837 Y99.964 E0.18103
G1 X151.320 Y99.679 E0.01509
G1 X151.320 Y107.053 E0.18830
G1 X150.802 Y107.053 E0.01322
G1 X150.802 Y99.394 E0.19558
G1 X150.284 Y99.109 E0.01509
G1 X150.284 Y107.053 E0.20285
G1 X149.766 Y107.053 E0.01322
G1 X149.766 Y98.824 E0.21013
G1 X149.248 Y98.539 E0.01509
G1 X149.248 Y107.053 E0.21740
G1 X148.731 Y107.053 E0.01322
G1 X148.731 Y98.254 E0.22467
G1 X148.213 Y97.969 E0.01509
G1 X148.213 Y107.053 E0.23195
G1 X147.876 Y107.053 E0.00861
G1 X147.876 Y104.736 E0.05918
G1 X147.695 Y104.736 E0.00462
G1 X147.695 Y97.685 E0.18004
G1 X147.177 Y97.400 E0.01509
G1 X147.177 Y104.736 E0.18731
G1 X146.659 Y104.736 E0.01322
G1 X146.659 Y97.115 E0.19459
G1 X146.142 Y96.830 E0.01509
G1 X146.142 Y104.736 E0.20186
G1 X145.624 Y104.736 E0.01322
G1 X145.624 Y96.545 E0.20914
G1 X145.106 Y96.260 E0.01509
G1 X145.106 Y104.736 E0.21641
G1 X144.588 Y104.736 E0.01322
G1 X144.588 Y95.975 E0.22368
G1 X144.070 Y95.690 E0.01509
G1 X144.070 Y104.736 E0.23096
G1 X143.552 Y104.736 E0.01322
G1 X143.552 Y95.406 E0.23823
G1 X143.035 Y95.121 E0.01509
G1 X143.035 Y102.418 E0.18632
G1 X142.517 Y102.418 E0.01322
G1 X142.517 Y94.836 E0.19360
G1 X141.999 Y94.551 E0.01509
G1 X141.999 Y102.418 E0.20087
G1 X141.481 Y102.418 E0.01322
G1 X141.481 Y94.266 E0.20815
G1 X140.963 Y93.981 E0.01509
G1 X140.963 Y102.418 E0.21542
G1 X140.922 Y102.418 E0.00105
G1 X140.922 Y100.100 E0.05918
G1 X140.446 Y100.100 E0.01217
G1 X140.446 Y93.696 E0.16351
G1 X139.928 Y93.411 E0.01509
G1 X139.928 Y100.100 E0.17079
G1 X139.410 Y100.100 E0.01322
G1 X139.410 Y93.126 E0.17806
G1 X138.892 Y92.842 E0.01509
G1 X138.892 Y100.100 E0.18533
G1 X138.374 Y100.100 E0.01322
G1 X138.374 Y92.557 E0.19261
G1 X137.857 Y92.272 E0.01509
G1 X137.857 Y100.100 E0.19988
G1 X137.339 Y100.100 E0.01322
G1 X137.339 Y91.987 E0.20716
G1 X136.821 Y91.702 E0.01509
G1 X136.821 Y100.100 E0.21443
G1 X136.303 Y100.100 E0.01322
G1 X136.303 Y91.417 E0.22170
G1 X135.785 Y91.132 E0.01509
G1 X135.785 Y97.782 E0.16980
G1 X135.268 Y97.782 E0.01322
G1 X135.268 Y90.847 E0.17707
G1 X134.750 Y90.563 E0.01509
G1 X134.750 Y97.782 E0.18434
G1 X134.232 Y97.782 E0.01322
G1 X134.232 Y90.278 E0.19162
G1 X133.714 Y89.993 E0.01509
G1 X133.714 Y97.782 E0.19889
G1 X133.196 Y97.782 E0.01322
G1 X133.196 Y89.708 E0.20617
G1 X132.678 Y89.423 E0.01509
G1 X132.678 Y97.782 E0.21344
G1 X132.161 Y97.782 E0.01322
G1 X132.161 Y89.191 E0.21936
G1 X131.872 Y89.063 E0.00806
G1 X131.643 Y89.004 E0.00605
G1 X131.643 Y95.464 E0.16496
G1 X131.125 Y95.464 E0.01322
G1 X131.125 Y88.871 E0.16836
G1 X130.607 Y88.813 E0.01330
G1 X130.607 Y95.464 E0.16983
G1 X130.089 Y95.464 E0.01322
G1 X130.089 Y88.777 E0.17075
G1 X129.572 Y88.777 E0.01322
G1 X129.572 Y95.464 E0.17075
G1 X129.054 Y95.464 E0.01322
G1 X129.054 Y88.777 E0.17075
G1 X128.536 Y88.777 E0.01322
G1 X128.536 Y95.464 E0.17075
G1 X128.018 Y95.464 E0.01322
G1 X128.018 Y88.777 E0.17075
G1 X127.500 Y88.777 E0.01322
G1 X127.500 Y95.464 E0.17075
G1 X127.015 Y95.464 E0.01238
G1 X127.015 Y93.147 E0.05918
G1 X126.983 Y93.147 E0.00084
G1 X126.983 Y88.777 E0.11157
G1 X126.465 Y88.777 E0.01322
G1 X126.465 Y93.147 E0.11157
G1 X125.947 Y93.147 E0.01322
G1 X125.947 Y88.777 E0.11157
G1 X125.429 Y88.777 E0.01322
G1 X125.429 Y93.147 E0.11157
G1 X124.911 Y93.147 E0.01322
G1 X124.911 Y88.777 E0.11157
G1 X124.394 Y88.777 E0.01322
G1 X124.394 Y93.147 E0.11157
G1 X123.876 Y93.147 E0.01322
G1 X123.876 Y88.777 E0.11157
G1 X123.358 Y88.777 E0.01322
G1 X123.358 Y93.147 E0.11157
G1 X122.840 Y93.147 E0.01322
G1 X122.840 Y88.777 E0.11157
G1 X122.322 Y88.777 E0.01322
G1 X122.322 Y93.147 E0.11157
G1 X121.805 Y93.147 E0.01322
G1 X121.805 Y88.777 E0.11157
G1 X121.287 Y88.777 E0.01322
G1 X121.287 Y95.464 E0.17075
G1 X120.769 Y95.464 E0.01322
G1 X120.769 Y88.777 E0.17075
G1 X120.251 Y88.777 E0.01322
G1 X120.251 Y95.464 E0.17075
G1 X119.733 Y95.464 E0.01322
G1 X119.733 Y88.785 E0.17056
G1 X119.215 Y88.828 E0.01327
G1 X119.215 Y95.464 E0.16945
G1 X119.108 Y95.464 E0.00273
G1 X119.108 Y97.782 E0.05918
G1 X118.698 Y97.782 E0.01049
G1 X118.698 Y88.916 E0.22638
G1 X118.180 Y89.049 E0.01365
G1 X118.180 Y97.782 E0.22298
G1 X117.662 Y97.782 E0.01322
G1 X117.662 Y89.270 E0.21734
G1 X117.144 Y89.521 E0.01469
G1 X117.144 Y97.782 E0.21095
G1 X116.626 Y97.782 E0.01322
G1 X116.626 Y89.805 E0.20368
G1 X116.109 Y90.090 E0.01509
G1 X116.109 Y97.782 E0.19640
G1 X115.591 Y97.782 E0.01322
G1 X115.591 Y90.375 E0.18913
G1 X115.073 Y90.660 E0.01509
G1 X115.073 Y97.782 E0.18185
G1 X114.555 Y97.782 E0.01322
G1 X114.555 Y90.945 E0.17458
G1 X114.037 Y91.230 E0.01509
G1 X114.037 Y100.100 E0.22649
G1 X113.520 Y100.100 E0.01322
G1 X113.520 Y91.515 E0.21921
G1 X113.002 Y91.800 E0.01509
G1 X113.002 Y100.100 E0.21194
G1 X112.484 Y100.100 E0.01322
G1 X112.484 Y92.084 E0.20467
G1 X111.966 Y92.369 E0.01509
G1 X111.966 Y100.100 E0.19739
G1 X111.448 Y100.100 E0.01322
G1 X111.448 Y92.654 E0.19012
G1 X110.931 Y92.939 E0.01509
G1 X110.931 Y100.100 E0.18284
G1 X110.413 Y100.100 E0.01322
G1 X110.413 Y93.224 E0.17557
G1 X109.895 Y93.509 E0.01509
G1 X109.895 Y100.100 E0.16830
G1 X109.837 Y100.100 E0.00147
G1 X109.837 Y102.418 E0.05918
G1 X109.377 Y102.418 E0.01175
G1 X109.377 Y93.794 E0.22020
G1 X108.859 Y94.079 E0.01509
G1 X108.859 Y102.418 E0.21293
G1 X108.341 Y102.418 E0.01322
G1 X108.341 Y94.364 E0.20566
G1 X107.824 Y94.648 E0.01509
G1 X107.824 Y102.418 E0.19838
G1 X107.306 Y102.418 E0.01322
G1 X107.306 Y94.933 E0.19111
G1 X106.788 Y95.218 E0.01509
G1 X106.788 Y102.418 E0.18383
G1 X106.270 Y102.418 E0.01322
G1 X106.270 Y95.503 E0.17656
G1 X105.752 Y95.788 E0.01509
G1 X105.752 Y102.418 E0.16929
G1 X105.235 Y102.418 E0.01322
G1 X105.235 Y96.073 E0.16201
G1 X104.717 Y96.358 E0.01509
G1 X104.717 Y104.736 E0.21392
G1 X104.199 Y104.736 E0.01322
G1 X104.199 Y96.643 E0.20665
G1 X103.681 Y96.927 E0.01509
G1 X103.681 Y104.736 E0.19937
G1 X103.163 Y104.736 E0.01322
G1 X103.163 Y97.212 E0.19210
G1 X102.646 Y97.497 E0.01509
G1 X102.646 Y104.736 E0.18482
G1 X102.128 Y104.736 E0.01322
G1 X102.128 Y97.782 E0.17755
G1 X101.610 Y98.067 E0.01509
G1 X101.610 Y104.736 E0.17028
G1 X101.092 Y104.736 E0.01322
G1 X101.092 Y98.352 E0.16300
G1 X100.574 Y98.637 E0.01509
G1 X100.566 Y107.053 E0.21491
G1 X100.057 Y107.053 E0.01301
G1 X100.057 Y98.922 E0.20764
G1 X99.539 Y99.207 E0.01509
G1 X99.539 Y107.053 E0.20036
G1 X99.021 Y107.053 E0.01322
G1 X99.021 Y99.491 E0.19309
G1 X98.503 Y99.776 E0.01509
G1 X98.503 Y107.053 E0.18581
G1 X98.248 Y107.053 E0.00651
G1 X98.248 Y109.371 E0.05918
G1 X97.985 Y109.371 E0.00671
G1 X97.985 Y100.061 E0.23772
G1 X97.467 Y100.346 E0.01509
G1 X97.467 Y109.371 E0.23045
G1 X96.950 Y109.371 E0.01322
G1 X96.950 Y100.631 E0.22317
G1 X96.432 Y100.916 E0.01509
G1 X96.432 Y109.371 E0.21590
G1 X95.914 Y109.371 E0.01322
G1 X95.914 Y101.201 E0.20863
G1 X95.396 Y101.486 E0.01509
G1 X95.396 Y109.371 E0.20135
G1 X94.878 Y109.371 E0.01322
G1 X94.878 Y101.770 E0.19408
G1 X94.361 Y102.055 E0.01509
G1 X94.361 Y109.371 E0.18680
G1 X93.843 Y109.371 E0.01322
G1 X93.843 Y102.340 E0.17953
G1 X93.325 Y102.625 E0.01509
G1 X93.325 Y111.689 E0.23144
G1 X92.807 Y111.689 E0.01322
G1 X92.807 Y102.910 E0.22416
G1 X92.289 Y103.195 E0.01509
G1 X92.289 Y111.689 E0.21689
G1 X91.772 Y111.689 E0.01322
G1 X91.772 Y103.480 E0.20962
G1 X91.254 Y103.765 E0.01509
G1 X91.254 Y111.689 E0.20234
G1 X90.736 Y111.689 E0.01322
G1 X90.736 Y104.049 E0.19507
G1 X90.218 Y104.334 E0.01509
G1 X90.218 Y111.689 E0.18779
G1 X89.700 Y111.689 E0.01322
G1 X89.700 Y104.619 E0.18052
G1 X89.183 Y104.904 E0.01509
G1 X89.183 Y111.689 E0.17324
G1 X88.977 Y111.689 E0.00525
G1 X88.977 Y114.007 E0.05918
G1 X88.665 Y114.007 E0.00797
G1 X88.665 Y105.189 E0.22515
G1 X88.147 Y105.474 E0.01509
G1 X88.147 Y114.007 E0.21788
G1 X87.629 Y114.007 E0.01322
G1 X87.629 Y105.759 E0.21060
G1 X87.111 Y106.044 E0.01509
G1 X87.111 Y114.007 E0.20333
G1 X86.593 Y114.007 E0.01322
