; generated by PrusaSlicer 2.1.1+win64 on 2020-06-03 at 23:05:35 UTC

; 

; external perimeters extrusion width = 0.45mm
; perimeters extrusion width = 0.45mm
; infill extrusion width = 0.45mm
; solid infill extrusion width = 0.45mm
; top infill extrusion width = 0.40mm
; support material extrusion width = 0.35mm
; first layer extrusion width = 0.42mm

M73 P0 R40
M201 X9000 Y9000 Z500 E10000 ; sets maximum accelerations, mm/sec^2
M203 X500 Y500 Z12 E120 ; sets maximum feedrates, mm/sec
M204 P2000 R1500 T2000 ; sets acceleration (P, T) and retract acceleration (R), mm/sec^2
M205 X10.00 Y10.00 Z0.20 E2.50 ; sets the jerk limits, mm/sec
M205 S0 T0 ; sets the minimum extruding and travel feed rate, mm/sec
M107
M862.3 P "MK2.5SMMU2S" ; printer model check
M862.1 P0.4 ; nozzle diameter check
M115 U3.8.0 ; tell printer latest fw version
G90 ; use absolute coordinates
M83 ; extruder relative mode
M104 S215 ; set extruder temp
M140 S60 ; set bed temp
Tx
M190 S60 ; wait for bed temp
M109 S215 ; wait for extruder temp
G28 W ; home all without mesh bed level
G80 ; mesh bed leveling

G21 ; set units to millimeters

;go outside print area
G1 Y-3.0 F1000.0
G1 Z0.4 F1000.0
; select extruder
Tc
; purge line
G1 X55.0 F2000.0
G1 Z0.3 F1000.0
G92 E0.0
G1 X240.0 E25.0 F2200.0
M73 P0 R40
G1 Y-2.0 F1000.0
G1 X55.0 E25 F1400.0
G1 Z0.20 F1000.0
G1 X5.0 E4.0 F1000.0
G92 E0.0
G21 ; set units to millimeters
G90 ; use absolute coordinates
M83 ; use relative distances for extrusion
M900 K30 ; Filament gcode
;BEFORE_LAYER_CHANGE
G92 E0.0
;0.2


G1 E-0.80000 F2100.00000
G1 Z0.600 F10800.000
;AFTER_LAYER_CHANGE
;0.2
G1 X88.351 Y82.467
G1 Z0.200
G1 E0.80000 F2100.00000
M204 S1000
G1 F1200
G1 X96.085 Y74.720 E0.34323
G1 X96.669 Y74.310 E0.02236
G1 X106.295 Y70.511 E0.32447
G1 X106.769 Y70.455 E0.01498
G1 X113.317 Y70.454 E0.20531
G1 X113.810 Y70.512 E0.01555
G1 X114.277 Y70.678 E0.01555
G1 X121.446 Y74.444 E0.25390
G1 X152.534 Y98.258 E1.22789
G1 X161.479 Y107.188 E0.39627
G1 X161.782 Y107.571 E0.01532
G1 X162.022 Y108.102 E0.01828
G1 X162.114 Y108.678 E0.01828
G1 X162.114 Y121.803 E0.41153
G1 X161.601 Y125.319 E0.11142
G1 X161.395 Y125.770 E0.01555
G1 X161.092 Y126.163 E0.01555
G1 X153.485 Y133.770 E0.33730
G1 X153.105 Y134.071 E0.01521
G1 X152.500 Y134.332 E0.02066
G1 X144.574 Y136.304 E0.25609
G1 X134.368 Y136.314 E0.31998
G1 X116.096 Y131.822 E0.58997
G1 X114.810 Y131.320 E0.04330
G1 X113.591 Y130.491 E0.04622
G1 X98.034 Y116.296 E0.66032
G1 X97.053 Y114.981 E0.05144
G1 X88.028 Y101.175 E0.51717
G1 X87.717 Y100.326 E0.02833
G1 X87.358 Y96.512 E0.12013
G1 X87.356 Y86.588 E0.31116
G1 X87.914 Y83.343 E0.10324
G1 X88.083 Y82.880 E0.01544
G1 X88.319 Y82.518 E0.01356
G1 E-0.80000 F2100.00000
G1 Z0.800 F10800.000
G1 X112.699 Y110.179
G1 Z0.200
G1 E0.80000 F2100.00000
G1 F1200
G1 X113.466 Y109.412 E0.03400
G1 X113.294 Y109.847 E0.01469
G1 X113.165 Y110.310 E0.01507
G1 X113.077 Y110.867 E0.01767
G1 X112.746 Y111.198 E0.01469
G1 X112.746 Y111.685 E0.01526
G1 X112.817 Y112.194 E0.01610
G1 X113.091 Y111.919 E0.01217
G1 X113.165 Y112.359 E0.01400
G1 X113.285 Y112.792 E0.01407
G1 X113.036 Y113.041 E0.01105
G1 X113.321 Y113.692 E0.02227
G1 X113.371 Y113.772 E0.00298
G1 X113.607 Y113.537 E0.01044
G1 X113.732 Y113.771 E0.00833
G1 X114.019 Y114.191 E0.01595
G1 X113.798 Y114.412 E0.00980
G1 X114.163 Y114.842 E0.01770
G1 X114.307 Y114.970 E0.00602
G1 X114.529 Y114.748 E0.00986
G1 X114.721 Y114.927 E0.00823
G1 X115.116 Y115.227 E0.01556
G1 X114.896 Y115.447 E0.00978
G1 X115.261 Y115.691 E0.01375
G1 X115.569 Y115.841 E0.01075
G1 X115.804 Y115.606 E0.01040
G1 X116.026 Y115.707 E0.00767
G1 X116.590 Y115.886 E0.01854
G1 X116.337 Y116.139 E0.01120
G1 X116.560 Y116.210 E0.00733
G1 X117.222 Y116.321 E0.02104
G1 X117.513 Y116.030 E0.01291
G1 X118.022 Y116.028 E0.01596
G1 X118.500 Y115.976 E0.01507
G1 X118.669 Y115.941 E0.00541
G1 X118.106 Y116.504 E0.02497
G1 X119.437 Y116.238 F10800.000
G1 F1200
G1 X122.362 Y113.314 E0.12968
G1 X122.579 Y112.719 E0.01986
G1 X122.727 Y112.005 E0.02287
G1 X122.736 Y111.874 E0.00411
G1 X122.361 Y112.248 E0.01661
G1 X122.428 Y111.829 E0.01331
G1 X122.454 Y111.349 E0.01507
G1 X122.442 Y111.101 E0.00781
G1 X122.735 Y110.808 E0.01296
G1 X122.719 Y110.607 E0.00631
G1 X122.572 Y109.933 E0.02164
G1 X122.564 Y109.912 E0.00070
G1 X122.303 Y110.173 E0.01158
G1 X122.204 Y109.820 E0.01149
G1 X122.029 Y109.381 E0.01483
G1 X122.262 Y109.148 E0.01034
G1 X121.998 Y108.657 E0.01747
G1 X121.866 Y108.477 E0.00700
G1 X121.641 Y108.703 E0.01001
G1 X121.487 Y108.479 E0.00851
G1 X121.170 Y108.106 E0.01533
G1 X121.387 Y107.890 E0.00961
G1 X121.097 Y107.593 E0.01302
G1 X120.828 Y107.382 E0.01071
G1 X120.605 Y107.605 E0.00989
G1 X120.380 Y107.436 E0.00884
G1 X119.960 Y107.184 E0.01536
G1 X120.186 Y106.957 E0.01005
G1 X119.916 Y106.807 E0.00969
G1 X119.454 Y106.623 E0.01559
G1 X119.207 Y106.870 E0.01097
G1 X118.997 Y106.801 E0.00691
G1 X118.528 Y106.698 E0.01507
G1 X118.335 Y106.676 E0.00609
G1 X118.620 Y106.391 E0.01263
G1 X117.928 Y106.318 E0.02179
G1 X117.615 Y106.329 E0.00984
G1 X117.280 Y106.664 E0.01484
G1 X116.979 Y106.698 E0.00951
G1 X116.509 Y106.801 E0.01507
G1 X116.026 Y106.963 E0.01596
G1 X115.822 Y107.055 E0.00704
G1 X116.595 Y106.282 E0.03430
G1 E-0.80000 F2100.00000
G1 Z0.800 F10800.000
G1 X117.975 Y109.169
G1 Z0.200
G1 E0.80000 F2100.00000
G1 F1200
G1 X115.745 Y111.398 E0.09885
G1 X115.784 Y111.753 E0.01121
G1 X115.862 Y112.023 E0.00880
G1 X115.962 Y112.248 E0.00771
G1 X118.666 Y109.544 E0.11991
G1 X118.879 Y109.666 E0.00769
G1 X119.100 Y109.839 E0.00880
G1 X119.266 Y110.011 E0.00748
G1 X116.431 Y112.846 E0.12571
G1 X116.747 Y113.078 E0.01230
G1 X117.107 Y113.236 E0.01233
G1 X119.655 Y110.689 E0.11296
G1 X119.746 Y111.055 E0.01184
G1 X119.766 Y111.335 E0.00880
G1 X119.733 Y111.676 E0.01076
G1 X117.901 Y113.509 E0.08125
G1 X117.862 Y114.462 F10800.000
G1 F1200
G1 X117.426 Y114.446 E0.01369
G1 X116.996 Y114.371 E0.01369
G1 X116.581 Y114.236 E0.01369
G1 X116.189 Y114.044 E0.01369
G1 X115.827 Y113.800 E0.01369
G1 X115.503 Y113.508 E0.01369
G1 X115.222 Y113.174 E0.01369
G1 X114.991 Y112.804 E0.01369
G1 X114.813 Y112.405 E0.01369
G1 X114.693 Y111.985 E0.01369
G1 X114.632 Y111.553 E0.01369
G1 X114.632 Y111.117 E0.01369
G1 X114.693 Y110.685 E0.01369
G1 X114.813 Y110.265 E0.01369
G1 X114.991 Y109.866 E0.01369
G1 X115.201 Y109.529 E0.01246
G1 X115.500 Y109.164 E0.01479
G1 X115.827 Y108.870 E0.01380
G1 X116.156 Y108.648 E0.01246
G1 X116.578 Y108.435 E0.01479
G1 X116.996 Y108.299 E0.01380
G1 X117.426 Y108.224 E0.01369
G1 X117.823 Y108.210 E0.01246
G1 X118.293 Y108.253 E0.01479
G1 X118.720 Y108.360 E0.01380
G1 X119.125 Y108.523 E0.01369
G1 X119.503 Y108.741 E0.01369
G1 X119.847 Y109.010 E0.01369
G1 X120.150 Y109.324 E0.01369
G1 X120.406 Y109.677 E0.01369
G1 X120.611 Y110.063 E0.01369
G1 X120.761 Y110.473 E0.01369
G1 X120.851 Y110.900 E0.01369
G1 X120.882 Y111.335 E0.01369
G1 X120.851 Y111.770 E0.01369
G1 X120.761 Y112.197 E0.01369
G1 X120.611 Y112.607 E0.01369
G1 X120.406 Y112.993 E0.01369
G1 X120.150 Y113.346 E0.01369
G1 X119.847 Y113.660 E0.01369
G1 X119.503 Y113.929 E0.01369
G1 X119.125 Y114.147 E0.01369
G1 X118.720 Y114.310 E0.01369
G1 X118.296 Y114.416 E0.01369
G1 X117.922 Y114.455 E0.01180
G1 X117.849 Y114.084 F10800.000
G1 F1200
G1 X117.466 Y114.070 E0.01203
G1 X117.088 Y114.004 E0.01203
G1 X116.723 Y113.885 E0.01203
G1 X116.378 Y113.717 E0.01203
G1 X116.060 Y113.502 E0.01203
G1 X115.775 Y113.246 E0.01203
G1 X115.528 Y112.952 E0.01203
G1 X115.325 Y112.626 E0.01203
G1 X115.169 Y112.276 E0.01203
G1 X115.063 Y111.907 E0.01203
G1 X115.009 Y111.527 E0.01203
G1 X115.009 Y111.143 E0.01203
G1 X115.063 Y110.763 E0.01203
G1 X115.169 Y110.394 E0.01203
G1 X115.325 Y110.044 E0.01203
G1 X115.508 Y109.749 E0.01088
G1 X115.774 Y109.425 E0.01313
G1 X116.060 Y109.168 E0.01207
G1 X116.347 Y108.974 E0.01088
G1 X116.722 Y108.785 E0.01313
G1 X117.088 Y108.666 E0.01207
G1 X117.466 Y108.600 E0.01203
G1 X117.812 Y108.587 E0.01088
G1 X118.230 Y108.626 E0.01313
G1 X118.603 Y108.719 E0.01207
G1 X118.959 Y108.863 E0.01203
G1 X119.291 Y109.055 E0.01203
G1 X119.594 Y109.291 E0.01203
G1 X119.860 Y109.567 E0.01203
G1 X120.086 Y109.877 E0.01203
G1 X120.266 Y110.216 E0.01203
G1 X120.397 Y110.577 E0.01203
G1 X120.477 Y110.952 E0.01203
G1 X120.504 Y111.335 E0.01203
G1 X120.477 Y111.718 E0.01203
G1 X120.397 Y112.093 E0.01203
G1 X120.266 Y112.454 E0.01203
G1 X120.086 Y112.793 E0.01203
G1 X119.860 Y113.103 E0.01203
G1 X119.594 Y113.379 E0.01203
G1 X119.291 Y113.615 E0.01203
G1 X118.959 Y113.807 E0.01203
G1 X118.603 Y113.951 E0.01203
G1 X118.231 Y114.044 E0.01203
G1 X117.909 Y114.078 E0.01015
G1 X117.669 Y114.423 F10800.000
G1 X117.753 Y114.917
G1 F1200
G1 X117.559 Y114.917 E0.00609
G1 X117.173 Y114.875 E0.01218
G1 X116.794 Y114.791 E0.01218
G1 X116.425 Y114.667 E0.01218
G1 X116.073 Y114.504 E0.01218
G1 X115.758 Y114.315 E0.01152
G1 X115.430 Y114.068 E0.01288
G1 X115.149 Y113.802 E0.01213
G1 X114.898 Y113.506 E0.01218
G1 X114.680 Y113.184 E0.01218
G1 X114.498 Y112.841 E0.01218
G1 X114.354 Y112.480 E0.01218
G1 X114.250 Y112.106 E0.01218
G1 X114.187 Y111.723 E0.01218
G1 X114.166 Y111.335 E0.01218
G1 X114.187 Y110.947 E0.01218
G1 X114.250 Y110.564 E0.01218
G1 X114.354 Y110.190 E0.01218
G1 X114.498 Y109.829 E0.01218
G1 X114.680 Y109.486 E0.01218
G1 X114.898 Y109.164 E0.01218
G1 X115.149 Y108.868 E0.01218
G1 X115.431 Y108.601 E0.01218
G1 X115.740 Y108.366 E0.01218
G1 X116.073 Y108.166 E0.01218
G1 X116.425 Y108.003 E0.01218
G1 X116.794 Y107.879 E0.01218
G1 X117.173 Y107.795 E0.01218
G1 X117.559 Y107.753 E0.01218
G1 X117.947 Y107.753 E0.01218
G1 X118.313 Y107.793 E0.01152
G1 X118.714 Y107.879 E0.01288
G1 X119.081 Y108.003 E0.01213
G1 X119.433 Y108.166 E0.01218
G1 X119.766 Y108.366 E0.01218
G1 X120.075 Y108.601 E0.01218
G1 X120.357 Y108.868 E0.01218
G1 X120.609 Y109.164 E0.01218
G1 X120.827 Y109.486 E0.01218
G1 X121.009 Y109.829 E0.01218
G1 X121.152 Y110.190 E0.01218
G1 X121.256 Y110.564 E0.01218
G1 X121.319 Y110.947 E0.01218
G1 X121.340 Y111.335 E0.01218
G1 X121.319 Y111.723 E0.01218
G1 X121.256 Y112.106 E0.01218
G1 X121.152 Y112.480 E0.01218
G1 X121.009 Y112.841 E0.01218
G1 X120.827 Y113.184 E0.01218
G1 X120.609 Y113.506 E0.01218
G1 X120.357 Y113.802 E0.01218
G1 X120.075 Y114.069 E0.01218
G1 X119.766 Y114.304 E0.01218
G1 X119.433 Y114.504 E0.01218
G1 X119.081 Y114.667 E0.01218
G1 X118.713 Y114.791 E0.01218
G1 X118.354 Y114.870 E0.01152
G1 X117.813 Y114.917 E0.01702
G1 X117.753 Y115.294 F10800.000
G1 F1200
G1 X117.539 Y115.294 E0.00673
G1 X117.112 Y115.247 E0.01346
G1 X116.693 Y115.155 E0.01346
G1 X116.286 Y115.018 E0.01346
G1 X115.896 Y114.838 E0.01346
G1 X115.547 Y114.628 E0.01277
G1 X115.186 Y114.356 E0.01416
G1 X114.875 Y114.062 E0.01344
G1 X114.597 Y113.734 E0.01346
G1 X114.356 Y113.379 E0.01346
G1 X114.155 Y113.000 E0.01346
G1 X113.996 Y112.601 E0.01346
G1 X113.881 Y112.187 E0.01346
G1 X113.812 Y111.764 E0.01346
G1 X113.788 Y111.335 E0.01346
G1 X113.812 Y110.906 E0.01346
G1 X113.881 Y110.483 E0.01346
G1 X113.996 Y110.069 E0.01346
G1 X114.155 Y109.670 E0.01346
G1 X114.356 Y109.291 E0.01346
G1 X114.597 Y108.936 E0.01346
G1 X114.875 Y108.608 E0.01346
G1 X115.186 Y108.313 E0.01346
G1 X115.528 Y108.053 E0.01346
G1 X115.896 Y107.832 E0.01346
G1 X116.286 Y107.652 E0.01346
G1 X116.693 Y107.515 E0.01346
G1 X117.112 Y107.423 E0.01346
G1 X117.539 Y107.376 E0.01346
G1 X117.968 Y107.376 E0.01346
G1 X118.373 Y107.420 E0.01277
G1 X118.814 Y107.515 E0.01416
G1 X119.221 Y107.652 E0.01344
G1 X119.610 Y107.832 E0.01346
G1 X119.978 Y108.053 E0.01346
G1 X120.320 Y108.313 E0.01346
G1 X120.632 Y108.608 E0.01346
G1 X120.909 Y108.936 E0.01346
G1 X121.150 Y109.291 E0.01346
G1 X121.351 Y109.670 E0.01346
G1 X121.510 Y110.069 E0.01346
G1 X121.625 Y110.483 E0.01346
G1 X121.695 Y110.906 E0.01346
G1 X121.718 Y111.335 E0.01346
G1 X121.695 Y111.764 E0.01346
G1 X121.625 Y112.187 E0.01346
G1 X121.510 Y112.601 E0.01346
G1 X121.351 Y113.000 E0.01346
G1 X121.150 Y113.379 E0.01346
G1 X120.909 Y113.734 E0.01346
G1 X120.632 Y114.062 E0.01346
G1 X120.320 Y114.357 E0.01346
G1 X119.978 Y114.617 E0.01346
G1 X119.610 Y114.838 E0.01346
G1 X119.221 Y115.018 E0.01346
G1 X118.814 Y115.155 E0.01346
G1 X118.416 Y115.243 E0.01277
G1 X117.967 Y115.294 E0.01416
G1 X117.813 Y115.294 E0.00483
G1 X117.641 Y115.111 F10800.000
G1 X117.868 Y114.689
G1 F1200
G1 X117.572 Y114.684 E0.00188
G1 X117.211 Y114.645 E0.00230
G1 X116.856 Y114.568 E0.00230
G1 X116.511 Y114.454 E0.00231
G1 X116.073 Y114.240 E0.00309
G1 X115.580 Y113.890 E0.00383
G1 X115.336 Y113.665 E0.00210
G1 X115.082 Y113.366 E0.00249
G1 X114.789 Y112.908 E0.00345
G1 X114.573 Y112.406 E0.00346
G1 X114.470 Y112.036 E0.00244
G1 X114.406 Y111.566 E0.00300
G1 X114.418 Y110.972 E0.00377
G1 X114.475 Y110.613 E0.00231
G1 X114.599 Y110.190 E0.00280
G1 X114.709 Y109.927 E0.00181
G1 X114.879 Y109.606 E0.00230
G1 X115.083 Y109.305 E0.00230
G1 X115.316 Y109.026 E0.00230
G1 X115.582 Y108.778 E0.00231
G1 X115.871 Y108.559 E0.00230
G1 X116.183 Y108.373 E0.00230
G1 X116.488 Y108.225 E0.00215
G1 X116.944 Y108.078 E0.00304
G1 X117.211 Y108.025 E0.00172
G1 X117.572 Y107.986 E0.00230
G1 X117.935 Y107.986 E0.00230
G1 X118.276 Y108.020 E0.00217
G1 X118.793 Y108.145 E0.00337
G1 X119.325 Y108.371 E0.00367
G1 X119.637 Y108.556 E0.00231
G1 X120.001 Y108.843 E0.00294
G1 X120.188 Y109.029 E0.00167
G1 X120.423 Y109.305 E0.00230
G1 X120.629 Y109.605 E0.00230
G1 X120.819 Y109.967 E0.00260
G1 X120.932 Y110.264 E0.00202
G1 X121.029 Y110.614 E0.00230
G1 X121.089 Y110.972 E0.00230
G1 X121.111 Y111.332 E0.00229
G1 X121.089 Y111.698 E0.00232
G1 X121.029 Y112.056 E0.00230
G1 X120.932 Y112.406 E0.00230
G1 X120.821 Y112.698 E0.00198
G1 X120.598 Y113.116 E0.00301
G1 X120.423 Y113.365 E0.00193
G1 X120.188 Y113.641 E0.00230
G1 X119.925 Y113.892 E0.00230
G1 X119.637 Y114.114 E0.00231
G1 X119.222 Y114.352 E0.00304
G1 X118.651 Y114.567 E0.00387
G1 X118.333 Y114.641 E0.00207
G1 X117.928 Y114.686 E0.00259
G1 E-0.80000 F2100.00000
G1 Z0.800 F10800.000
G1 X104.944 Y116.238
G1 Z0.200
G1 E0.80000 F2100.00000
G1 F1200
G1 X107.868 Y113.314 E0.12968
G1 X108.085 Y112.719 E0.01986
G1 X108.234 Y112.005 E0.02287
G1 X108.242 Y111.874 E0.00411
G1 X107.867 Y112.248 E0.01661
G1 X107.935 Y111.829 E0.01331
G1 X107.961 Y111.349 E0.01507
G1 X107.949 Y111.101 E0.00781
G1 X108.241 Y110.808 E0.01296
G1 X108.225 Y110.607 E0.00631
G1 X108.078 Y109.933 E0.02164
G1 X108.071 Y109.912 E0.00070
G1 X107.809 Y110.173 E0.01158
G1 X107.710 Y109.820 E0.01149
G1 X107.535 Y109.381 E0.01483
G1 X107.768 Y109.148 E0.01034
G1 X107.504 Y108.657 E0.01747
G1 X107.373 Y108.477 E0.00700
G1 X107.147 Y108.703 E0.01001
G1 X106.993 Y108.479 E0.00851
G1 X106.677 Y108.106 E0.01533
G1 X106.893 Y107.890 E0.00961
G1 X106.603 Y107.593 E0.01302
G1 X106.334 Y107.382 E0.01071
G1 X106.111 Y107.605 E0.00989
G1 X105.886 Y107.436 E0.00884
G1 X105.466 Y107.184 E0.01536
G1 X105.693 Y106.957 E0.01005
G1 X105.422 Y106.807 E0.00969
G1 X104.960 Y106.623 E0.01559
G1 X104.713 Y106.870 E0.01097
G1 X104.503 Y106.801 E0.00691
G1 X104.034 Y106.698 E0.01507
G1 X103.841 Y106.676 E0.00609
G1 X104.126 Y106.391 E0.01263
G1 X103.435 Y106.318 E0.02179
G1 X103.121 Y106.329 E0.00984
G1 X102.786 Y106.664 E0.01484
G1 X102.485 Y106.698 E0.00951
G1 X102.016 Y106.801 E0.01507
G1 X101.533 Y106.963 E0.01596
G1 X101.328 Y107.055 E0.00704
G1 X102.102 Y106.282 E0.03430
G1 E-0.80000 F2100.00000
G1 Z0.800 F10800.000
G1 X103.481 Y109.169
G1 Z0.200
G1 E0.80000 F2100.00000
G1 F1200
G1 X101.252 Y111.398 E0.09885
G1 X101.291 Y111.753 E0.01121
G1 X101.368 Y112.023 E0.00880
G1 X101.468 Y112.248 E0.00771
G1 X104.173 Y109.544 E0.11991
G1 X104.385 Y109.666 E0.00769
G1 X104.606 Y109.839 E0.00880
G1 X104.772 Y110.011 E0.00748
G1 X101.937 Y112.846 E0.12571
G1 X102.253 Y113.078 E0.01230
G1 X102.613 Y113.236 E0.01233
G1 X105.161 Y110.689 E0.11296
G1 X105.253 Y111.055 E0.01184
G1 X105.272 Y111.335 E0.00880
G1 X105.240 Y111.676 E0.01076
G1 X103.407 Y113.509 E0.08125
G1 E-0.80000 F2100.00000
G1 Z0.800 F10800.000
G1 X103.612 Y116.504
G1 Z0.200
G1 E0.80000 F2100.00000
G1 F1200
G1 X104.175 Y115.941 E0.02497
G1 X104.006 Y115.976 E0.00541
