; generated by PrusaSlicer 2.1.1+win64 on 2020-06-03 at 16:30:33 UTC

; 

; external perimeters extrusion width = 0.45mm
; perimeters extrusion width = 0.45mm
; infill extrusion width = 0.45mm
; solid infill extrusion width = 0.45mm
; top infill extrusion width = 0.40mm
; support material extrusion width = 0.35mm
; first layer extrusion width = 0.42mm

M73 P0 R38
M201 X9000 Y9000 Z500 E10000 ; sets maximum accelerations, mm/sec^2
M203 X500 Y500 Z12 E120 ; sets maximum feedrates, mm/sec
M204 P2000 R1500 T2000 ; sets acceleration (P, T) and retract acceleration (R), mm/sec^2
M205 X10.00 Y10.00 Z0.20 E2.50 ; sets the jerk limits, mm/sec
M205 S0 T0 ; sets the minimum extruding and travel feed rate, mm/sec
M107
M862.3 P "MK2.5SMMU2S" ; printer model check
M862.1 P0.4 ; nozzle diameter check
M115 U3.8.0 ; tell printer latest fw version
G90 ; use absolute coordinates
M83 ; extruder relative mode
M104 S215 ; set extruder temp
M140 S60 ; set bed temp
Tx
M190 S60 ; wait for bed temp
M109 S215 ; wait for extruder temp
G28 W ; home all without mesh bed level
G80 ; mesh bed leveling

G21 ; set units to millimeters

;go outside print area
G1 Y-3.0 F1000.0
G1 Z0.4 F1000.0
; select extruder
Tc
; purge line
G1 X55.0 F2000.0
G1 Z0.3 F1000.0
G92 E0.0
G1 X240.0 E25.0 F2200.0
M73 P0 R38
G1 Y-2.0 F1000.0
G1 X55.0 E25 F1400.0
G1 Z0.20 F1000.0
G1 X5.0 E4.0 F1000.0
G92 E0.0
G21 ; set units to millimeters
G90 ; use absolute coordinates
M83 ; use relative distances for extrusion
M900 K30 ; Filament gcode
;BEFORE_LAYER_CHANGE
G92 E0.0
;0.2


G1 E-0.80000 F2100.00000
G1 Z0.600 F10800.000
;AFTER_LAYER_CHANGE
;0.2
G1 X88.351 Y83.369
G1 Z0.200
G1 E0.80000 F2100.00000
M204 S1000
G1 F1200
G1 X96.085 Y75.621 E0.34323
G1 X96.669 Y75.211 E0.02236
G1 X106.295 Y71.412 E0.32447
G1 X106.769 Y71.356 E0.01498
G1 X113.317 Y71.356 E0.20531
G1 X113.810 Y71.413 E0.01555
G1 X114.277 Y71.579 E0.01555
G1 X121.446 Y75.345 E0.25390
G1 X152.534 Y99.160 E1.22789
G1 X161.479 Y108.089 E0.39627
G1 X161.782 Y108.472 E0.01532
G1 X162.022 Y109.003 E0.01828
G1 X162.114 Y109.579 E0.01828
G1 X162.114 Y122.704 E0.41153
G1 X161.601 Y126.220 E0.11142
G1 X161.395 Y126.671 E0.01555
G1 X161.092 Y127.064 E0.01555
G1 X153.485 Y134.671 E0.33730
G1 X153.105 Y134.972 E0.01521
G1 X152.489 Y135.236 E0.02100
G1 X144.832 Y137.158 E0.24752
G1 X144.348 Y137.220 E0.01532
G1 X134.267 Y137.205 E0.31608
G1 X128.643 Y135.353 E0.18565
G1 X99.765 Y117.553 E1.06364
G1 X99.169 Y117.111 E0.02325
G1 X98.177 Y116.065 E0.04519
G1 X88.028 Y102.077 E0.54187
G1 X87.717 Y101.225 E0.02844
G1 X87.358 Y97.413 E0.12005
G1 X87.356 Y87.489 E0.31116
G1 X87.914 Y84.244 E0.10324
G1 X88.083 Y83.781 E0.01544
G1 X88.319 Y83.419 E0.01356
G1 E-0.80000 F2100.00000
G1 Z0.800 F10800.000
G1 X89.858 Y91.342
G1 Z0.200
G1 E0.80000 F2100.00000
G1 F1200
G1 X107.222 Y73.978 E0.76994
G1 X106.788 Y73.544 E0.01923
G1 X101.894 Y78.438 E0.21701
G1 X101.794 Y78.339 E0.00442
G1 X91.076 Y89.057 E0.47527
G1 X90.543 Y88.524 E0.02365
G1 X101.261 Y77.805 E0.47527
G1 X100.728 Y77.272 E0.02365
G1 X90.009 Y87.991 E0.47527
G1 X89.544 Y87.525 E0.02063
G1 X91.176 Y85.894 E0.07234
G1 X91.108 Y85.826 E0.00302
G1 X98.563 Y78.370 E0.33060
G1 X98.030 Y77.837 E0.02365
G1 X90.574 Y85.293 E0.33060
G1 X90.041 Y84.759 E0.02365
G1 X97.617 Y77.184 E0.33592
G1 E-0.80000 F2100.00000
G1 Z0.800 F10800.000
G1 X115.550 Y107.245
G1 Z0.200
G1 E0.80000 F2100.00000
G1 F1200
G1 X121.019 Y101.776 E0.24251
G1 X119.952 Y101.776 E0.03344
G1 X115.136 Y106.592 E0.21355
G1 X114.945 Y106.401 E0.00849
G1 X113.314 Y108.032 E0.07234
G1 X112.972 Y107.690 E0.01516
G1 X118.886 Y101.776 E0.26224
G1 X117.819 Y101.776 E0.03344
G1 X112.438 Y107.157 E0.23859
G1 X111.905 Y106.624 E0.02365
G1 X116.753 Y101.776 E0.21494
G1 X115.686 Y101.776 E0.03344
G1 X109.740 Y107.722 E0.26364
G1 X109.207 Y107.188 E0.02365
G1 X114.619 Y101.776 E0.23999
G1 X113.553 Y101.776 E0.03344
G1 X108.674 Y106.655 E0.21634
G1 X108.419 Y106.401 E0.01128
G1 X106.788 Y108.032 E0.07234
G1 X106.509 Y107.753 E0.01236
G1 X112.486 Y101.776 E0.26503
G1 X111.420 Y101.776 E0.03344
G1 X105.976 Y107.220 E0.24139
G1 X105.443 Y106.687 E0.02365
G1 X110.353 Y101.776 E0.21774
G1 X109.287 Y101.776 E0.03344
G1 X103.278 Y107.785 E0.26643
G1 X102.745 Y107.251 E0.02365
G1 X108.220 Y101.776 E0.24279
G1 X107.154 Y101.776 E0.03344
G1 X102.212 Y106.718 E0.21914
G1 X101.894 Y106.401 E0.01408
G1 X100.263 Y108.032 E0.07234
G1 X100.047 Y107.816 E0.00957
G1 X106.087 Y101.776 E0.26783
G1 X105.021 Y101.776 E0.03344
G1 X99.514 Y107.283 E0.24418
G1 X98.980 Y106.750 E0.02365
G1 X103.954 Y101.776 E0.22054
G1 X102.888 Y101.776 E0.03344
G1 X96.816 Y107.848 E0.26923
G1 X96.283 Y107.314 E0.02365
G1 X101.821 Y101.776 E0.24558
G1 X100.754 Y101.776 E0.03344
G1 X95.749 Y106.781 E0.22194
G1 X95.216 Y106.248 E0.02365
G1 X99.688 Y101.776 E0.19829
G1 X98.621 Y101.776 E0.03344
G1 X94.683 Y105.715 E0.17464
G1 X94.149 Y105.181 E0.02365
G1 X97.555 Y101.776 E0.15100
G1 X97.532 Y101.776 E0.00071
G1 X97.224 Y101.468 E0.01366
G1 X97.224 Y101.040 E0.01341
G1 X93.616 Y104.648 E0.15998
G1 X93.083 Y104.115 E0.02365
G1 X97.224 Y99.974 E0.18362
G1 X97.224 Y98.907 E0.03344
G1 X92.550 Y103.582 E0.20727
G1 X92.016 Y103.048 E0.02365
G1 X97.224 Y97.841 E0.23091
G1 X97.224 Y96.774 E0.03344
G1 X91.483 Y102.515 E0.25456
G1 X90.950 Y101.982 E0.02365
G1 X97.224 Y95.708 E0.27821
G1 X97.224 Y94.641 E0.03344
G1 X90.417 Y101.448 E0.30185
G1 X89.883 Y100.915 E0.02365
G1 X97.224 Y93.575 E0.32550
G1 X97.224 Y92.508 E0.03344
G1 X90.981 Y98.751 E0.27681
G1 X90.448 Y98.217 E0.02365
G1 X97.224 Y91.441 E0.30045
G1 X97.224 Y90.375 E0.03344
G1 X89.915 Y97.684 E0.32410
G1 X89.544 Y97.313 E0.01643
G1 X91.176 Y95.682 E0.07234
G1 X91.013 Y95.519 E0.00721
G1 X97.224 Y89.308 E0.27541
G1 X97.224 Y88.242 E0.03344
G1 X90.480 Y94.986 E0.29905
G1 X89.946 Y94.453 E0.02365
G1 X97.224 Y87.175 E0.32270
G1 X97.224 Y86.109 E0.03344
G1 X91.044 Y92.288 E0.27401
G1 X90.511 Y91.755 E0.02365
G1 X97.224 Y85.042 E0.29766
G1 X97.224 Y84.532 E0.01599
G1 X97.532 Y84.224 E0.01366
G1 X98.042 Y84.224 E0.01599
G1 X107.755 Y74.511 E0.43068
G1 X108.288 Y75.044 E0.02365
G1 X99.109 Y84.224 E0.40704
G1 X100.175 Y84.224 E0.03344
G1 X110.453 Y73.946 E0.45573
G1 X110.986 Y74.480 E0.02365
G1 X101.242 Y84.224 E0.43208
G1 X102.308 Y84.224 E0.03344
G1 X111.519 Y75.013 E0.40843
G1 X111.682 Y75.176 E0.00721
G1 X113.314 Y73.544 E0.07234
G1 X113.684 Y73.915 E0.01643
G1 X103.375 Y84.224 E0.45713
G1 X104.441 Y84.224 E0.03344
G1 X114.217 Y74.448 E0.43348
G1 X114.751 Y74.981 E0.02365
G1 X105.508 Y84.224 E0.40983
G1 X106.575 Y84.224 E0.03344
G1 X115.284 Y75.515 E0.38619
G1 X115.817 Y76.048 E0.02365
G1 X107.641 Y84.224 E0.36254
G1 X108.708 Y84.224 E0.03344
G1 X116.350 Y76.581 E0.33889
G1 X116.884 Y77.114 E0.02365
G1 X109.774 Y84.224 E0.31525
G1 X110.841 Y84.224 E0.03344
G1 X117.417 Y77.648 E0.29160
G1 X117.950 Y78.181 E0.02365
G1 X111.907 Y84.224 E0.26796
G1 X112.974 Y84.224 E0.03344
G1 X120.115 Y77.083 E0.31665
G1 X120.648 Y77.616 E0.02365
G1 X114.040 Y84.224 E0.29300
G1 X115.107 Y84.224 E0.03344
G1 X121.181 Y78.149 E0.26935
G1 X121.715 Y78.683 E0.02365
G1 X116.173 Y84.224 E0.24571
G1 X117.240 Y84.224 E0.03344
G1 X122.248 Y79.216 E0.22206
G1 X122.781 Y79.749 E0.02365
G1 X118.307 Y84.224 E0.19842
G1 X119.373 Y84.224 E0.03344
G1 X123.314 Y80.283 E0.17477
M73 P2 R37
G1 X123.848 Y80.816 E0.02365
G1 X120.440 Y84.224 E0.15112
G1 X121.468 Y84.224 E0.03224
G1 X121.487 Y84.243 E0.00085
G1 X124.381 Y81.349 E0.12833
G1 X124.914 Y81.882 E0.02365
G1 X121.776 Y85.021 E0.13916
G1 X121.776 Y86.087 E0.03344
G1 X125.448 Y82.416 E0.16280
G1 X125.981 Y82.949 E0.02365
G1 X121.776 Y87.154 E0.18645
G1 X121.776 Y88.220 E0.03344
G1 X126.514 Y83.482 E0.21009
G1 X127.047 Y84.015 E0.02365
G1 X121.776 Y89.287 E0.23374
G1 X121.776 Y90.353 E0.03344
G1 X127.581 Y84.549 E0.25739
G1 X128.114 Y85.082 E0.02365
G1 X121.776 Y91.420 E0.28103
G1 X121.776 Y92.486 E0.03344
G1 X128.647 Y85.615 E0.30468
G1 X128.926 Y85.894 E0.01236
G1 X127.295 Y87.525 E0.07234
G1 X127.549 Y87.780 E0.01128
G1 X121.776 Y93.553 E0.25599
G1 X121.776 Y94.619 E0.03344
G1 X128.082 Y88.313 E0.27963
G1 X128.616 Y88.846 E0.02365
G1 X121.776 Y95.686 E0.30328
G1 X121.776 Y96.753 E0.03344
G1 X127.518 Y91.011 E0.25459
G1 X128.051 Y91.544 E0.02365
G1 X121.776 Y97.819 E0.27824
G1 X121.776 Y98.886 E0.03344
G1 X128.584 Y92.078 E0.30188
G1 X128.926 Y92.419 E0.01516
G1 X127.295 Y94.051 E0.07234
G1 X127.486 Y94.242 E0.00849
G1 X121.776 Y99.952 E0.25319
G1 X121.776 Y101.019 E0.03344
G1 X128.019 Y94.775 E0.27684
G1 X128.553 Y95.309 E0.02365
G1 X116.203 Y107.659 E0.54761
G1 X116.576 Y108.032 E0.01656
G1 X118.208 Y106.401 E0.07234
G1 X118.367 Y106.560 E0.00709
G1 X127.455 Y97.473 E0.40294
G1 X127.988 Y98.007 E0.02365
G1 X118.901 Y107.094 E0.40294
G1 X119.434 Y107.627 E0.02365
G1 X128.521 Y98.540 E0.40294
G1 X128.926 Y98.945 E0.01796
G1 X127.295 Y100.576 E0.07234
G1 X127.423 Y100.705 E0.00569
G1 X121.599 Y106.529 E0.25826
G1 X122.132 Y107.062 E0.02365
G1 X127.956 Y101.238 E0.25826
G1 X128.490 Y101.771 E0.02365
G1 X122.545 Y107.715 E0.26358
G1 E-0.80000 F2100.00000
G1 Z0.800 F10800.000
G1 X107.229 Y98.090
G1 Z0.200
G1 E0.80000 F2100.00000
G1 F1200
G1 X106.863 Y98.059 E0.01152
G1 X106.507 Y97.966 E0.01153
G1 X106.173 Y97.814 E0.01150
G1 X105.870 Y97.606 E0.01154
G1 X105.608 Y97.350 E0.01145
G1 X105.394 Y97.051 E0.01154
G1 X105.236 Y96.721 E0.01147
G1 X105.139 Y96.368 E0.01149
G1 X105.106 Y96.001 E0.01154
G1 X105.139 Y95.634 E0.01154
G1 X105.236 Y95.282 E0.01145
G1 X105.394 Y94.951 E0.01152
G1 X105.610 Y94.650 E0.01160
G1 X105.869 Y94.397 E0.01135
G1 X106.173 Y94.189 E0.01156
G1 X106.507 Y94.036 E0.01150
G1 X106.863 Y93.943 E0.01153
G1 X107.220 Y93.912 E0.01126
G1 X107.595 Y93.943 E0.01177
G1 X107.951 Y94.036 E0.01155
G1 X108.286 Y94.189 E0.01154
G1 X108.603 Y94.408 E0.01209
G1 X108.958 Y94.787 E0.01626
G1 X109.150 Y95.114 E0.01190
G1 X109.283 Y95.470 E0.01191
G1 X109.354 Y96.001 E0.01681
G1 X109.283 Y96.532 E0.01681
G1 X109.150 Y96.888 E0.01191
G1 X108.958 Y97.215 E0.01189
G1 X108.601 Y97.597 E0.01638
G1 X108.285 Y97.813 E0.01200
G1 X107.951 Y97.966 E0.01152
G1 X107.596 Y98.059 E0.01151
G1 X107.289 Y98.085 E0.00967
G1 X107.229 Y97.712 F10800.000
G1 F1200
G1 X106.927 Y97.686 E0.00950
G1 X106.634 Y97.609 E0.00950
G1 X106.359 Y97.484 E0.00946
G1 X106.110 Y97.313 E0.00949
G1 X105.896 Y97.104 E0.00939
G1 X105.720 Y96.859 E0.00946
G1 X105.591 Y96.589 E0.00938
G1 X105.512 Y96.300 E0.00938
G1 X105.485 Y96.001 E0.00942
G1 X105.512 Y95.702 E0.00942
G1 X105.591 Y95.414 E0.00934
G1 X105.720 Y95.143 E0.00941
G1 X105.897 Y94.897 E0.00952
G1 X106.109 Y94.689 E0.00930
G1 X106.359 Y94.518 E0.00951
G1 X106.634 Y94.393 E0.00946
G1 X106.927 Y94.316 E0.00950
G1 X107.221 Y94.291 E0.00926
G1 X107.531 Y94.316 E0.00974
G1 X107.824 Y94.393 E0.00950
G1 X108.099 Y94.519 E0.00949
G1 X108.356 Y94.695 E0.00977
G1 X108.654 Y95.014 E0.01368
G1 X108.809 Y95.276 E0.00955
G1 X108.915 Y95.562 E0.00954
G1 X108.974 Y96.001 E0.01390
G1 X108.915 Y96.440 E0.01390
G1 X108.809 Y96.726 E0.00954
G1 X108.654 Y96.988 E0.00955
G1 X108.354 Y97.309 E0.01378
G1 X108.099 Y97.484 E0.00967
G1 X107.824 Y97.609 E0.00948
G1 X107.532 Y97.686 E0.00948
G1 X107.289 Y97.707 E0.00764
G1 X107.078 Y97.974 F10800.000
G1 E-0.80000 F2100.00000
G1 Z0.800 F10800.000
G1 X111.771 Y98.090
G1 Z0.200
G1 E0.80000 F2100.00000
G1 F1200
G1 X111.404 Y98.059 E0.01155
G1 X111.049 Y97.966 E0.01151
G1 X110.715 Y97.813 E0.01151
G1 X110.413 Y97.607 E0.01147
G1 X110.149 Y97.349 E0.01156
G1 X109.936 Y97.050 E0.01150
G1 X109.778 Y96.719 E0.01150
G1 X109.681 Y96.366 E0.01149
G1 X109.648 Y95.988 E0.01190
G1 X109.717 Y95.470 E0.01640
G1 X109.850 Y95.114 E0.01191
G1 X110.042 Y94.787 E0.01190
G1 X110.399 Y94.405 E0.01638
G1 X110.715 Y94.189 E0.01199
G1 X111.050 Y94.036 E0.01157
G1 X111.414 Y93.942 E0.01178
G1 X111.771 Y93.912 E0.01122
G1 X112.137 Y93.943 E0.01152
G1 X112.493 Y94.036 E0.01153
G1 X112.827 Y94.188 E0.01150
G1 X113.130 Y94.396 E0.01154
G1 X113.392 Y94.652 E0.01145
G1 X113.606 Y94.951 E0.01154
G1 X113.764 Y95.281 E0.01147
G1 X113.861 Y95.634 E0.01149
G1 X113.894 Y96.001 E0.01154
G1 X113.859 Y96.381 E0.01195
G1 X113.699 Y96.877 E0.01635
G1 X113.501 Y97.214 E0.01225
G1 X113.142 Y97.598 E0.01647
G1 X112.827 Y97.814 E0.01198
G1 X112.493 Y97.966 E0.01150
G1 X112.137 Y98.059 E0.01153
G1 X111.831 Y98.085 E0.00964
G1 X111.771 Y97.712 F10800.000
G1 F1200
G1 X111.469 Y97.686 E0.00952
G1 X111.176 Y97.609 E0.00948
G1 X110.901 Y97.484 E0.00948
G1 X110.653 Y97.314 E0.00942
G1 X110.437 Y97.102 E0.00949
G1 X110.262 Y96.858 E0.00942
G1 X110.133 Y96.588 E0.00940
G1 X110.054 Y96.299 E0.00938
G1 X110.027 Y95.996 E0.00952
G1 X110.085 Y95.562 E0.01375
G1 X110.191 Y95.276 E0.00954
G1 X110.346 Y95.014 E0.00955
G1 X110.646 Y94.693 E0.01378
G1 X110.901 Y94.518 E0.00967
G1 X111.177 Y94.393 E0.00950
G1 X111.478 Y94.315 E0.00975
G1 X111.771 Y94.290 E0.00923
G1 X112.073 Y94.316 E0.00950
G1 X112.366 Y94.393 E0.00950
G1 X112.641 Y94.518 E0.00946
G1 X112.890 Y94.689 E0.00949
G1 X113.104 Y94.898 E0.00939
G1 X113.280 Y95.143 E0.00946
G1 X113.409 Y95.413 E0.00938
G1 X113.488 Y95.702 E0.00938
G1 X113.515 Y96.001 E0.00942
G1 X113.488 Y96.305 E0.00957
G1 X113.353 Y96.721 E0.01372
G1 X113.197 Y96.987 E0.00965
G1 X112.895 Y97.310 E0.01388
G1 X112.641 Y97.484 E0.00965
G1 X112.366 Y97.609 E0.00946
G1 X112.073 Y97.686 E0.00950
G1 X111.831 Y97.707 E0.00762
G1 X111.619 Y97.975 F10800.000
G1 E-0.80000 F2100.00000
G1 Z0.800 F10800.000
G1 X111.771 Y92.088
G1 Z0.200
G1 E0.80000 F2100.00000
G1 F1200
G1 X111.404 Y92.057 E0.01155
G1 X111.049 Y91.964 E0.01151
G1 X110.715 Y91.811 E0.01151
G1 X110.413 Y91.605 E0.01147
G1 X110.149 Y91.347 E0.01156
G1 X109.936 Y91.048 E0.01150
G1 X109.778 Y90.717 E0.01150
G1 X109.681 Y90.364 E0.01149
G1 X109.648 Y89.986 E0.01190
G1 X109.717 Y89.468 E0.01640
G1 X109.850 Y89.112 E0.01191
G1 X110.042 Y88.785 E0.01189
G1 X110.399 Y88.403 E0.01638
G1 X110.715 Y88.187 E0.01200
G1 X111.050 Y88.034 E0.01157
G1 X111.414 Y87.940 E0.01178
G1 X111.771 Y87.910 E0.01122
G1 X112.137 Y87.941 E0.01152
G1 X112.493 Y88.034 E0.01153
G1 X112.827 Y88.186 E0.01150
G1 X113.130 Y88.394 E0.01154
G1 X113.392 Y88.650 E0.01145
G1 X113.606 Y88.949 E0.01154
G1 X113.764 Y89.279 E0.01147
G1 X113.861 Y89.632 E0.01149
G1 X113.894 Y89.999 E0.01154
G1 X113.859 Y90.379 E0.01195
G1 X113.699 Y90.875 E0.01635
G1 X113.501 Y91.212 E0.01225
G1 X113.142 Y91.596 E0.01647
G1 X112.827 Y91.811 E0.01198
G1 X112.493 Y91.964 E0.01150
G1 X112.137 Y92.057 E0.01153
G1 X111.831 Y92.083 E0.00964
G1 X111.771 Y91.710 F10800.000
G1 F1200
G1 X111.469 Y91.684 E0.00952
G1 X111.176 Y91.607 E0.00948
G1 X110.901 Y91.482 E0.00948
G1 X110.653 Y91.312 E0.00942
G1 X110.437 Y91.100 E0.00949
G1 X110.262 Y90.856 E0.00942
G1 X110.133 Y90.585 E0.00940
G1 X110.054 Y90.297 E0.00938
G1 X110.027 Y89.994 E0.00952
G1 X110.085 Y89.560 E0.01375
G1 X110.191 Y89.274 E0.00954
G1 X110.346 Y89.012 E0.00955
G1 X110.646 Y88.691 E0.01378
G1 X110.901 Y88.516 E0.00967
G1 X111.177 Y88.391 E0.00950
G1 X111.478 Y88.313 E0.00975
G1 X111.771 Y88.288 E0.00923
G1 X112.073 Y88.314 E0.00950
G1 X112.366 Y88.391 E0.00950
G1 X112.641 Y88.516 E0.00946
G1 X112.890 Y88.687 E0.00949
G1 X113.104 Y88.896 E0.00939
G1 X113.280 Y89.141 E0.00946
G1 X113.409 Y89.411 E0.00938
G1 X113.488 Y89.700 E0.00938
G1 X113.515 Y89.999 E0.00942
G1 X113.488 Y90.303 E0.00957
G1 X113.353 Y90.719 E0.01372
G1 X113.197 Y90.984 E0.00965
G1 X112.895 Y91.308 E0.01388
G1 X112.641 Y91.482 E0.00965
G1 X112.366 Y91.607 E0.00946
G1 X112.073 Y91.684 E0.00950
G1 X111.831 Y91.705 E0.00762
G1 X111.619 Y91.973 F10800.000
G1 E-0.80000 F2100.00000
G1 Z0.800 F10800.000
G1 X107.229 Y92.088
G1 Z0.200
G1 E0.80000 F2100.00000
G1 F1200
G1 X106.863 Y92.057 E0.01152
G1 X106.507 Y91.964 E0.01153
G1 X106.173 Y91.812 E0.01150
G1 X105.870 Y91.604 E0.01154
G1 X105.608 Y91.348 E0.01145
G1 X105.394 Y91.049 E0.01154
G1 X105.236 Y90.719 E0.01147
G1 X105.139 Y90.366 E0.01149
G1 X105.106 Y89.999 E0.01154
G1 X105.139 Y89.632 E0.01154
G1 X105.236 Y89.280 E0.01145
G1 X105.394 Y88.949 E0.01152
G1 X105.610 Y88.648 E0.01161
G1 X105.869 Y88.395 E0.01136
G1 X106.173 Y88.186 E0.01156
