; generated by PrusaSlicer 2.0.0+ on 2019-09-17 at 15:51:23

; 

; external perimeters extrusion width = 0.45mm
; perimeters extrusion width = 0.45mm
; infill extrusion width = 0.45mm
; solid infill extrusion width = 0.45mm
; top infill extrusion width = 0.40mm
; first layer extrusion width = 0.42mm

M73 P0 R11
M201 X9000 Y9000 Z500 E10000 ; sets maximum accelerations, mm/sec^2
M203 X500 Y500 Z12 E120 ; sets maximum feedrates, mm/sec
M204 P2000 R1500 T2000 ; sets acceleration (P, T) and retract acceleration (R), mm/sec^2
M205 X10.00 Y10.00 Z0.20 E2.50 ; sets the jerk limits, mm/sec
M205 S0 T0 ; sets the minimum extruding and travel feed rate, mm/sec
M107
M115 U3.7.2 ; tell printer latest fw version
G90 ; use absolute coordinates
M83 ; extruder relative mode
M104 S230 ; set extruder temp
M140 S60 ; set bed temp
Tx
M190 S60 ; wait for bed temp
M109 S230 ; wait for extruder temp
G28 W ; home all without mesh bed level
G80 ; mesh bed leveling

G21 ; set units to millimeters

;go outside print area
G1 Y-3.0 F1000.0
G1 Z0.4 F1000.0
; select extruder
Tc
; purge line
G1 X55.0 F2000.0
G1 Z0.3 F1000.0
G92 E0.0
G1 X240.0 E25.0 F2200.0
M73 P1 R11
G1 Y-2.0 F1000.0
G1 X55.0 E25 F1400.0
G1 Z0.20 F1000.0
G1 X5.0 E4.0 F1000.0
G92 E0.0
M900 K30 ; Filament gcode
G21 ; set units to millimeters
G90 ; use absolute coordinates
M83 ; use relative distances for extrusion
;BEFORE_LAYER_CHANGE
G92 E0.0
;0.2


G1 E-0.80000 F2100.00000
G1 Z0.600 F10800.000
;AFTER_LAYER_CHANGE
;0.2
G1 X152.633 Y77.197
G1 Z0.200
G1 E0.80000 F2100.00000
M204 S1000
G1 F1200
G1 X153.292 Y77.739 E0.02676
G1 X153.657 Y78.381 E0.02315
G1 X153.788 Y79.108 E0.02315
G1 X153.781 Y131.223 E1.63402
G1 X153.725 Y131.701 E0.01510
G1 X153.568 Y132.152 E0.01498
G1 X153.314 Y132.561 E0.01510
G1 X152.980 Y132.903 E0.01498
G1 X152.420 Y133.236 E0.02044
G1 X151.786 Y133.390 E0.02044
G1 X103.991 Y137.246 E1.50347
G1 X102.986 Y137.222 E0.03151
G1 X102.215 Y137.111 E0.02441
G1 X101.460 Y136.919 E0.02442
G1 X100.522 Y136.557 E0.03152
G1 X99.188 Y135.757 E0.04878
G1 X98.430 Y135.103 E0.03140
G1 X97.905 Y134.528 E0.02442
G1 X97.249 Y133.590 E0.03586
G1 X96.666 Y132.355 E0.04282
G1 X96.357 Y131.254 E0.03586
G1 X96.221 Y130.125 E0.03564
G1 X96.254 Y79.478 E1.58800
G1 X96.527 Y78.080 E0.04466
G1 X96.958 Y76.965 E0.03749
G1 X97.690 Y75.753 E0.04440
G1 X98.664 Y74.679 E0.04546
G1 X99.831 Y73.812 E0.04558
G1 X101.110 Y73.201 E0.04444
G1 X102.261 Y72.882 E0.03745
G1 X103.675 Y72.747 E0.04455
G1 X151.816 Y76.949 E1.51517
G1 X152.575 Y77.180 E0.02488
G1 F8640
G1 X153.292 Y77.739 E-0.20992
G1 X153.657 Y78.381 E-0.17049
G1 X153.788 Y79.108 E-0.17049
G1 X153.788 Y80.013 E-0.20909
G1 E-0.04000 F2100.00000
G1 Z0.800 F10800.000
G1 X107.508 Y110.607
G1 Z0.200
G1 E0.80000 F2100.00000
G1 F1200
G1 X107.790 Y111.064 E0.01682
G1 X107.986 Y111.478 E0.01438
G1 X108.141 Y111.910 E0.01438
G1 X108.252 Y112.355 E0.01438
G1 X108.319 Y112.809 E0.01438
G1 X108.342 Y113.267 E0.01438
G1 X108.319 Y113.725 E0.01438
G1 X108.252 Y114.179 E0.01438
G1 X108.141 Y114.624 E0.01438
G1 X107.986 Y115.056 E0.01438
G1 X107.790 Y115.470 E0.01438
G1 X107.554 Y115.864 E0.01438
G1 X107.281 Y116.232 E0.01438
G1 X106.973 Y116.572 E0.01438
G1 X106.633 Y116.880 E0.01438
G1 X106.265 Y117.153 E0.01438
G1 X105.871 Y117.389 E0.01438
G1 X105.456 Y117.585 E0.01438
G1 X105.025 Y117.740 E0.01438
G1 X104.580 Y117.851 E0.01438
G1 X104.126 Y117.919 E0.01438
G1 X103.668 Y117.941 E0.01438
G1 X103.210 Y117.919 E0.01438
G1 X102.756 Y117.851 E0.01438
G1 X102.311 Y117.740 E0.01438
G1 X101.879 Y117.585 E0.01438
G1 X101.464 Y117.389 E0.01438
G1 X101.071 Y117.153 E0.01438
G1 X100.702 Y116.880 E0.01438
G1 X100.363 Y116.572 E0.01438
G1 X100.055 Y116.232 E0.01438
G1 X99.781 Y115.864 E0.01438
G1 X99.545 Y115.470 E0.01438
G1 X99.349 Y115.056 E0.01438
G1 X99.195 Y114.624 E0.01438
G1 X99.083 Y114.179 E0.01438
G1 X99.016 Y113.725 E0.01438
G1 X98.994 Y113.267 E0.01438
G1 X99.016 Y112.809 E0.01438
G1 X99.083 Y112.355 E0.01438
G1 X99.195 Y111.910 E0.01438
G1 X99.349 Y111.478 E0.01438
G1 X99.545 Y111.064 E0.01438
G1 X99.781 Y110.670 E0.01438
G1 X100.055 Y110.302 E0.01438
G1 X100.363 Y109.962 E0.01438
G1 X100.702 Y109.654 E0.01438
G1 X101.071 Y109.381 E0.01438
G1 X101.464 Y109.145 E0.01438
G1 X101.879 Y108.949 E0.01438
G1 X102.311 Y108.794 E0.01438
G1 X102.756 Y108.683 E0.01438
G1 X103.206 Y108.616 E0.01427
G1 X103.765 Y108.595 E0.01756
G1 X104.124 Y108.615 E0.01126
G1 X104.580 Y108.683 E0.01444
G1 X105.025 Y108.794 E0.01438
G1 X105.456 Y108.949 E0.01438
G1 X105.871 Y109.145 E0.01438
G1 X106.265 Y109.381 E0.01438
G1 X106.633 Y109.654 E0.01438
G1 X106.973 Y109.962 E0.01438
G1 X107.281 Y110.302 E0.01438
G1 X107.472 Y110.559 E0.01005
G1 X107.775 Y110.334 F10800.000
G1 F1200
G1 X108.123 Y110.886 E0.02044
G1 X108.335 Y111.334 E0.01554
G1 X108.502 Y111.801 E0.01554
G1 X108.622 Y112.281 E0.01554
G1 X108.695 Y112.772 E0.01554
G1 X108.719 Y113.267 E0.01554
G1 X108.695 Y113.762 E0.01554
G1 X108.622 Y114.252 E0.01554
G1 X108.502 Y114.733 E0.01554
G1 X108.335 Y115.200 E0.01554
G1 X108.123 Y115.648 E0.01554
G1 X107.868 Y116.074 E0.01554
G1 X107.573 Y116.472 E0.01554
G1 X107.240 Y116.839 E0.01554
G1 X106.872 Y117.172 E0.01554
G1 X106.474 Y117.467 E0.01554
G1 X106.049 Y117.722 E0.01554
G1 X105.601 Y117.934 E0.01554
G1 X105.134 Y118.101 E0.01554
G1 X104.653 Y118.222 E0.01554
G1 X104.163 Y118.294 E0.01554
G1 X103.668 Y118.319 E0.01554
G1 X103.173 Y118.294 E0.01554
G1 X102.682 Y118.222 E0.01554
G1 X102.201 Y118.101 E0.01554
G1 X101.735 Y117.934 E0.01554
G1 X101.286 Y117.722 E0.01554
G1 X100.861 Y117.467 E0.01554
G1 X100.463 Y117.172 E0.01554
G1 X100.096 Y116.839 E0.01554
G1 X99.763 Y116.472 E0.01554
G1 X99.467 Y116.073 E0.01554
G1 X99.213 Y115.648 E0.01554
G1 X99.001 Y115.200 E0.01554
G1 X98.834 Y114.733 E0.01554
G1 X98.713 Y114.252 E0.01554
G1 X98.640 Y113.762 E0.01554
G1 X98.616 Y113.267 E0.01554
G1 X98.640 Y112.772 E0.01554
G1 X98.713 Y112.281 E0.01554
G1 X98.834 Y111.801 E0.01554
G1 X99.001 Y111.334 E0.01554
G1 X99.213 Y110.886 E0.01554
G1 X99.467 Y110.460 E0.01554
G1 X99.763 Y110.062 E0.01554
G1 X100.096 Y109.695 E0.01554
G1 X100.463 Y109.362 E0.01554
G1 X100.861 Y109.067 E0.01554
G1 X101.286 Y108.812 E0.01554
G1 X101.735 Y108.600 E0.01554
G1 X102.201 Y108.433 E0.01554
G1 X102.682 Y108.312 E0.01554
G1 X103.171 Y108.240 E0.01550
G1 X103.769 Y108.218 E0.01875
G1 X104.162 Y108.240 E0.01235
G1 X104.653 Y108.312 E0.01556
G1 X105.134 Y108.433 E0.01554
G1 X105.601 Y108.600 E0.01554
G1 X106.049 Y108.812 E0.01554
G1 X106.474 Y109.067 E0.01554
G1 X106.872 Y109.362 E0.01554
G1 X107.240 Y109.695 E0.01554
G1 X107.573 Y110.062 E0.01554
G1 X107.739 Y110.286 E0.00875
G1 X107.604 Y110.696 F10800.000
G1 X107.638 Y111.031
G1 F1200
G1 X105.904 Y109.296 E0.07785
G1 F8640
G1 X107.638 Y111.031 E-0.56641
G1 E-0.23359 F2100.00000
G1 Z0.800 F10800.000
G1 X108.039 Y111.971
G1 Z0.200
G1 E0.80000 F2100.00000
G1 F1200
G1 X105.239 Y109.171 E0.12567
G1 X104.942 Y109.065 E0.01000
G1 X104.482 Y108.954 E0.01502
G1 X107.981 Y112.452 E0.15700
G1 X108.038 Y112.837 E0.01232
G1 X108.049 Y113.060 E0.00710
G1 X103.873 Y108.884 E0.18740
G1 X103.342 Y108.894 E0.01683
G1 X108.043 Y113.594 E0.21094
G1 X107.982 Y114.073 E0.01532
G1 X102.862 Y108.953 E0.22979
G1 X102.426 Y109.057 E0.01422
G1 X107.878 Y114.509 E0.24467
G1 X107.738 Y114.909 E0.01345
G1 X102.026 Y109.196 E0.25637
G1 X101.656 Y109.367 E0.01291
G1 X107.568 Y115.278 E0.26530
G1 X107.370 Y115.620 E0.01254
G1 X101.314 Y109.564 E0.27179
G1 X100.997 Y109.787 E0.01229
G1 X107.148 Y115.937 E0.27601
G1 X106.901 Y116.230 E0.01216
G1 X100.704 Y110.034 E0.27810
G1 X100.563 Y110.162 E0.00606
G1 X100.434 Y110.304 E0.00606
G1 X106.631 Y116.500 E0.27809
G1 X106.338 Y116.747 E0.01216
G1 X100.188 Y110.597 E0.27601
G1 X99.965 Y110.914 E0.01229
G1 X106.021 Y116.970 E0.27178
G1 X105.679 Y117.167 E0.01254
G1 X99.767 Y111.256 E0.26530
G1 X99.597 Y111.625 E0.01291
G1 X105.309 Y117.338 E0.25636
G1 X104.909 Y117.477 E0.01345
G1 X99.457 Y112.025 E0.24467
G1 X99.354 Y112.461 E0.01422
G1 X104.474 Y117.581 E0.22978
G1 X103.995 Y117.642 E0.01532
G1 X99.293 Y112.940 E0.21101
G1 X99.287 Y113.474 E0.01694
G1 X103.461 Y117.648 E0.18732
G1 X103.237 Y117.637 E0.00710
G1 X102.853 Y117.580 E0.01233
G1 X99.355 Y114.082 E0.15700
G1 X99.466 Y114.542 E0.01502
G1 X99.572 Y114.838 E0.01001
G1 X102.372 Y117.639 E0.12566
G1 F8640
G1 X100.045 Y115.311 E-0.76000
G1 E-0.04000 F2100.00000
G1 Z0.800 F10800.000
G1 X101.431 Y117.237
G1 Z0.200
G1 E0.80000 F2100.00000
G1 F1200
G1 X99.697 Y115.503 E0.07782
G1 F8640
G1 X101.431 Y117.237 E-0.56626
G1 E-0.23374 F2100.00000
G1 Z0.800 F10800.000
G1 X102.309 Y125.328
G1 Z0.200
G1 E0.80000 F2100.00000
G1 F1200
G1 X102.754 Y125.216 E0.01438
G1 X103.204 Y125.150 E0.01427
G1 X103.764 Y125.129 E0.01756
G1 X104.122 Y125.149 E0.01126
G1 X104.578 Y125.216 E0.01444
G1 X105.023 Y125.328 E0.01438
G1 X105.455 Y125.482 E0.01438
G1 X105.869 Y125.679 E0.01438
G1 X106.263 Y125.914 E0.01438
G1 X106.631 Y126.188 E0.01438
G1 X106.971 Y126.496 E0.01438
G1 X107.279 Y126.836 E0.01438
G1 X107.552 Y127.204 E0.01438
G1 X107.788 Y127.597 E0.01438
G1 X107.984 Y128.012 E0.01438
G1 X108.139 Y128.444 E0.01438
G1 X108.250 Y128.889 E0.01438
G1 X108.318 Y129.343 E0.01438
G1 X108.340 Y129.801 E0.01438
G1 X108.318 Y130.259 E0.01438
G1 X108.250 Y130.713 E0.01438
G1 X108.139 Y131.158 E0.01438
G1 X107.984 Y131.590 E0.01438
G1 X107.788 Y132.004 E0.01438
G1 X107.552 Y132.398 E0.01438
G1 X107.279 Y132.766 E0.01438
G1 X106.971 Y133.106 E0.01438
G1 X106.631 Y133.414 E0.01438
G1 X106.263 Y133.687 E0.01438
G1 X105.869 Y133.923 E0.01438
G1 X105.455 Y134.119 E0.01438
G1 X105.023 Y134.274 E0.01438
G1 X104.578 Y134.385 E0.01438
G1 X104.124 Y134.452 E0.01438
G1 X103.666 Y134.475 E0.01438
G1 X103.208 Y134.452 E0.01438
G1 X102.754 Y134.385 E0.01438
G1 X102.309 Y134.274 E0.01438
G1 X101.877 Y134.119 E0.01438
G1 X101.463 Y133.923 E0.01438
G1 X101.069 Y133.687 E0.01438
G1 X100.701 Y133.414 E0.01438
G1 X100.361 Y133.106 E0.01438
G1 X100.053 Y132.766 E0.01438
G1 X99.780 Y132.398 E0.01438
G1 X99.544 Y132.004 E0.01438
G1 X99.348 Y131.590 E0.01438
G1 X99.193 Y131.158 E0.01438
G1 X99.082 Y130.713 E0.01438
G1 X99.014 Y130.259 E0.01438
G1 X98.992 Y129.801 E0.01438
G1 X99.014 Y129.343 E0.01438
G1 X99.082 Y128.889 E0.01438
G1 X99.193 Y128.444 E0.01438
G1 X99.348 Y128.012 E0.01438
G1 X99.544 Y127.597 E0.01438
G1 X99.780 Y127.204 E0.01438
G1 X100.053 Y126.836 E0.01438
G1 X100.361 Y126.496 E0.01438
G1 X100.701 Y126.188 E0.01438
G1 X101.069 Y125.914 E0.01438
G1 X101.463 Y125.679 E0.01438
G1 X101.877 Y125.482 E0.01438
G1 X102.253 Y125.348 E0.01250
G1 X102.126 Y124.993 F10800.000
G1 F1200
G1 X102.681 Y124.846 E0.01800
G1 X103.170 Y124.774 E0.01550
G1 X103.767 Y124.752 E0.01875
G1 X104.161 Y124.773 E0.01235
G1 X104.652 Y124.846 E0.01556
G1 X105.132 Y124.967 E0.01554
G1 X105.599 Y125.134 E0.01554
G1 X106.047 Y125.346 E0.01554
G1 X106.473 Y125.600 E0.01554
G1 X106.871 Y125.896 E0.01554
G1 X107.238 Y126.229 E0.01554
G1 X107.571 Y126.596 E0.01554
G1 X107.866 Y126.994 E0.01554
G1 X108.121 Y127.419 E0.01554
G1 X108.333 Y127.868 E0.01554
G1 X108.500 Y128.334 E0.01554
G1 X108.621 Y128.815 E0.01554
G1 X108.693 Y129.306 E0.01554
G1 X108.718 Y129.801 E0.01554
G1 X108.693 Y130.296 E0.01554
G1 X108.621 Y130.786 E0.01554
G1 X108.500 Y131.267 E0.01554
G1 X108.333 Y131.734 E0.01554
G1 X108.121 Y132.182 E0.01554
G1 X107.866 Y132.607 E0.01554
G1 X107.571 Y133.006 E0.01554
G1 X107.238 Y133.373 E0.01554
G1 X106.871 Y133.706 E0.01554
G1 X106.473 Y134.001 E0.01554
G1 X106.047 Y134.256 E0.01554
G1 X105.599 Y134.468 E0.01554
G1 X105.132 Y134.635 E0.01554
G1 X104.652 Y134.755 E0.01554
G1 X104.161 Y134.828 E0.01554
G1 X103.666 Y134.852 E0.01554
G1 X103.171 Y134.828 E0.01554
G1 X102.681 Y134.755 E0.01554
G1 X102.200 Y134.635 E0.01554
G1 X101.733 Y134.468 E0.01554
G1 X101.285 Y134.256 E0.01554
G1 X100.860 Y134.001 E0.01554
G1 X100.461 Y133.706 E0.01554
G1 X100.094 Y133.373 E0.01554
G1 X99.761 Y133.006 E0.01554
G1 X99.466 Y132.607 E0.01554
G1 X99.211 Y132.182 E0.01554
G1 X98.999 Y131.734 E0.01554
G1 X98.832 Y131.267 E0.01554
G1 X98.711 Y130.786 E0.01554
G1 X98.639 Y130.296 E0.01554
G1 X98.614 Y129.801 E0.01554
G1 X98.639 Y129.306 E0.01554
G1 X98.711 Y128.815 E0.01554
G1 X98.832 Y128.334 E0.01554
G1 X98.999 Y127.868 E0.01554
G1 X99.211 Y127.419 E0.01554
G1 X99.466 Y126.994 E0.01554
G1 X99.761 Y126.596 E0.01554
G1 X100.094 Y126.229 E0.01554
G1 X100.461 Y125.896 E0.01554
G1 X100.860 Y125.600 E0.01554
G1 X101.285 Y125.346 E0.01554
G1 X101.733 Y125.134 E0.01554
G1 X102.069 Y125.013 E0.01120
G1 X102.421 Y125.264 F10800.000
G1 F8640
G1 X102.681 Y124.846 E-0.14633
G1 X103.170 Y124.774 E-0.11417
G1 X103.767 Y124.752 E-0.13810
G1 X104.161 Y124.773 E-0.09094
G1 X104.652 Y124.846 E-0.11462
G1 X105.132 Y124.967 E-0.11447
G1 X105.301 Y125.027 E-0.04137
G1 E-0.04000 F2100.00000
G1 Z0.800 F10800.000
G1 X105.902 Y125.830
G1 Z0.200
G1 E0.80000 F2100.00000
G1 F1200
G1 X107.637 Y127.565 E0.07785
G1 F8640
G1 X105.902 Y125.830 E-0.56641
G1 E-0.23359 F2100.00000
G1 Z0.800 F10800.000
G1 X108.038 Y128.505
G1 Z0.200
G1 E0.80000 F2100.00000
G1 F1200
G1 X105.237 Y125.705 E0.12567
G1 X104.941 Y125.599 E0.01000
G1 X104.481 Y125.488 E0.01502
G1 X107.979 Y128.986 E0.15700
G1 X108.036 Y129.370 E0.01232
G1 X108.047 Y129.594 E0.00710
G1 X103.871 Y125.418 E0.18740
G1 X103.341 Y125.428 E0.01683
G1 X108.041 Y130.128 E0.21094
G1 X107.980 Y130.607 E0.01532
G1 X102.860 Y125.487 E0.22979
G1 X102.424 Y125.591 E0.01422
G1 X107.876 Y131.043 E0.24467
G1 X107.737 Y131.443 E0.01345
G1 X102.024 Y125.730 E0.25637
G1 X101.655 Y125.901 E0.01291
G1 X107.566 Y131.812 E0.26530
G1 X107.369 Y132.154 E0.01254
G1 X101.313 Y126.098 E0.27179
G1 X100.996 Y126.321 E0.01229
G1 X107.146 Y132.471 E0.27601
G1 X106.899 Y132.764 E0.01216
G1 X100.703 Y126.568 E0.27810
G1 X100.561 Y126.696 E0.00606
G1 X100.433 Y126.838 E0.00606
G1 X106.629 Y133.034 E0.27809
G1 X106.336 Y133.281 E0.01216
G1 X100.186 Y127.131 E0.27601
G1 X99.963 Y127.448 E0.01229
G1 X106.019 Y133.503 E0.27178
G1 X105.677 Y133.701 E0.01254
G1 X99.766 Y127.790 E0.26530
G1 X99.595 Y128.159 E0.01291
G1 X105.308 Y133.871 E0.25636
G1 X104.908 Y134.011 E0.01345
G1 X99.456 Y128.559 E0.24467
G1 X99.352 Y128.995 E0.01422
G1 X104.472 Y134.115 E0.22978
G1 X103.993 Y134.176 E0.01532
G1 X99.291 Y129.474 E0.21101
G1 X99.285 Y130.008 E0.01694
G1 X103.459 Y134.182 E0.18732
G1 X103.236 Y134.171 E0.00710
G1 X102.851 Y134.114 E0.01233
G1 X99.353 Y130.615 E0.15700
G1 X99.464 Y131.075 E0.01502
G1 X99.570 Y131.372 E0.01001
G1 X102.370 Y134.172 E0.12566
G1 F8640
G1 X100.043 Y131.845 E-0.76000
G1 E-0.04000 F2100.00000
G1 Z0.800 F10800.000
G1 X101.430 Y133.771
G1 Z0.200
G1 E0.80000 F2100.00000
G1 F1200
G1 X99.696 Y132.037 E0.07782
G1 F8640
G1 X101.430 Y133.771 E-0.56626
G1 E-0.23374 F2100.00000
G1 Z0.800 F10800.000
G1 X103.210 Y101.385
G1 Z0.200
G1 E0.80000 F2100.00000
G1 F1200
G1 X102.756 Y101.317 E0.01438
G1 X102.311 Y101.206 E0.01438
G1 X101.879 Y101.051 E0.01438
G1 X101.464 Y100.855 E0.01438
G1 X101.071 Y100.619 E0.01438
G1 X100.702 Y100.346 E0.01438
G1 X100.363 Y100.038 E0.01438
G1 X100.055 Y99.698 E0.01438
G1 X99.781 Y99.330 E0.01438
G1 X99.545 Y98.936 E0.01438
G1 X99.349 Y98.522 E0.01438
G1 X99.195 Y98.090 E0.01438
G1 X99.083 Y97.645 E0.01438
G1 X99.016 Y97.191 E0.01438
G1 X98.994 Y96.733 E0.01438
G1 X99.016 Y96.275 E0.01438
G1 X99.083 Y95.821 E0.01438
G1 X99.195 Y95.376 E0.01438
G1 X99.349 Y94.944 E0.01438
G1 X99.545 Y94.530 E0.01438
G1 X99.781 Y94.136 E0.01438
G1 X100.055 Y93.768 E0.01438
G1 X100.363 Y93.428 E0.01438
G1 X100.702 Y93.120 E0.01438
G1 X101.071 Y92.847 E0.01438
G1 X101.464 Y92.611 E0.01438
G1 X101.879 Y92.415 E0.01438
G1 X102.311 Y92.260 E0.01438
G1 X102.756 Y92.149 E0.01438
G1 X103.206 Y92.082 E0.01427
G1 X103.765 Y92.061 E0.01756
G1 X104.124 Y92.081 E0.01126
G1 X104.580 Y92.149 E0.01444
G1 X105.025 Y92.260 E0.01438
G1 X105.456 Y92.415 E0.01438
G1 X105.871 Y92.611 E0.01438
G1 X106.265 Y92.847 E0.01438
G1 X106.633 Y93.120 E0.01438
G1 X106.973 Y93.428 E0.01438
G1 X107.281 Y93.768 E0.01438
G1 X107.554 Y94.136 E0.01438
G1 X107.790 Y94.530 E0.01438
