; generated by PrusaSlicer 2.3.1+win64 on 2021-09-07 at 23:17:00 UTC

; 

; external perimeters extrusion width = 0.45mm
; perimeters extrusion width = 0.45mm
; infill extrusion width = 0.45mm
; solid infill extrusion width = 0.45mm
; top infill extrusion width = 0.40mm
; first layer extrusion width = 0.42mm

M73 P0 R33
M201 X9000 Y9000 Z500 E10000 ; sets maximum accelerations, mm/sec^2
M203 X500 Y500 Z12 E120 ; sets maximum feedrates, mm/sec
M204 P2000 R1500 T2000 ; sets acceleration (P, T) and retract acceleration (R), mm/sec^2
M205 X10.00 Y10.00 Z0.20 E2.50 ; sets the jerk limits, mm/sec
M205 S0 T0 ; sets the minimum extruding and travel feed rate, mm/sec
M107
;TYPE:Custom
M862.3 P "MK2.5SMMU2S" ; printer model check
M862.1 P0.4 ; nozzle diameter check
M115 U3.8.0 ; tell printer latest fw version
G90 ; use absolute coordinates
M83 ; extruder relative mode
M104 S215 ; set extruder temp
M140 S60 ; set bed temp
Tx
M190 S60 ; wait for bed temp
M109 S215 ; wait for extruder temp
G28 W ; home all without mesh bed level
G80 ; mesh bed leveling

G21 ; set units to millimeters

;go outside print area
G1 Y-3.0 F1000.0
G1 Z0.4 F1000.0
; select extruder
Tc
; purge line
G1 X55.0 F2000.0
G1 Z0.3 F1000.0
G92 E0.0
G1 X240.0 E25.0 F2200.0
G1 Y-2.0 F1000.0
G1 X55.0 E25 F1400.0
G1 Z0.20 F1000.0
G1 X5.0 E4.0 F1000.0
G92 E0.0
G21 ; set units to millimeters
G90 ; use absolute coordinates
M83 ; use relative distances for extrusion
M900 K30 ; Filament gcode
;LAYER_CHANGE
;Z:0.2
;HEIGHT:0.2
;BEFORE_LAYER_CHANGE
G92 E0.0
;0.2


G1 E-0.80000 F2100.000
G1 Z0.600 F10800.000
;AFTER_LAYER_CHANGE
;0.2
G1 X78.623 Y101.770
G1 Z0.200
G1 E0.80000 F2100.000
M204 S1000
;TYPE:Skirt
;WIDTH:0.42
G1 F1200.000
G1 X79.059 Y101.055 E0.02626
G1 X79.526 Y100.648 E0.01941
G1 X108.804 Y81.343 E1.09957
M73 P1 R33
G1 X138.678 Y70.201 E0.99972
G1 X139.280 Y70.119 E0.01906
G1 X150.572 Y70.119 E0.35406
G1 X151.182 Y70.200 E0.01929
G1 X151.751 Y70.434 E0.01929
G1 X152.241 Y70.807 E0.01929
G1 X152.618 Y71.293 E0.01929
G1 X171.292 Y105.391 E1.21895
G1 X171.468 Y105.873 E0.01609
G1 X171.537 Y106.378 E0.01597
G1 X171.492 Y112.395 E0.18869
G1 X171.311 Y112.944 E0.01811
G1 X170.634 Y114.214 E0.04513
G1 X170.039 Y114.896 E0.02837
G1 X136.708 Y139.478 E1.29853
G1 X136.124 Y139.742 E0.02012
G1 X135.489 Y139.841 E0.02012
G1 X117.408 Y139.825 E0.56693
G1 X108.847 Y139.545 E0.26856
G1 X108.042 Y139.362 E0.02590
G1 X107.453 Y139.007 E0.02154
G1 X79.324 Y115.734 E1.14471
G1 X78.826 Y115.167 E0.02367
G1 X78.565 Y114.593 E0.01977
G1 X78.463 Y113.971 E0.01977
G1 X78.463 Y102.592 E0.35679
G1 X78.612 Y101.829 E0.02437
G1 E-0.80000 F2100.000
G1 Z0.800 F10800.000
G1 X91.453 Y113.297
G1 Z0.200
G1 E0.80000 F2100.000
;TYPE:Perimeter
G1 F1200.000
G1 X81.589 Y113.297 E0.30929
G1 X81.589 Y103.235 E0.31550
G1 X101.317 Y103.235 E0.61857
G1 X101.317 Y113.297 E0.31550
G1 X91.513 Y113.297 E0.30740
G1 X91.453 Y112.920 F10800.000
;TYPE:External perimeter
G1 F1200.000
G1 X81.966 Y112.920 E0.29746
G1 X81.966 Y103.612 E0.29185
G1 X100.940 Y103.612 E0.59492
G1 X100.940 Y112.920 E0.29185
G1 X91.513 Y112.920 E0.29558
G1 X91.349 Y113.306 F10800.000
G1 X91.453 Y113.316
;TYPE:Perimeter
G1 F1200.000
G1 X81.426 Y113.316 E0.31439
G1 X81.426 Y103.217 E0.31664
G1 X101.480 Y103.217 E0.62877
G1 X101.480 Y113.316 E0.31664
M73 P2 R33
G1 X91.513 Y113.316 E0.31250
G1 X91.453 Y113.693 F10800.000
;TYPE:External perimeter
G1 F1200.000
G1 X81.049 Y113.693 E0.32621
G1 X81.049 Y102.840 E0.34029
G1 X101.857 Y102.840 E0.65242
G1 X101.857 Y113.693 E0.34029
G1 X91.513 Y113.693 E0.32433
G1 X91.168 Y113.412 F10800.000
G1 E-0.80000 F2100.000
G1 Z0.800 F10800.000
G1 X116.606 Y136.485
G1 Z0.200
G1 E0.80000 F2100.000
G1 F1200.000
G1 X109.837 Y136.264 E0.21236
G1 X110.266 Y122.905 E0.41907
G1 X117.051 Y123.128 E0.21286
G1 X116.608 Y136.425 E0.41716
G1 X116.655 Y136.882 F10800.000
G1 X117.215 Y137.231
G1 F1200.000
G1 X109.180 Y136.968 E0.25208
G1 X109.656 Y122.159 E0.46456
G1 X117.709 Y122.423 E0.25263
G1 X117.217 Y137.171 E0.46266
G1 X116.845 Y137.079 F10800.000
G1 X116.857 Y136.848
;TYPE:Gap fill
;WIDTH:0.335442
G1 F1200.000
G1 X109.636 Y136.620 E0.17572
G1 X109.562 Y136.610 E0.00183
G1 X109.514 Y136.442 E0.00424
;WIDTH:0.299705
G1 X109.956 Y122.707 E0.29343
;WIDTH:0.335679
G1 X109.975 Y122.652 E0.00142
;WIDTH:0.371652
G1 X109.995 Y122.597 E0.00159
;WIDTH:0.391738
G1 X110.015 Y122.542 E0.00169
G1 X110.090 Y122.536 E0.00217
G1 X117.252 Y122.772 E0.20785
;WIDTH:0.407638
G1 X117.326 Y122.782 E0.00227
G1 X117.342 Y122.838 E0.00177
;WIDTH:0.299657
G1 X117.374 Y122.950 E0.00249
G1 X116.916 Y136.684 E0.29336
;WIDTH:0.335442
G1 X116.877 Y136.792 E0.00278
G1 E-0.80000 F2100.000
G1 Z0.800 F10800.000
G1 X127.847 Y136.279
G1 Z0.200
G1 E0.80000 F2100.000
;TYPE:External perimeter
;WIDTH:0.42
G1 F1200.000
G1 X128.292 Y122.921 E0.41904
G1 X135.061 Y123.143 E0.21236
G1 X134.632 Y136.501 E0.41907
G1 X127.907 Y136.281 E0.21097
G1 X127.469 Y136.410 F10800.000
G1 X127.189 Y136.983
G1 F1200.000
G1 X127.683 Y122.176 E0.46454
G1 X135.718 Y122.439 E0.25208
G1 X135.242 Y137.247 E0.46456
G1 X127.249 Y136.985 E0.25075
G1 X127.268 Y136.591 F10800.000
G1 X127.646 Y136.635
;TYPE:Gap fill
;WIDTH:0.335647
G1 F1200.000
G1 X127.572 Y136.625 E0.00182
G1 X127.524 Y136.457 E0.00426
;WIDTH:0.299626
G1 X127.982 Y122.722 E0.29332
;WIDTH:0.335408
M73 P2 R32
G1 X128.001 Y122.668 E0.00141
;WIDTH:0.371194
G1 X128.021 Y122.613 E0.00159
;WIDTH:0.391007
G1 X128.041 Y122.558 E0.00168
G1 X128.116 Y122.553 E0.00217
G1 X135.262 Y122.786 E0.20694
;WIDTH:0.406967
G1 X135.336 Y122.797 E0.00227
G1 X135.352 Y122.853 E0.00176
;WIDTH:0.299713
G1 X135.384 Y122.965 E0.00248
G1 X134.942 Y136.700 E0.29344
;WIDTH:0.335647
G1 X134.883 Y136.865 E0.00426
G1 X134.808 Y136.870 E0.00182
G1 X127.706 Y136.637 E0.17296
G1 E-0.80000 F2100.000
G1 Z0.800 F10800.000
G1 X120.681 Y113.297
G1 Z0.200
G1 E0.80000 F2100.000
;TYPE:Perimeter
;WIDTH:0.42
G1 F1200.000
G1 X110.817 Y113.297 E0.30929
G1 X110.817 Y103.235 E0.31550
G1 X130.545 Y103.235 E0.61857
M73 P3 R32
G1 X130.545 Y113.297 E0.31550
G1 X120.741 Y113.297 E0.30740
G1 X120.681 Y112.920 F10800.000
;TYPE:External perimeter
G1 F1200.000
G1 X111.194 Y112.920 E0.29746
G1 X111.194 Y103.612 E0.29185
G1 X130.168 Y103.612 E0.59492
G1 X130.168 Y112.920 E0.29185
G1 X120.741 Y112.920 E0.29558
G1 X120.576 Y113.306 F10800.000
G1 X120.681 Y113.316
;TYPE:Perimeter
G1 F1200.000
G1 X110.654 Y113.316 E0.31439
G1 X110.654 Y103.217 E0.31664
G1 X130.708 Y103.217 E0.62877
G1 X130.708 Y113.316 E0.31664
G1 X120.741 Y113.316 E0.31250
G1 X120.681 Y113.693 F10800.000
;TYPE:External perimeter
G1 F1200.000
G1 X110.277 Y113.693 E0.32621
G1 X110.277 Y102.840 E0.34029
G1 X131.085 Y102.840 E0.65242
G1 X131.085 Y113.693 E0.34029
G1 X120.741 Y113.693 E0.32433
G1 X120.396 Y113.412 F10800.000
G1 E-0.80000 F2100.000
G1 Z0.800 F10800.000
G1 X120.681 Y94.024
G1 Z0.200
G1 E0.80000 F2100.000
;TYPE:Perimeter
G1 F1200.000
G1 X110.817 Y94.024 E0.30929
G1 X110.817 Y83.962 E0.31550
G1 X130.545 Y83.962 E0.61857
G1 X130.545 Y94.024 E0.31550
G1 X120.741 Y94.024 E0.30740
G1 X120.681 Y93.647 F10800.000
;TYPE:External perimeter
G1 F1200.000
G1 X111.194 Y93.647 E0.29746
G1 X111.194 Y84.339 E0.29185
G1 X130.168 Y84.339 E0.59492
G1 X130.168 Y93.647 E0.29185
G1 X120.741 Y93.647 E0.29558
G1 X120.576 Y94.033 F10800.000
G1 X120.681 Y94.043
;TYPE:Perimeter
G1 F1200.000
G1 X110.654 Y94.043 E0.31439
G1 X110.654 Y83.944 E0.31664
G1 X130.708 Y83.944 E0.62877
G1 X130.708 Y94.043 E0.31664
G1 X120.741 Y94.043 E0.31250
M73 P4 R32
G1 X120.681 Y94.420 F10800.000
;TYPE:External perimeter
G1 F1200.000
G1 X110.277 Y94.420 E0.32621
G1 X110.277 Y83.567 E0.34029
G1 X131.085 Y83.567 E0.65242
G1 X131.085 Y94.420 E0.34029
G1 X120.741 Y94.420 E0.32433
G1 X120.396 Y94.139 F10800.000
G1 E-0.80000 F2100.000
G1 Z0.800 F10800.000
G1 X144.932 Y92.974
G1 Z0.200
G1 E0.80000 F2100.000
;TYPE:Perimeter
G1 F1200.000
G1 X139.901 Y92.974 E0.15775
G1 X139.901 Y73.246 E0.61857
G1 X149.963 Y73.246 E0.31550
G1 X149.963 Y92.974 E0.61857
G1 X144.992 Y92.974 E0.15587
G1 X144.932 Y92.597 F10800.000
;TYPE:External perimeter
G1 F1200.000
G1 X140.278 Y92.597 E0.14593
G1 X140.278 Y73.623 E0.59492
G1 X149.586 Y73.623 E0.29185
G1 X149.586 Y92.597 E0.59492
G1 X144.992 Y92.597 E0.14404
G1 X144.900 Y92.996 F10800.000
G1 X144.932 Y93.137
;TYPE:Perimeter
G1 F1200.000
G1 X139.882 Y93.137 E0.15832
G1 X139.882 Y73.083 E0.62877
G1 X149.981 Y73.083 E0.31664
G1 X149.981 Y93.137 E0.62877
G1 X144.992 Y93.137 E0.15644
G1 X144.932 Y93.514 F10800.000
;TYPE:External perimeter
G1 F1200.000
G1 X139.505 Y93.514 E0.17014
G1 X139.505 Y72.706 E0.65242
G1 X150.358 Y72.706 E0.34029
G1 X150.358 Y93.514 E0.65242
G1 X144.992 Y93.514 E0.16826
G1 X144.604 Y93.285 F10800.000
G1 E-0.80000 F2100.000
G1 Z0.800 F10800.000
G1 X162.304 Y111.266
G1 Z0.200
G1 E0.80000 F2100.000
;TYPE:Perimeter
G1 F1200.000
G1 X161.906 Y111.145 E0.01303
G1 X161.540 Y110.949 E0.01303
G1 X161.219 Y110.686 E0.01303
G1 X160.955 Y110.364 E0.01303
G1 X160.759 Y109.998 E0.01303
G1 X160.638 Y109.600 E0.01303
G1 X160.598 Y109.187 E0.01303
G1 X160.638 Y108.773 E0.01303
G1 X160.759 Y108.376 E0.01303
G1 X160.955 Y108.009 E0.01303
G1 X161.219 Y107.688 E0.01303
G1 X161.540 Y107.424 E0.01303
G1 X161.906 Y107.229 E0.01303
G1 X162.304 Y107.108 E0.01303
G1 X162.691 Y107.070 E0.01220
G1 X163.127 Y107.107 E0.01372
G1 X163.529 Y107.229 E0.01315
G1 X163.895 Y107.424 E0.01303
G1 X164.216 Y107.688 E0.01303
G1 X164.480 Y108.009 E0.01303
G1 X164.676 Y108.376 E0.01303
G1 X164.796 Y108.773 E0.01303
G1 X164.837 Y109.187 E0.01303
G1 X164.796 Y109.600 E0.01303
G1 X164.676 Y109.998 E0.01303
G1 X164.480 Y110.364 E0.01303
G1 X164.216 Y110.686 E0.01303
G1 X163.895 Y110.949 E0.01303
G1 X163.529 Y111.145 E0.01303
G1 X163.131 Y111.266 E0.01303
G1 X162.717 Y111.306 E0.01303
G1 X162.364 Y111.272 E0.01115
G1 X162.378 Y110.894 F10800.000
;TYPE:External perimeter
G1 F1200.000
G1 X162.051 Y110.795 E0.01070
G1 X161.750 Y110.634 E0.01070
G1 X161.486 Y110.418 E0.01070
G1 X161.270 Y110.154 E0.01070
G1 X161.109 Y109.853 E0.01070
G1 X161.010 Y109.526 E0.01070
G1 X160.977 Y109.187 E0.01070
G1 X161.010 Y108.847 E0.01070
G1 X161.109 Y108.521 E0.01070
G1 X161.270 Y108.220 E0.01070
G1 X161.486 Y107.956 E0.01070
G1 X161.750 Y107.739 E0.01070
G1 X162.051 Y107.579 E0.01070
G1 X162.378 Y107.480 E0.01070
G1 X162.694 Y107.448 E0.00995
G1 X163.056 Y107.479 E0.01139
G1 X163.384 Y107.579 E0.01074
G1 X163.684 Y107.739 E0.01070
G1 X163.948 Y107.956 E0.01070
G1 X164.165 Y108.220 E0.01070
G1 X164.326 Y108.521 E0.01070
G1 X164.425 Y108.847 E0.01070
G1 X164.458 Y109.187 E0.01070
G1 X164.425 Y109.526 E0.01070
G1 X164.326 Y109.853 E0.01070
G1 X164.165 Y110.154 E0.01070
G1 X163.948 Y110.418 E0.01070
G1 X163.684 Y110.634 E0.01070
G1 X163.384 Y110.795 E0.01070
G1 X163.057 Y110.894 E0.01070
G1 X162.717 Y110.928 E0.01070
G1 X162.437 Y110.900 E0.00882
G1 X162.153 Y111.151 F10800.000
G1 E-0.80000 F2100.000
G1 Z0.800 F10800.000
G1 X161.602 Y114.793
G1 Z0.200
G1 E0.80000 F2100.000
;TYPE:Perimeter
G1 F1200.000
G1 X160.530 Y114.468 E0.03514
G1 X159.541 Y113.940 E0.03514
G1 X158.675 Y113.229 E0.03514
G1 X157.964 Y112.363 E0.03514
G1 X157.436 Y111.374 E0.03514
G1 X157.111 Y110.302 E0.03514
G1 X157.001 Y109.187 E0.03514
G1 X157.111 Y108.072 E0.03514
G1 X157.436 Y106.999 E0.03514
G1 X157.964 Y106.011 E0.03514
G1 X158.675 Y105.145 E0.03514
G1 X159.541 Y104.434 E0.03514
G1 X160.530 Y103.906 E0.03514
G1 X161.602 Y103.580 E0.03514
G1 X162.717 Y103.470 E0.03514
G1 X163.809 Y103.578 E0.03441
G1 X164.906 Y103.906 E0.03588
G1 X165.893 Y104.434 E0.03510
G1 X166.759 Y105.145 E0.03514
G1 X167.813 Y106.428 E0.05206
G1 X168.337 Y106.148 E0.01864
G1 X168.366 Y106.203 E0.00195
G1 X167.842 Y106.483 E0.01864
G1 X168.324 Y108.072 E0.05206
G1 X168.434 Y109.187 E0.03514
G1 X168.324 Y110.302 E0.03514
G1 X167.842 Y111.891 E0.05206
M73 P5 R32
G1 X168.366 Y112.171 E0.01864
G1 X168.337 Y112.226 E0.00195
G1 X167.813 Y111.946 E0.01864
G1 X166.759 Y113.229 E0.05206
G1 X165.893 Y113.940 E0.03514
G1 X164.905 Y114.468 E0.03514
G1 X163.833 Y114.793 E0.03514
G1 X162.717 Y114.903 E0.03514
G1 X161.662 Y114.799 E0.03325
G1 X161.528 Y115.165 F10800.000
;TYPE:External perimeter
G1 F1200.000
G1 X160.385 Y114.818 E0.03747
G1 X159.331 Y114.255 E0.03747
G1 X158.407 Y113.497 E0.03746
G1 X157.649 Y112.573 E0.03747
G1 X157.086 Y111.519 E0.03747
G1 X156.739 Y110.376 E0.03747
G1 X156.622 Y109.187 E0.03747
G1 X156.739 Y107.998 E0.03747
G1 X157.086 Y106.854 E0.03746
G1 X157.649 Y105.800 E0.03747
G1 X158.407 Y104.877 E0.03747
G1 X159.331 Y104.119 E0.03746
G1 X160.385 Y103.556 E0.03747
G1 X161.528 Y103.209 E0.03747
G1 X162.717 Y103.092 E0.03746
G1 X163.883 Y103.206 E0.03671
G1 X165.050 Y103.556 E0.03821
G1 X166.104 Y104.119 E0.03745
G1 X167.027 Y104.877 E0.03747
G1 X167.908 Y105.950 E0.04352
G1 X168.492 Y105.638 E0.02076
G1 X168.876 Y106.358 E0.02559
G1 X168.293 Y106.670 E0.02076
G1 X168.696 Y107.998 E0.04352
G1 X168.813 Y109.187 E0.03747
G1 X168.696 Y110.376 E0.03747
G1 X168.293 Y111.704 E0.04352
G1 X168.876 Y112.016 E0.02076
G1 X168.492 Y112.736 E0.02559
G1 X167.908 Y112.424 E0.02076
G1 X167.027 Y113.497 E0.04352
G1 X166.104 Y114.255 E0.03747
G1 X165.050 Y114.818 E0.03746
G1 X163.906 Y115.165 E0.03747
G1 X162.717 Y115.282 E0.03747
G1 X161.588 Y115.171 E0.03558
G1 X161.400 Y114.786 F10800.000
G1 E-0.80000 F2100.000
G1 Z0.800 F10800.000
G1 X164.664 Y114.423
G1 Z0.200
G1 E0.80000 F2100.000
;TYPE:Solid infill
;WIDTH:0.430623
G1 F1200.000
G1 X157.617 Y107.376 E0.32126
G1 X157.490 Y107.797 E0.01417
G1 X164.107 Y114.415 E0.30170
G1 X163.777 Y114.515 E0.01111
G1 X163.669 Y114.525 E0.00349
G1 X157.379 Y108.235 E0.28679
G1 X157.330 Y108.734 E0.01617
G1 X163.170 Y114.574 E0.26628
G1 X162.661 Y114.614 E0.01646
G1 X157.291 Y109.243 E0.24484
G1 X157.351 Y109.851 E0.01970
G1 X162.053 Y114.554 E0.21438
G1 X161.658 Y114.515 E0.01281
G1 X161.382 Y114.431 E0.00928
G1 X157.473 Y110.522 E0.17822
G1 X157.699 Y111.266 E0.02505
G1 X157.733 Y111.331 E0.00238
G1 X160.573 Y114.171 E0.12948
G1 X159.699 Y113.704 E0.03195
G1 X158.911 Y113.056 E0.03289
G1 X157.950 Y112.095 E0.04382
G1 E-0.80000 F2100.000
G1 Z0.800 F10800.000
G1 X167.826 Y111.554
G1 Z0.200
G1 E0.80000 F2100.000
G1 F1200.000
G1 X165.084 Y108.812 E0.12500
G1 X165.121 Y109.187 E0.01213
G1 X165.102 Y109.379 E0.00621
G1 X167.547 Y111.823 E0.11146
G1 X167.300 Y112.125 E0.01256
G1 X165.018 Y109.843 E0.10403
G1 X164.938 Y110.107 E0.00889
G1 X164.867 Y110.240 E0.00487
G1 X167.053 Y112.426 E0.09965
G1 X166.806 Y112.727 E0.01256
G1 X164.664 Y110.585 E0.09763
G1 X164.417 Y110.887 E0.01256
G1 X166.559 Y113.028 E0.09763
G1 X166.257 Y113.275 E0.01256
G1 X164.116 Y111.134 E0.09763
G1 X164.053 Y111.186 E0.00263
G1 X163.770 Y111.337 E0.01032
G1 X165.956 Y113.522 E0.09965
G1 X165.735 Y113.704 E0.00921
G1 X165.640 Y113.755 E0.00348
G1 X163.373 Y111.488 E0.10335
G1 X163.186 Y111.544 E0.00630
G1 X162.909 Y111.572 E0.00898
G1 X165.283 Y113.946 E0.10822
G1 X164.925 Y114.137 E0.01306
G1 X162.116 Y111.327 E0.12809
G1 E-0.80000 F2100.000
G1 Z0.800 F10800.000
G1 X160.577 Y109.788
G1 Z0.200
G1 E0.80000 F2100.000
G1 F1200.000
G1 X157.768 Y106.979 E0.12809
G1 X157.959 Y106.621 E0.01306
G1 X160.332 Y108.995 E0.10822
G1 X160.360 Y108.718 E0.00898
G1 X160.416 Y108.531 E0.00630
G1 X158.150 Y106.264 E0.10335
G1 X158.201 Y106.169 E0.00348
G1 X158.382 Y105.948 E0.00921
G1 X160.568 Y108.134 E0.09965
G1 X160.719 Y107.851 E0.01032
G1 X160.770 Y107.788 E0.00263
G1 X158.629 Y105.647 E0.09763
G1 X158.876 Y105.346 E0.01256
G1 X161.018 Y107.487 E0.09763
G1 X161.319 Y107.240 E0.01256
G1 X159.177 Y105.099 E0.09763
G1 X159.478 Y104.851 E0.01256
G1 X161.664 Y107.037 E0.09965
G1 X161.797 Y106.966 E0.00487
G1 X162.061 Y106.886 E0.00889
G1 X159.795 Y104.619 E0.10334
G1 X160.152 Y104.428 E0.01306
G1 X162.526 Y106.802 E0.10822
G1 X162.689 Y106.786 E0.00530
G1 X163.092 Y106.820 E0.01303
G1 X160.509 Y104.237 E0.11775
G1 X160.639 Y104.168 E0.00473
G1 X160.907 Y104.087 E0.00904
G1 X167.818 Y110.997 E0.31506
G1 X167.945 Y110.577 E0.01417
G1 X161.328 Y103.959 E0.30170
G1 X161.658 Y103.859 E0.01112
G1 X161.765 Y103.848 E0.00349
G1 X168.056 Y110.139 E0.28680
