; generated by PrusaSlicer 2.2.0+win64 on 2020-12-28 at 20:47:25 UTC

; 

; external perimeters extrusion width = 0.60mm
; perimeters extrusion width = 0.43mm
; infill extrusion width = 0.45mm
; solid infill extrusion width = 0.70mm
; top infill extrusion width = 0.43mm
; first layer extrusion width = 0.42mm

M73 P0 R38
M201 X9000 Y9000 Z500 E10000 ; sets maximum accelerations, mm/sec^2
M203 X500 Y500 Z12 E120 ; sets maximum feedrates, mm/sec
M204 P2000 R1500 T2000 ; sets acceleration (P, T) and retract acceleration (R), mm/sec^2
M205 X10.00 Y10.00 Z0.20 E2.50 ; sets the jerk limits, mm/sec
M205 S0 T0 ; sets the minimum extruding and travel feed rate, mm/sec
M107
M862.3 P "MK2.5SMMU2S" ; printer model check
M862.1 P0.4 ; nozzle diameter check
M115 U3.8.0 ; tell printer latest fw version
G90 ; use absolute coordinates
M83 ; extruder relative mode
M104 S215 ; set extruder temp
M140 S60 ; set bed temp
Tx
M190 S60 ; wait for bed temp
M109 S215 ; wait for extruder temp
G28 W ; home all without mesh bed level
G80 ; mesh bed leveling

G21 ; set units to millimeters

;go outside print area
G1 Y-3.0 F1000.0
G1 Z0.4 F1000.0
; select extruder
Tc
; purge line
G1 X55.0 F2000.0
G1 Z0.3 F1000.0
G92 E0.0
G1 X240.0 E25.0 F2200.0
M73 P0 R38
G1 Y-2.0 F1000.0
G1 X55.0 E25 F1400.0
G1 Z0.20 F1000.0
G1 X5.0 E4.0 F1000.0
G92 E0.0
G21 ; set units to millimeters
G90 ; use absolute coordinates
M83 ; use relative distances for extrusion
M900 K30 ; Filament gcode
;BEFORE_LAYER_CHANGE
G92 E0.0
;0.2


G1 E-0.80000 F2100.00000
G1 Z0.600 F10800.000
;AFTER_LAYER_CHANGE
;0.2
G1 X67.581 Y53.588
G1 Z0.200
G1 E0.80000 F2100.00000
M204 S1000
G1 F1200.000
G1 X70.489 Y50.278 E0.13815
G1 X73.494 Y47.649 E0.12518
G1 X76.927 Y45.355 E0.12947
G1 X80.786 Y43.469 E0.13467
G1 X84.562 Y42.193 E0.12498
G1 X88.597 Y41.390 E0.12900
G1 X92.733 Y41.117 E0.12995
G1 X157.260 Y41.116 E2.02321
G1 X161.532 Y41.411 E0.13425
G1 X165.443 Y42.194 E0.12506
G1 X169.214 Y43.469 E0.12482
G1 X173.064 Y45.350 E0.13435
G1 X176.513 Y47.655 E0.13007
G1 X179.722 Y50.489 E0.13423
G1 X182.348 Y53.491 E0.12506
G1 X184.566 Y56.801 E0.12494
G1 X186.475 Y60.637 E0.13435
G1 X187.832 Y64.666 E0.13328
G1 X188.613 Y68.616 E0.12625
G1 X188.883 Y72.710 E0.12864
G1 X188.879 Y137.397 E2.02823
G1 X188.588 Y141.538 E0.13015
G1 X187.806 Y145.443 E0.12486
G1 X186.531 Y149.214 E0.12482
G1 X184.652 Y153.061 E0.13423
G1 X182.419 Y156.412 E0.12625
G1 X179.628 Y159.612 E0.13316
G1 X176.630 Y162.249 E0.12518
G1 X172.942 Y164.715 E0.13910
G1 X169.356 Y166.478 E0.12530
G1 X165.442 Y167.806 E0.12959
G1 X161.388 Y168.613 E0.12959
G1 X157.389 Y168.880 E0.12566
G1 X92.736 Y168.884 E2.02715
G1 X88.744 Y168.626 E0.12544
G1 X84.565 Y167.808 E0.13352
G1 X80.650 Y166.480 E0.12959
G1 X76.933 Y164.648 E0.12995
G1 X73.588 Y162.419 E0.12601
G1 X70.388 Y159.628 E0.13316
G1 X67.751 Y156.630 E0.12518
G1 X65.285 Y152.942 E0.13910
G1 X63.522 Y149.356 E0.12530
G1 X62.194 Y145.442 E0.12959
G1 X61.387 Y141.388 E0.12959
G1 X61.120 Y137.385 E0.12578
G1 X61.116 Y72.736 E2.02704
G1 X61.374 Y68.744 E0.12544
G1 X62.192 Y64.565 E0.13352
G1 X63.520 Y60.650 E0.12959
G1 X65.352 Y56.933 E0.12995
G1 X67.548 Y53.638 E0.12413
G1 E-0.80000 F2100.00000
G1 Z0.800 F10800.000
G1 X145.455 Y125.455
G1 Z0.200
G1 E0.80000 F2100.00000
G1 F1200.000
G1 X147.097 Y124.016 E0.06845
G1 X148.912 Y122.803 E0.06845
G1 X150.870 Y121.837 E0.06845
G1 X152.937 Y121.136 E0.06845
G1 X155.078 Y120.710 E0.06845
G1 X157.256 Y120.567 E0.06845
G1 X159.435 Y120.710 E0.06845
G1 X161.576 Y121.136 E0.06845
G1 X163.643 Y121.837 E0.06845
G1 X165.601 Y122.803 E0.06845
G1 X167.416 Y124.016 E0.06845
G1 X169.058 Y125.455 E0.06845
G1 X170.497 Y127.097 E0.06845
G1 X171.710 Y128.912 E0.06845
G1 X172.675 Y130.870 E0.06845
G1 X173.377 Y132.937 E0.06845
G1 X173.803 Y135.078 E0.06845
G1 X173.946 Y137.256 E0.06845
G1 X173.803 Y139.435 E0.06845
G1 X173.377 Y141.576 E0.06845
G1 X172.675 Y143.643 E0.06845
G1 X171.710 Y145.601 E0.06845
G1 X170.497 Y147.416 E0.06845
G1 X169.058 Y149.058 E0.06845
G1 X167.416 Y150.497 E0.06845
G1 X165.601 Y151.710 E0.06845
G1 X163.643 Y152.675 E0.06845
G1 X161.576 Y153.377 E0.06845
G1 X159.435 Y153.803 E0.06845
G1 X157.256 Y153.946 E0.06845
G1 X155.078 Y153.803 E0.06845
G1 X152.937 Y153.377 E0.06845
G1 X150.870 Y152.675 E0.06845
G1 X148.912 Y151.710 E0.06845
G1 X147.097 Y150.497 E0.06845
G1 X145.455 Y149.058 E0.06845
G1 X144.016 Y147.416 E0.06845
G1 X142.803 Y145.601 E0.06845
G1 X141.837 Y143.643 E0.06845
G1 X141.136 Y141.576 E0.06845
G1 X140.710 Y139.435 E0.06845
G1 X140.567 Y137.256 E0.06845
G1 X140.710 Y135.078 E0.06845
G1 X141.136 Y132.937 E0.06845
G1 X141.837 Y130.870 E0.06845
G1 X142.803 Y128.912 E0.06845
G1 X144.016 Y127.097 E0.06845
G1 X145.416 Y125.500 E0.06657
G1 X145.699 Y125.749 F10800.000
G1 F1200.000
G1 X147.327 Y124.316 E0.06800
G1 X149.101 Y123.130 E0.06690
G1 X151.014 Y122.187 E0.06690
G1 X153.035 Y121.501 E0.06690
G1 X155.127 Y121.084 E0.06690
G1 X157.256 Y120.945 E0.06690
G1 X159.386 Y121.084 E0.06690
G1 X161.478 Y121.501 E0.06690
G1 X163.499 Y122.187 E0.06690
G1 X165.412 Y123.130 E0.06690
G1 X167.186 Y124.316 E0.06690
G1 X168.790 Y125.722 E0.06690
G1 X170.197 Y127.327 E0.06690
G1 X171.383 Y129.101 E0.06690
G1 X172.326 Y131.014 E0.06690
G1 X173.012 Y133.035 E0.06690
G1 X173.428 Y135.127 E0.06690
G1 X173.568 Y137.256 E0.06690
G1 X173.428 Y139.386 E0.06690
G1 X173.012 Y141.478 E0.06690
G1 X172.326 Y143.499 E0.06690
G1 X171.383 Y145.412 E0.06690
G1 X170.197 Y147.186 E0.06690
G1 X168.790 Y148.790 E0.06690
G1 X167.186 Y150.197 E0.06690
G1 X165.412 Y151.383 E0.06690
G1 X163.499 Y152.326 E0.06690
G1 X161.478 Y153.012 E0.06690
G1 X159.386 Y153.428 E0.06690
G1 X157.256 Y153.568 E0.06690
G1 X155.127 Y153.428 E0.06690
G1 X153.035 Y153.012 E0.06690
G1 X151.014 Y152.326 E0.06690
G1 X149.101 Y151.383 E0.06690
G1 X147.327 Y150.197 E0.06690
G1 X145.722 Y148.790 E0.06690
G1 X144.316 Y147.186 E0.06690
G1 X143.130 Y145.412 E0.06690
G1 X142.187 Y143.499 E0.06690
G1 X141.501 Y141.478 E0.06690
G1 X141.084 Y139.386 E0.06690
G1 X140.945 Y137.256 E0.06690
G1 X141.084 Y135.127 E0.06690
G1 X141.501 Y133.035 E0.06690
G1 X142.187 Y131.014 E0.06690
G1 X143.130 Y129.101 E0.06690
G1 X144.316 Y127.327 E0.06690
G1 X145.660 Y125.794 E0.06391
G1 X145.595 Y125.363 F10800.000
G1 E-0.80000 F2100.00000
G1 Z0.800 F10800.000
G1 X137.131 Y117.131
G1 Z0.200
G1 E0.80000 F2100.00000
G1 F1200.000
G1 X139.930 Y114.677 E0.11673
G1 X143.026 Y112.608 E0.11673
G1 X146.365 Y110.962 E0.11673
G1 X149.890 Y109.765 E0.11673
G1 X153.542 Y109.039 E0.11673
G1 X157.256 Y108.795 E0.11673
G1 X160.971 Y109.039 E0.11673
G1 X164.623 Y109.765 E0.11673
G1 X168.148 Y110.962 E0.11673
G1 X171.487 Y112.608 E0.11673
G1 X174.583 Y114.677 E0.11673
G1 X177.382 Y117.131 E0.11673
G1 X179.836 Y119.930 E0.11673
G1 X181.905 Y123.026 E0.11673
G1 X183.551 Y126.365 E0.11673
G1 X184.748 Y129.890 E0.11673
G1 X185.474 Y133.542 E0.11673
G1 X185.718 Y137.256 E0.11673
G1 X185.474 Y140.971 E0.11673
G1 X184.748 Y144.623 E0.11673
G1 X183.551 Y148.148 E0.11673
G1 X181.905 Y151.487 E0.11673
G1 X179.836 Y154.583 E0.11673
G1 X177.382 Y157.382 E0.11673
G1 X174.583 Y159.836 E0.11673
G1 X171.487 Y161.905 E0.11673
G1 X168.148 Y163.551 E0.11673
G1 X164.623 Y164.748 E0.11673
G1 X160.971 Y165.474 E0.11673
G1 X157.256 Y165.718 E0.11673
G1 X153.542 Y165.474 E0.11673
G1 X149.890 Y164.748 E0.11673
G1 X146.365 Y163.551 E0.11673
G1 X143.026 Y161.905 E0.11673
G1 X139.930 Y159.836 E0.11673
G1 X137.131 Y157.382 E0.11673
G1 X134.677 Y154.583 E0.11673
G1 X132.608 Y151.487 E0.11673
G1 X130.962 Y148.148 E0.11673
G1 X129.765 Y144.623 E0.11673
G1 X129.039 Y140.971 E0.11673
G1 X128.795 Y137.256 E0.11673
G1 X129.039 Y133.542 E0.11673
G1 X129.765 Y129.890 E0.11673
G1 X130.962 Y126.365 E0.11673
G1 X132.608 Y123.026 E0.11673
G1 X134.677 Y119.930 E0.11673
G1 X137.092 Y117.176 E0.11485
G1 X136.808 Y116.928 F10800.000
G1 F1200.000
G1 X139.700 Y114.377 E0.12091
G1 X142.837 Y112.281 E0.11828
G1 X146.220 Y110.613 E0.11828
G1 X149.792 Y109.400 E0.11828
G1 X153.492 Y108.664 E0.11828
G1 X157.256 Y108.417 E0.11828
G1 X161.021 Y108.664 E0.11828
G1 X164.721 Y109.400 E0.11828
G1 X168.293 Y110.613 E0.11828
G1 X171.676 Y112.281 E0.11828
G1 X174.813 Y114.377 E0.11828
G1 X177.649 Y116.864 E0.11828
G1 X180.136 Y119.700 E0.11828
G1 X182.232 Y122.837 E0.11828
G1 X183.900 Y126.220 E0.11828
G1 X185.113 Y129.792 E0.11828
G1 X185.849 Y133.492 E0.11828
G1 X186.096 Y137.256 E0.11828
G1 X185.849 Y141.021 E0.11828
G1 X185.113 Y144.721 E0.11828
G1 X183.900 Y148.293 E0.11828
G1 X182.232 Y151.676 E0.11828
G1 X180.136 Y154.813 E0.11828
G1 X177.649 Y157.649 E0.11828
G1 X174.813 Y160.136 E0.11828
M73 P2 R37
G1 X171.676 Y162.232 E0.11828
G1 X168.293 Y163.900 E0.11828
G1 X164.721 Y165.113 E0.11828
G1 X161.021 Y165.849 E0.11828
G1 X157.256 Y166.096 E0.11828
G1 X153.492 Y165.849 E0.11828
G1 X149.792 Y165.113 E0.11828
G1 X146.220 Y163.900 E0.11828
G1 X142.837 Y162.232 E0.11828
G1 X139.700 Y160.136 E0.11828
G1 X136.864 Y157.649 E0.11828
G1 X134.377 Y154.813 E0.11828
G1 X132.281 Y151.676 E0.11828
G1 X130.613 Y148.293 E0.11828
G1 X129.400 Y144.721 E0.11828
G1 X128.664 Y141.021 E0.11828
G1 X128.417 Y137.256 E0.11828
G1 X128.664 Y133.492 E0.11828
G1 X129.400 Y129.792 E0.11828
G1 X130.613 Y126.220 E0.11828
G1 X132.281 Y122.837 E0.11828
G1 X134.377 Y119.700 E0.11828
G1 X136.769 Y116.973 E0.11374
G1 X137.195 Y117.030 F10800.000
G1 E-0.80000 F2100.00000
G1 Z0.800 F10800.000
G1 X139.169 Y159.018
G1 Z0.200
G1 E0.80000 F2100.00000
G1 F1200.000
G1 X137.330 Y157.179 E0.08180
G1 X134.901 Y154.410 E0.11581
G1 X134.510 Y153.825 E0.02215
G1 X140.688 Y160.003 E0.27478
G1 X142.300 Y161.080 E0.06097
G1 X133.433 Y152.213 E0.39438
G1 X132.854 Y151.345 E0.03280
G1 X132.613 Y150.858 E0.01710
G1 X143.655 Y161.900 E0.49110
G1 X144.710 Y162.420 E0.03700
G1 X132.093 Y149.802 E0.56118
G1 X131.572 Y148.747 E0.03701
G1 X145.766 Y162.940 E0.63126
G1 X146.473 Y163.289 E0.02481
G1 X146.740 Y163.380 E0.00886
G1 X131.133 Y147.773 E0.69415
G1 X130.858 Y146.963 E0.02689
G1 X147.550 Y163.655 E0.74239
G1 X148.360 Y163.930 E0.02689
G1 X130.583 Y146.153 E0.79063
G1 X130.308 Y145.343 E0.02689
G1 X149.169 Y164.205 E0.83887
G1 X149.976 Y164.477 E0.02678
G1 X130.036 Y144.536 E0.88687
G1 X129.903 Y143.869 E0.02141
G1 X150.644 Y164.610 E0.92247
G1 X151.312 Y164.742 E0.02141
G1 X129.771 Y143.201 E0.95807
G1 X129.638 Y142.533 E0.02141
G1 X151.980 Y164.875 E0.99368
G1 X152.647 Y165.008 E0.02141
G1 X129.505 Y141.866 E1.02928
G1 X129.372 Y141.198 E0.02141
G1 X153.315 Y165.141 E1.06488
G1 X153.579 Y165.193 E0.00845
G1 X153.925 Y165.216 E0.01092
G1 X129.297 Y140.588 E1.09536
G1 X129.259 Y140.015 E0.01804
G1 X154.497 Y165.253 E1.12248
G1 X155.070 Y165.291 E0.01804
G1 X129.222 Y139.443 E1.14961
G1 X129.184 Y138.871 E0.01804
G1 X155.642 Y165.328 E1.17674
G1 X156.215 Y165.366 E0.01804
G1 X129.147 Y138.298 E1.20387
G1 X129.109 Y137.726 E0.01804
G1 X156.787 Y165.403 E1.23099
G1 X157.347 Y165.428 E0.01762
G1 X129.085 Y137.166 E1.25699
G1 X129.117 Y136.664 E0.01582
G1 X157.849 Y165.395 E1.27786
G1 X158.351 Y165.363 E0.01582
G1 X129.150 Y136.162 E1.29872
G1 X129.183 Y135.660 E0.01582
G1 X158.853 Y165.330 E1.31958
G1 X159.355 Y165.297 E0.01582
G1 X129.216 Y135.158 E1.34045
G1 X129.249 Y134.656 E0.01582
G1 X159.857 Y165.264 E1.36131
G1 X160.359 Y165.231 E0.01582
G1 X129.282 Y134.154 E1.38217
G1 X129.315 Y133.652 E0.01582
G1 X161.013 Y165.351 E1.40982
G1 E-0.80000 F2100.00000
G1 Z0.800 F10800.000
G1 X185.173 Y141.905
G1 Z0.200
G1 E0.80000 F2100.00000
G1 F1200.000
G1 X171.790 Y128.522 E0.59525
G1 X171.955 Y128.770 E0.00939
G1 X172.396 Y129.663 E0.03131
G1 X184.940 Y142.207 E0.55793
G1 X184.851 Y142.653 E0.01431
G1 X172.916 Y130.718 E0.53083
G1 X173.201 Y131.538 E0.02729
G1 X184.763 Y143.100 E0.51421
G1 X184.674 Y143.546 E0.01431
G1 X173.476 Y132.348 E0.49804
G1 X173.651 Y132.864 E0.01713
G1 X173.699 Y133.106 E0.00777
G1 X184.585 Y143.992 E0.48416
G1 X184.496 Y144.438 E0.01431
G1 X173.832 Y133.774 E0.47431
G1 X173.965 Y134.441 E0.02141
G1 X184.372 Y144.849 E0.46289
G1 X184.237 Y145.248 E0.01326
G1 X174.088 Y135.099 E0.45139
M73 P5 R36
G1 X174.125 Y135.672 E0.01804
G1 X184.101 Y145.648 E0.44369
G1 X183.966 Y146.047 E0.01326
G1 X174.163 Y136.244 E0.43599
G1 X174.200 Y136.817 E0.01804
G1 X183.830 Y146.446 E0.42830
G1 X183.695 Y146.846 E0.01326
G1 X174.222 Y137.373 E0.42132
G1 X174.189 Y137.875 E0.01582
G1 X183.559 Y147.245 E0.41676
G1 X183.424 Y147.644 E0.01326
G1 X174.156 Y138.377 E0.41219
G1 X174.123 Y138.879 E0.01582
G1 X183.288 Y148.043 E0.40761
G1 X183.111 Y148.401 E0.01256
G1 X174.090 Y139.381 E0.40121
G1 X174.011 Y139.837 E0.01456
G1 X182.934 Y148.760 E0.39685
G1 X182.758 Y149.118 E0.01256
G1 X173.923 Y140.283 E0.39294
G1 X173.834 Y140.729 E0.01431
G1 X182.581 Y149.476 E0.38903
G1 X182.404 Y149.834 E0.01256
G1 X173.745 Y141.175 E0.38512
G1 X173.656 Y141.621 E0.01431
G1 X182.228 Y150.193 E0.38121
G1 X182.051 Y150.551 E0.01256
G1 X173.524 Y142.024 E0.37925
G1 X173.388 Y142.423 E0.01326
G1 X181.874 Y150.909 E0.37743
G1 X181.698 Y151.267 E0.01256
G1 X173.253 Y142.822 E0.37560
G1 X173.117 Y143.222 E0.01326
G1 X181.492 Y151.596 E0.37246
G1 X181.277 Y151.917 E0.01213
G1 X172.982 Y143.621 E0.36896
G1 X172.818 Y143.993 E0.01277
G1 X181.063 Y152.237 E0.36669
G1 X180.849 Y152.558 E0.01213
G1 X172.642 Y144.351 E0.36502
G1 X172.465 Y144.709 E0.01256
G1 X180.635 Y152.879 E0.36335
G1 X180.420 Y153.199 E0.01213
G1 X172.288 Y145.067 E0.36168
G1 X172.112 Y145.426 E0.01256
G1 X180.206 Y153.520 E0.36001
G1 X179.992 Y153.841 E0.01213
G1 X171.931 Y145.780 E0.35853
G1 X171.717 Y146.100 E0.01213
G1 X179.778 Y154.161 E0.35853
G1 X179.555 Y154.474 E0.01206
G1 X171.502 Y146.421 E0.35817
G1 X171.288 Y146.741 E0.01213
G1 X179.305 Y154.759 E0.35658
G1 X179.056 Y155.044 E0.01192
G1 X171.074 Y147.062 E0.35500
G1 X170.860 Y147.383 E0.01213
G1 X178.806 Y155.329 E0.35341
G1 X178.556 Y155.614 E0.01192
G1 X170.633 Y147.691 E0.35239
G1 X170.383 Y147.976 E0.01192
G1 X178.306 Y155.899 E0.35239
G1 X178.056 Y156.184 E0.01192
G1 X170.133 Y148.261 E0.35239
G1 X169.883 Y148.546 E0.01192
G1 X177.806 Y156.469 E0.35239
G1 X177.556 Y156.754 E0.01192
G1 X169.633 Y148.831 E0.35239
G1 X169.383 Y149.116 E0.01192
G1 X177.306 Y157.039 E0.35239
G1 X177.039 Y157.306 E0.01189
G1 X169.116 Y149.383 E0.35239
G1 X168.831 Y149.633 E0.01192
G1 X176.754 Y157.556 E0.35239
G1 X176.469 Y157.806 E0.01192
G1 X168.546 Y149.883 E0.35239
G1 X168.261 Y150.133 E0.01192
G1 X176.184 Y158.056 E0.35239
G1 X175.899 Y158.306 E0.01192
G1 X167.976 Y150.383 E0.35239
G1 X167.691 Y150.633 E0.01192
G1 X175.614 Y158.556 E0.35239
G1 X175.329 Y158.806 E0.01192
G1 X167.383 Y150.860 E0.35341
G1 X167.062 Y151.074 E0.01213
G1 X175.044 Y159.056 E0.35500
G1 X174.759 Y159.305 E0.01192
G1 X166.742 Y151.288 E0.35658
G1 X166.421 Y151.502 E0.01213
G1 X174.474 Y159.555 E0.35817
G1 X174.161 Y159.778 E0.01206
G1 X166.100 Y151.717 E0.35852
G1 X165.780 Y151.931 E0.01213
G1 X173.841 Y159.992 E0.35852
G1 X173.520 Y160.206 E0.01213
G1 X165.426 Y152.112 E0.36000
G1 X165.067 Y152.288 E0.01256
G1 X173.199 Y160.420 E0.36168
G1 X172.879 Y160.635 E0.01213
G1 X164.709 Y152.465 E0.36335
G1 X164.351 Y152.642 E0.01256
G1 X172.558 Y160.849 E0.36502
G1 X172.237 Y161.063 E0.01213
G1 X163.993 Y152.818 E0.36669
G1 X163.621 Y152.982 E0.01277
G1 X171.917 Y161.277 E0.36896
G1 X171.596 Y161.492 E0.01213
G1 X163.222 Y153.117 E0.37246
G1 X162.822 Y153.253 E0.01326
G1 X171.267 Y161.698 E0.37560
G1 X170.909 Y161.874 E0.01256
G1 X162.423 Y153.388 E0.37743
G1 X162.024 Y153.524 E0.01326
G1 X170.551 Y162.051 E0.37925
G1 X170.193 Y162.228 E0.01256
G1 X161.621 Y153.656 E0.38121
G1 X161.175 Y153.745 E0.01431
G1 X169.834 Y162.404 E0.38512
G1 X169.476 Y162.581 E0.01256
G1 X160.729 Y153.834 E0.38903
G1 X160.283 Y153.923 E0.01431
G1 X169.118 Y162.758 E0.39294
G1 X168.760 Y162.934 E0.01256
G1 X159.837 Y154.011 E0.39685
G1 X159.381 Y154.090 E0.01456
G1 X168.401 Y163.111 E0.40121
G1 X168.043 Y163.288 E0.01256
G1 X158.879 Y154.123 E0.40761
G1 X158.377 Y154.156 E0.01582
G1 X167.644 Y163.424 E0.41219
G1 X167.245 Y163.559 E0.01326
G1 X157.875 Y154.189 E0.41676
G1 X157.373 Y154.222 E0.01582
