; generated by PrusaSlicer 2.2.0+win64 on 2020-12-28 at 20:47:09 UTC

; 

; external perimeters extrusion width = 0.60mm
; perimeters extrusion width = 0.43mm
; infill extrusion width = 0.45mm
; solid infill extrusion width = 0.70mm
; top infill extrusion width = 0.43mm
; first layer extrusion width = 0.42mm

M73 P0 R19
M201 X9000 Y9000 Z500 E10000 ; sets maximum accelerations, mm/sec^2
M203 X500 Y500 Z12 E120 ; sets maximum feedrates, mm/sec
M204 P2000 R1500 T2000 ; sets acceleration (P, T) and retract acceleration (R), mm/sec^2
M205 X10.00 Y10.00 Z0.20 E2.50 ; sets the jerk limits, mm/sec
M205 S0 T0 ; sets the minimum extruding and travel feed rate, mm/sec
M107
M862.3 P "MK2.5SMMU2S" ; printer model check
M862.1 P0.4 ; nozzle diameter check
M115 U3.8.0 ; tell printer latest fw version
G90 ; use absolute coordinates
M83 ; extruder relative mode
M104 S215 ; set extruder temp
M140 S60 ; set bed temp
Tx
M190 S60 ; wait for bed temp
M109 S215 ; wait for extruder temp
G28 W ; home all without mesh bed level
G80 ; mesh bed leveling

G21 ; set units to millimeters

;go outside print area
G1 Y-3.0 F1000.0
G1 Z0.4 F1000.0
; select extruder
Tc
; purge line
G1 X55.0 F2000.0
G1 Z0.3 F1000.0
G92 E0.0
G1 X240.0 E25.0 F2200.0
M73 P0 R19
G1 Y-2.0 F1000.0
G1 X55.0 E25 F1400.0
G1 Z0.20 F1000.0
G1 X5.0 E4.0 F1000.0
G92 E0.0
G21 ; set units to millimeters
G90 ; use absolute coordinates
M83 ; use relative distances for extrusion
M900 K30 ; Filament gcode
;BEFORE_LAYER_CHANGE
G92 E0.0
;0.2


G1 E-0.80000 F2100.00000
G1 Z0.600 F10800.000
;AFTER_LAYER_CHANGE
;0.2
G1 X75.768 Y64.866
G1 Z0.200
G1 E0.80000 F2100.00000
M204 S1000
G1 F1200.000
G1 X78.976 Y62.032 E0.13423
G1 X82.299 Y59.804 E0.12542
G1 X86.128 Y57.899 E0.13411
G1 X90.046 Y56.569 E0.12971
G1 X94.110 Y55.760 E0.12995
G1 X98.242 Y55.489 E0.12983
G1 X102.367 Y55.760 E0.12959
G1 X106.424 Y56.567 E0.12971
G1 X110.342 Y57.897 E0.12971
G1 X114.104 Y59.758 E0.13162
G1 X170.930 Y97.730 E2.14289
G1 X174.121 Y100.515 E0.13280
G1 X176.835 Y103.607 E0.12900
G1 X179.225 Y107.207 E0.13550
G1 X180.983 Y110.785 E0.12498
G1 X182.312 Y114.699 E0.12959
G1 X183.134 Y118.910 E0.13455
G1 X183.389 Y122.888 E0.12498
G1 X183.119 Y127.009 E0.12947
G1 X182.266 Y131.218 E0.13467
G1 X180.980 Y134.991 E0.12498
G1 X179.152 Y138.698 E0.12959
G1 X176.755 Y142.257 E0.13455
G1 X174.123 Y145.250 E0.12498
G1 X171.039 Y147.957 E0.12864
G1 X167.578 Y150.272 E0.13055
G1 X163.868 Y152.102 E0.12971
G1 X159.947 Y153.433 E0.12983
G1 X155.890 Y154.240 E0.12971
G1 X151.761 Y154.511 E0.12971
G1 X147.633 Y154.240 E0.12971
G1 X143.576 Y153.433 E0.12971
G1 X139.641 Y152.096 E0.13031
G1 X135.831 Y150.201 E0.13340
G1 X79.086 Y112.281 E2.13991
G1 X75.879 Y109.485 E0.13340
G1 X73.165 Y106.393 E0.12900
G1 X70.850 Y102.933 E0.13055
G1 X69.018 Y99.219 E0.12983
G1 X67.688 Y95.301 E0.12971
G1 X66.881 Y91.240 E0.12983
G1 X66.611 Y87.116 E0.12959
G1 X66.883 Y82.980 E0.12995
G1 X67.691 Y78.923 E0.12971
G1 X69.083 Y74.872 E0.13431
G1 X70.930 Y71.171 E0.12969
G1 X73.147 Y67.863 E0.12486
G1 X75.728 Y64.911 E0.12294
G1 E-0.80000 F2100.00000
G1 Z0.800 F10800.000
G1 X138.521 Y112.724
G1 Z0.200
G1 E0.80000 F2100.00000
G1 F1200.000
G1 X139.961 Y111.082 E0.06845
G1 X141.602 Y109.643 E0.06845
G1 X143.417 Y108.430 E0.06845
G1 X145.375 Y107.465 E0.06845
G1 X147.442 Y106.763 E0.06845
G1 X149.584 Y106.337 E0.06845
G1 X151.762 Y106.194 E0.06845
G1 X153.940 Y106.337 E0.06845
G1 X156.082 Y106.763 E0.06845
G1 X158.149 Y107.465 E0.06845
G1 X160.107 Y108.430 E0.06845
G1 X161.922 Y109.643 E0.06845
G1 X163.563 Y111.082 E0.06845
G1 X165.003 Y112.724 E0.06845
G1 X166.215 Y114.539 E0.06845
G1 X167.181 Y116.497 E0.06845
G1 X167.883 Y118.564 E0.06845
G1 X168.309 Y120.705 E0.06845
G1 X168.451 Y122.884 E0.06845
G1 X168.309 Y125.062 E0.06845
G1 X167.883 Y127.203 E0.06845
G1 X167.181 Y129.270 E0.06845
G1 X166.215 Y131.228 E0.06845
G1 X165.003 Y133.043 E0.06845
G1 X163.563 Y134.685 E0.06845
G1 X161.922 Y136.124 E0.06845
G1 X160.107 Y137.337 E0.06845
G1 X158.149 Y138.303 E0.06845
G1 X156.082 Y139.004 E0.06845
G1 X153.940 Y139.430 E0.06845
G1 X151.762 Y139.573 E0.06845
G1 X149.584 Y139.430 E0.06845
G1 X147.442 Y139.004 E0.06845
G1 X145.375 Y138.303 E0.06845
G1 X143.417 Y137.337 E0.06845
G1 X141.602 Y136.124 E0.06845
G1 X139.961 Y134.685 E0.06845
G1 X138.521 Y133.043 E0.06845
G1 X137.309 Y131.228 E0.06845
G1 X136.343 Y129.270 E0.06845
G1 X135.641 Y127.203 E0.06845
G1 X135.215 Y125.062 E0.06845
G1 X135.073 Y122.884 E0.06845
G1 X135.215 Y120.705 E0.06845
G1 X135.641 Y118.564 E0.06845
G1 X136.343 Y116.497 E0.06845
G1 X137.309 Y114.539 E0.06845
G1 X138.488 Y112.774 E0.06657
G1 X138.802 Y112.983 F10800.000
G1 F1200.000
G1 X140.228 Y111.350 E0.06800
G1 X141.832 Y109.943 E0.06690
G1 X143.606 Y108.757 E0.06690
G1 X145.520 Y107.814 E0.06690
G1 X147.540 Y107.128 E0.06690
G1 X149.633 Y106.712 E0.06690
G1 X151.762 Y106.572 E0.06690
G1 X153.891 Y106.712 E0.06690
G1 X155.984 Y107.128 E0.06690
G1 X158.004 Y107.814 E0.06690
G1 X159.918 Y108.757 E0.06690
G1 X161.692 Y109.943 E0.06690
G1 X163.296 Y111.350 E0.06690
G1 X164.703 Y112.954 E0.06690
G1 X165.888 Y114.728 E0.06690
G1 X166.832 Y116.641 E0.06690
G1 X167.518 Y118.662 E0.06690
G1 X167.934 Y120.755 E0.06690
G1 X168.073 Y122.884 E0.06690
G1 X167.934 Y125.013 E0.06690
G1 X167.518 Y127.105 E0.06690
G1 X166.832 Y129.126 E0.06690
G1 X165.888 Y131.039 E0.06690
G1 X164.703 Y132.813 E0.06690
G1 X163.296 Y134.418 E0.06690
G1 X161.692 Y135.824 E0.06690
G1 X159.918 Y137.010 E0.06690
G1 X158.004 Y137.954 E0.06690
G1 X155.984 Y138.639 E0.06690
G1 X153.891 Y139.056 E0.06690
G1 X151.762 Y139.195 E0.06690
G1 X149.633 Y139.056 E0.06690
G1 X147.540 Y138.639 E0.06690
G1 X145.520 Y137.954 E0.06690
G1 X143.606 Y137.010 E0.06690
G1 X141.832 Y135.824 E0.06690
G1 X140.228 Y134.418 E0.06690
G1 X138.821 Y132.813 E0.06690
G1 X137.636 Y131.039 E0.06690
G1 X136.692 Y129.126 E0.06690
G1 X136.006 Y127.105 E0.06690
G1 X135.590 Y125.013 E0.06690
G1 X135.450 Y122.884 E0.06690
G1 X135.590 Y120.755 E0.06690
G1 X136.006 Y118.662 E0.06690
G1 X136.692 Y116.641 E0.06690
G1 X137.636 Y114.728 E0.06690
G1 X138.768 Y113.033 E0.06391
G1 X138.648 Y112.614 F10800.000
G1 E-0.80000 F2100.00000
G1 Z0.800 F10800.000
G1 X129.182 Y105.558
G1 Z0.200
G1 E0.80000 F2100.00000
G1 F1200.000
G1 X131.637 Y102.758 E0.11673
G1 X134.436 Y100.304 E0.11673
G1 X137.531 Y98.235 E0.11673
G1 X140.870 Y96.589 E0.11673
G1 X144.396 Y95.392 E0.11673
G1 X148.047 Y94.666 E0.11673
G1 X151.762 Y94.422 E0.11673
G1 X155.477 Y94.666 E0.11673
G1 X159.128 Y95.392 E0.11673
G1 X162.654 Y96.589 E0.11673
G1 X165.993 Y98.235 E0.11673
G1 X169.088 Y100.304 E0.11673
G1 X171.887 Y102.758 E0.11673
G1 X174.342 Y105.558 E0.11673
G1 X176.410 Y108.653 E0.11673
G1 X178.057 Y111.992 E0.11673
G1 X179.253 Y115.517 E0.11673
G1 X179.980 Y119.169 E0.11673
G1 X180.223 Y122.884 E0.11673
G1 X179.980 Y126.599 E0.11673
G1 X179.253 Y130.250 E0.11673
G1 X178.057 Y133.775 E0.11673
G1 X176.410 Y137.114 E0.11673
G1 X174.342 Y140.210 E0.11673
G1 X171.887 Y143.009 E0.11673
G1 X169.088 Y145.463 E0.11673
G1 X165.993 Y147.532 E0.11673
G1 X162.654 Y149.178 E0.11673
G1 X159.128 Y150.375 E0.11673
G1 X155.477 Y151.101 E0.11673
G1 X151.762 Y151.345 E0.11673
G1 X148.047 Y151.101 E0.11673
G1 X144.396 Y150.375 E0.11673
G1 X140.870 Y149.178 E0.11673
G1 X137.531 Y147.532 E0.11673
G1 X134.436 Y145.463 E0.11673
G1 X131.637 Y143.009 E0.11673
G1 X129.182 Y140.210 E0.11673
G1 X127.114 Y137.114 E0.11673
G1 X125.467 Y133.775 E0.11673
G1 X124.271 Y130.250 E0.11673
G1 X123.544 Y126.599 E0.11673
G1 X123.301 Y122.884 E0.11673
G1 X123.544 Y119.169 E0.11673
G1 X124.271 Y115.517 E0.11673
G1 X125.467 Y111.992 E0.11673
G1 X127.114 Y108.653 E0.11673
G1 X129.149 Y105.607 E0.11485
G1 X128.835 Y105.398 F10800.000
G1 F1200.000
G1 X131.370 Y102.491 E0.12091
G1 X134.206 Y100.004 E0.11828
G1 X137.342 Y97.908 E0.11828
G1 X140.726 Y96.240 E0.11828
G1 X144.298 Y95.027 E0.11828
G1 X147.998 Y94.291 E0.11828
G1 X151.762 Y94.045 E0.11828
G1 X155.526 Y94.291 E0.11828
G1 X159.226 Y95.027 E0.11828
G1 X162.798 Y96.240 E0.11828
G1 X166.182 Y97.908 E0.11828
G1 X169.318 Y100.004 E0.11828
G1 X172.154 Y102.491 E0.11828
G1 X174.642 Y105.327 E0.11828
G1 X176.737 Y108.464 E0.11828
G1 X178.406 Y111.847 E0.11828
G1 X179.618 Y115.420 E0.11828
G1 X180.354 Y119.119 E0.11828
G1 X180.601 Y122.884 E0.11828
G1 X180.354 Y126.648 E0.11828
G1 X179.618 Y130.348 E0.11828
G1 X178.406 Y133.920 E0.11828
G1 X176.737 Y137.303 E0.11828
G1 X174.642 Y140.440 E0.11828
G1 X172.154 Y143.276 E0.11828
G1 X169.318 Y145.763 E0.11828
G1 X166.182 Y147.859 E0.11828
G1 X162.798 Y149.527 E0.11828
G1 X159.226 Y150.740 E0.11828
G1 X155.526 Y151.476 E0.11828
G1 X151.762 Y151.723 E0.11828
G1 X147.998 Y151.476 E0.11828
G1 X144.298 Y150.740 E0.11828
G1 X140.726 Y149.527 E0.11828
G1 X137.342 Y147.859 E0.11828
G1 X134.206 Y145.763 E0.11828
G1 X131.370 Y143.276 E0.11828
G1 X128.882 Y140.440 E0.11828
G1 X126.787 Y137.303 E0.11828
G1 X125.118 Y133.920 E0.11828
G1 X123.906 Y130.348 E0.11828
G1 X123.170 Y126.648 E0.11828
G1 X122.923 Y122.884 E0.11828
G1 X123.170 Y119.119 E0.11828
G1 X123.906 Y115.420 E0.11828
G1 X125.118 Y111.847 E0.11828
G1 X126.787 Y108.464 E0.11828
G1 X128.802 Y105.448 E0.11374
G1 X129.232 Y105.449 F10800.000
G1 E-0.80000 F2100.00000
G1 Z0.800 F10800.000
G1 X133.674 Y144.645
G1 Z0.200
G1 E0.80000 F2100.00000
G1 F1200.000
G1 X131.835 Y142.806 E0.08180
G1 X129.407 Y140.037 E0.11581
G1 X129.016 Y139.452 E0.02215
G1 X135.194 Y145.630 E0.27478
G1 X136.806 Y146.707 E0.06097
G1 X127.939 Y137.840 E0.39438
M73 P5 R18
G1 X127.359 Y136.973 E0.03280
G1 X127.119 Y136.485 E0.01710
G1 X138.161 Y147.527 E0.49110
G1 X139.216 Y148.047 E0.03700
G1 X126.598 Y135.430 E0.56118
G1 X126.078 Y134.374 E0.03701
G1 X140.271 Y148.568 E0.63126
G1 X140.979 Y148.917 E0.02481
G1 X141.246 Y149.007 E0.00886
G1 X125.638 Y133.400 E0.69415
G1 X125.364 Y132.590 E0.02689
G1 X142.055 Y149.282 E0.74239
G1 X142.865 Y149.557 E0.02689
G1 X125.089 Y131.780 E0.79063
G1 X124.814 Y130.971 E0.02689
G1 X143.675 Y149.832 E0.83887
G1 X144.482 Y150.104 E0.02678
G1 X124.542 Y130.164 E0.88687
G1 X124.409 Y129.496 E0.02141
G1 X145.150 Y150.237 E0.92247
G1 X145.817 Y150.370 E0.02141
G1 X124.276 Y128.828 E0.95807
G1 X124.143 Y128.161 E0.02141
G1 X146.485 Y150.502 E0.99368
G1 X147.153 Y150.635 E0.02141
G1 X124.010 Y127.493 E1.02928
G1 X123.878 Y126.825 E0.02141
G1 X147.820 Y150.768 E1.06488
G1 X148.084 Y150.820 E0.00845
G1 X148.430 Y150.843 E0.01092
G1 X123.803 Y126.215 E1.09536
G1 X123.765 Y125.643 E0.01804
G1 X149.003 Y150.881 E1.12248
G1 X149.575 Y150.918 E0.01804
G1 X123.727 Y125.070 E1.14961
G1 X123.690 Y124.498 E0.01804
G1 X150.148 Y150.956 E1.17674
G1 X150.720 Y150.993 E0.01804
G1 X123.652 Y123.925 E1.20387
G1 X123.615 Y123.353 E0.01804
G1 X151.293 Y151.031 E1.23099
G1 X151.852 Y151.056 E0.01762
G1 X123.590 Y122.793 E1.25699
G1 X123.623 Y122.291 E0.01582
G1 X152.354 Y151.023 E1.27786
G1 X152.856 Y150.990 E0.01582
G1 X123.656 Y121.789 E1.29872
G1 X123.689 Y121.287 E0.01582
G1 X153.358 Y150.957 E1.31958
G1 X153.860 Y150.924 E0.01582
G1 X123.722 Y120.785 E1.34045
G1 X123.755 Y120.283 E0.01582
G1 X154.362 Y150.891 E1.36131
G1 X154.864 Y150.858 E0.01582
G1 X123.787 Y119.781 E1.38217
G1 X123.820 Y119.279 E0.01582
G1 X155.519 Y150.978 E1.40982
G1 E-0.80000 F2100.00000
G1 Z0.800 F10800.000
G1 X179.679 Y127.533
G1 Z0.200
G1 E0.80000 F2100.00000
G1 F1200.000
G1 X166.295 Y114.149 E0.59525
G1 X166.461 Y114.397 E0.00939
G1 X166.901 Y115.290 E0.03131
G1 X179.446 Y127.834 E0.55793
G1 X179.357 Y128.281 E0.01431
G1 X167.422 Y116.345 E0.53083
G1 X167.706 Y117.165 E0.02729
G1 X179.268 Y128.727 E0.51421
G1 X179.179 Y129.173 E0.01431
G1 X167.981 Y117.975 E0.49804
G1 X168.156 Y118.491 E0.01713
G1 X168.205 Y118.733 E0.00777
G1 X179.091 Y129.619 E0.48416
G1 X179.002 Y130.065 E0.01431
G1 X168.337 Y119.401 E0.47431
G1 X168.470 Y120.069 E0.02141
G1 X178.878 Y130.476 E0.46289
G1 X178.742 Y130.876 E0.01326
G1 X168.593 Y120.727 E0.45139
G1 X168.631 Y121.299 E0.01804
G1 X178.607 Y131.275 E0.44369
G1 X178.471 Y131.674 E0.01326
G1 X168.668 Y121.871 E0.43599
G1 X168.706 Y122.444 E0.01804
G1 X178.336 Y132.074 E0.42830
G1 X178.200 Y132.473 E0.01326
G1 X168.727 Y123.000 E0.42132
G1 X168.694 Y123.502 E0.01582
G1 X178.065 Y132.872 E0.41676
G1 X177.929 Y133.272 E0.01326
G1 X168.661 Y124.004 E0.41219
G1 X168.628 Y124.506 E0.01582
G1 X177.793 Y133.670 E0.40761
G1 X177.616 Y134.029 E0.01256
G1 X168.596 Y125.008 E0.40121
G1 X168.517 Y125.464 E0.01456
G1 X177.440 Y134.387 E0.39685
M73 P10 R17
G1 X177.263 Y134.745 E0.01256
G1 X168.428 Y125.910 E0.39294
G1 X168.339 Y126.356 E0.01431
G1 X177.086 Y135.103 E0.38903
G1 X176.910 Y135.462 E0.01256
G1 X168.251 Y126.803 E0.38512
G1 X168.162 Y127.249 E0.01431
G1 X176.733 Y135.820 E0.38121
G1 X176.556 Y136.178 E0.01256
G1 X168.029 Y127.651 E0.37925
G1 X167.894 Y128.050 E0.01326
G1 X176.380 Y136.536 E0.37743
G1 X176.203 Y136.894 E0.01256
G1 X167.758 Y128.450 E0.37560
G1 X167.623 Y128.849 E0.01326
G1 X175.997 Y137.223 E0.37246
G1 X175.783 Y137.544 E0.01213
G1 X167.487 Y129.248 E0.36896
G1 X167.324 Y129.620 E0.01277
G1 X175.569 Y137.865 E0.36669
G1 X175.354 Y138.185 E0.01213
G1 X167.147 Y129.978 E0.36502
G1 X166.971 Y130.336 E0.01256
G1 X175.140 Y138.506 E0.36335
G1 X174.926 Y138.827 E0.01213
G1 X166.794 Y130.695 E0.36168
G1 X166.617 Y131.053 E0.01256
G1 X174.712 Y139.147 E0.36001
G1 X174.497 Y139.468 E0.01213
G1 X166.436 Y131.407 E0.35853
G1 X166.222 Y131.727 E0.01213
G1 X174.283 Y139.788 E0.35853
G1 X174.061 Y140.101 E0.01206
G1 X166.008 Y132.048 E0.35817
G1 X165.794 Y132.369 E0.01213
G1 X173.811 Y140.386 E0.35658
G1 X173.561 Y140.671 E0.01192
G1 X165.579 Y132.689 E0.35500
G1 X165.365 Y133.010 E0.01213
G1 X173.311 Y140.956 E0.35341
G1 X173.061 Y141.241 E0.01192
G1 X165.138 Y133.318 E0.35239
G1 X164.888 Y133.603 E0.01192
G1 X172.811 Y141.526 E0.35239
G1 X172.561 Y141.811 E0.01192
G1 X164.638 Y133.888 E0.35239
G1 X164.388 Y134.173 E0.01192
G1 X172.312 Y142.096 E0.35239
G1 X172.062 Y142.381 E0.01192
G1 X164.138 Y134.458 E0.35239
G1 X163.889 Y134.743 E0.01192
G1 X171.812 Y142.666 E0.35239
G1 X171.544 Y142.933 E0.01189
G1 X163.621 Y135.010 E0.35239
G1 X163.336 Y135.260 E0.01192
G1 X171.259 Y143.183 E0.35239
G1 X170.974 Y143.433 E0.01192
G1 X163.051 Y135.510 E0.35239
G1 X162.766 Y135.760 E0.01192
G1 X170.689 Y143.683 E0.35239
G1 X170.404 Y143.933 E0.01192
G1 X162.481 Y136.010 E0.35239
G1 X162.196 Y136.260 E0.01192
G1 X170.119 Y144.183 E0.35239
G1 X169.834 Y144.433 E0.01192
G1 X161.888 Y136.487 E0.35341
G1 X161.568 Y136.701 E0.01213
G1 X169.549 Y144.683 E0.35500
G1 X169.264 Y144.933 E0.01192
G1 X161.247 Y136.915 E0.35658
G1 X160.926 Y137.129 E0.01213
G1 X168.979 Y145.183 E0.35817
G1 X168.667 Y145.405 E0.01206
G1 X160.606 Y137.344 E0.35852
G1 X160.285 Y137.558 E0.01213
G1 X168.346 Y145.619 E0.35852
G1 X168.026 Y145.833 E0.01213
G1 X159.931 Y137.739 E0.36000
G1 X159.573 Y137.916 E0.01256
G1 X167.705 Y146.048 E0.36168
G1 X167.384 Y146.262 E0.01213
G1 X159.215 Y138.092 E0.36335
G1 X158.857 Y138.269 E0.01256
G1 X167.064 Y146.476 E0.36502
G1 X166.743 Y146.690 E0.01213
G1 X158.498 Y138.446 E0.36669
G1 X158.127 Y138.609 E0.01277
G1 X166.422 Y146.905 E0.36896
G1 X166.102 Y147.119 E0.01213
G1 X157.727 Y138.744 E0.37246
G1 X157.328 Y138.880 E0.01326
G1 X165.773 Y147.325 E0.37560
G1 X165.415 Y147.501 E0.01256
G1 X156.929 Y139.015 E0.37743
G1 X156.529 Y139.151 E0.01326
G1 X165.056 Y147.678 E0.37925
G1 X164.698 Y147.855 E0.01256
G1 X156.127 Y139.284 E0.38121
G1 X155.681 Y139.372 E0.01431
G1 X164.340 Y148.031 E0.38512
G1 X163.982 Y148.208 E0.01256
G1 X155.235 Y139.461 E0.38903
G1 X154.789 Y139.550 E0.01431
G1 X163.623 Y148.385 E0.39294
G1 X163.265 Y148.561 E0.01256
G1 X154.342 Y139.639 E0.39685
G1 X153.886 Y139.717 E0.01456
G1 X162.907 Y148.738 E0.40121
G1 X162.549 Y148.915 E0.01256
G1 X153.384 Y139.750 E0.40761
G1 X152.882 Y139.783 E0.01582
G1 X162.150 Y149.051 E0.41219
G1 X161.751 Y149.186 E0.01326
G1 X152.380 Y139.816 E0.41676
G1 X151.878 Y139.849 E0.01582
G1 X161.351 Y149.322 E0.42132
G1 X160.952 Y149.457 E0.01326
G1 X151.322 Y139.828 E0.42830
G1 X150.750 Y139.790 E0.01804
