; generated by PrusaSlicer 2.2.0+win64 on 2021-01-20 at 20:09:39 UTC

; 

; external perimeters extrusion width = 0.45mm
; perimeters extrusion width = 0.45mm
; infill extrusion width = 0.45mm
; solid infill extrusion width = 0.45mm
; top infill extrusion width = 0.40mm
; first layer extrusion width = 0.42mm

M73 P0 R211
M201 X9000 Y9000 Z500 E10000 ; sets maximum accelerations, mm/sec^2
M203 X500 Y500 Z12 E120 ; sets maximum feedrates, mm/sec
M204 P2000 R1500 T2000 ; sets acceleration (P, T) and retract acceleration (R), mm/sec^2
M205 X10.00 Y10.00 Z0.20 E2.50 ; sets the jerk limits, mm/sec
M205 S0 T0 ; sets the minimum extruding and travel feed rate, mm/sec
M107
M862.3 P "MK2.5SMMU2S" ; printer model check
M862.1 P0.4 ; nozzle diameter check
M115 U3.8.0 ; tell printer latest fw version
G90 ; use absolute coordinates
M83 ; extruder relative mode
M104 S215 ; set extruder temp
M140 S60 ; set bed temp
Tx
M190 S60 ; wait for bed temp
M109 S215 ; wait for extruder temp
G28 W ; home all without mesh bed level
G80 ; mesh bed leveling

G21 ; set units to millimeters

;go outside print area
G1 Y-3.0 F1000.0
G1 Z0.4 F1000.0
; select extruder
Tc
; purge line
G1 X55.0 F2000.0
G1 Z0.3 F1000.0
G92 E0.0
G1 X240.0 E25.0 F2200.0
M73 P0 R211
G1 Y-2.0 F1000.0
G1 X55.0 E25 F1400.0
G1 Z0.20 F1000.0
G1 X5.0 E4.0 F1000.0
G92 E0.0
G21 ; set units to millimeters
G90 ; use absolute coordinates
M83 ; use relative distances for extrusion
M900 K0.05 ; Filament gcode LA 1.5
M900 K30 ; Filament gcode LA 1.0
;BEFORE_LAYER_CHANGE
G92 E0.0
;0.2


G1 E-0.80000 F2100.00000
G1 Z0.600 F10800.000
;AFTER_LAYER_CHANGE
;0.2
G1 X55.088 Y81.457
G1 Z0.200
G1 E0.80000 F2100.00000
M204 S1000
G1 F1200.000
G1 X55.520 Y80.797 E0.02473
G1 X56.487 Y80.016 E0.03897
G1 X57.215 Y79.704 E0.02484
G1 X57.770 Y79.638 E0.01752
G1 X173.131 Y79.604 E3.61706
G1 X173.678 Y79.669 E0.01728
G1 X174.196 Y79.858 E0.01728
G1 X193.532 Y89.857 E0.68254
G1 X194.154 Y90.335 E0.02461
G1 X194.586 Y90.986 E0.02449
G1 X194.739 Y91.452 E0.01538
G1 X194.793 Y91.940 E0.01538
G1 X194.790 Y121.728 E0.93400
G1 X194.636 Y122.459 E0.02343
G1 X194.263 Y123.107 E0.02343
G1 X193.742 Y123.583 E0.02213
G1 X192.970 Y123.976 E0.02715
G1 X192.290 Y124.165 E0.02213
G1 X124.292 Y132.410 E2.14766
G1 X114.040 Y132.408 E0.32145
G1 X113.450 Y132.263 E0.01906
G1 X56.870 Y110.180 E1.90435
G1 X56.378 Y109.906 E0.01763
G1 X55.497 Y109.186 E0.03568
G1 X55.136 Y108.688 E0.01929
G1 X54.914 Y108.111 E0.01941
G1 X54.848 Y107.556 E0.01752
G1 X54.897 Y82.218 E0.79444
G1 X55.074 Y81.515 E0.02273
G1 E-0.80000 F2100.00000
G1 Z0.800 F10800.000
G1 X168.305 Y89.887
G1 Z0.200
G1 E0.80000 F2100.00000
G1 F1200.000
G1 X167.751 Y89.833 E0.01746
G1 X167.218 Y89.671 E0.01746
G1 X166.727 Y89.409 E0.01746
G1 X166.297 Y89.056 E0.01746
G1 X165.944 Y88.625 E0.01746
G1 X165.681 Y88.134 E0.01746
G1 X165.520 Y87.602 E0.01746
G1 X165.465 Y87.047 E0.01746
G1 X165.520 Y86.493 E0.01746
G1 X165.681 Y85.961 E0.01746
G1 X165.944 Y85.470 E0.01746
G1 X166.297 Y85.039 E0.01746
G1 X166.727 Y84.686 E0.01746
G1 X167.218 Y84.424 E0.01746
G1 X167.751 Y84.262 E0.01746
G1 X168.289 Y84.209 E0.01694
G1 X168.857 Y84.262 E0.01791
G1 X169.392 Y84.424 E0.01751
G1 X169.883 Y84.686 E0.01746
G1 X170.313 Y85.039 E0.01746
G1 X170.667 Y85.470 E0.01746
G1 X170.929 Y85.961 E0.01746
G1 X171.091 Y86.493 E0.01746
G1 X171.145 Y87.047 E0.01746
G1 X171.091 Y87.602 E0.01746
G1 X170.929 Y88.134 E0.01746
G1 X170.667 Y88.625 E0.01746
G1 X170.313 Y89.056 E0.01746
G1 X169.883 Y89.409 E0.01746
G1 X169.392 Y89.671 E0.01746
G1 X168.859 Y89.833 E0.01746
G1 X168.365 Y89.882 E0.01557
G1 X168.305 Y89.508 F10800.000
G1 F1200.000
G1 X167.825 Y89.461 E0.01513
G1 X167.363 Y89.321 E0.01513
G1 X166.938 Y89.094 E0.01513
G1 X166.565 Y88.788 E0.01513
G1 X166.259 Y88.415 E0.01513
G1 X166.032 Y87.989 E0.01513
G1 X165.892 Y87.528 E0.01513
G1 X165.844 Y87.047 E0.01513
G1 X165.892 Y86.567 E0.01513
G1 X166.032 Y86.106 E0.01513
G1 X166.259 Y85.680 E0.01513
G1 X166.565 Y85.307 E0.01513
G1 X166.938 Y85.001 E0.01513
G1 X167.363 Y84.774 E0.01513
G1 X167.825 Y84.634 E0.01513
G1 X168.290 Y84.588 E0.01464
G1 X168.785 Y84.634 E0.01558
G1 X169.247 Y84.774 E0.01515
G1 X169.673 Y85.001 E0.01513
G1 X170.045 Y85.307 E0.01513
G1 X170.351 Y85.680 E0.01513
G1 X170.579 Y86.106 E0.01513
G1 X170.719 Y86.567 E0.01513
G1 X170.766 Y87.047 E0.01513
G1 X170.719 Y87.528 E0.01513
G1 X170.579 Y87.989 E0.01513
G1 X170.351 Y88.415 E0.01513
G1 X170.045 Y88.788 E0.01513
G1 X169.673 Y89.094 E0.01513
G1 X169.247 Y89.321 E0.01513
G1 X168.785 Y89.461 E0.01513
G1 X168.365 Y89.503 E0.01325
G1 X168.105 Y89.855 F10800.000
G1 E-0.80000 F2100.00000
G1 Z0.800 F10800.000
G1 X160.500 Y121.046
G1 Z0.200
G1 E0.80000 F2100.00000
G1 F1200.000
G1 X129.540 Y121.046 E0.97074
G1 X129.540 Y92.513 E0.89463
G1 X163.714 Y92.513 E1.07151
G1 X163.714 Y82.568 E0.31179
G1 X172.540 Y82.568 E0.27673
G1 X172.540 Y92.513 E0.31179
G1 X191.460 Y92.513 E0.59324
G1 X191.460 Y121.046 E0.89463
G1 X160.560 Y121.046 E0.96886
G1 X160.500 Y121.423 F10800.000
G1 F1200.000
G1 X129.163 Y121.423 E0.98256
G1 X129.163 Y92.135 E0.91828
G1 X163.337 Y92.135 E1.07151
G1 X163.337 Y82.191 E0.31179
G1 X172.917 Y82.191 E0.30037
G1 X172.917 Y92.135 E0.31179
G1 X191.837 Y92.135 E0.59324
G1 X191.837 Y121.423 E0.91828
G1 X160.560 Y121.423 E0.98068
G1 X160.220 Y121.137 F10800.000
G1 E-0.80000 F2100.00000
G1 Z0.800 F10800.000
G1 X130.419 Y120.933
G1 Z0.200
G1 E0.80000 F2100.00000
G1 F1200.000
G1 X129.822 Y120.336 E0.02661
G1 X129.822 Y119.799 E0.01690
G1 X130.786 Y120.763 E0.04295
G1 X131.322 Y120.763 E0.01690
G1 X129.822 Y119.263 E0.06685
G1 X129.822 Y118.727 E0.01690
G1 X131.858 Y120.763 E0.09076
G1 X132.394 Y120.763 E0.01690
G1 X129.822 Y118.191 E0.11466
G1 X129.822 Y117.655 E0.01690
G1 X132.930 Y120.763 E0.13857
G1 X133.467 Y120.763 E0.01690
G1 X129.822 Y117.119 E0.16247
G1 X129.822 Y116.582 E0.01690
G1 X134.003 Y120.763 E0.18637
G1 X134.539 Y120.763 E0.01690
G1 X129.822 Y116.046 E0.21028
G1 X129.822 Y115.510 E0.01690
G1 X135.075 Y120.763 E0.23418
G1 X135.611 Y120.763 E0.01690
G1 X129.822 Y114.974 E0.25809
G1 X129.822 Y114.438 E0.01690
G1 X136.147 Y120.763 E0.28199
G1 X136.684 Y120.763 E0.01690
G1 X129.822 Y113.902 E0.30589
G1 X129.822 Y113.365 E0.01690
G1 X137.220 Y120.763 E0.32980
G1 X137.756 Y120.763 E0.01690
G1 X129.822 Y112.829 E0.35370
G1 X129.822 Y112.293 E0.01690
G1 X138.292 Y120.763 E0.37761
G1 X138.828 Y120.763 E0.01690
G1 X129.822 Y111.757 E0.40151
G1 X129.822 Y111.221 E0.01690
G1 X139.365 Y120.763 E0.42541
M73 P0 R210
G1 X139.901 Y120.763 E0.01690
G1 X129.822 Y110.685 E0.44932
G1 X129.822 Y110.148 E0.01690
G1 X140.437 Y120.763 E0.47322
G1 X140.973 Y120.763 E0.01690
G1 X129.822 Y109.612 E0.49713
G1 X129.822 Y109.076 E0.01690
G1 X141.509 Y120.763 E0.52103
G1 X142.045 Y120.763 E0.01690
G1 X129.822 Y108.540 E0.54493
G1 X129.822 Y108.004 E0.01690
G1 X142.582 Y120.763 E0.56884
G1 X143.118 Y120.763 E0.01690
G1 X129.822 Y107.468 E0.59274
G1 X129.822 Y106.931 E0.01690
G1 X143.654 Y120.763 E0.61665
G1 X144.190 Y120.763 E0.01690
G1 X129.822 Y106.395 E0.64055
G1 X129.822 Y105.859 E0.01690
G1 X144.726 Y120.763 E0.66445
G1 X145.262 Y120.763 E0.01690
G1 X129.822 Y105.323 E0.68836
G1 X129.822 Y104.787 E0.01690
G1 X145.799 Y120.763 E0.71226
G1 X146.335 Y120.763 E0.01690
G1 X129.822 Y104.250 E0.73617
G1 X129.822 Y103.714 E0.01690
G1 X146.871 Y120.763 E0.76007
G1 X147.407 Y120.763 E0.01690
G1 X129.822 Y103.178 E0.78397
G1 X129.822 Y102.642 E0.01690
G1 X147.943 Y120.763 E0.80788
G1 X148.479 Y120.763 E0.01690
G1 X129.822 Y102.106 E0.83178
G1 X129.822 Y101.570 E0.01690
G1 X149.016 Y120.763 E0.85569
G1 X149.552 Y120.763 E0.01690
G1 X129.822 Y101.033 E0.87959
G1 X129.822 Y100.497 E0.01690
G1 X150.088 Y120.763 E0.90349
G1 X150.624 Y120.763 E0.01690
G1 X129.822 Y99.961 E0.92740
G1 X129.822 Y99.425 E0.01690
G1 X151.160 Y120.763 E0.95130
G1 X151.696 Y120.763 E0.01690
G1 X129.822 Y98.889 E0.97521
G1 X129.822 Y98.353 E0.01690
G1 X152.233 Y120.763 E0.99911
G1 X152.769 Y120.763 E0.01690
G1 X129.822 Y97.816 E1.02301
G1 X129.822 Y97.280 E0.01690
G1 X153.305 Y120.763 E1.04692
G1 X153.841 Y120.763 E0.01690
G1 X129.822 Y96.744 E1.07082
G1 X129.822 Y96.208 E0.01690
G1 X154.377 Y120.763 E1.09473
G1 X154.913 Y120.763 E0.01690
G1 X129.822 Y95.672 E1.11863
G1 X129.822 Y95.136 E0.01690
G1 X155.450 Y120.763 E1.14253
G1 X155.986 Y120.763 E0.01690
G1 X129.822 Y94.599 E1.16644
G1 X129.822 Y94.063 E0.01690
G1 X156.522 Y120.763 E1.19034
G1 X157.058 Y120.763 E0.01690
G1 X129.822 Y93.527 E1.21425
G1 X129.822 Y92.991 E0.01690
G1 X157.594 Y120.763 E1.23815
G1 X158.130 Y120.763 E0.01690
G1 X130.163 Y92.795 E1.24687
G1 X130.699 Y92.795 E0.01690
G1 X158.667 Y120.763 E1.24687
G1 X159.203 Y120.763 E0.01690
G1 X131.235 Y92.795 E1.24687
G1 X131.772 Y92.795 E0.01690
G1 X159.739 Y120.763 E1.24687
G1 X160.275 Y120.763 E0.01690
G1 X132.308 Y92.795 E1.24687
G1 X132.844 Y92.795 E0.01690
G1 X160.811 Y120.763 E1.24687
G1 X161.348 Y120.763 E0.01690
G1 X133.380 Y92.795 E1.24687
M73 P1 R209
G1 X133.916 Y92.795 E0.01690
G1 X161.884 Y120.763 E1.24687
G1 X162.420 Y120.763 E0.01690
G1 X134.452 Y92.795 E1.24687
G1 X134.989 Y92.795 E0.01690
G1 X162.956 Y120.763 E1.24687
G1 X163.492 Y120.763 E0.01690
G1 X135.525 Y92.795 E1.24687
G1 X136.061 Y92.795 E0.01690
G1 X164.028 Y120.763 E1.24687
G1 X164.565 Y120.763 E0.01690
G1 X136.597 Y92.795 E1.24687
G1 X137.133 Y92.795 E0.01690
G1 X165.101 Y120.763 E1.24687
G1 X165.637 Y120.763 E0.01690
G1 X137.669 Y92.795 E1.24687
G1 X138.206 Y92.795 E0.01690
G1 X166.173 Y120.763 E1.24687
G1 X166.709 Y120.763 E0.01690
G1 X138.742 Y92.795 E1.24687
G1 X139.278 Y92.795 E0.01690
G1 X167.245 Y120.763 E1.24687
G1 X167.782 Y120.763 E0.01690
G1 X139.814 Y92.795 E1.24687
G1 X140.350 Y92.795 E0.01690
G1 X168.318 Y120.763 E1.24687
G1 X168.854 Y120.763 E0.01690
G1 X140.886 Y92.795 E1.24687
G1 X141.423 Y92.795 E0.01690
G1 X169.390 Y120.763 E1.24687
G1 X169.926 Y120.763 E0.01690
G1 X141.959 Y92.795 E1.24687
G1 X142.495 Y92.795 E0.01690
G1 X170.462 Y120.763 E1.24687
G1 X170.999 Y120.763 E0.01690
G1 X143.031 Y92.795 E1.24687
G1 X143.567 Y92.795 E0.01690
G1 X171.535 Y120.763 E1.24687
G1 X172.071 Y120.763 E0.01690
G1 X144.103 Y92.795 E1.24687
G1 X144.640 Y92.795 E0.01690
G1 X172.607 Y120.763 E1.24687
G1 X173.143 Y120.763 E0.01690
G1 X145.176 Y92.795 E1.24687
G1 X145.712 Y92.795 E0.01690
G1 X173.679 Y120.763 E1.24687
G1 X174.216 Y120.763 E0.01690
G1 X146.248 Y92.795 E1.24687
G1 X146.784 Y92.795 E0.01690
G1 X174.752 Y120.763 E1.24687
G1 X175.288 Y120.763 E0.01690
G1 X147.321 Y92.795 E1.24687
G1 X147.857 Y92.795 E0.01690
G1 X175.824 Y120.763 E1.24687
G1 X176.360 Y120.763 E0.01690
G1 X148.393 Y92.795 E1.24687
G1 X148.929 Y92.795 E0.01690
G1 X176.896 Y120.763 E1.24687
G1 X177.433 Y120.763 E0.01690
G1 X149.465 Y92.795 E1.24687
M73 P1 R208
G1 X150.001 Y92.795 E0.01690
G1 X177.969 Y120.763 E1.24687
G1 X178.505 Y120.763 E0.01690
G1 X150.538 Y92.795 E1.24687
G1 X151.074 Y92.795 E0.01690
G1 X179.041 Y120.763 E1.24687
G1 X179.577 Y120.763 E0.01690
G1 X151.610 Y92.795 E1.24687
G1 X152.146 Y92.795 E0.01690
G1 X180.113 Y120.763 E1.24687
G1 X180.650 Y120.763 E0.01690
G1 X152.682 Y92.795 E1.24687
G1 X153.218 Y92.795 E0.01690
G1 X181.186 Y120.763 E1.24687
G1 X181.722 Y120.763 E0.01690
G1 X153.755 Y92.795 E1.24687
G1 X154.291 Y92.795 E0.01690
G1 X182.258 Y120.763 E1.24687
G1 X182.794 Y120.763 E0.01690
G1 X154.827 Y92.795 E1.24687
G1 X155.363 Y92.795 E0.01690
G1 X183.331 Y120.763 E1.24687
G1 X183.867 Y120.763 E0.01690
G1 X155.899 Y92.795 E1.24687
G1 X156.435 Y92.795 E0.01690
G1 X184.403 Y120.763 E1.24687
G1 X184.939 Y120.763 E0.01690
G1 X156.972 Y92.795 E1.24687
G1 X157.508 Y92.795 E0.01690
G1 X185.475 Y120.763 E1.24687
G1 X186.011 Y120.763 E0.01690
G1 X158.044 Y92.795 E1.24687
G1 X158.580 Y92.795 E0.01690
G1 X186.548 Y120.763 E1.24687
G1 X187.084 Y120.763 E0.01690
G1 X159.116 Y92.795 E1.24687
G1 X159.652 Y92.795 E0.01690
G1 X187.620 Y120.763 E1.24687
G1 X188.156 Y120.763 E0.01690
G1 X160.189 Y92.795 E1.24687
G1 X160.725 Y92.795 E0.01690
G1 X188.692 Y120.763 E1.24687
G1 X189.228 Y120.763 E0.01690
G1 X161.261 Y92.795 E1.24687
G1 X161.797 Y92.795 E0.01690
G1 X189.765 Y120.763 E1.24687
G1 X190.301 Y120.763 E0.01690
G1 X162.333 Y92.795 E1.24687
G1 X162.869 Y92.795 E0.01690
G1 X190.837 Y120.763 E1.24687
G1 X191.178 Y120.763 E0.01074
G1 X191.178 Y120.567 E0.00616
G1 X163.406 Y92.795 E1.23815
G1 X163.942 Y92.795 E0.01690
G1 X191.178 Y120.031 E1.21425
G1 X191.178 Y119.495 E0.01690
G1 X163.997 Y92.314 E1.21179
G1 X163.997 Y91.778 E0.01690
G1 X191.178 Y118.959 E1.21179
G1 X191.178 Y118.423 E0.01690
G1 X163.997 Y91.242 E1.21179
M73 P1 R207
G1 X163.997 Y90.706 E0.01690
G1 X191.178 Y117.886 E1.21179
G1 X191.178 Y117.350 E0.01690
G1 X163.997 Y90.170 E1.21179
G1 X163.997 Y89.633 E0.01690
G1 X191.178 Y116.814 E1.21179
G1 X191.178 Y116.278 E0.01690
G1 X163.997 Y89.097 E1.21179
G1 X163.997 Y88.561 E0.01690
G1 X191.178 Y115.742 E1.21179
G1 X191.178 Y115.206 E0.01690
G1 X163.997 Y88.025 E1.21179
G1 X163.997 Y87.489 E0.01690
G1 X191.347 Y114.839 E1.21936
G1 E-0.80000 F2100.00000
G1 Z0.800 F10800.000
G1 X191.347 Y112.158
G1 Z0.200
G1 E0.80000 F2100.00000
G1 F1200.000
G1 X169.211 Y90.022 E0.98691
G1 X168.915 Y90.112 E0.00975
G1 X168.778 Y90.125 E0.00434
G1 X191.178 Y112.525 E0.99864
G1 X191.178 Y113.061 E0.01690
G1 X168.286 Y90.170 E1.02055
G1 X167.690 Y90.110 E0.01888
G1 X191.178 Y113.597 E1.04712
G1 X191.178 Y114.133 E0.01690
G1 X163.997 Y86.953 E1.21179
G1 X163.997 Y86.416 E0.01690
G1 X165.243 Y87.662 E0.05555
G1 X165.183 Y87.066 E0.01888
G1 X163.997 Y85.880 E0.05288
G1 X163.997 Y85.344 E0.01690
G1 X165.228 Y86.575 E0.05488
G1 X165.241 Y86.438 E0.00434
G1 X165.331 Y86.142 E0.00975
G1 X163.997 Y84.808 E0.05948
G1 X163.997 Y84.272 E0.01690
G1 X165.474 Y85.749 E0.06586
G1 X165.661 Y85.399 E0.01249
G1 X163.997 Y83.735 E0.07419
G1 X163.997 Y83.199 E0.01690
G1 X165.889 Y85.091 E0.08435
G1 X166.138 Y84.804 E0.01198
G1 X164.185 Y82.851 E0.08707
G1 X164.721 Y82.851 E0.01690
G1 X166.432 Y84.563 E0.07629
G1 X166.570 Y84.450 E0.00560
G1 X166.756 Y84.350 E0.00667
G1 X165.257 Y82.851 E0.06683
G1 X165.793 Y82.851 E0.01690
G1 X167.106 Y84.163 E0.05850
G1 X167.516 Y84.038 E0.01354
G1 X166.330 Y82.851 E0.05290
G1 X166.866 Y82.851 E0.01690
G1 X167.971 Y83.956 E0.04927
G1 X168.288 Y83.925 E0.01004
G1 X168.495 Y83.944 E0.00655
G1 X167.402 Y82.851 E0.04873
G1 X167.938 Y82.851 E0.01690
G1 X169.393 Y84.306 E0.06484
G1 E-0.80000 F2100.00000
G1 Z0.800 F10800.000
G1 X172.427 Y83.051
G1 Z0.200
G1 E0.80000 F2100.00000
G1 F1200.000
G1 X172.227 Y82.851 E0.00888
G1 X171.691 Y82.851 E0.01690
G1 X172.257 Y83.417 E0.02522
G1 X172.257 Y83.953 E0.01690
G1 X171.155 Y82.851 E0.04913
G1 X170.619 Y82.851 E0.01690
G1 X172.257 Y84.489 E0.07303
G1 X172.257 Y85.026 E0.01690
G1 X170.083 Y82.851 E0.09693
G1 X169.547 Y82.851 E0.01690
G1 X172.257 Y85.562 E0.12084
G1 X172.257 Y86.098 E0.01690
G1 X169.010 Y82.851 E0.14474
G1 X168.474 Y82.851 E0.01690
G1 X172.427 Y86.804 E0.17621
G1 X171.047 Y85.960 F10800.000
G1 F1200.000
G1 X172.257 Y87.170 E0.05395
G1 X172.257 Y87.706 E0.01690
G1 X171.411 Y86.860 E0.03773
G1 X171.429 Y87.047 E0.00593
G1 X171.396 Y87.382 E0.01059
G1 X172.257 Y88.243 E0.03837
G1 X172.257 Y88.779 E0.01690
G1 X171.315 Y87.836 E0.04201
G1 X171.189 Y88.247 E0.01354
G1 X172.257 Y89.315 E0.04760
G1 X172.257 Y89.851 E0.01690
G1 X171.003 Y88.597 E0.05593
G1 X170.903 Y88.783 E0.00667
G1 X170.790 Y88.920 E0.00560
G1 X172.257 Y90.387 E0.06540
G1 X172.257 Y90.923 E0.01690
G1 X170.549 Y89.215 E0.07617
G1 X170.262 Y89.464 E0.01198
G1 X172.257 Y91.460 E0.08897
G1 X172.257 Y91.996 E0.01690
G1 X169.953 Y89.692 E0.10271
G1 X169.604 Y89.879 E0.01249
G1 X191.178 Y111.452 E0.96182
G1 X191.178 Y110.916 E0.01690
G1 X173.057 Y92.795 E0.80788
G1 X173.593 Y92.795 E0.01690
G1 X191.178 Y110.380 E0.78398
G1 X191.178 Y109.844 E0.01690
G1 X174.129 Y92.795 E0.76007
G1 X174.665 Y92.795 E0.01690
G1 X191.178 Y109.308 E0.73617
G1 X191.178 Y108.772 E0.01690
G1 X175.201 Y92.795 E0.71226
G1 X175.738 Y92.795 E0.01690
G1 X191.178 Y108.235 E0.68836
G1 X191.178 Y107.699 E0.01690
G1 X176.274 Y92.795 E0.66446
G1 X176.810 Y92.795 E0.01690
