; generated by PrusaSlicer 2.2.0+win64 on 2021-01-20 at 20:12:05 UTC

; 

; external perimeters extrusion width = 0.45mm
; perimeters extrusion width = 0.45mm
; infill extrusion width = 0.45mm
; solid infill extrusion width = 0.45mm
; top infill extrusion width = 0.40mm
; first layer extrusion width = 0.42mm

M73 P0 R342
M201 X9000 Y9000 Z500 E10000 ; sets maximum accelerations, mm/sec^2
M203 X500 Y500 Z12 E120 ; sets maximum feedrates, mm/sec
M204 P2000 R1500 T2000 ; sets acceleration (P, T) and retract acceleration (R), mm/sec^2
M205 X10.00 Y10.00 Z0.20 E2.50 ; sets the jerk limits, mm/sec
M205 S0 T0 ; sets the minimum extruding and travel feed rate, mm/sec
M107
M862.3 P "MK2.5SMMU2S" ; printer model check
M862.1 P0.4 ; nozzle diameter check
M115 U3.8.0 ; tell printer latest fw version
G90 ; use absolute coordinates
M83 ; extruder relative mode
M104 S215 ; set extruder temp
M140 S60 ; set bed temp
Tx
M190 S60 ; wait for bed temp
M109 S215 ; wait for extruder temp
G28 W ; home all without mesh bed level
G80 ; mesh bed leveling

G21 ; set units to millimeters

;go outside print area
G1 Y-3.0 F1000.0
G1 Z0.4 F1000.0
; select extruder
Tc
; purge line
G1 X55.0 F2000.0
G1 Z0.3 F1000.0
G92 E0.0
G1 X240.0 E25.0 F2200.0
M73 P0 R342
G1 Y-2.0 F1000.0
G1 X55.0 E25 F1400.0
G1 Z0.20 F1000.0
G1 X5.0 E4.0 F1000.0
G92 E0.0
G21 ; set units to millimeters
G90 ; use absolute coordinates
M83 ; use relative distances for extrusion
M900 K0.05 ; Filament gcode LA 1.5
M900 K30 ; Filament gcode LA 1.0
;BEFORE_LAYER_CHANGE
G92 E0.0
;0.2


G1 E-0.80000 F2100.00000
G1 Z0.600 F10800.000
;AFTER_LAYER_CHANGE
;0.2
G1 X56.320 Y62.485
G1 Z0.200
G1 E0.80000 F2100.00000
M204 S1000
G1 F1200.000
G1 X56.873 Y61.700 E0.03013
G1 X57.614 Y61.227 E0.02755
G1 X58.476 Y61.056 E0.02755
G1 X120.504 Y61.056 E1.94484
G1 X191.348 Y72.201 E2.24860
G1 X192.218 Y72.533 E0.02919
G1 X193.292 Y73.426 E0.04380
G1 X193.686 Y74.109 E0.02473
G1 X193.835 Y74.888 E0.02484
G1 X193.877 Y100.117 E0.79106
G1 X193.111 Y146.283 E1.44769
G1 X193.041 Y146.780 E0.01574
G1 X192.868 Y147.251 E0.01574
G1 X192.600 Y147.675 E0.01574
G1 X192.249 Y148.034 E0.01574
G1 X191.140 Y148.632 E0.03952
G1 X190.304 Y148.795 E0.02673
G1 X127.211 Y148.795 E1.97822
G1 X110.303 Y145.824 E0.53827
G1 X109.779 Y145.654 E0.01728
G1 X57.499 Y121.589 E1.80451
G1 X57.048 Y121.315 E0.01657
G1 X56.665 Y120.945 E0.01668
G1 X56.267 Y120.247 E0.02520
G1 X56.123 Y119.456 E0.02520
G1 X56.123 Y63.426 E1.75680
G1 X56.308 Y62.544 E0.02824
G1 E-0.80000 F2100.00000
G1 Z0.800 F10800.000
G1 X89.500 Y118.846
G1 Z0.200
G1 E0.80000 F2100.00000
G1 F1200.000
G1 X59.087 Y118.846 E0.95358
G1 X59.087 Y64.020 E1.71903
G1 X119.913 Y64.020 E1.90715
G1 X119.913 Y118.846 E1.71903
G1 X89.560 Y118.846 E0.95169
G1 X89.500 Y119.223 F10800.000
G1 F1200.000
G1 X58.710 Y119.223 E0.96540
G1 X58.710 Y63.643 E1.74267
G1 X120.290 Y63.643 E1.93080
G1 X120.290 Y119.223 E1.74267
G1 X89.560 Y119.223 E0.96352
G1 X89.192 Y118.968 F10800.000
G1 E-0.80000 F2100.00000
G1 Z0.800 F10800.000
G1 X119.800 Y64.896
G1 Z0.200
G1 E0.80000 F2100.00000
G1 F1200.000
G1 X119.207 Y64.303 E0.02632
G1 X118.673 Y64.303 E0.01675
G1 X119.630 Y65.260 E0.04248
G1 X119.630 Y65.794 E0.01675
G1 X118.139 Y64.303 E0.06616
G1 X117.606 Y64.303 E0.01675
G1 X119.630 Y66.328 E0.08984
G1 X119.630 Y66.861 E0.01675
G1 X117.072 Y64.303 E0.11352
G1 X116.538 Y64.303 E0.01675
G1 X119.630 Y67.395 E0.13720
G1 X119.630 Y67.929 E0.01675
G1 X116.005 Y64.303 E0.16089
G1 X115.471 Y64.303 E0.01675
G1 X119.630 Y68.462 E0.18457
G1 X119.630 Y68.996 E0.01675
G1 X114.937 Y64.303 E0.20825
G1 X114.404 Y64.303 E0.01675
G1 X119.630 Y69.530 E0.23193
G1 X119.630 Y70.063 E0.01675
G1 X113.870 Y64.303 E0.25562
M73 P0 R341
G1 X113.336 Y64.303 E0.01675
G1 X119.630 Y70.597 E0.27930
G1 X119.630 Y71.131 E0.01675
G1 X112.802 Y64.303 E0.30298
G1 X112.269 Y64.303 E0.01675
G1 X119.630 Y71.664 E0.32666
G1 X119.630 Y72.198 E0.01675
G1 X111.735 Y64.303 E0.35034
G1 X111.201 Y64.303 E0.01675
G1 X119.630 Y72.732 E0.37403
G1 X119.630 Y73.265 E0.01675
G1 X110.668 Y64.303 E0.39771
G1 X110.134 Y64.303 E0.01675
G1 X119.630 Y73.799 E0.42139
G1 X119.630 Y74.333 E0.01675
G1 X109.600 Y64.303 E0.44507
G1 X109.067 Y64.303 E0.01675
G1 X119.630 Y74.866 E0.46876
G1 X119.630 Y75.400 E0.01675
G1 X108.533 Y64.303 E0.49244
G1 X107.999 Y64.303 E0.01675
G1 X119.630 Y75.934 E0.51612
G1 X119.630 Y76.467 E0.01675
G1 X107.466 Y64.303 E0.53980
G1 X106.932 Y64.303 E0.01675
G1 X119.630 Y77.001 E0.56348
G1 X119.630 Y77.535 E0.01675
G1 X106.398 Y64.303 E0.58717
G1 X105.865 Y64.303 E0.01675
G1 X119.630 Y78.068 E0.61085
G1 X119.630 Y78.602 E0.01675
G1 X105.331 Y64.303 E0.63453
G1 X104.797 Y64.303 E0.01675
G1 X119.630 Y79.136 E0.65821
G1 X119.630 Y79.669 E0.01675
G1 X104.264 Y64.303 E0.68189
G1 X103.730 Y64.303 E0.01675
G1 X119.630 Y80.203 E0.70558
G1 X119.630 Y80.737 E0.01675
G1 X103.196 Y64.303 E0.72926
G1 X102.663 Y64.303 E0.01675
G1 X119.630 Y81.271 E0.75294
G1 X119.630 Y81.804 E0.01675
G1 X102.129 Y64.303 E0.77662
G1 X101.595 Y64.303 E0.01675
G1 X119.630 Y82.338 E0.80031
G1 X119.630 Y82.872 E0.01675
G1 X101.062 Y64.303 E0.82399
G1 X100.528 Y64.303 E0.01675
G1 X119.630 Y83.405 E0.84767
G1 X119.630 Y83.939 E0.01675
G1 X99.994 Y64.303 E0.87135
G1 X99.461 Y64.303 E0.01675
G1 X119.630 Y84.473 E0.89503
G1 X119.630 Y85.006 E0.01675
G1 X98.927 Y64.303 E0.91872
G1 X98.393 Y64.303 E0.01675
G1 X119.630 Y85.540 E0.94240
G1 X119.630 Y86.074 E0.01675
G1 X97.860 Y64.303 E0.96608
G1 X97.326 Y64.303 E0.01675
G1 X119.630 Y86.607 E0.98976
G1 X119.630 Y87.141 E0.01675
G1 X96.792 Y64.303 E1.01345
G1 X96.258 Y64.303 E0.01675
G1 X119.630 Y87.675 E1.03713
G1 X119.630 Y88.208 E0.01675
G1 X95.725 Y64.303 E1.06081
G1 X95.191 Y64.303 E0.01675
G1 X119.630 Y88.742 E1.08449
G1 X119.630 Y89.276 E0.01675
G1 X94.657 Y64.303 E1.10817
G1 X94.124 Y64.303 E0.01675
G1 X119.630 Y89.809 E1.13186
G1 X119.630 Y90.343 E0.01675
G1 X93.590 Y64.303 E1.15554
G1 X93.056 Y64.303 E0.01675
G1 X119.630 Y90.877 E1.17922
G1 X119.630 Y91.410 E0.01675
G1 X92.523 Y64.303 E1.20290
G1 X91.989 Y64.303 E0.01675
G1 X119.630 Y91.944 E1.22659
G1 X119.630 Y92.478 E0.01675
G1 X91.455 Y64.303 E1.25027
G1 X90.922 Y64.303 E0.01675
G1 X119.630 Y93.011 E1.27395
G1 X119.630 Y93.545 E0.01675
G1 X90.388 Y64.303 E1.29763
G1 X89.854 Y64.303 E0.01675
G1 X119.630 Y94.079 E1.32131
G1 X119.630 Y94.612 E0.01675
G1 X89.321 Y64.303 E1.34500
M73 P0 R340
G1 X88.787 Y64.303 E0.01675
G1 X119.630 Y95.146 E1.36868
G1 X119.630 Y95.680 E0.01675
G1 X88.253 Y64.303 E1.39236
G1 X87.720 Y64.303 E0.01675
G1 X119.630 Y96.213 E1.41604
G1 X119.630 Y96.747 E0.01675
G1 X87.186 Y64.303 E1.43972
G1 X86.652 Y64.303 E0.01675
G1 X119.630 Y97.281 E1.46341
G1 X119.630 Y97.815 E0.01675
G1 X86.119 Y64.303 E1.48709
G1 X85.585 Y64.303 E0.01675
G1 X119.630 Y98.348 E1.51077
G1 X119.630 Y98.882 E0.01675
G1 X85.051 Y64.303 E1.53445
G1 X84.518 Y64.303 E0.01675
G1 X119.630 Y99.416 E1.55814
G1 X119.630 Y99.949 E0.01675
G1 X83.984 Y64.303 E1.58182
G1 X83.450 Y64.303 E0.01675
G1 X119.630 Y100.483 E1.60550
G1 X119.630 Y101.017 E0.01675
G1 X82.917 Y64.303 E1.62918
G1 X82.383 Y64.303 E0.01675
G1 X119.630 Y101.550 E1.65286
G1 X119.630 Y102.084 E0.01675
G1 X81.849 Y64.303 E1.67655
G1 X81.316 Y64.303 E0.01675
G1 X119.630 Y102.618 E1.70023
G1 X119.630 Y103.151 E0.01675
G1 X80.782 Y64.303 E1.72391
G1 X80.248 Y64.303 E0.01675
G1 X119.630 Y103.685 E1.74759
G1 X119.630 Y104.219 E0.01675
G1 X79.714 Y64.303 E1.77128
G1 X79.181 Y64.303 E0.01675
G1 X119.630 Y104.752 E1.79496
G1 X119.630 Y105.286 E0.01675
G1 X78.647 Y64.303 E1.81864
G1 X78.113 Y64.303 E0.01675
G1 X119.630 Y105.820 E1.84232
G1 X119.630 Y106.353 E0.01675
G1 X77.580 Y64.303 E1.86600
G1 X77.046 Y64.303 E0.01675
G1 X119.630 Y106.887 E1.88969
M73 P0 R339
G1 X119.630 Y107.421 E0.01675
G1 X76.512 Y64.303 E1.91337
G1 X75.979 Y64.303 E0.01675
G1 X119.630 Y107.954 E1.93705
G1 X119.630 Y108.488 E0.01675
G1 X75.445 Y64.303 E1.96073
G1 X74.911 Y64.303 E0.01675
G1 X119.630 Y109.022 E1.98442
G1 X119.630 Y109.555 E0.01675
G1 X74.378 Y64.303 E2.00810
G1 X73.844 Y64.303 E0.01675
G1 X119.630 Y110.089 E2.03178
G1 X119.630 Y110.623 E0.01675
G1 X73.310 Y64.303 E2.05546
G1 X72.777 Y64.303 E0.01675
G1 X119.630 Y111.156 E2.07914
G1 X119.630 Y111.690 E0.01675
G1 X72.243 Y64.303 E2.10283
G1 X71.709 Y64.303 E0.01675
G1 X119.630 Y112.224 E2.12651
G1 X119.630 Y112.757 E0.01675
G1 X71.176 Y64.303 E2.15019
G1 X70.642 Y64.303 E0.01675
G1 X119.630 Y113.291 E2.17387
G1 X119.630 Y113.825 E0.01675
G1 X70.108 Y64.303 E2.19755
G1 X69.575 Y64.303 E0.01675
G1 X119.630 Y114.359 E2.22124
G1 X119.630 Y114.892 E0.01675
G1 X69.041 Y64.303 E2.24492
G1 X68.507 Y64.303 E0.01675
G1 X119.630 Y115.426 E2.26860
G1 X119.630 Y115.960 E0.01675
G1 X67.974 Y64.303 E2.29228
G1 X67.440 Y64.303 E0.01675
G1 X119.630 Y116.493 E2.31597
M73 P1 R338
G1 X119.630 Y117.027 E0.01675
G1 X66.906 Y64.303 E2.33965
G1 X66.373 Y64.303 E0.01675
G1 X119.630 Y117.561 E2.36333
G1 X119.630 Y118.094 E0.01675
G1 X65.839 Y64.303 E2.38701
G1 X65.305 Y64.303 E0.01675
G1 X119.565 Y118.563 E2.40782
G1 X119.032 Y118.563 E0.01675
G1 X64.771 Y64.303 E2.40782
G1 X64.238 Y64.303 E0.01675
G1 X118.498 Y118.563 E2.40782
G1 X117.964 Y118.563 E0.01675
G1 X63.704 Y64.303 E2.40782
G1 X63.170 Y64.303 E0.01675
G1 X117.431 Y118.563 E2.40782
G1 X116.897 Y118.563 E0.01675
G1 X62.637 Y64.303 E2.40782
G1 X62.103 Y64.303 E0.01675
G1 X116.363 Y118.563 E2.40782
G1 X115.830 Y118.563 E0.01675
G1 X61.569 Y64.303 E2.40782
G1 X61.036 Y64.303 E0.01675
G1 X115.296 Y118.563 E2.40782
G1 X114.762 Y118.563 E0.01675
G1 X60.502 Y64.303 E2.40782
G1 X59.968 Y64.303 E0.01675
G1 X114.229 Y118.563 E2.40782
G1 X113.695 Y118.563 E0.01675
G1 X59.435 Y64.303 E2.40782
G1 X59.370 Y64.303 E0.00203
G1 X59.370 Y64.772 E0.01471
G1 X113.161 Y118.563 E2.38702
M73 P1 R337
G1 X112.628 Y118.563 E0.01675
G1 X59.370 Y65.306 E2.36334
G1 X59.370 Y65.839 E0.01675
G1 X112.094 Y118.563 E2.33965
G1 X111.560 Y118.563 E0.01675
G1 X59.370 Y66.373 E2.31597
G1 X59.370 Y66.907 E0.01675
G1 X111.027 Y118.563 E2.29229
G1 X110.493 Y118.563 E0.01675
G1 X59.370 Y67.440 E2.26861
G1 X59.370 Y67.974 E0.01675
G1 X109.959 Y118.563 E2.24493
G1 X109.426 Y118.563 E0.01675
G1 X59.370 Y68.508 E2.22124
G1 X59.370 Y69.041 E0.01675
G1 X108.892 Y118.563 E2.19756
G1 X108.358 Y118.563 E0.01675
G1 X59.370 Y69.575 E2.17388
G1 X59.370 Y70.109 E0.01675
G1 X107.825 Y118.563 E2.15020
G1 X107.291 Y118.563 E0.01675
G1 X59.370 Y70.642 E2.12651
G1 X59.370 Y71.176 E0.01675
G1 X106.757 Y118.563 E2.10283
G1 X106.223 Y118.563 E0.01675
G1 X59.370 Y71.710 E2.07915
G1 X59.370 Y72.243 E0.01675
G1 X105.690 Y118.563 E2.05547
G1 X105.156 Y118.563 E0.01675
G1 X59.370 Y72.777 E2.03179
G1 X59.370 Y73.311 E0.01675
G1 X104.622 Y118.563 E2.00810
G1 X104.089 Y118.563 E0.01675
G1 X59.370 Y73.844 E1.98442
G1 X59.370 Y74.378 E0.01675
G1 X103.555 Y118.563 E1.96074
M73 P1 R336
G1 X103.021 Y118.563 E0.01675
G1 X59.370 Y74.912 E1.93706
G1 X59.370 Y75.445 E0.01675
G1 X102.488 Y118.563 E1.91337
G1 X101.954 Y118.563 E0.01675
G1 X59.370 Y75.979 E1.88969
G1 X59.370 Y76.513 E0.01675
G1 X101.420 Y118.563 E1.86601
G1 X100.887 Y118.563 E0.01675
G1 X59.370 Y77.046 E1.84233
G1 X59.370 Y77.580 E0.01675
G1 X100.353 Y118.563 E1.81865
G1 X99.819 Y118.563 E0.01675
G1 X59.370 Y78.114 E1.79496
G1 X59.370 Y78.647 E0.01675
G1 X99.286 Y118.563 E1.77128
G1 X98.752 Y118.563 E0.01675
G1 X59.370 Y79.181 E1.74760
G1 X59.370 Y79.715 E0.01675
G1 X98.218 Y118.563 E1.72392
G1 X97.685 Y118.563 E0.01675
G1 X59.370 Y80.248 E1.70024
G1 X59.370 Y80.782 E0.01675
G1 X97.151 Y118.563 E1.67655
G1 X96.617 Y118.563 E0.01675
G1 X59.370 Y81.316 E1.65287
G1 X59.370 Y81.850 E0.01675
G1 X96.084 Y118.563 E1.62919
G1 X95.550 Y118.563 E0.01675
G1 X59.370 Y82.383 E1.60551
G1 X59.370 Y82.917 E0.01675
G1 X95.016 Y118.563 E1.58182
G1 X94.483 Y118.563 E0.01675
G1 X59.370 Y83.451 E1.55814
G1 X59.370 Y83.984 E0.01675
G1 X93.949 Y118.563 E1.53446
G1 X93.415 Y118.563 E0.01675
G1 X59.370 Y84.518 E1.51078
G1 X59.370 Y85.052 E0.01675
G1 X92.882 Y118.563 E1.48710
G1 X92.348 Y118.563 E0.01675
G1 X59.370 Y85.585 E1.46341
G1 X59.370 Y86.119 E0.01675
G1 X91.814 Y118.563 E1.43973
G1 X91.281 Y118.563 E0.01675
G1 X59.370 Y86.653 E1.41605
M73 P2 R335
G1 X59.370 Y87.186 E0.01675
G1 X90.747 Y118.563 E1.39237
G1 X90.213 Y118.563 E0.01675
G1 X59.370 Y87.720 E1.36868
G1 X59.370 Y88.254 E0.01675
G1 X89.679 Y118.563 E1.34500
G1 X89.146 Y118.563 E0.01675
G1 X59.370 Y88.787 E1.32132
G1 X59.370 Y89.321 E0.01675
G1 X88.612 Y118.563 E1.29764
G1 X88.078 Y118.563 E0.01675
G1 X59.370 Y89.855 E1.27396
G1 X59.370 Y90.388 E0.01675
G1 X87.545 Y118.563 E1.25027
G1 X87.011 Y118.563 E0.01675
G1 X59.370 Y90.922 E1.22659
G1 X59.370 Y91.456 E0.01675
G1 X86.477 Y118.563 E1.20291
G1 X85.944 Y118.563 E0.01675
G1 X59.370 Y91.989 E1.17923
G1 X59.370 Y92.523 E0.01675
G1 X85.410 Y118.563 E1.15554
G1 X84.876 Y118.563 E0.01675
G1 X59.370 Y93.057 E1.13186
G1 X59.370 Y93.590 E0.01675
G1 X84.343 Y118.563 E1.10818
G1 X83.809 Y118.563 E0.01675
G1 X59.370 Y94.124 E1.08450
G1 X59.370 Y94.658 E0.01675
G1 X83.275 Y118.563 E1.06082
G1 X82.742 Y118.563 E0.01675
G1 X59.370 Y95.191 E1.03713
G1 X59.370 Y95.725 E0.01675
G1 X82.208 Y118.563 E1.01345
G1 X81.674 Y118.563 E0.01675
G1 X59.370 Y96.259 E0.98977
G1 X59.370 Y96.792 E0.01675
G1 X81.141 Y118.563 E0.96609
G1 X80.607 Y118.563 E0.01675
G1 X59.370 Y97.326 E0.94241
G1 X59.370 Y97.860 E0.01675
G1 X80.073 Y118.563 E0.91872
G1 X79.540 Y118.563 E0.01675
G1 X59.370 Y98.394 E0.89504
G1 X59.370 Y98.927 E0.01675
G1 X79.006 Y118.563 E0.87136
G1 X78.472 Y118.563 E0.01675
G1 X59.370 Y99.461 E0.84768
G1 X59.370 Y99.995 E0.01675
G1 X77.939 Y118.563 E0.82399
G1 X77.405 Y118.563 E0.01675
G1 X59.370 Y100.528 E0.80031
G1 X59.370 Y101.062 E0.01675
G1 X76.871 Y118.563 E0.77663
G1 X76.338 Y118.563 E0.01675
G1 X59.370 Y101.596 E0.75295
G1 X59.370 Y102.129 E0.01675
G1 X75.804 Y118.563 E0.72927
G1 X75.270 Y118.563 E0.01675
G1 X59.370 Y102.663 E0.70558
G1 X59.370 Y103.197 E0.01675
G1 X74.737 Y118.563 E0.68190
G1 X74.203 Y118.563 E0.01675
G1 X59.370 Y103.730 E0.65822
G1 X59.370 Y104.264 E0.01675
G1 X73.669 Y118.563 E0.63454
G1 X73.135 Y118.563 E0.01675
G1 X59.370 Y104.798 E0.61085
G1 X59.370 Y105.331 E0.01675
G1 X72.602 Y118.563 E0.58717
G1 X72.068 Y118.563 E0.01675
G1 X59.370 Y105.865 E0.56349
G1 X59.370 Y106.399 E0.01675
G1 X71.534 Y118.563 E0.53981
G1 X71.001 Y118.563 E0.01675
G1 X59.370 Y106.932 E0.51613
G1 X59.370 Y107.466 E0.01675
G1 X70.467 Y118.563 E0.49244
G1 X69.933 Y118.563 E0.01675
G1 X59.370 Y108.000 E0.46876
M73 P2 R334
G1 X59.370 Y108.533 E0.01675
G1 X69.400 Y118.563 E0.44508
G1 X68.866 Y118.563 E0.01675
G1 X59.370 Y109.067 E0.42140
G1 X59.370 Y109.601 E0.01675
G1 X68.332 Y118.563 E0.39771
G1 X67.799 Y118.563 E0.01675
G1 X59.370 Y110.134 E0.37403
G1 X59.370 Y110.668 E0.01675
G1 X67.265 Y118.563 E0.35035
G1 X66.731 Y118.563 E0.01675
G1 X59.370 Y111.202 E0.32667
G1 X59.370 Y111.735 E0.01675
G1 X66.198 Y118.563 E0.30299
G1 X65.664 Y118.563 E0.01675
G1 X59.370 Y112.269 E0.27930
G1 X59.370 Y112.803 E0.01675
G1 X65.130 Y118.563 E0.25562
G1 X64.597 Y118.563 E0.01675
G1 X59.370 Y113.336 E0.23194
G1 X59.370 Y113.870 E0.01675
G1 X64.063 Y118.563 E0.20826
G1 X63.529 Y118.563 E0.01675
G1 X59.370 Y114.404 E0.18458
G1 X59.370 Y114.938 E0.01675
G1 X62.996 Y118.563 E0.16089
G1 X62.462 Y118.563 E0.01675
G1 X59.370 Y115.471 E0.13721
G1 X59.370 Y116.005 E0.01675
G1 X61.928 Y118.563 E0.11353
G1 X61.395 Y118.563 E0.01675
G1 X59.370 Y116.539 E0.08985
G1 X59.370 Y117.072 E0.01675
G1 X60.861 Y118.563 E0.06616
G1 X60.327 Y118.563 E0.01675
G1 X59.370 Y117.606 E0.04248
G1 X59.370 Y118.140 E0.01675
G1 X59.963 Y118.733 E0.02633
G1 E-0.80000 F2100.00000
G1 Z0.800 F10800.000
G1 X115.635 Y142.907
G1 Z0.200
G1 E0.80000 F2100.00000
G1 F1200.000
G1 X111.357 Y142.907 E0.13413
G1 X111.357 Y126.020 E0.52946
G1 X119.913 Y126.020 E0.26827
G1 X119.913 Y142.907 E0.52946
G1 X115.695 Y142.907 E0.13225
G1 X115.635 Y143.284 F10800.000
G1 F1200.000
G1 X110.980 Y143.284 E0.14596
G1 X110.980 Y125.643 E0.55311
G1 X120.290 Y125.643 E0.29191
G1 X120.290 Y143.284 E0.55311
G1 X115.695 Y143.284 E0.14408
G1 X115.307 Y143.055 F10800.000
