; generated by PrusaSlicer 2.2.0+win64 on 2020-12-01 at 18:05:47 UTC

; 

; external perimeters extrusion width = 0.60mm
; perimeters extrusion width = 0.43mm
; infill extrusion width = 0.45mm
; solid infill extrusion width = 0.70mm
; top infill extrusion width = 0.43mm
; first layer extrusion width = 0.42mm

M73 P0 R108
M201 X9000 Y9000 Z500 E10000 ; sets maximum accelerations, mm/sec^2
M203 X500 Y500 Z12 E120 ; sets maximum feedrates, mm/sec
M204 P2000 R1500 T2000 ; sets acceleration (P, T) and retract acceleration (R), mm/sec^2
M205 X10.00 Y10.00 Z0.20 E2.50 ; sets the jerk limits, mm/sec
M205 S0 T0 ; sets the minimum extruding and travel feed rate, mm/sec
M107
M862.3 P "MK2.5SMMU2S" ; printer model check
M862.1 P0.4 ; nozzle diameter check
M115 U3.8.0 ; tell printer latest fw version
G90 ; use absolute coordinates
M83 ; extruder relative mode
M104 S215 ; set extruder temp
M140 S60 ; set bed temp
Tx
M190 S60 ; wait for bed temp
M109 S215 ; wait for extruder temp
G28 W ; home all without mesh bed level
G80 ; mesh bed leveling

G21 ; set units to millimeters

;go outside print area
G1 Y-3.0 F1000.0
G1 Z0.4 F1000.0
; select extruder
Tc
; purge line
G1 X55.0 F2000.0
G1 Z0.3 F1000.0
G92 E0.0
G1 X240.0 E25.0 F2200.0
M73 P0 R108
G1 Y-2.0 F1000.0
G1 X55.0 E25 F1400.0
G1 Z0.20 F1000.0
G1 X5.0 E4.0 F1000.0
G92 E0.0
G21 ; set units to millimeters
G90 ; use absolute coordinates
M83 ; use relative distances for extrusion
M900 K0.05 ; Filament gcode LA 1.5
M900 K30 ; Filament gcode LA 1.0
;BEFORE_LAYER_CHANGE
G92 E0.0
;0.2


G1 E-0.80000 F2100.00000
G1 Z0.600 F10800.000
;AFTER_LAYER_CHANGE
;0.2
G1 X49.444 Y38.033
G1 Z0.200
G1 E0.80000 F2100.00000
M204 S1000
G1 F1200.000
G1 X50.380 Y37.835 E0.03001
G1 X174.587 Y37.834 E3.89442
G1 X175.325 Y37.952 E0.02343
G1 X175.989 Y38.294 E0.02343
G1 X176.515 Y38.826 E0.02343
G1 X176.849 Y39.494 E0.02343
G1 X201.612 Y122.758 E2.72372
G1 X201.707 Y123.309 E0.01752
G1 X201.630 Y124.045 E0.02319
G1 X201.330 Y124.721 E0.02319
G1 X180.674 Y155.919 E1.17315
G1 X180.133 Y156.347 E0.02166
G1 X179.494 Y156.601 E0.02154
G1 X112.515 Y172.150 E2.15591
G1 X50.370 Y172.166 E1.94853
G1 X49.504 Y171.994 E0.02767
G1 X48.764 Y171.521 E0.02755
G1 X48.210 Y170.731 E0.03024
G1 X48.016 Y169.789 E0.03016
G1 X48.016 Y40.201 E4.06314
G1 X48.185 Y39.331 E0.02778
G1 X48.661 Y38.584 E0.02778
G1 X49.395 Y38.068 E0.02813
G1 E-0.80000 F2100.00000
G1 Z0.800 F10800.000
G1 X51.180 Y41.000
G1 Z0.200
G1 E0.80000 F2100.00000
G1 F1200.000
G1 X94.756 Y41.000 E1.36629
G1 X119.210 Y101.974 E2.05985
G1 X152.492 Y101.998 E1.04352
G1 X153.607 Y100.701 E0.05360
G1 X132.768 Y40.999 E1.98270
G1 X173.996 Y40.998 E1.29269
G1 X198.291 Y122.691 E2.67230
G1 X169.614 Y123.977 E0.90005
G1 X168.296 Y124.686 E0.04695
G1 X177.853 Y153.502 E0.95190
G1 X140.440 Y153.502 E1.17307
G1 X128.256 Y122.689 E1.03890
M73 P1 R107
G1 X96.868 Y122.413 E0.98419
G1 X96.704 Y123.842 E0.04512
G1 X111.347 Y152.439 E1.00734
G1 X111.846 Y153.343 E0.03239
G1 X111.953 Y153.502 E0.00601
G1 X111.449 Y153.501 E0.01581
G1 X111.449 Y169.002 E0.48603
G1 X51.180 Y169.002 E1.88970
G1 X51.180 Y155.076 E0.43663
G1 X75.077 Y155.076 E0.74930
G1 X75.526 Y154.261 E0.02918
G1 X51.180 Y115.833 E1.42633
G1 X51.180 Y103.355 E0.39126
G1 X82.136 Y103.355 E0.97062
G1 X82.441 Y101.708 E0.05250
G1 X51.180 Y43.614 E2.06847
G1 X51.180 Y41.060 E0.08010
G1 E-0.80000 F2100.00000
G1 Z0.800 F10800.000
G1 X168.753 Y124.868
G1 Z0.200
G1 E0.80000 F2100.00000
G1 F1200.000
G1 X178.376 Y153.879 E0.95835
G1 X140.184 Y153.879 E1.19749
G1 X127.999 Y123.064 E1.03897
G1 X97.204 Y122.793 E0.96559
G1 X97.091 Y123.772 E0.03090
G1 X111.680 Y152.262 E1.00359
G1 X112.168 Y153.146 E0.03166
G1 X112.442 Y153.550 E0.01529
G1 X112.570 Y153.880 E0.01112
G1 X111.826 Y153.879 E0.02331
G1 X111.826 Y169.379 E0.48601
G1 X50.803 Y169.379 E1.91335
G1 X50.803 Y154.699 E0.46028
G1 X74.855 Y154.699 E0.75413
G1 X75.088 Y154.274 E0.01520
G1 X50.803 Y115.943 E1.42277
G1 X50.803 Y102.978 E0.40651
G1 X81.822 Y102.978 E0.97260
G1 X82.046 Y101.770 E0.03850
G1 X50.803 Y43.709 E2.06729
G1 X50.803 Y40.622 E0.09679
G1 X95.011 Y40.622 E1.38611
G1 X119.465 Y101.597 E2.05986
G1 X152.319 Y101.621 E1.03010
G1 X153.179 Y100.620 E0.04136
G1 X132.237 Y40.622 E1.99253
G1 X174.277 Y40.621 E1.31816
G1 X198.790 Y123.046 E2.69625
G1 X169.717 Y124.350 E0.91248
G1 X168.806 Y124.840 E0.03244
G1 X168.364 Y124.961 F10800.000
G1 E-0.80000 F2100.00000
G1 Z0.800 F10800.000
G1 X169.533 Y153.389
G1 Z0.200
G1 E0.80000 F2100.00000
G1 F1200.000
G1 X57.427 Y41.282 E4.97821
M73 P2 R106
G1 X56.893 Y41.282 E0.01677
G1 X168.830 Y153.219 E4.97067
G1 X168.296 Y153.219 E0.01677
G1 X56.359 Y41.282 E4.97067
G1 X55.825 Y41.282 E0.01677
G1 X167.762 Y153.219 E4.97067
G1 X167.228 Y153.219 E0.01677
G1 X55.291 Y41.282 E4.97067
G1 X54.757 Y41.282 E0.01677
G1 X166.694 Y153.219 E4.97067
G1 X166.160 Y153.219 E0.01677
G1 X54.223 Y41.282 E4.97067
G1 X53.689 Y41.282 E0.01677
G1 X165.625 Y153.219 E4.97067
G1 X165.091 Y153.219 E0.01677
G1 X53.155 Y41.282 E4.97067
M73 P3 R105
G1 X52.621 Y41.282 E0.01677
G1 X164.557 Y153.219 E4.97067
G1 X164.023 Y153.219 E0.01677
G1 X52.087 Y41.282 E4.97067
G1 X51.552 Y41.282 E0.01677
G1 X163.489 Y153.219 E4.97067
G1 X162.955 Y153.219 E0.01677
G1 X51.463 Y41.727 E4.95095
G1 X51.463 Y42.261 E0.01677
G1 X162.421 Y153.219 E4.92723
G1 X161.887 Y153.219 E0.01677
G1 X51.463 Y42.795 E4.90352
G1 X51.463 Y43.329 E0.01677
G1 X161.353 Y153.219 E4.87980
G1 X160.819 Y153.219 E0.01677
G1 X51.835 Y44.235 E4.83955
M73 P4 R104
G1 X52.457 Y45.391 E0.04123
G1 X160.285 Y153.219 E4.78821
G1 X159.751 Y153.219 E0.01677
G1 X53.079 Y46.548 E4.73687
G1 X53.701 Y47.704 E0.04123
G1 X159.217 Y153.219 E4.68552
G1 X158.683 Y153.219 E0.01677
G1 X128.826 Y123.362 E1.32582
G1 X129.175 Y124.246 E0.02983
G1 X158.149 Y153.219 E1.28660
G1 X157.615 Y153.219 E0.01677
G1 X129.525 Y125.129 E1.24737
G1 X129.874 Y126.012 E0.02983
G1 X157.081 Y153.219 E1.20814
G1 X156.547 Y153.219 E0.01677
G1 X130.223 Y126.896 E1.16892
G1 X130.573 Y127.779 E0.02983
G1 X156.013 Y153.219 E1.12969
G1 X155.479 Y153.219 E0.01677
G1 X130.922 Y128.662 E1.09047
G1 X131.271 Y129.546 E0.02983
G1 X154.945 Y153.219 E1.05124
G1 X154.411 Y153.219 E0.01677
G1 X131.620 Y130.429 E1.01202
G1 X131.970 Y131.312 E0.02983
G1 X153.876 Y153.219 E0.97279
G1 X153.342 Y153.219 E0.01677
G1 X132.319 Y132.196 E0.93357
G1 X132.668 Y133.079 E0.02983
G1 X152.808 Y153.219 E0.89434
G1 X152.274 Y153.219 E0.01677
G1 X133.018 Y133.962 E0.85511
G1 X133.367 Y134.846 E0.02983
G1 X151.740 Y153.219 E0.81589
G1 X151.206 Y153.219 E0.01677
G1 X133.716 Y135.729 E0.77666
G1 X134.065 Y136.612 E0.02983
G1 X150.672 Y153.219 E0.73744
G1 X150.138 Y153.219 E0.01677
G1 X134.415 Y137.496 E0.69821
G1 X134.764 Y138.379 E0.02983
G1 X149.604 Y153.219 E0.65899
G1 X149.070 Y153.219 E0.01677
G1 X135.113 Y139.263 E0.61976
G1 X135.463 Y140.146 E0.02983
G1 X148.536 Y153.219 E0.58054
G1 X148.002 Y153.219 E0.01677
G1 X135.812 Y141.029 E0.54131
G1 X136.161 Y141.913 E0.02983
G1 X147.468 Y153.219 E0.50208
G1 X146.934 Y153.219 E0.01677
G1 X136.511 Y142.796 E0.46286
G1 X136.860 Y143.679 E0.02983
G1 X146.400 Y153.219 E0.42363
G1 X145.866 Y153.219 E0.01677
G1 X137.209 Y144.563 E0.38441
G1 X137.558 Y145.446 E0.02983
G1 X145.332 Y153.219 E0.34518
G1 X144.798 Y153.219 E0.01677
G1 X137.908 Y146.329 E0.30596
G1 X138.257 Y147.213 E0.02983
G1 X144.264 Y153.219 E0.26673
G1 X143.730 Y153.219 E0.01677
G1 X138.606 Y148.096 E0.22751
G1 X138.956 Y148.979 E0.02983
G1 X143.196 Y153.219 E0.18828
M73 P4 R103
G1 X142.662 Y153.219 E0.01677
G1 X139.305 Y149.863 E0.14906
G1 X139.654 Y150.746 E0.02983
G1 X142.127 Y153.219 E0.10983
G1 X141.593 Y153.219 E0.01677
G1 X140.003 Y151.629 E0.07060
G1 X140.353 Y152.513 E0.02983
G1 X141.229 Y153.389 E0.03891
G1 E-0.80000 F2100.00000
G1 Z0.800 F10800.000
G1 X128.038 Y122.574
G1 Z0.200
G1 E0.80000 F2100.00000
G1 F1200.000
G1 X54.324 Y48.860 E3.27336
G1 X54.946 Y50.016 E0.04123
G1 X127.328 Y122.398 E3.21421
G1 X126.789 Y122.394 E0.01692
G1 X55.568 Y51.172 E3.16265
G1 X56.190 Y52.329 E0.04123
G1 X126.250 Y122.389 E3.11110
G1 X125.712 Y122.384 E0.01692
G1 X56.812 Y53.485 E3.05954
G1 X57.435 Y54.641 E0.04123
G1 X125.173 Y122.379 E3.00799
G1 X124.634 Y122.375 E0.01692
G1 X58.057 Y55.797 E2.95643
G1 X58.679 Y56.954 E0.04123
G1 X124.095 Y122.370 E2.90488
G1 X123.556 Y122.365 E0.01692
G1 X59.301 Y58.110 E2.85333
G1 X59.923 Y59.266 E0.04123
G1 X123.018 Y122.360 E2.80177
G1 X122.479 Y122.356 E0.01692
G1 X60.545 Y60.422 E2.75022
G1 X61.168 Y61.578 E0.04123
G1 X121.940 Y122.351 E2.69866
G1 X121.401 Y122.346 E0.01692
G1 X61.790 Y62.735 E2.64711
M73 P5 R102
G1 X62.412 Y63.891 E0.04123
G1 X120.863 Y122.341 E2.59556
G1 X120.324 Y122.337 E0.01692
G1 X63.034 Y65.047 E2.54400
G1 X63.656 Y66.203 E0.04123
G1 X119.785 Y122.332 E2.49245
G1 X119.246 Y122.327 E0.01692
G1 X64.279 Y67.360 E2.44089
G1 X64.901 Y68.516 E0.04123
G1 X118.707 Y122.322 E2.38934
G1 X118.169 Y122.318 E0.01692
G1 X65.523 Y69.672 E2.33778
G1 X66.145 Y70.828 E0.04123
G1 X117.630 Y122.313 E2.28623
G1 X117.091 Y122.308 E0.01692
G1 X66.767 Y71.985 E2.23468
G1 X67.389 Y73.141 E0.04123
G1 X116.552 Y122.303 E2.18312
G1 X116.013 Y122.299 E0.01692
G1 X68.012 Y74.297 E2.13157
G1 X68.634 Y75.453 E0.04123
G1 X115.475 Y122.294 E2.08001
G1 X114.936 Y122.289 E0.01692
G1 X69.256 Y76.609 E2.02846
G1 X69.878 Y77.766 E0.04123
G1 X114.397 Y122.284 E1.97690
G1 X113.858 Y122.280 E0.01692
G1 X70.500 Y78.922 E1.92535
G1 X71.123 Y80.078 E0.04123
G1 X113.319 Y122.275 E1.87380
G1 X112.781 Y122.270 E0.01692
G1 X71.745 Y81.234 E1.82224
G1 X72.367 Y82.391 E0.04123
G1 X112.242 Y122.265 E1.77069
G1 X111.703 Y122.261 E0.01692
M73 P6 R101
G1 X72.989 Y83.547 E1.71913
G1 X73.611 Y84.703 E0.04123
G1 X111.164 Y122.256 E1.66758
G1 X110.625 Y122.251 E0.01692
G1 X74.233 Y85.859 E1.61603
G1 X74.856 Y87.015 E0.04123
G1 X110.087 Y122.247 E1.56447
G1 X109.548 Y122.242 E0.01692
G1 X75.478 Y88.172 E1.51292
G1 X76.100 Y89.328 E0.04123
G1 X109.009 Y122.237 E1.46136
G1 X108.470 Y122.232 E0.01692
G1 X76.722 Y90.484 E1.40981
G1 X77.344 Y91.640 E0.04123
G1 X107.932 Y122.228 E1.35825
G1 X107.393 Y122.223 E0.01692
G1 X77.967 Y92.797 E1.30670
G1 X78.589 Y93.953 E0.04123
G1 X106.854 Y122.218 E1.25515
G1 X106.315 Y122.213 E0.01692
G1 X79.211 Y95.109 E1.20359
G1 X79.833 Y96.265 E0.04123
G1 X105.776 Y122.209 E1.15204
G1 X105.238 Y122.204 E0.01692
G1 X80.455 Y97.422 E1.10048
G1 X81.077 Y98.578 E0.04123
G1 X104.699 Y122.199 E1.04893
G1 X104.160 Y122.194 E0.01692
G1 X81.700 Y99.734 E0.99737
G1 X82.322 Y100.890 E0.04123
G1 X103.621 Y122.190 E0.94582
G1 X103.082 Y122.185 E0.01692
G1 X82.709 Y101.812 E0.90469
G1 X82.626 Y102.262 E0.01439
G1 X102.544 Y122.180 E0.88447
G1 X102.005 Y122.175 E0.01692
G1 X82.543 Y102.713 E0.86424
G1 X82.459 Y103.164 E0.01439
G1 X101.466 Y122.171 E0.84402
G1 X100.927 Y122.166 E0.01692
G1 X82.376 Y103.614 E0.82380
G1 X82.371 Y103.637 E0.00074
G1 X81.865 Y103.637 E0.01591
G1 X100.388 Y122.161 E0.82256
G1 X99.850 Y122.156 E0.01692
G1 X81.331 Y103.637 E0.82235
G1 X80.797 Y103.637 E0.01677
G1 X99.311 Y122.152 E0.82214
G1 X98.772 Y122.147 E0.01692
G1 X80.263 Y103.637 E0.82193
G1 X79.729 Y103.637 E0.01677
G1 X98.233 Y122.142 E0.82172
G1 X97.695 Y122.137 E0.01692
G1 X79.195 Y103.637 E0.82151
G1 X78.661 Y103.637 E0.01677
G1 X97.156 Y122.133 E0.82130
G1 X96.617 Y122.128 E0.01692
G1 X78.127 Y103.637 E0.82109
G1 X77.592 Y103.637 E0.01677
G1 X96.561 Y122.606 E0.84231
G1 X96.506 Y123.085 E0.01514
G1 X77.058 Y103.637 E0.86359
G1 X76.524 Y103.637 E0.01677
G1 X96.451 Y123.564 E0.88486
G1 X96.413 Y123.895 E0.01047
G1 X96.586 Y124.233 E0.01192
G1 X75.990 Y103.637 E0.91457
G1 X75.456 Y103.637 E0.01677
G1 X97.146 Y125.328 E0.96317
G1 X97.707 Y126.422 E0.03861
G1 X74.922 Y103.637 E1.01177
M73 P7 R100
G1 X74.388 Y103.637 E0.01677
G1 X98.267 Y127.517 E1.06038
G1 X98.828 Y128.611 E0.03861
G1 X73.854 Y103.637 E1.10898
G1 X73.320 Y103.637 E0.01677
G1 X99.388 Y129.706 E1.15759
G1 X99.949 Y130.800 E0.03861
G1 X72.786 Y103.637 E1.20619
G1 X72.252 Y103.637 E0.01677
G1 X100.509 Y131.895 E1.25479
G1 X101.070 Y132.989 E0.03861
G1 X71.718 Y103.637 E1.30340
G1 X71.184 Y103.637 E0.01677
G1 X101.630 Y134.084 E1.35200
G1 X102.191 Y135.178 E0.03861
G1 X70.650 Y103.637 E1.40061
G1 X70.116 Y103.637 E0.01677
G1 X102.751 Y136.273 E1.44921
G1 X103.312 Y137.367 E0.03861
G1 X69.582 Y103.637 E1.49782
G1 X69.048 Y103.637 E0.01677
G1 X103.872 Y138.462 E1.54642
G1 X104.433 Y139.557 E0.03861
G1 X68.514 Y103.637 E1.59502
G1 X67.980 Y103.637 E0.01677
G1 X104.993 Y140.651 E1.64363
G1 X105.554 Y141.746 E0.03861
G1 X67.446 Y103.637 E1.69223
G1 X66.912 Y103.637 E0.01677
G1 X106.114 Y142.840 E1.74084
G1 X106.675 Y143.935 E0.03861
G1 X66.378 Y103.637 E1.78944
G1 X65.843 Y103.637 E0.01677
G1 X107.235 Y145.029 E1.83804
G1 X107.796 Y146.124 E0.03861
G1 X65.309 Y103.637 E1.88665
G1 X64.775 Y103.637 E0.01677
G1 X108.356 Y147.218 E1.93525
G1 X108.917 Y148.313 E0.03861
G1 X64.241 Y103.637 E1.98386
G1 X63.707 Y103.637 E0.01677
G1 X109.477 Y149.407 E2.03246
G1 X110.038 Y150.502 E0.03861
G1 X63.173 Y103.637 E2.08107
G1 X62.639 Y103.637 E0.01677
G1 X110.598 Y151.596 E2.12967
G1 X111.169 Y152.701 E0.03905
G1 X62.105 Y103.637 E2.17874
M73 P8 R99
G1 X61.571 Y103.637 E0.01677
G1 X111.166 Y153.233 E2.20233
G1 X111.166 Y153.767 E0.01677
G1 X61.037 Y103.637 E2.22604
G1 X60.503 Y103.637 E0.01677
G1 X111.166 Y154.301 E2.24976
G1 X111.166 Y154.835 E0.01677
G1 X59.969 Y103.637 E2.27347
G1 X59.435 Y103.637 E0.01677
G1 X111.166 Y155.369 E2.29719
G1 X111.166 Y155.903 E0.01677
G1 X58.901 Y103.637 E2.32090
G1 X58.367 Y103.637 E0.01677
G1 X111.166 Y156.437 E2.34462
G1 X111.166 Y156.971 E0.01677
G1 X57.833 Y103.637 E2.36833
G1 X57.299 Y103.637 E0.01677
G1 X111.166 Y157.505 E2.39204
G1 X111.166 Y158.039 E0.01677
G1 X56.765 Y103.637 E2.41576
G1 X56.231 Y103.637 E0.01677
G1 X111.166 Y158.573 E2.43947
G1 X111.166 Y159.107 E0.01677
G1 X55.697 Y103.637 E2.46319
G1 X55.163 Y103.637 E0.01677
G1 X111.166 Y159.641 E2.48690
G1 X111.166 Y160.175 E0.01677
G1 X54.629 Y103.637 E2.51062
G1 X54.094 Y103.637 E0.01677
G1 X111.166 Y160.709 E2.53433
G1 X111.166 Y161.243 E0.01677
G1 X53.560 Y103.637 E2.55805
M73 P9 R98
G1 X53.026 Y103.637 E0.01677
G1 X111.166 Y161.777 E2.58176
G1 X111.166 Y162.311 E0.01677
G1 X52.492 Y103.637 E2.60548
G1 X51.958 Y103.637 E0.01677
G1 X111.166 Y162.845 E2.62919
G1 X111.166 Y163.379 E0.01677
G1 X51.463 Y103.676 E2.65121
G1 X51.463 Y104.210 E0.01677
G1 X111.166 Y163.914 E2.65121
G1 X111.166 Y164.448 E0.01677
G1 X51.463 Y104.744 E2.65121
G1 X51.463 Y105.278 E0.01677
G1 X111.166 Y164.982 E2.65121
G1 X111.166 Y165.516 E0.01677
G1 X51.463 Y105.812 E2.65121
G1 X51.463 Y106.346 E0.01677
G1 X111.166 Y166.050 E2.65121
G1 X111.166 Y166.584 E0.01677
G1 X51.463 Y106.880 E2.65121
G1 X51.463 Y107.414 E0.01677
G1 X111.166 Y167.118 E2.65121
G1 X111.166 Y167.652 E0.01677
G1 X51.463 Y107.948 E2.65121
G1 X51.463 Y108.482 E0.01677
G1 X111.166 Y168.186 E2.65121
G1 X111.166 Y168.719 E0.01675
G1 X51.463 Y109.016 E2.65119
G1 X51.463 Y109.550 E0.01677
G1 X110.632 Y168.719 E2.62746
M73 P10 R97
G1 X110.097 Y168.719 E0.01677
G1 X51.463 Y110.084 E2.60374
G1 X51.463 Y110.618 E0.01677
G1 X109.563 Y168.719 E2.58003
G1 X109.029 Y168.719 E0.01677
G1 X51.463 Y111.152 E2.55631
G1 X51.463 Y111.686 E0.01677
G1 X108.495 Y168.719 E2.53260
G1 X107.961 Y168.719 E0.01677
G1 X51.463 Y112.220 E2.50888
G1 X51.463 Y112.755 E0.01677
G1 X107.427 Y168.719 E2.48517
G1 X106.893 Y168.719 E0.01677
G1 X51.463 Y113.289 E2.46146
G1 X51.463 Y113.823 E0.01677
G1 X106.359 Y168.719 E2.43774
G1 X105.825 Y168.719 E0.01677
G1 X51.463 Y114.357 E2.41403
G1 X51.463 Y114.891 E0.01677
G1 X105.291 Y168.719 E2.39031
G1 X104.757 Y168.719 E0.01677
G1 X51.463 Y115.425 E2.36660
G1 X51.463 Y115.751 E0.01025
G1 X51.821 Y116.318 E0.02105
G1 X104.223 Y168.719 E2.32695
G1 X103.689 Y168.719 E0.01677
G1 X52.745 Y117.775 E2.26223
G1 X53.668 Y119.232 E0.05417
G1 X103.155 Y168.719 E2.19752
G1 X102.621 Y168.719 E0.01677
G1 X54.591 Y120.690 E2.13280
G1 X55.515 Y122.147 E0.05417
G1 X102.087 Y168.719 E2.06808
M73 P11 R96
G1 X101.553 Y168.719 E0.01677
G1 X56.438 Y123.605 E2.00336
G1 X57.361 Y125.062 E0.05417
