; generated by PrusaSlicer 2.1.0+ on 2019-10-03 at 20:30:07 UTC

; 

; external perimeters extrusion width = 0.45mm
; perimeters extrusion width = 0.45mm
; infill extrusion width = 0.45mm
; solid infill extrusion width = 0.45mm
; top infill extrusion width = 0.40mm
; first layer extrusion width = 0.42mm

M73 P0 R117
M201 X9000 Y9000 Z500 E10000 ; sets maximum accelerations, mm/sec^2
M203 X500 Y500 Z12 E120 ; sets maximum feedrates, mm/sec
M204 P2000 R1500 T2000 ; sets acceleration (P, T) and retract acceleration (R), mm/sec^2
M205 X10.00 Y10.00 Z0.20 E2.50 ; sets the jerk limits, mm/sec
M205 S0 T0 ; sets the minimum extruding and travel feed rate, mm/sec
M107
M862.3 P "MK2.5SMMU2S" ; printer model check
M862.1 P0.4 ; nozzle diameter check
M115 U3.8.0 ; tell printer latest fw version
G90 ; use absolute coordinates
M83 ; extruder relative mode
M104 S230 ; set extruder temp
M140 S60 ; set bed temp
Tx
M190 S60 ; wait for bed temp
M109 S230 ; wait for extruder temp
G28 W ; home all without mesh bed level
G80 ; mesh bed leveling

G21 ; set units to millimeters

;go outside print area
G1 Y-3.0 F1000.0
G1 Z0.4 F1000.0
; select extruder
Tc
; purge line
G1 X55.0 F2000.0
G1 Z0.3 F1000.0
G92 E0.0
G1 X240.0 E25.0 F2200.0
M73 P0 R116
G1 Y-2.0 F1000.0
G1 X55.0 E25 F1400.0
G1 Z0.20 F1000.0
G1 X5.0 E4.0 F1000.0
G92 E0.0
G21 ; set units to millimeters
G90 ; use absolute coordinates
M83 ; use relative distances for extrusion
M900 K30 ; Filament gcode
;BEFORE_LAYER_CHANGE
G92 E0.0
;0.2


G1 E-0.80000 F2100.00000
G1 Z0.600 F10800.000
;AFTER_LAYER_CHANGE
;0.2
G1 X115.906 Y56.141
G1 Z0.200
G1 E0.80000 F2100.00000
M204 S1000
G1 F1200
G1 X116.215 Y55.546 E0.02100
G1 X116.689 Y55.073 E0.02100
G1 X117.280 Y54.767 E0.02089
G1 X124.664 Y53.032 E0.23781
G1 X127.051 Y52.996 E0.07487
G1 X127.633 Y53.076 E0.01839
G1 X128.172 Y53.307 E0.01839
G1 X128.633 Y53.676 E0.01851
G1 X128.977 Y54.151 E0.01839
G1 X134.032 Y65.663 E0.39420
G1 X134.202 Y66.351 E0.02225
G1 X134.209 Y143.284 E2.41216
G1 X134.039 Y144.087 E0.02574
G1 X128.865 Y156.035 E0.40823
G1 X128.306 Y156.606 E0.02507
G1 X127.582 Y156.937 E0.02496
G1 X127.105 Y157.003 E0.01510
G1 X125.011 Y157.003 E0.06564
G1 X124.509 Y156.934 E0.01589
G1 X117.137 Y154.982 E0.23911
G1 X116.628 Y154.683 E0.01851
G1 X116.217 Y154.259 E0.01851
G1 X115.933 Y153.738 E0.01862
G1 X115.800 Y153.163 E0.01851
G1 X115.791 Y56.797 E3.02148
G1 X115.895 Y56.200 E0.01901
G1 E-0.80000 F2100.00000
G1 Z0.800 F10800.000
G1 X126.461 Y142.248
G1 Z0.200
G1 E0.80000 F2100.00000
G1 F1200
G1 X126.461 Y124.565 E0.55444
G1 X131.113 Y124.565 E0.14588
G1 X131.113 Y142.248 E0.55444
G1 X126.521 Y142.248 E0.14400
G1 X126.838 Y141.871 F10800.000
G1 F1200
G1 X126.838 Y124.942 E0.53079
G1 X130.736 Y124.942 E0.12223
G1 X130.736 Y141.871 E0.53079
G1 X126.898 Y141.871 E0.12035
G1 X126.477 Y142.044 F10800.000
G1 E-0.80000 F2100.00000
G1 Z0.800 F10800.000
G1 X126.461 Y121.713
G1 Z0.200
G1 E0.80000 F2100.00000
G1 F1200
G1 X126.461 Y87.725 E1.06567
G1 X131.113 Y87.725 E0.14588
G1 X131.113 Y121.713 E1.06567
G1 X126.521 Y121.713 E0.14400
G1 X126.838 Y121.336 F10800.000
G1 F1200
G1 X126.838 Y105.288 E0.50316
G1 X130.736 Y105.288 E0.12223
G1 X130.736 Y121.336 E0.50316
G1 X126.898 Y121.336 E0.12035
G1 X126.477 Y121.508 F10800.000
G1 E-0.80000 F2100.00000
G1 Z0.800 F10800.000
G1 X126.838 Y104.712
G1 Z0.200
G1 E0.80000 F2100.00000
G1 F1200
G1 X126.838 Y88.102 E0.52079
G1 X130.736 Y88.102 E0.12223
G1 X130.736 Y104.712 E0.52079
G1 X126.898 Y104.712 E0.12035
G1 X126.477 Y104.885 F10800.000
G1 E-0.80000 F2100.00000
G1 Z0.800 F10800.000
G1 X126.461 Y85.856
G1 Z0.200
G1 E0.80000 F2100.00000
G1 F1200
G1 X126.461 Y67.503 E0.57546
G1 X131.113 Y67.503 E0.14588
G1 X131.113 Y85.856 E0.57546
G1 X126.521 Y85.856 E0.14400
G1 X126.838 Y85.479 F10800.000
G1 F1200
G1 X126.838 Y67.880 E0.55181
G1 X130.736 Y67.880 E0.12223
G1 X130.736 Y85.479 E0.55181
G1 X126.898 Y85.479 E0.12035
G1 X126.478 Y85.653 F10800.000
G1 E-0.80000 F2100.00000
G1 Z0.800 F10800.000
G1 X125.642 Y154.228
G1 Z0.200
G1 E0.80000 F2100.00000
G1 F1200
G1 X125.642 Y152.374 E0.05812
G1 X118.566 Y152.374 E0.22186
G1 X118.566 Y152.054 E0.01004
G1 X125.642 Y152.054 E0.22186
G1 X125.642 Y144.924 E0.22357
G1 X118.566 Y144.924 E0.22186
G1 X118.566 Y144.603 E0.01004
G1 X125.642 Y144.603 E0.22186
G1 X125.642 Y124.330 E0.63565
G1 X118.566 Y124.330 E0.22186
G1 X118.566 Y124.010 E0.01004
G1 X125.642 Y124.010 E0.22186
G1 X125.642 Y103.066 E0.65667
G1 X118.566 Y103.066 E0.22186
G1 X118.566 Y102.746 E0.01004
G1 X125.642 Y102.746 E0.22186
G1 X125.642 Y90.910 E0.37112
G1 X118.566 Y90.910 E0.22186
G1 X118.566 Y90.590 E0.01004
G1 X125.642 Y90.590 E0.22186
G1 X125.642 Y63.035 E0.86397
G1 X118.566 Y63.035 E0.22186
G1 X118.566 Y62.714 E0.01004
G1 X125.642 Y62.714 E0.22186
G1 X125.642 Y57.748 E0.15571
G1 X118.566 Y57.748 E0.22186
G1 X118.566 Y57.428 E0.01004
G1 X125.642 Y57.428 E0.22186
G1 X125.642 Y55.772 E0.05191
G1 X126.461 Y55.772 E0.02566
G1 X126.461 Y67.191 E0.35803
G1 X131.434 Y67.120 E0.15594
G1 X131.434 Y142.643 E2.36795
G1 X126.461 Y142.558 E0.15594
G1 X126.461 Y154.228 E0.36591
G1 X125.702 Y154.228 E0.02378
G1 X125.265 Y154.605 F10800.000
G1 F1200
G1 X125.265 Y152.751 E0.05812
G1 X118.189 Y152.751 E0.22186
G1 X118.189 Y151.677 E0.03369
G1 X125.265 Y151.677 E0.22186
M73 P0 R115
G1 X125.265 Y145.301 E0.19992
G1 X118.189 Y145.301 E0.22186
G1 X118.189 Y144.226 E0.03369
G1 X125.265 Y144.226 E0.22186
G1 X125.265 Y124.707 E0.61200
G1 X118.189 Y124.707 E0.22186
G1 X118.189 Y123.633 E0.03369
G1 X125.265 Y123.633 E0.22186
G1 X125.265 Y103.443 E0.63302
G1 X118.189 Y103.443 E0.22186
G1 X118.189 Y102.369 E0.03369
G1 X125.265 Y102.369 E0.22186
G1 X125.265 Y91.287 E0.34747
G1 X118.189 Y91.287 E0.22186
G1 X118.189 Y90.213 E0.03369
G1 X125.265 Y90.213 E0.22186
G1 X125.265 Y63.412 E0.84032
G1 X118.189 Y63.412 E0.22186
G1 X118.189 Y62.337 E0.03369
G1 X125.265 Y62.337 E0.22186
G1 X125.265 Y58.125 E0.13206
G1 X118.189 Y58.125 E0.22186
G1 X118.189 Y57.051 E0.03369
G1 X125.265 Y57.051 E0.22186
G1 X125.265 Y55.395 E0.05191
G1 X126.838 Y55.395 E0.04931
G1 X126.838 Y66.808 E0.35786
G1 X131.811 Y66.738 E0.15594
G1 X131.811 Y143.026 E2.39197
G1 X126.838 Y142.941 E0.15594
G1 X126.838 Y154.605 E0.36570
G1 X125.325 Y154.605 E0.04743
G1 X125.283 Y154.205 F10800.000
G1 X125.755 Y153.350
G1 F1200
G1 X126.178 Y153.773 E0.01878
G1 X126.178 Y153.238 E0.01680
G1 X125.925 Y152.986 E0.01124
G1 X125.925 Y152.451 E0.01680
G1 X126.178 Y152.704 E0.01124
G1 X126.178 Y152.169 E0.01680
G1 X125.925 Y151.916 E0.01124
G1 X125.925 Y151.382 E0.01680
G1 X126.178 Y151.635 E0.01124
G1 X126.178 Y151.100 E0.01680
G1 X125.925 Y150.847 E0.01124
G1 X125.925 Y150.313 E0.01680
G1 X126.178 Y150.566 E0.01124
G1 X126.178 Y150.031 E0.01680
G1 X125.925 Y149.778 E0.01124
G1 X125.925 Y149.244 E0.01680
G1 X126.178 Y149.496 E0.01124
G1 X126.178 Y148.962 E0.01680
G1 X125.925 Y148.709 E0.01124
G1 X125.925 Y148.174 E0.01680
G1 X126.178 Y148.427 E0.01124
G1 X126.178 Y147.893 E0.01680
G1 X125.925 Y147.640 E0.01124
G1 X125.925 Y147.105 E0.01680
G1 X126.178 Y147.358 E0.01124
G1 X126.178 Y146.823 E0.01680
G1 X125.925 Y146.571 E0.01124
G1 X125.925 Y146.036 E0.01680
G1 X126.178 Y146.289 E0.01124
G1 X126.178 Y145.754 E0.01680
G1 X125.925 Y145.501 E0.01124
G1 X125.925 Y144.967 E0.01680
G1 X126.178 Y145.220 E0.01124
G1 X126.178 Y144.685 E0.01680
G1 X125.925 Y144.432 E0.01124
G1 X125.925 Y143.898 E0.01680
G1 X126.178 Y144.151 E0.01124
G1 X126.178 Y143.616 E0.01680
G1 X125.925 Y143.363 E0.01124
G1 X125.925 Y142.829 E0.01680
G1 X126.178 Y143.081 E0.01124
G1 X126.178 Y142.547 E0.01680
G1 X125.925 Y142.294 E0.01124
G1 X125.925 Y141.759 E0.01680
G1 X126.178 Y142.012 E0.01124
G1 X126.178 Y141.478 E0.01680
G1 X125.925 Y141.225 E0.01124
G1 X125.925 Y140.690 E0.01680
G1 X126.178 Y140.943 E0.01124
G1 X126.178 Y140.409 E0.01680
G1 X125.925 Y140.156 E0.01124
G1 X125.925 Y139.621 E0.01680
G1 X126.178 Y139.874 E0.01124
G1 X126.178 Y139.339 E0.01680
G1 X125.925 Y139.087 E0.01124
G1 X125.925 Y138.552 E0.01680
G1 X126.178 Y138.805 E0.01124
G1 X126.178 Y138.270 E0.01680
G1 X125.925 Y138.017 E0.01124
G1 X125.925 Y137.483 E0.01680
G1 X126.178 Y137.736 E0.01124
G1 X126.178 Y137.201 E0.01680
G1 X125.925 Y136.948 E0.01124
G1 X125.925 Y136.414 E0.01680
G1 X126.178 Y136.667 E0.01124
G1 X126.178 Y136.132 E0.01680
G1 X125.925 Y135.879 E0.01124
G1 X125.925 Y135.344 E0.01680
G1 X126.178 Y135.597 E0.01124
G1 X126.178 Y135.063 E0.01680
G1 X125.925 Y134.810 E0.01124
G1 X125.925 Y134.275 E0.01680
G1 X126.178 Y134.528 E0.01124
G1 X126.178 Y133.994 E0.01680
G1 X125.925 Y133.741 E0.01124
G1 X125.925 Y133.206 E0.01680
G1 X126.178 Y133.459 E0.01124
G1 X126.178 Y132.924 E0.01680
G1 X125.925 Y132.672 E0.01124
G1 X125.925 Y132.137 E0.01680
G1 X126.178 Y132.390 E0.01124
G1 X126.178 Y131.855 E0.01680
G1 X125.925 Y131.602 E0.01124
G1 X125.925 Y131.068 E0.01680
G1 X126.178 Y131.321 E0.01124
G1 X126.178 Y130.786 E0.01680
G1 X125.925 Y130.533 E0.01124
G1 X125.925 Y129.999 E0.01680
G1 X126.178 Y130.252 E0.01124
G1 X126.178 Y129.717 E0.01680
G1 X125.925 Y129.464 E0.01124
G1 X125.925 Y128.930 E0.01680
G1 X126.178 Y129.182 E0.01124
G1 X126.178 Y128.648 E0.01680
G1 X125.925 Y128.395 E0.01124
G1 X125.925 Y127.860 E0.01680
G1 X126.178 Y128.113 E0.01124
G1 X126.178 Y127.579 E0.01680
G1 X125.925 Y127.326 E0.01124
G1 X125.925 Y126.791 E0.01680
G1 X126.178 Y127.044 E0.01124
G1 X126.178 Y126.510 E0.01680
G1 X125.925 Y126.257 E0.01124
G1 X125.925 Y125.722 E0.01680
G1 X126.178 Y125.975 E0.01124
G1 X126.178 Y125.440 E0.01680
G1 X125.925 Y125.187 E0.01124
G1 X125.925 Y124.653 E0.01680
G1 X126.178 Y124.906 E0.01124
G1 X126.178 Y124.371 E0.01680
G1 X125.925 Y124.118 E0.01124
G1 X125.925 Y123.584 E0.01680
G1 X126.623 Y124.282 E0.03103
G1 X127.158 Y124.282 E0.01680
G1 X125.925 Y123.049 E0.05479
G1 X125.925 Y122.515 E0.01680
G1 X127.692 Y124.282 E0.07856
G1 X128.227 Y124.282 E0.01680
G1 X125.925 Y121.980 E0.10232
G1 X125.925 Y121.445 E0.01680
G1 X128.762 Y124.282 E0.12608
G1 X129.296 Y124.282 E0.01680
G1 X127.010 Y121.996 E0.10163
G1 X127.544 Y121.996 E0.01680
G1 X129.831 Y124.282 E0.10163
G1 X130.365 Y124.282 E0.01680
G1 X128.079 Y121.996 E0.10163
G1 X128.614 Y121.996 E0.01680
G1 X130.900 Y124.282 E0.10163
G1 X131.151 Y124.282 E0.00789
G1 X131.151 Y123.998 E0.00891
G1 X129.148 Y121.996 E0.08902
G1 X129.683 Y121.996 E0.01680
G1 X131.151 Y123.464 E0.06526
G1 X131.151 Y122.929 E0.01680
G1 X130.217 Y121.996 E0.04150
G1 X130.752 Y121.996 E0.01680
G1 X131.321 Y122.564 E0.02528
G1 E-0.80000 F2100.00000
G1 Z0.800 F10800.000
G1 X126.348 Y121.333
G1 Z0.200
G1 E0.80000 F2100.00000
G1 F1200
G1 X125.925 Y120.911 E0.01878
G1 X125.925 Y120.376 E0.01680
G1 X126.178 Y120.629 E0.01124
G1 X126.178 Y120.095 E0.01680
G1 X125.925 Y119.842 E0.01124
G1 X125.925 Y119.307 E0.01680
G1 X126.178 Y119.560 E0.01124
G1 X126.178 Y119.025 E0.01680
G1 X125.925 Y118.773 E0.01124
G1 X125.925 Y118.238 E0.01680
G1 X126.178 Y118.491 E0.01124
G1 X126.178 Y117.956 E0.01680
G1 X125.925 Y117.703 E0.01124
G1 X125.925 Y117.169 E0.01680
G1 X126.178 Y117.422 E0.01124
G1 X126.178 Y116.887 E0.01680
G1 X125.925 Y116.634 E0.01124
G1 X125.925 Y116.100 E0.01680
G1 X126.178 Y116.353 E0.01124
G1 X126.178 Y115.818 E0.01680
G1 X125.925 Y115.565 E0.01124
G1 X125.925 Y115.031 E0.01680
G1 X126.178 Y115.283 E0.01124
G1 X126.178 Y114.749 E0.01680
G1 X125.925 Y114.496 E0.01124
G1 X125.925 Y113.961 E0.01680
G1 X126.178 Y114.214 E0.01124
G1 X126.178 Y113.680 E0.01680
G1 X125.925 Y113.427 E0.01124
G1 X125.925 Y112.892 E0.01680
G1 X126.178 Y113.145 E0.01124
G1 X126.178 Y112.610 E0.01680
G1 X125.925 Y112.358 E0.01124
G1 X125.925 Y111.823 E0.01680
G1 X126.178 Y112.076 E0.01124
G1 X126.178 Y111.541 E0.01680
G1 X125.925 Y111.288 E0.01124
G1 X125.925 Y110.754 E0.01680
G1 X126.178 Y111.007 E0.01124
G1 X126.178 Y110.472 E0.01680
G1 X125.925 Y110.219 E0.01124
G1 X125.925 Y109.685 E0.01680
G1 X126.178 Y109.938 E0.01124
G1 X126.178 Y109.403 E0.01680
G1 X125.925 Y109.150 E0.01124
G1 X125.925 Y108.616 E0.01680
G1 X126.178 Y108.868 E0.01124
G1 X126.178 Y108.334 E0.01680
G1 X125.925 Y108.081 E0.01124
G1 X125.925 Y107.546 E0.01680
G1 X126.178 Y107.799 E0.01124
G1 X126.178 Y107.265 E0.01680
G1 X125.925 Y107.012 E0.01124
G1 X125.925 Y106.477 E0.01680
G1 X126.178 Y106.730 E0.01124
G1 X126.178 Y106.196 E0.01680
G1 X125.925 Y105.943 E0.01124
G1 X125.925 Y105.408 E0.01680
G1 X126.178 Y105.661 E0.01124
G1 X126.178 Y105.126 E0.01680
G1 X125.925 Y104.874 E0.01124
G1 X125.925 Y104.339 E0.01680
G1 X126.178 Y104.592 E0.01124
G1 X126.178 Y104.057 E0.01680
G1 X125.925 Y103.804 E0.01124
G1 X125.925 Y103.270 E0.01680
G1 X126.178 Y103.523 E0.01124
G1 X126.178 Y102.988 E0.01680
G1 X125.925 Y102.735 E0.01124
G1 X125.925 Y102.201 E0.01680
G1 X126.178 Y102.453 E0.01124
G1 X126.178 Y101.919 E0.01680
G1 X125.925 Y101.666 E0.01124
G1 X125.925 Y101.131 E0.01680
G1 X126.178 Y101.384 E0.01124
G1 X126.178 Y100.850 E0.01680
G1 X125.925 Y100.597 E0.01124
G1 X125.925 Y100.062 E0.01680
G1 X126.178 Y100.315 E0.01124
G1 X126.178 Y99.781 E0.01680
G1 X125.925 Y99.528 E0.01124
G1 X125.925 Y98.993 E0.01680
G1 X126.178 Y99.246 E0.01124
G1 X126.178 Y98.711 E0.01680
G1 X125.925 Y98.459 E0.01124
G1 X125.925 Y97.924 E0.01680
G1 X126.178 Y98.177 E0.01124
G1 X126.178 Y97.642 E0.01680
G1 X125.925 Y97.389 E0.01124
G1 X125.925 Y96.855 E0.01680
G1 X126.178 Y97.108 E0.01124
G1 X126.178 Y96.573 E0.01680
G1 X125.925 Y96.320 E0.01124
G1 X125.925 Y95.786 E0.01680
G1 X126.178 Y96.039 E0.01124
G1 X126.178 Y95.504 E0.01680
G1 X125.925 Y95.251 E0.01124
G1 X125.925 Y94.717 E0.01680
G1 X126.178 Y94.969 E0.01124
G1 X126.178 Y94.435 E0.01680
G1 X125.925 Y94.182 E0.01124
G1 X125.925 Y93.647 E0.01680
G1 X126.178 Y93.900 E0.01124
G1 X126.178 Y93.366 E0.01680
G1 X125.925 Y93.113 E0.01124
G1 X125.925 Y92.578 E0.01680
G1 X126.178 Y92.831 E0.01124
G1 X126.178 Y92.296 E0.01680
G1 X125.925 Y92.044 E0.01124
G1 X125.925 Y91.509 E0.01680
G1 X126.178 Y91.762 E0.01124
G1 X126.178 Y91.227 E0.01680
G1 X125.925 Y90.974 E0.01124
G1 X125.925 Y90.440 E0.01680
G1 X126.178 Y90.693 E0.01124
G1 X126.178 Y90.158 E0.01680
G1 X125.925 Y89.905 E0.01124
G1 X125.925 Y89.371 E0.01680
G1 X126.178 Y89.624 E0.01124
G1 X126.178 Y89.089 E0.01680
G1 X125.925 Y88.836 E0.01124
G1 X125.925 Y88.302 E0.01680
G1 X126.178 Y88.554 E0.01124
G1 X126.178 Y88.020 E0.01680
G1 X125.925 Y87.767 E0.01124
G1 X125.925 Y87.232 E0.01680
G1 X126.178 Y87.485 E0.01124
G1 X126.178 Y87.442 E0.00136
G1 X126.669 Y87.442 E0.01544
G1 X125.925 Y86.698 E0.03308
G1 X125.925 Y86.163 E0.01680
G1 X127.374 Y87.612 E0.06439
G1 E-0.80000 F2100.00000
G1 Z0.800 F10800.000
G1 X131.321 Y86.748
G1 Z0.200
G1 E0.80000 F2100.00000
G1 F1200
G1 X130.712 Y86.139 E0.02705
G1 X130.177 Y86.139 E0.01680
G1 X131.151 Y87.112 E0.04327
G1 X131.151 Y87.442 E0.01036
G1 X130.946 Y87.442 E0.00644
G1 X129.643 Y86.139 E0.05792
G1 X129.108 Y86.139 E0.01680
G1 X130.411 Y87.442 E0.05792
G1 X129.877 Y87.442 E0.01680
G1 X128.574 Y86.139 E0.05792
G1 X128.039 Y86.139 E0.01680
G1 X129.342 Y87.442 E0.05792
G1 X128.808 Y87.442 E0.01680
G1 X127.505 Y86.139 E0.05792
G1 X126.970 Y86.139 E0.01680
G1 X128.273 Y87.442 E0.05792
G1 X127.738 Y87.442 E0.01680
G1 X125.925 Y85.629 E0.08061
G1 X125.925 Y85.094 E0.01680
G1 X126.178 Y85.347 E0.01124
G1 X126.178 Y84.812 E0.01680
G1 X125.925 Y84.560 E0.01124
G1 X125.925 Y84.025 E0.01680
G1 X126.178 Y84.278 E0.01124
G1 X126.178 Y83.743 E0.01680
G1 X125.925 Y83.490 E0.01124
G1 X125.925 Y82.956 E0.01680
G1 X126.178 Y83.209 E0.01124
G1 X126.178 Y82.674 E0.01680
G1 X125.925 Y82.421 E0.01124
G1 X125.925 Y81.887 E0.01680
G1 X126.178 Y82.140 E0.01124
G1 X126.178 Y81.605 E0.01680
G1 X125.925 Y81.352 E0.01124
G1 X125.925 Y80.817 E0.01680
G1 X126.178 Y81.070 E0.01124
G1 X126.178 Y80.536 E0.01680
G1 X125.925 Y80.283 E0.01124
G1 X125.925 Y79.748 E0.01680
G1 X126.178 Y80.001 E0.01124
G1 X126.178 Y79.467 E0.01680
G1 X125.925 Y79.214 E0.01124
G1 X125.925 Y78.679 E0.01680
G1 X126.178 Y78.932 E0.01124
G1 X126.178 Y78.397 E0.01680
G1 X125.925 Y78.145 E0.01124
G1 X125.925 Y77.610 E0.01680
G1 X126.178 Y77.863 E0.01124
G1 X126.178 Y77.328 E0.01680
G1 X125.925 Y77.075 E0.01124
