; generated by PrusaSlicer 2.0.0+ on 2019-08-26 at 15:53:34

; 

; external perimeters extrusion width = 0.45mm
; perimeters extrusion width = 0.45mm
; infill extrusion width = 0.45mm
; solid infill extrusion width = 0.45mm
; top infill extrusion width = 0.40mm
; first layer extrusion width = 0.42mm

; external perimeters extrusion width = 0.45mm
; perimeters extrusion width = 0.45mm
; infill extrusion width = 0.45mm
; solid infill extrusion width = 0.45mm
; top infill extrusion width = 0.40mm
; first layer extrusion width = 0.42mm

M73 P0 R29
M201 X9000 Y9000 Z500 E10000 ; sets maximum accelerations, mm/sec^2
M203 X500 Y500 Z12 E120 ; sets maximum feedrates, mm/sec
M204 P2000 R1500 T2000 ; sets acceleration (P, T) and retract acceleration (R), mm/sec^2
M205 X10.00 Y10.00 Z0.20 E2.50 ; sets the jerk limits, mm/sec
M205 S0 T0 ; sets the minimum extruding and travel feed rate, mm/sec
M107
M115 U3.7.2 ; tell printer latest fw version
G90 ; use absolute coordinates
M83 ; extruder relative mode
M104 S215 ; set extruder temp
M140 S60 ; set bed temp
M190 S60 ; wait for bed temp
M109 S215 ; wait for extruder temp
G28 W ; home all without mesh bed level
G80 ; mesh bed leveling
G21 ; set units to millimeters

; Send the filament type to the MMU2.0 unit.
; E stands for extruder number, F stands for filament type (0: default; 1:flex; 2: PVA)
M403 E0 F0
M403 E1 F0
M403 E2 F0
M403 E3 F0
M403 E4 F0


;go outside print area
G1 Y-3.0 F1000.0
G1 Z0.4 F1000.0
; select extruder
T0
; initial load
G1 X55.0 E29.0 F1073.0
M73 P1 R29
G1 X5.0 E29.0 F1800.0
G1 X55.0 E8.0 F2000.0
G1 Z0.3 F1000.0
G92 E0.0
G1 X240.0 E25.0 F2200.0
G1 Y-2.0 F1000.0
G1 X55.0 E25 F1400.0
G1 Z0.20 F1000.0
G1 X5.0 E4.0 F1000.0
G92 E0.0

G92 E0.0
G21 ; set units to millimeters
G90 ; use absolute coordinates
M83 ; use relative distances for extrusion
T0
M900 K30 ; Filament gcode
G1 Z0.200 F10800.000
;BEFORE_LAYER_CHANGE
G92 E0.0
;0.2


G1 E-0.80000 F2100.00000
G1 Z0.800 F10800.000
G1 Z0.200
;AFTER_LAYER_CHANGE
;0.2
M900 K0
G1 E-2.20000 F2100.00000
G1 Z0.800 F10800.000
G1 X233.000 Y140.000
G1 Z0.200
G1 E3.00000 F2100.00000
;-------------------------------------
; CP WIPE TOWER FIRST LAYER BRIM START
G1 X233.000 Y154.060 E0.8016 F2400
G1 X230.457 Y154.517  F7000
G1 Y139.543 E0.6260 F2100
G1 X169.543 E2.5466
G1 Y154.517 E0.6260
G1 X230.457 E2.5466
G1 X230.914 Y154.974  F7000
G1 Y139.086 E0.6642 F2100
G1 X169.086 E2.5849
G1 Y154.974 E0.6642
G1 X230.914 E2.5849
G1 X231.371 Y155.431  F7000
G1 Y138.629 E0.7025 F2100
G1 X168.629 E2.6231
G1 Y155.431 E0.7025
G1 X231.371 E2.6231
G1 X231.828 Y155.888  F7000
G1 Y138.172 E0.7407 F2100
G1 X168.172 E2.6613
G1 Y155.888 E0.7407
G1 X231.828 E2.6613
G1 X230.000 Y154.060  F7000
G1 X170.000
G1 X230.000
; CP WIPE TOWER FIRST LAYER BRIM END
;-----------------------------------

M900 K30 ; Filament gcode
G1 F8640
G1 X226.709 Y154.060 E-0.76000
G1 E-0.04000 F2100.00000
G1 Z0.800 F10800.000
G1 X137.336 Y127.753
G1 Z0.200
G1 E0.80000 F2100.00000
M204 S1000
G1 F1200
G1 X136.079 Y128.283 E0.04278
G1 X134.826 Y128.406 E0.03948
G1 X112.552 Y126.523 E0.70087
G1 X111.688 Y126.334 E0.02773
G1 X111.239 Y126.151 E0.01521
G1 X110.409 Y125.612 E0.03105
G1 X109.671 Y124.768 E0.03514
G1 X109.212 Y123.768 E0.03449
G1 X109.056 Y122.699 E0.03390
G1 X109.800 Y86.916 E1.12220
G1 X110.015 Y85.686 E0.03915
G1 X110.494 Y84.688 E0.03468
G1 X110.835 Y84.220 E0.01817
G1 X111.749 Y83.378 E0.03897
G1 X112.749 Y82.855 E0.03536
G1 X113.879 Y82.607 E0.03630
G1 X135.426 Y81.593 E0.67633
G1 X137.186 Y81.827 E0.05568
G1 X138.472 Y82.421 E0.04440
G1 X138.960 Y82.777 E0.01896
G1 X139.960 Y83.816 E0.04519
G1 X140.604 Y85.086 E0.04468
G1 X140.783 Y85.638 E0.01817
G1 X140.937 Y86.920 E0.04048
G1 X139.418 Y124.184 E1.16936
G1 X139.213 Y125.311 E0.03593
G1 X139.013 Y125.831 E0.01749
G1 X138.378 Y126.854 E0.03773
G1 X137.382 Y127.714 E0.04125
G1 F8640
G1 X136.079 Y128.283 E-0.32824
G1 X134.826 Y128.406 E-0.29075
G1 X134.217 Y128.355 E-0.14101
G1 E-0.04000 F2100.00000
G1 Z0.800 F10800.000
G1 X134.920 Y123.997
G1 Z0.200
G1 E0.80000 F2100.00000
G1 F1200
G1 X130.314 Y123.932 E0.14444
G1 X130.286 Y121.949 E0.06217
G1 X130.908 Y121.927 E0.01953
G1 X130.387 Y116.356 E0.17544
G1 X130.738 Y116.313 E0.01111
G1 X130.520 Y116.154 E0.00848
G1 X130.292 Y115.858 E0.01171
G1 X130.156 Y115.580 E0.00971
G1 X130.051 Y115.170 E0.01328
G1 X130.084 Y114.643 E0.01655
G1 X130.208 Y114.171 E0.01531
G1 X130.401 Y113.754 E0.01438
G1 X130.698 Y113.326 E0.01634
G1 X131.324 Y112.531 E0.03172
G1 X131.723 Y111.955 E0.02197
G1 X132.074 Y111.345 E0.02209
G1 X132.193 Y111.052 E0.00990
G1 X132.327 Y110.579 E0.01543
G1 X133.249 Y110.579 E0.02889
G1 X133.545 Y111.349 E0.02589
G1 X133.892 Y111.953 E0.02184
G1 X134.400 Y112.677 E0.02773
G1 X135.020 Y113.468 E0.03151
G1 X135.217 Y113.756 E0.01093
G1 X135.408 Y114.171 E0.01432
G1 X135.533 Y114.643 E0.01530
G1 X135.566 Y115.170 E0.01655
G1 X135.461 Y115.580 E0.01328
G1 X135.325 Y115.858 E0.00971
G1 X135.150 Y116.085 E0.00899
G1 X135.425 Y116.089 E0.00864
G1 X134.240 Y121.911 E0.18627
G1 X135.095 Y121.933 E0.02683
G1 X134.925 Y123.937 E0.06309
G1 X134.574 Y123.615 F10800.000
G1 F1200
G1 X130.686 Y123.560 E0.12193
G1 X130.668 Y122.313 E0.03910
G1 X131.321 Y122.290 E0.02049
G1 X130.796 Y116.686 E0.17648
G1 X131.887 Y116.552 E0.03446
G1 X132.190 Y118.851 E0.07272
G1 X133.300 Y118.869 E0.03482
G1 X133.719 Y116.441 E0.07725
G1 X134.965 Y116.460 E0.03908
G1 X133.780 Y122.276 E0.18612
G1 X134.686 Y122.299 E0.02840
G1 X134.579 Y123.555 E0.03953
G1 X134.642 Y124.009 F10800.000
G1 F8640
G1 X131.288 Y123.559 E-0.76000
G1 E-0.04000 F2100.00000
G1 Z0.800 F10800.000
G1 X132.613 Y110.956
G1 Z0.200
G1 E0.80000 F2100.00000
G1 F1200
G1 X132.990 Y110.956 E0.01183
G1 X133.204 Y111.512 E0.01869
G1 X133.574 Y112.156 E0.02329
G1 X134.097 Y112.902 E0.02858
G1 X134.716 Y113.691 E0.03143
G1 X134.888 Y113.943 E0.00956
G1 X135.052 Y114.299 E0.01230
G1 X135.159 Y114.703 E0.01311
G1 X135.186 Y115.134 E0.01353
G1 X135.106 Y115.449 E0.01020
G1 X135.003 Y115.658 E0.00730
G1 X134.832 Y115.881 E0.00882
G1 X134.562 Y116.077 E0.01045
G1 X134.304 Y116.175 E0.00867
G1 X134.032 Y116.229 E0.00869
G1 X133.689 Y116.209 E0.01077
G1 X133.206 Y116.023 E0.01623
G1 X132.983 Y115.803 E0.00981
G1 X132.808 Y115.597 E0.00848
G1 X132.634 Y115.803 E0.00848
G1 X132.411 Y116.023 E0.00981
G1 X131.928 Y116.209 E0.01623
G1 X131.585 Y116.229 E0.01077
G1 X131.313 Y116.175 E0.00869
G1 X131.055 Y116.077 E0.00867
G1 X130.785 Y115.881 E0.01045
G1 X130.614 Y115.658 E0.00882
G1 X130.511 Y115.449 E0.00730
G1 X130.431 Y115.134 E0.01020
G1 X130.458 Y114.703 E0.01353
G1 X130.565 Y114.299 E0.01311
G1 X130.730 Y113.942 E0.01233
G1 X131.001 Y113.550 E0.01496
G1 X131.628 Y112.756 E0.03172
G1 X132.043 Y112.157 E0.02284
G1 X132.414 Y111.510 E0.02339
G1 X132.551 Y111.175 E0.01136
G1 X132.596 Y111.013 E0.00526
G1 X132.656 Y110.581 F10800.000
G1 F8640
G1 X132.990 Y110.956 E-0.09183
G1 X133.204 Y111.512 E-0.13761
G1 X133.574 Y112.156 E-0.17152
G1 X134.097 Y112.902 E-0.21048
G1 X134.494 Y113.408 E-0.14855
G1 E-0.04000 F2100.00000
G1 Z0.800 F10800.000
G1 X114.879 Y88.254
G1 Z0.200
G1 E0.80000 F2100.00000
G1 F1200
G1 X119.485 Y88.319 E0.14444
G1 X119.513 Y90.302 E0.06216
G1 X118.891 Y90.324 E0.01953
G1 X119.408 Y95.853 E0.17411
G1 X119.486 Y95.910 E0.00301
G1 X119.714 Y96.205 E0.01171
G1 X119.850 Y96.484 E0.00971
G1 X119.955 Y96.894 E0.01328
G1 X119.922 Y97.421 E0.01656
G1 X119.797 Y97.893 E0.01531
G1 X119.746 Y98.003 E0.00380
G1 X120.532 Y97.703 E0.02637
G1 X121.455 Y97.521 E0.02949
G1 X122.600 Y97.586 E0.03596
G1 X123.334 Y97.827 E0.02422
G1 X124.267 Y98.230 E0.03187
G1 X125.015 Y98.966 E0.03290
G1 X125.737 Y99.821 E0.03508
G1 X126.459 Y98.966 E0.03510
G1 X127.206 Y98.230 E0.03288
G1 X128.139 Y97.827 E0.03186
G1 X128.873 Y97.586 E0.02423
G1 X130.018 Y97.521 E0.03597
G1 X130.941 Y97.703 E0.02949
G1 X131.817 Y98.037 E0.02940
G1 X132.730 Y98.701 E0.03537
G1 X133.310 Y99.453 E0.02980
G1 X133.656 Y100.159 E0.02465
G1 X133.929 Y101.227 E0.03456
G1 X133.836 Y102.694 E0.04609
G1 X133.660 Y103.422 E0.02348
G1 X133.466 Y104.097 E0.02202
G1 X132.900 Y105.320 E0.04225
G1 X131.957 Y106.683 E0.05196
G1 X130.132 Y108.965 E0.09161
G1 X129.151 Y110.308 E0.05216
G1 X128.294 Y111.585 E0.04821
G1 X127.722 Y112.506 E0.03400
G1 X126.988 Y113.859 E0.04827
G1 X126.514 Y115.007 E0.03895
G1 X126.218 Y116.055 E0.03415
G1 X125.256 Y116.055 E0.03018
G1 X124.959 Y115.007 E0.03415
G1 X124.486 Y113.859 E0.03895
G1 X123.751 Y112.505 E0.04828
G1 X123.181 Y111.586 E0.03392
G1 X122.321 Y110.305 E0.04837
G1 X121.710 Y109.462 E0.03263
G1 X121.342 Y108.966 E0.01939
G1 X119.517 Y106.684 E0.09160
G1 X118.573 Y105.320 E0.05201
G1 X118.008 Y104.097 E0.04224
G1 X117.814 Y103.423 E0.02200
G1 X117.637 Y102.694 E0.02350
G1 X117.561 Y101.486 E0.03797
G1 X116.757 Y101.486 E0.02521
G1 X116.460 Y100.715 E0.02590
G1 X116.112 Y100.109 E0.02191
G1 X115.712 Y99.531 E0.02205
G1 X115.087 Y98.738 E0.03165
G1 X114.790 Y98.309 E0.01635
G1 X114.600 Y97.899 E0.01419
G1 X114.472 Y97.415 E0.01569
G1 X114.439 Y96.894 E0.01637
G1 X114.544 Y96.484 E0.01328
G1 X114.710 Y96.167 E0.01121
G1 X114.374 Y96.162 E0.01056
G1 X115.559 Y90.341 E0.18627
G1 X114.704 Y90.319 E0.02683
G1 X114.874 Y88.314 E0.06309
G1 F8640
G1 X118.165 Y88.318 E-0.76000
G1 E-0.04000 F2100.00000
G1 Z0.800 F10800.000
G1 X125.933 Y115.678
G1 Z0.200
G1 E0.80000 F2100.00000
M73 P4 R28
G1 F1200
G1 X125.541 Y115.678 E0.01229
G1 X125.316 Y114.884 E0.02589
G1 X124.827 Y113.696 E0.04027
G1 X124.077 Y112.316 E0.04925
G1 X123.497 Y111.382 E0.03448
G1 X122.630 Y110.090 E0.04879
G1 X121.641 Y108.735 E0.05258
G1 X119.820 Y106.459 E0.09141
G1 X118.902 Y105.132 E0.05058
G1 X118.362 Y103.965 E0.04031
G1 X118.179 Y103.326 E0.02085
G1 X118.012 Y102.638 E0.02222
G1 X117.925 Y101.263 E0.04318
G1 X118.174 Y100.290 E0.03148
G1 X118.486 Y99.653 E0.02224
G1 X119.009 Y98.974 E0.02690
G1 X119.837 Y98.372 E0.03210
G1 X120.637 Y98.067 E0.02683
G1 X121.481 Y97.900 E0.02699
G1 X122.530 Y97.960 E0.03291
G1 X123.200 Y98.180 E0.02214
G1 X124.053 Y98.548 E0.02913
G1 X124.738 Y99.223 E0.03014
G1 X125.408 Y100.016 E0.03256
G1 X125.737 Y100.915 E0.03002
G1 X126.066 Y100.016 E0.03002
G1 X126.736 Y99.222 E0.03258
G1 X127.420 Y98.548 E0.03012
G1 X128.273 Y98.180 E0.02912
G1 X128.944 Y97.960 E0.02215
G1 X129.992 Y97.900 E0.03292
G1 X130.837 Y98.067 E0.02699
G1 X131.636 Y98.372 E0.02683
G1 X132.464 Y98.974 E0.03210
G1 X132.988 Y99.653 E0.02691
G1 X133.300 Y100.290 E0.02224
G1 X133.549 Y101.263 E0.03148
G1 X133.462 Y102.638 E0.04318
G1 X133.295 Y103.326 E0.02220
G1 X133.111 Y103.965 E0.02086
G1 X132.572 Y105.132 E0.04032
G1 X131.655 Y106.457 E0.05053
G1 X129.833 Y108.736 E0.09146
G1 X128.842 Y110.092 E0.05265
G1 X127.977 Y111.380 E0.04866
G1 X127.396 Y112.316 E0.03455
G1 X126.647 Y113.696 E0.04924
G1 X126.157 Y114.884 E0.04027
G1 X125.949 Y115.620 E0.02400
G1 X125.888 Y116.067 F10800.000
G1 F8640
G1 X125.541 Y115.678 E-0.09519
G1 X125.316 Y114.884 E-0.19066
G1 X124.827 Y113.696 E-0.29654
G1 X124.460 Y113.020 E-0.17761
G1 E-0.04000 F2100.00000
G1 Z0.800 F10800.000
G1 X117.379 Y101.109
G1 Z0.200
G1 E0.80000 F2100.00000
G1 F1200
G1 X117.016 Y101.109 E0.01137
G1 X116.802 Y100.552 E0.01869
G1 X116.431 Y99.907 E0.02333
G1 X116.015 Y99.306 E0.02291
G1 X115.390 Y98.514 E0.03165
G1 X115.119 Y98.122 E0.01496
G1 X114.954 Y97.767 E0.01226
G1 X114.847 Y97.358 E0.01325
G1 X114.820 Y96.930 E0.01346
G1 X114.900 Y96.615 E0.01020
G1 X115.002 Y96.406 E0.00730
G1 X115.174 Y96.183 E0.00882
G1 X115.444 Y95.987 E0.01045
G1 X115.702 Y95.888 E0.00867
G1 X115.974 Y95.834 E0.00869
G1 X116.317 Y95.854 E0.01077
G1 X116.800 Y96.040 E0.01623
G1 X117.023 Y96.260 E0.00982
G1 X117.197 Y96.467 E0.00848
G1 X117.372 Y96.260 E0.00848
G1 X117.592 Y96.043 E0.00968
G1 X117.869 Y95.924 E0.00947
G1 X118.105 Y95.852 E0.00772
G1 X118.421 Y95.834 E0.00992
G1 X118.692 Y95.888 E0.00869
G1 X118.951 Y95.987 E0.00867
G1 X119.220 Y96.183 E0.01045
G1 X119.392 Y96.406 E0.00882
G1 X119.495 Y96.615 E0.00730
G1 X119.575 Y96.930 E0.01020
G1 X119.548 Y97.360 E0.01353
G1 X119.441 Y97.765 E0.01311
G1 X119.276 Y98.121 E0.01233
G1 X119.004 Y98.514 E0.01497
G1 X118.485 Y99.164 E0.02609
G1 X118.073 Y99.743 E0.02228
G1 X117.799 Y100.171 E0.01593
G1 X117.594 Y100.550 E0.01352
G1 X117.400 Y101.053 E0.01689
G1 X117.328 Y101.468 F10800.000
G1 F8640
G1 X117.016 Y101.109 E-0.08963
G1 X116.802 Y100.552 E-0.13767
G1 X116.431 Y99.907 E-0.17178
G1 X116.015 Y99.306 E-0.16875
G1 X115.500 Y98.653 E-0.19217
G1 E-0.04000 F2100.00000
G1 Z0.800 F10800.000
G1 X117.912 Y95.700
G1 Z0.200
G1 E0.80000 F2100.00000
G1 F1200
G1 X117.609 Y93.400 E0.07272
G1 X116.499 Y93.382 E0.03482
G1 X116.080 Y95.810 E0.07725
G1 X114.834 Y95.792 E0.03908
G1 X116.019 Y89.975 E0.18612
G1 X115.113 Y89.952 E0.02840
G1 X115.225 Y88.636 E0.04141
G1 X119.113 Y88.691 E0.12193
G1 X119.131 Y89.938 E0.03910
G1 X118.478 Y89.962 E0.02049
G1 X119.003 Y95.566 E0.17648
G1 X117.971 Y95.692 E0.03258
G1 X117.577 Y95.918 F10800.000
G1 F8640
G1 X117.609 Y93.400 E-0.53587
G1 X116.639 Y93.384 E-0.22413
G1 E-0.04000 F2100.00000
G1 Z0.800 F10800.000
G1 X136.762 Y96.957
G1 Z0.200
G1 E0.80000 F2100.00000
G1 F1200
G1 X137.286 Y97.531 E0.02436
G1 X137.461 Y97.890 E0.01253
G1 X137.554 Y98.210 E0.01044
G1 X137.559 Y98.578 E0.01155
G1 X137.109 Y111.385 E0.40179
G1 X136.467 Y112.280 E0.03453
G1 X136.366 Y112.835 E0.01769
G1 X136.548 Y113.144 E0.01125
G1 X136.544 Y113.338 E0.00608
G1 X136.301 Y113.867 E0.01825
G1 X136.433 Y114.789 E0.02921
G1 X136.864 Y114.934 E0.01425
G1 X136.647 Y124.010 E0.28466
G1 X136.532 Y124.579 E0.01822
G1 X136.269 Y125.037 E0.01655
G1 X135.876 Y125.383 E0.01640
G1 X135.389 Y125.586 E0.01655
G1 X134.804 Y125.629 E0.01838
G1 X112.855 Y123.763 E0.69070
G1 X112.509 Y123.679 E0.01115
G1 X112.234 Y123.513 E0.01007
G1 X112.016 Y123.270 E0.01023
G1 X111.880 Y122.979 E0.01007
G1 X111.832 Y122.627 E0.01115
G1 X112.019 Y113.355 E0.29078
G1 X112.030 Y113.286 E0.00216
G1 X112.095 Y113.171 E0.00415
G1 X112.200 Y113.097 E0.00403
G1 X113.453 Y112.621 E0.04202
G1 X112.957 Y111.481 E0.03899
G1 X112.717 Y98.943 E0.39319
G1 X112.985 Y97.383 E0.04962
G1 X112.937 Y90.936 E0.20216
G1 X112.578 Y87.023 E0.12319
G1 X112.666 Y86.529 E0.01574
G1 X112.898 Y86.080 E0.01583
G1 X113.255 Y85.714 E0.01603
G1 X113.697 Y85.471 E0.01583
G1 X114.222 Y85.363 E0.01679
G1 X119.471 Y85.117 E0.16477
G1 X124.807 Y85.294 E0.16741
G1 X131.094 Y84.616 E0.19823
G1 X135.406 Y84.371 E0.13544
G1 X136.327 Y84.474 E0.02905
G1 X137.096 Y84.838 E0.02667
G1 X137.690 Y85.428 E0.02627
G1 X138.058 Y86.195 E0.02667
G1 X138.167 Y87.115 E0.02904
G1 X138.019 Y89.903 E0.08755
G1 X137.535 Y92.760 E0.09085
G1 X137.277 Y95.201 E0.07693
G1 X136.779 Y96.900 E0.05552
G1 F8640
G1 X137.286 Y97.531 E-0.18697
G1 X137.461 Y97.890 E-0.09225
G1 X137.554 Y98.210 E-0.07690
G1 X137.559 Y98.578 E-0.08508
G1 X137.511 Y99.958 E-0.31879
G1 E-0.04000 F2100.00000
G1 Z0.800 F10800.000
G1 X117.526 Y95.661
G1 Z0.200
G1 E0.80000 F2100.00000
G1 F1200
G1 X117.378 Y95.725 E0.00508
G1 X117.197 Y95.903 E0.00793
G1 X117.009 Y95.717 E0.00831
G1 X116.512 Y95.525 E0.01669
G1 X116.815 Y93.764 E0.05603
G1 X117.278 Y93.772 E0.01450
G1 X117.519 Y95.602 E0.05787
G1 F8640
G1 X117.378 Y95.725 E-0.04328
G1 X117.197 Y95.903 E-0.05842
G1 X117.009 Y95.717 E-0.06116
G1 X116.512 Y95.525 E-0.12293
G1 X116.815 Y93.764 E-0.41260
G1 X117.082 Y93.768 E-0.06161
G1 E-0.04000 F2100.00000
G1 Z0.800 F10800.000
G1 X132.259 Y116.486
G1 Z0.200
G1 E0.80000 F2100.00000
G1 F1200
G1 X132.620 Y116.346 E0.01212
G1 X132.808 Y116.161 E0.00830
G1 X132.997 Y116.346 E0.00830
G1 X133.331 Y116.475 E0.01120
G1 X132.984 Y118.487 E0.06401
G1 X132.521 Y118.480 E0.01450
G1 X132.267 Y116.545 E0.06117
G1 F8640
G1 X132.620 Y116.346 E-0.09352
G1 X132.808 Y116.161 E-0.06113
G1 X132.997 Y116.346 E-0.06115
G1 X133.331 Y116.475 E-0.08249
G1 X132.991 Y118.446 E-0.46171
G1 E-0.04000 F2100.00000
G1 Z0.800 F10800.000
G1 X137.184 Y96.860
G1 Z0.200
G1 E0.80000 F2100.00000
G1 F1200
G1 X137.601 Y97.317 E0.01940
G1 X137.814 Y97.754 E0.01524
G1 X137.931 Y98.154 E0.01306
G1 X137.937 Y98.582 E0.01344
G1 X137.482 Y111.512 E0.40565
