; generated by PrusaSlicer 2.2.0+win64 on 2020-08-18 at 18:24:30 UTC

; 

; external perimeters extrusion width = 0.45mm
; perimeters extrusion width = 0.45mm
; infill extrusion width = 0.45mm
; solid infill extrusion width = 0.45mm
; top infill extrusion width = 0.40mm
; support material extrusion width = 0.35mm
; first layer extrusion width = 0.42mm

; external perimeters extrusion width = 0.45mm
; perimeters extrusion width = 0.45mm
; infill extrusion width = 0.45mm
; solid infill extrusion width = 0.45mm
; top infill extrusion width = 0.40mm
; support material extrusion width = 0.35mm
; first layer extrusion width = 0.42mm

M73 P0 R27
M201 X9000 Y9000 Z500 E10000 ; sets maximum accelerations, mm/sec^2
M203 X500 Y500 Z12 E120 ; sets maximum feedrates, mm/sec
M204 P2000 R1500 T2000 ; sets acceleration (P, T) and retract acceleration (R), mm/sec^2
M205 X10.00 Y10.00 Z0.20 E4.50 ; sets the jerk limits, mm/sec
M205 S0 T0 ; sets the minimum extruding and travel feed rate, mm/sec
M107
M862.3 P "MK2.5SMMU2S" ; printer model check
M862.1 P0.4 ; nozzle diameter check
M115 U3.9.0 ; tell printer latest fw version
G90 ; use absolute coordinates
M83 ; extruder relative mode
M104 S215 ; set extruder temp
M140 S60 ; set bed temp
M190 S60 ; wait for bed temp
M109 S215 ; wait for extruder temp
G28 W ; home all without mesh bed level
G80 ; mesh bed leveling

; Send the filament type to the MMU2.0 unit.
; E stands for extruder number, F stands for filament type (0: default; 1:flex; 2: PVA)
M403 E0 F0
M403 E1 F0
M403 E2 F0
M403 E3 F0
M403 E4 F0


;go outside print area
G1 Y-3.0 F1000.0
G1 Z0.4 F1000.0
; select extruder
T0
; initial load
G1 X55.0 E29.0 F1073.0
M73 P1 R27
G1 X5.0 E29.0 F1800.0
G1 X55.0 E8.0 F2000.0
G1 Z0.3 F1000.0
G92 E0.0
G1 X240.0 E25.0 F2200.0
G1 Y-2.0 F1000.0
G1 X55.0 E25 F1400.0
G1 Z0.20 F1000.0
G1 X5.0 E4.0 F1000.0
G92 E0.0

G92 E0.0
G21 ; set units to millimeters
G90 ; use absolute coordinates
M83 ; use relative distances for extrusion
T0
M900 K0.06 ; Filament gcode LA 1.5
M900 K30 ; Filament gcode LA 1.0
G1 Z0.200 F10800.000
;BEFORE_LAYER_CHANGE
G92 E0.0
;0.2


G1 E-0.80000 F2100.00000
G1 Z0.800 F10800.000
G1 Z0.200
;AFTER_LAYER_CHANGE
;0.2
G1 E-2.20000 F2100.00000
G1 Z0.800 F10800.000
G1 X172.707 Y68.972
G1 Z0.200
G1 E3.00000 F2100.00000
;-------------------------------------
; CP WIPE TOWER FIRST LAYER BRIM START
G1  X172.707 Y83.032  E0.8016 F2400
G1  X170.164 Y83.489   F7000
G1  Y68.515  E0.6260 F2100
G1  X109.250  E2.5466
G1  Y83.489  E0.6260
G1  X170.164  E2.5466
G1  X170.621 Y83.946   F7000
G1  Y68.058  E0.6642 F2100
G1  X108.793  E2.5849
G1  Y83.946  E0.6642
G1  X170.621  E2.5849
G1  X171.078 Y84.403   F7000
G1  Y67.601  E0.7025 F2100
G1  X108.336  E2.6231
G1  Y84.403  E0.7025
G1  X171.078  E2.6231
G1  X171.535 Y84.860   F7000
G1  Y67.144  E0.7407 F2100
G1  X107.879  E2.6613
G1  Y84.860  E0.7407
G1  X171.535  E2.6613
G1  X169.707 Y83.032   F7000
G1  X109.707 
G1  X169.707 
; CP WIPE TOWER FIRST LAYER BRIM END
;-----------------------------------
G1  X169.207 Y69.472   F7200
;--------------------
; CP EMPTY GRID START
; layer #1
G1  X169.707 
G1  Y68.972 
G1  Y83.032  E0.5344 F1450
G1  X109.707  E2.2804
G1  Y68.972  E0.5344
G1  X169.707  E2.2804
G1  X169.207 
G1  Y69.472 
G1  Y82.532  E0.4964
G1  X110.207  E2.2424
G1  Y69.472  E0.4964
G1  X169.207  E2.2424
G1  Y82.532 
G1  X168.707 Y82.009   E0.0275
G1  X110.707  E2.2044
G1  Y81.485  E0.0199
G1  X168.707  E2.2044
G1  Y80.962  E0.0199
G1  X110.707  E2.2044
M73 P4 R26
G1  Y80.439  E0.0199
G1  X168.707  E2.2044
G1  Y79.915  E0.0199
G1  X110.707  E2.2044
G1  Y79.392  E0.0199
G1  X168.707  E2.2044
G1  Y78.869  E0.0199
G1  X110.707  E2.2044
G1  Y78.345  E0.0199
G1  X168.707  E2.2044
G1  Y77.822  E0.0199
G1  X110.707  E2.2044
G1  Y77.299  E0.0199
G1  X168.707  E2.2044
G1  Y76.775  E0.0199
G1  X110.707  E2.2044
G1  Y76.252  E0.0199
G1  X168.707  E2.2044
G1  Y75.729  E0.0199
G1  X110.707  E2.2044
G1  Y75.205  E0.0199
G1  X168.707  E2.2044
G1  Y74.682  E0.0199
G1  X110.707  E2.2044
G1  Y74.159  E0.0199
G1  X168.707  E2.2044
G1  Y73.635  E0.0199
G1  X110.707  E2.2044
G1  Y73.112  E0.0199
G1  X168.707  E2.2044
G1  Y72.589  E0.0199
G1  X110.707  E2.2044
G1  Y72.065  E0.0199
G1  X168.707  E2.2044
G1  Y71.542  E0.0199
G1  X110.707  E2.2044
G1  Y71.019  E0.0199
G1  X168.707  E2.2044
G1  Y70.495  E0.0199
G1  X110.707  E2.2044
G1  Y69.972  E0.0199
G1  X168.707  E2.2044
G1  X110.707 
; CP EMPTY GRID END
;------------------







G1 F8640.000
G1 X107.415 Y69.972 E-0.76000
G1 E-0.04000 F2100.00000
G1 Z0.800 F10800.000
G1 X107.180 Y64.585
G1 Z0.200
G1 E0.80000 F2100.00000
M204 S1000
G1 F1200.000
G1 X171.767 Y64.538 E2.02509
G1 X172.645 Y64.707 E0.02802
G1 X173.398 Y65.188 E0.02802
G1 X173.920 Y65.914 E0.02802
G1 X174.137 Y66.780 E0.02802
G1 X174.137 Y85.218 E0.57809
G1 X174.039 Y85.776 E0.01775
G1 X173.814 Y86.291 E0.01763
G1 X173.472 Y86.742 E0.01775
G1 X173.035 Y87.097 E0.01763
G1 X103.579 Y127.705 E2.52265
M73 P8 R25
G1 X102.303 Y128.311 E0.04431
G1 X101.766 Y128.453 E0.01740
G1 X100.293 Y128.595 E0.04639
G1 X78.849 Y127.586 E0.67313
G1 X77.648 Y127.330 E0.03851
G1 X76.639 Y126.810 E0.03556
G1 X76.169 Y126.450 E0.01858
G1 X75.352 Y125.538 E0.03837
G1 X74.788 Y124.401 E0.03982
G1 X74.555 Y123.097 E0.04153
G1 X73.811 Y87.331 E1.12165
G1 X73.959 Y86.237 E0.03461
G1 X74.355 Y85.308 E0.03166
G1 X75.043 Y84.429 E0.03501
G1 X75.529 Y84.021 E0.01989
G1 X106.408 Y64.888 E1.13897
G1 X107.124 Y64.606 E0.02414
G1 F8640.000
G1 X110.416 Y64.603 E-0.76000
G1 E-0.04000 F2100.00000
G1 Z0.800 F10800.000
G1 X91.620 Y124.908
G1 Z0.200
G1 E0.80000 F2100.00000
G1 F1200.000
G1 X89.752 Y124.707 E0.05893
G1 X84.415 Y124.883 E0.16741
G1 X79.166 Y124.637 E0.16477
G1 X78.641 Y124.530 E0.01679
G1 X78.199 Y124.286 E0.01583
G1 X77.842 Y123.920 E0.01603
G1 X77.610 Y123.472 E0.01583
G1 X77.522 Y122.978 E0.01574
G1 X77.881 Y119.065 E0.12319
G1 X77.929 Y112.617 E0.20216
G1 X77.661 Y111.058 E0.04962
G1 X77.901 Y98.520 E0.39319
G1 X78.397 Y97.380 E0.03899
G1 X77.144 Y96.903 E0.04202
G1 X77.039 Y96.830 E0.00403
G1 X76.974 Y96.714 E0.00415
G1 X76.963 Y96.646 E0.00216
G1 X76.776 Y87.374 E0.29078
G1 X76.824 Y87.021 E0.01115
G1 X76.960 Y86.730 E0.01007
G1 X77.178 Y86.488 E0.01023
G1 X77.453 Y86.322 E0.01007
G1 X77.799 Y86.237 E0.01115
G1 X99.748 Y84.372 E0.69070
G1 X100.301 Y84.412 E0.01739
G1 X100.824 Y84.621 E0.01763
G1 X101.213 Y84.964 E0.01626
G1 X101.476 Y85.421 E0.01655
G1 X101.591 Y85.991 E0.01822
G1 X101.808 Y95.067 E0.28466
G1 X101.377 Y95.212 E0.01425
G1 X101.245 Y96.134 E0.02921
G1 X101.488 Y96.663 E0.01825
G1 X101.492 Y96.857 E0.00608
G1 X101.310 Y97.166 E0.01125
G1 X101.411 Y97.721 E0.01769
G1 X102.053 Y98.616 E0.03453
G1 X102.504 Y111.422 E0.40179
G1 X102.498 Y111.791 E0.01155
G1 X102.405 Y112.111 E0.01044
G1 X102.230 Y112.470 E0.01253
G1 X101.706 Y113.043 E0.02436
G1 X102.221 Y114.800 E0.05740
G1 X102.479 Y117.240 E0.07693
G1 X102.963 Y120.097 E0.09085
G1 X103.111 Y122.886 E0.08755
G1 X103.002 Y123.805 E0.02904
G1 X102.634 Y124.572 E0.02667
G1 X102.040 Y125.163 E0.02627
G1 X101.271 Y125.526 E0.02667
G1 X100.350 Y125.630 E0.02905
G1 X96.038 Y125.384 E0.13544
G1 X91.680 Y124.915 E0.13742
G1 F8640.000
G1 X89.752 Y124.707 E-0.44782
G1 X88.400 Y124.752 E-0.31218
G1 E-0.04000 F2100.00000
G1 Z0.800 F10800.000
G1 X96.007 Y125.760
G1 Z0.200
G1 E0.80000 F2100.00000
G1 F1200.000
G1 X89.737 Y125.085 E0.19770
G1 X84.413 Y125.261 E0.16705
G1 X79.119 Y125.013 E0.16616
G1 X78.510 Y124.888 E0.01950
G1 X77.968 Y124.590 E0.01938
G1 X77.533 Y124.143 E0.01954
G1 X77.249 Y123.594 E0.01938
G1 X77.142 Y122.994 E0.01913
G1 X77.504 Y119.046 E0.12429
G1 X77.552 Y112.648 E0.20061
G1 X77.284 Y111.086 E0.04968
G1 X77.526 Y98.438 E0.39665
G1 X77.894 Y97.592 E0.02894
G1 X76.986 Y97.247 E0.03045
G1 X76.863 Y97.179 E0.00440
G1 X76.755 Y97.080 E0.00460
G1 X76.666 Y96.954 E0.00485
G1 X76.609 Y96.819 E0.00460
G1 X76.587 Y96.680 E0.00440
G1 X76.399 Y87.352 E0.29251
G1 X76.458 Y86.914 E0.01387
G1 X76.642 Y86.520 E0.01364
G1 X76.935 Y86.194 E0.01375
G1 X77.308 Y85.969 E0.01364
G1 X77.737 Y85.864 E0.01387
G1 X99.746 Y83.993 E0.69256
G1 X100.387 Y84.040 E0.02015
G1 X101.024 Y84.295 E0.02151
G1 X101.509 Y84.722 E0.02025
G1 X101.833 Y85.287 E0.02042
G1 X101.967 Y85.949 E0.02118
G1 X102.191 Y95.336 E0.29442
G1 X101.717 Y95.495 E0.01568
G1 X101.634 Y96.077 E0.01843
G1 X101.864 Y96.576 E0.01723
G1 X101.872 Y96.956 E0.01190
G1 X101.706 Y97.236 E0.01022
G1 X101.767 Y97.570 E0.01063
G1 X102.426 Y98.489 E0.03545
G1 X102.881 Y111.418 E0.40565
G1 X102.875 Y111.847 E0.01344
G1 X102.758 Y112.247 E0.01306
G1 X102.545 Y112.684 E0.01524
G1 X102.128 Y113.141 E0.01940
G1 X102.593 Y114.727 E0.05182
G1 X102.853 Y117.189 E0.07763
G1 X103.338 Y120.056 E0.09116
G1 X103.489 Y122.898 E0.08924
G1 X103.369 Y123.912 E0.03201
G1 X102.946 Y124.794 E0.03067
G1 X102.260 Y125.476 E0.03034
G1 X101.376 Y125.894 E0.03067
G1 X100.361 Y126.008 E0.03202
G1 X96.067 Y125.764 E0.13486
G1 X95.835 Y125.399 F10800.000
G1 F8640.000
G1 X92.794 Y125.413 E-0.76000
G1 E-0.04000 F2100.00000
G1 Z0.800 F10800.000
G1 X77.712 Y123.398
G1 Z0.200
G1 E0.80000 F2100.00000
G1 F1200.000
G1 X78.373 Y124.059 E0.02941
G1 X78.740 Y124.262 E0.01318
G1 X79.205 Y124.356 E0.01493
G1 X77.808 Y122.959 E0.06215
G1 X77.853 Y122.469 E0.01548
G1 X79.766 Y124.382 E0.08513
G1 X80.328 Y124.409 E0.01768
G1 X77.898 Y121.979 E0.10810
G1 X77.943 Y121.489 E0.01548
G1 X80.889 Y124.435 E0.13108
G1 X81.451 Y124.461 E0.01768
G1 X77.988 Y120.999 E0.15406
G1 X78.033 Y120.509 E0.01548
G1 X82.012 Y124.488 E0.17703
G1 X82.573 Y124.514 E0.01768
G1 X78.078 Y120.019 E0.20001
G1 X78.123 Y119.528 E0.01548
G1 X83.135 Y124.540 E0.22299
G1 X83.696 Y124.567 E0.01768
G1 X78.164 Y119.035 E0.24611
G1 X78.168 Y118.504 E0.01671
G1 X84.257 Y124.593 E0.27091
G1 X84.788 Y124.588 E0.01668
G1 X78.172 Y117.973 E0.29433
G1 X78.176 Y117.442 E0.01671
G1 X85.306 Y124.571 E0.31720
G1 X85.824 Y124.554 E0.01630
G1 X78.180 Y116.911 E0.34007
G1 X78.184 Y116.379 E0.01671
G1 X86.342 Y124.537 E0.36294
G1 X86.860 Y124.520 E0.01630
G1 X78.188 Y115.848 E0.38580
G1 X78.192 Y115.317 E0.01671
G1 X87.378 Y124.503 E0.40867
G1 X87.895 Y124.485 E0.01630
G1 X78.196 Y114.786 E0.43154
G1 X78.200 Y114.255 E0.01671
G1 X88.413 Y124.468 E0.45441
G1 X88.931 Y124.451 E0.01630
G1 X78.204 Y113.724 E0.47728
G1 X78.208 Y113.193 E0.01671
G1 X89.449 Y124.434 E0.50014
G1 X89.762 Y124.424 E0.00984
G1 X90.000 Y124.449 E0.00752
G1 X78.212 Y112.662 E0.52445
G1 X78.115 Y112.030 E0.02010
G1 X90.599 Y124.514 E0.55543
G1 X91.199 Y124.579 E0.01898
G1 X78.004 Y111.384 E0.58705
G1 X77.945 Y111.036 E0.01110
G1 X77.949 Y110.794 E0.00763
G1 X91.799 Y124.643 E0.61618
G1 X92.398 Y124.708 E0.01898
G1 X77.959 Y110.269 E0.64242
G1 X77.969 Y109.744 E0.01652
G1 X92.998 Y124.772 E0.66865
G1 X93.598 Y124.837 E0.01898
G1 X77.979 Y109.219 E0.69488
G1 X77.989 Y108.694 E0.01652
G1 X94.197 Y124.902 E0.72111
G1 X94.797 Y124.966 E0.01898
G1 X78.000 Y108.169 E0.74735
G1 X78.010 Y107.644 E0.01652
G1 X95.397 Y125.031 E0.77358
G1 X95.996 Y125.095 E0.01898
G1 X78.020 Y107.119 E0.79981
G1 X78.030 Y106.594 E0.01652
G1 X96.567 Y125.131 E0.82476
G1 X97.135 Y125.163 E0.01788
G1 X78.040 Y106.069 E0.84956
G1 X78.050 Y105.544 E0.01652
G1 X97.702 Y125.196 E0.87436
G1 X98.269 Y125.228 E0.01788
G1 X78.060 Y105.019 E0.89915
G1 X78.070 Y104.494 E0.01652
G1 X98.837 Y125.260 E0.92395
G1 X99.404 Y125.293 E0.01788
G1 X78.080 Y103.968 E0.94875
G1 X78.090 Y103.443 E0.01652
G1 X99.972 Y125.325 E0.97354
G1 X100.343 Y125.346 E0.01169
G1 X100.509 Y125.327 E0.00527
G1 X78.100 Y102.918 E0.99701
G1 X78.110 Y102.393 E0.01652
G1 X100.990 Y125.273 E1.01797
G1 X101.193 Y125.251 E0.00642
G1 X101.403 Y125.151 E0.00732
G1 X78.120 Y101.868 E1.03589
G1 X78.130 Y101.343 E0.01652
G1 X101.766 Y124.980 E1.05161
G1 X101.875 Y124.928 E0.00379
G1 X102.063 Y124.741 E0.00834
G1 X78.140 Y100.818 E1.06437
M73 P12 R24
G1 X78.150 Y100.293 E0.01652
G1 X102.331 Y124.474 E1.07585
G1 X102.400 Y124.406 E0.00305
G1 X102.529 Y124.137 E0.00938
G1 X78.160 Y99.768 E1.08421
G1 X78.170 Y99.243 E0.01652
G1 X102.703 Y123.776 E1.09148
G1 X102.727 Y123.725 E0.00175
G1 X102.775 Y123.313 E0.01306
G1 X78.181 Y98.718 E1.09426
G1 X78.183 Y98.581 E0.00431
G1 X78.303 Y98.306 E0.00945
G1 X102.824 Y122.827 E1.09099
G1 X102.794 Y122.262 E0.01780
G1 X78.465 Y97.933 E1.08245
G1 X78.627 Y97.560 E0.01279
G1 X102.764 Y121.697 E1.07390
G1 X102.734 Y121.132 E0.01780
G1 X77.225 Y95.623 E1.13494
G1 X77.214 Y95.077 E0.01718
G1 X102.705 Y120.567 E1.13409
G1 X102.681 Y120.128 E0.01382
G1 X102.657 Y119.984 E0.00460
G1 X77.203 Y94.531 E1.13246
G1 X77.192 Y93.985 E0.01718
G1 X102.548 Y119.340 E1.12810
G1 X102.439 Y118.696 E0.02055
G1 X77.181 Y93.439 E1.12374
G1 X77.170 Y92.893 E0.01718
G1 X102.330 Y118.052 E1.11938
G1 X102.221 Y117.408 E0.02055
G1 X77.159 Y92.346 E1.11502
G1 X77.148 Y91.800 E0.01718
G1 X102.148 Y116.800 E1.11228
G1 X102.085 Y116.202 E0.01893
G1 X77.137 Y91.254 E1.10996
G1 X77.126 Y90.708 E0.01718
G1 X102.022 Y115.604 E1.10764
G1 X101.959 Y115.005 E0.01893
G1 X77.115 Y90.162 E1.10531
G1 X77.104 Y89.616 E0.01718
G1 X101.776 Y114.288 E1.09770
G1 X101.554 Y113.531 E0.02482
G1 X77.093 Y89.070 E1.08830
G1 X77.082 Y88.524 E0.01718
G1 X101.456 Y112.898 E1.08443
G1 X101.711 Y112.618 E0.01192
G1 X77.071 Y87.978 E1.09627
G1 X77.060 Y87.432 E0.01718
G1 X101.967 Y112.338 E1.10812
G1 X102.148 Y111.984 E0.01251
G1 X77.152 Y86.988 E1.11211
G1 X77.198 Y86.888 E0.00347
G1 X77.389 Y86.691 E0.00864
G1 X102.219 Y111.521 E1.10472
G1 X102.205 Y110.971 E0.01730
G1 X77.770 Y86.536 E1.08716
G1 X78.252 Y86.483 E0.01526
G1 X102.185 Y110.416 E1.06484
G1 X102.166 Y109.862 E0.01746
G1 X78.745 Y86.441 E1.04203
G1 X79.238 Y86.399 E0.01557
G1 X102.146 Y109.307 E1.01922
G1 X102.127 Y108.752 E0.01746
G1 X79.731 Y86.357 E0.99641
G1 X80.224 Y86.315 E0.01557
G1 X102.107 Y108.198 E0.97360
G1 X102.088 Y107.643 E0.01746
G1 X80.717 Y86.273 E0.95079
G1 X81.211 Y86.231 E0.01557
G1 X102.068 Y107.089 E0.92798
G1 X102.049 Y106.534 E0.01746
G1 X81.704 Y86.189 E0.90517
G1 X82.197 Y86.147 E0.01557
G1 X102.029 Y105.980 E0.88237
M73 P16 R23
G1 X102.010 Y105.425 E0.01746
G1 X82.690 Y86.105 E0.85956
G1 X83.183 Y86.064 E0.01557
G1 X101.990 Y104.870 E0.83675
G1 X101.971 Y104.316 E0.01746
G1 X83.676 Y86.022 E0.81394
G1 X84.169 Y85.980 E0.01557
G1 X101.951 Y103.761 E0.79113
G1 X101.932 Y103.207 E0.01746
G1 X84.663 Y85.938 E0.76832
G1 X85.156 Y85.896 E0.01557
G1 X101.912 Y102.652 E0.74551
G1 X101.893 Y102.098 E0.01746
G1 X85.649 Y85.854 E0.72270
G1 X86.142 Y85.812 E0.01557
G1 X101.873 Y101.543 E0.69989
G1 X101.854 Y100.988 E0.01746
G1 X86.635 Y85.770 E0.67708
G1 X87.128 Y85.728 E0.01557
G1 X101.834 Y100.434 E0.65427
G1 X101.814 Y99.879 E0.01746
G1 X87.622 Y85.686 E0.63147
G1 X88.115 Y85.644 E0.01557
G1 X101.795 Y99.325 E0.60866
G1 X101.775 Y98.770 E0.01746
G1 X88.608 Y85.602 E0.58585
G1 X89.101 Y85.560 E0.01557
G1 X101.093 Y97.552 E0.53354
G1 X101.013 Y97.113 E0.01405
G1 X101.078 Y97.003 E0.00403
G1 X89.594 Y85.519 E0.51094
G1 X90.087 Y85.477 E0.01557
G1 X101.095 Y96.484 E0.48974
G1 X100.953 Y96.176 E0.01066
G1 X100.999 Y95.854 E0.01026
G1 X90.580 Y85.435 E0.46355
G1 X91.074 Y85.393 E0.01557
G1 X101.066 Y95.385 E0.44459
G1 X101.121 Y94.999 E0.01229
G1 X101.191 Y94.975 E0.00232
G1 X91.567 Y85.351 E0.42821
G1 X92.060 Y85.309 E0.01557
G1 X101.518 Y94.767 E0.42078
G1 X101.504 Y94.218 E0.01725
G1 X92.553 Y85.267 E0.39826
G1 X93.046 Y85.225 E0.01557
G1 X101.491 Y93.670 E0.37574
G1 X101.478 Y93.122 E0.01725
G1 X93.539 Y85.183 E0.35321
G1 X94.033 Y85.141 E0.01557
G1 X101.465 Y92.574 E0.33069
G1 X101.452 Y92.026 E0.01725
G1 X94.526 Y85.099 E0.30816
G1 X95.019 Y85.057 E0.01557
G1 X101.439 Y91.477 E0.28564
G1 X101.426 Y90.929 E0.01725
G1 X95.512 Y85.016 E0.26311
G1 X96.005 Y84.974 E0.01557
G1 X101.413 Y90.381 E0.24059
G1 X101.400 Y89.833 E0.01725
G1 X96.498 Y84.932 E0.21807
G1 X96.991 Y84.890 E0.01557
G1 X101.386 Y89.285 E0.19554
G1 X101.373 Y88.737 E0.01725
G1 X97.485 Y84.848 E0.17302
G1 X97.978 Y84.806 E0.01557
G1 X101.360 Y88.188 E0.15049
G1 X101.347 Y87.640 E0.01725
G1 X98.471 Y84.764 E0.12797
G1 X98.964 Y84.722 E0.01557
