; generated by PrusaSlicer 2.0.0+ on 2019-08-27 at 09:38:52

; 

; external perimeters extrusion width = 0.45mm
; perimeters extrusion width = 0.45mm
; infill extrusion width = 0.45mm
; solid infill extrusion width = 0.45mm
; top infill extrusion width = 0.40mm
; first layer extrusion width = 0.42mm

; external perimeters extrusion width = 0.45mm
; perimeters extrusion width = 0.45mm
; infill extrusion width = 0.45mm
; solid infill extrusion width = 0.45mm
; top infill extrusion width = 0.40mm
; first layer extrusion width = 0.42mm

M73 P0 R29
M201 X9000 Y9000 Z500 E10000 ; sets maximum accelerations, mm/sec^2
M203 X500 Y500 Z12 E120 ; sets maximum feedrates, mm/sec
M204 P2000 R1500 T2000 ; sets acceleration (P, T) and retract acceleration (R), mm/sec^2
M205 X10.00 Y10.00 Z0.20 E2.50 ; sets the jerk limits, mm/sec
M205 S0 T0 ; sets the minimum extruding and travel feed rate, mm/sec
M107
M115 U3.7.2 ; tell printer latest fw version
G90 ; use absolute coordinates
M83 ; extruder relative mode
M104 S215 ; set extruder temp
M140 S60 ; set bed temp
M190 S60 ; wait for bed temp
M109 S215 ; wait for extruder temp
G28 W ; home all without mesh bed level
G80 ; mesh bed leveling
G21 ; set units to millimeters

; Send the filament type to the MMU2.0 unit.
; E stands for extruder number, F stands for filament type (0: default; 1:flex; 2: PVA)
M403 E0 F0
M403 E1 F0
M403 E2 F0
M403 E3 F0
M403 E4 F0


;go outside print area
G1 Y-3.0 F1000.0
G1 Z0.4 F1000.0
; select extruder
T0
; initial load
G1 X55.0 E29.0 F1073.0
M73 P1 R29
G1 X5.0 E29.0 F1800.0
G1 X55.0 E8.0 F2000.0
G1 Z0.3 F1000.0
G92 E0.0
G1 X240.0 E25.0 F2200.0
G1 Y-2.0 F1000.0
G1 X55.0 E25 F1400.0
G1 Z0.20 F1000.0
G1 X5.0 E4.0 F1000.0
G92 E0.0

G92 E0.0
G21 ; set units to millimeters
G90 ; use absolute coordinates
M83 ; use relative distances for extrusion
T0
M900 K30 ; Filament gcode
G1 Z0.200 F10800.000
;BEFORE_LAYER_CHANGE
G92 E0.0
;0.2


G1 E-0.80000 F2100.00000
G1 Z0.800 F10800.000
G1 Z0.200
;AFTER_LAYER_CHANGE
;0.2
M900 K0
G1 E-2.20000 F2100.00000
G1 Z0.800 F10800.000
G1 X233.000 Y140.000
G1 Z0.200
G1 E3.00000 F2100.00000
;-------------------------------------
; CP WIPE TOWER FIRST LAYER BRIM START
G1 X233.000 Y154.060 E0.8016 F2400
G1 X230.457 Y154.517  F7000
G1 Y139.543 E0.6260 F2100
G1 X169.543 E2.5466
G1 Y154.517 E0.6260
G1 X230.457 E2.5466
G1 X230.914 Y154.974  F7000
G1 Y139.086 E0.6642 F2100
G1 X169.086 E2.5849
G1 Y154.974 E0.6642
G1 X230.914 E2.5849
G1 X231.371 Y155.431  F7000
G1 Y138.629 E0.7025 F2100
G1 X168.629 E2.6231
G1 Y155.431 E0.7025
G1 X231.371 E2.6231
G1 X231.828 Y155.888  F7000
G1 Y138.172 E0.7407 F2100
G1 X168.172 E2.6613
G1 Y155.888 E0.7407
G1 X231.828 E2.6613
G1 X230.000 Y154.060  F7000
G1 X170.000
G1 X230.000
; CP WIPE TOWER FIRST LAYER BRIM END
;-----------------------------------

M900 K30 ; Filament gcode
G1 F8640
G1 X226.709 Y154.060 E-0.76000
G1 E-0.04000 F2100.00000
G1 Z0.800 F10800.000
G1 X137.336 Y127.753
G1 Z0.200
G1 E0.80000 F2100.00000
M204 S1000
G1 F1200
G1 X136.079 Y128.283 E0.04278
G1 X134.826 Y128.406 E0.03948
G1 X112.552 Y126.523 E0.70087
G1 X111.688 Y126.334 E0.02773
G1 X111.239 Y126.151 E0.01521
G1 X110.409 Y125.612 E0.03105
G1 X109.671 Y124.768 E0.03514
G1 X109.212 Y123.768 E0.03448
G1 X109.056 Y122.699 E0.03390
G1 X109.800 Y86.916 E1.12220
G1 X110.015 Y85.686 E0.03915
G1 X110.494 Y84.688 E0.03468
G1 X110.835 Y84.220 E0.01817
G1 X111.749 Y83.378 E0.03897
G1 X112.749 Y82.855 E0.03537
G1 X113.879 Y82.607 E0.03629
G1 X135.426 Y81.593 E0.67633
G1 X137.186 Y81.827 E0.05568
G1 X138.472 Y82.421 E0.04440
G1 X138.960 Y82.777 E0.01896
G1 X139.960 Y83.816 E0.04518
G1 X140.604 Y85.086 E0.04468
G1 X140.783 Y85.638 E0.01817
G1 X140.937 Y86.920 E0.04048
G1 X139.418 Y124.184 E1.16936
G1 X139.213 Y125.315 E0.03605
G1 X139.011 Y125.835 E0.01749
G1 X138.378 Y126.854 E0.03762
G1 X137.382 Y127.714 E0.04125
G1 F8640
G1 X136.079 Y128.283 E-0.32825
G1 X134.826 Y128.406 E-0.29075
G1 X134.218 Y128.355 E-0.14100
G1 E-0.04000 F2100.00000
G1 Z0.800 F10800.000
G1 X134.920 Y123.997
G1 Z0.200
G1 E0.80000 F2100.00000
G1 F1200
G1 X130.314 Y123.932 E0.14444
G1 X130.286 Y121.949 E0.06216
G1 X130.908 Y121.927 E0.01953
G1 X130.387 Y116.356 E0.17544
G1 X131.173 Y116.259 E0.02484
G1 X131.036 Y116.061 E0.00756
G1 X130.352 Y115.228 E0.03380
G1 X130.125 Y114.907 E0.01233
G1 X129.929 Y114.539 E0.01306
G1 X129.791 Y114.116 E0.01395
G1 X129.741 Y113.642 E0.01494
G1 X129.786 Y113.199 E0.01398
G1 X129.924 Y112.804 E0.01311
G1 X130.149 Y112.476 E0.01248
G1 X130.435 Y112.229 E0.01185
G1 X130.754 Y112.066 E0.01123
G1 X131.083 Y111.977 E0.01070
G1 X131.473 Y111.956 E0.01223
G1 X131.027 Y111.009 E0.03282
G1 X130.112 Y111.489 E0.03239
G1 X129.173 Y111.742 E0.03047
G1 X128.221 Y111.819 E0.02996
G1 X127.290 Y111.736 E0.02930
G1 X126.414 Y111.506 E0.02839
G1 X125.596 Y111.111 E0.02847
G1 X125.627 Y111.391 E0.00882
G1 X125.732 Y111.940 E0.01754
G1 X125.875 Y112.492 E0.01786
G1 X126.050 Y113.036 E0.01792
G1 X126.476 Y114.120 E0.03652
G1 X128.059 Y117.505 E0.11719
G1 X126.218 Y116.729 E0.06264
G1 X125.804 Y116.582 E0.01379
G1 X125.394 Y116.464 E0.01338
G1 X124.987 Y116.374 E0.01307
G1 X124.581 Y116.311 E0.01288
G1 X124.174 Y116.275 E0.01280
G1 X123.765 Y116.266 E0.01283
G1 X123.351 Y116.283 E0.01298
G1 X122.511 Y116.394 E0.02657
G1 X120.071 Y116.994 E0.07879
G1 X121.271 Y115.286 E0.06548
G1 X121.554 Y114.835 E0.01670
G1 X121.825 Y114.352 E0.01735
G1 X122.079 Y113.844 E0.01781
G1 X122.312 Y113.316 E0.01808
G1 X122.518 Y112.774 E0.01818
G1 X122.696 Y112.225 E0.01811
G1 X122.839 Y111.673 E0.01787
G1 X122.967 Y110.957 E0.02281
G1 X122.790 Y111.098 E0.00709
G1 X122.007 Y111.513 E0.02778
G1 X121.172 Y111.781 E0.02750
G1 X120.311 Y111.894 E0.02724
G1 X119.449 Y111.842 E0.02705
G1 X118.618 Y111.610 E0.02707
G1 X117.853 Y111.183 E0.02746
G1 X117.199 Y110.555 E0.02842
G1 X116.701 Y109.732 E0.03017
G1 X116.391 Y108.726 E0.03299
G1 X116.289 Y107.535 E0.03750
G1 X116.459 Y106.280 E0.03971
G1 X116.907 Y105.070 E0.04045
G1 X117.562 Y103.902 E0.04201
G1 X118.369 Y102.745 E0.04420
G1 X120.229 Y100.374 E0.09451
G1 X121.194 Y99.109 E0.04989
G1 X122.119 Y97.769 E0.05105
G1 X122.960 Y96.335 E0.05212
G1 X123.673 Y94.788 E0.05340
G1 X124.214 Y93.109 E0.05532
G1 X124.580 Y91.061 E0.06525
G1 X125.699 Y91.116 E0.03512
G1 X125.865 Y93.270 E0.06773
G1 X126.246 Y94.943 E0.05381
G1 X126.812 Y96.401 E0.04902
G1 X127.519 Y97.691 E0.04612
G1 X128.328 Y98.857 E0.04448
G1 X129.197 Y99.942 E0.04359
G1 X130.925 Y102.020 E0.08475
G1 X131.694 Y103.108 E0.04178
G1 X132.322 Y104.284 E0.04181
G1 X132.745 Y105.589 E0.04302
G1 X132.901 Y107.048 E0.04598
G1 X132.767 Y108.368 E0.04161
G1 X132.377 Y109.477 E0.03687
G1 X131.768 Y110.370 E0.03386
G1 X131.609 Y110.507 E0.00661
G1 X132.260 Y110.739 E0.02167
G1 X132.500 Y110.776 E0.00761
G1 X132.753 Y110.765 E0.00794
G1 X134.406 Y110.435 E0.05287
G1 X133.472 Y111.931 E0.05530
G1 X133.792 Y111.949 E0.01003
G1 X134.105 Y112.037 E0.01018
G1 X134.400 Y112.201 E0.01059
G1 X134.653 Y112.445 E0.01102
G1 X134.841 Y112.756 E0.01140
G1 X134.952 Y113.116 E0.01182
G1 X134.987 Y113.524 E0.01283
G1 X134.930 Y113.949 E0.01346
G1 X134.783 Y114.344 E0.01322
G1 X134.584 Y114.700 E0.01279
G1 X134.353 Y115.031 E0.01265
G1 X133.559 Y116.062 E0.04080
G1 X135.425 Y116.089 E0.05854
G1 X134.240 Y121.911 E0.18627
G1 X135.095 Y121.933 E0.02683
G1 X134.925 Y123.937 E0.06309
G1 X134.574 Y123.615 F10800.000
G1 F1200
G1 X130.686 Y123.560 E0.12193
G1 X130.668 Y122.313 E0.03910
G1 X131.321 Y122.290 E0.02049
G1 X130.796 Y116.686 E0.17648
G1 X131.767 Y116.566 E0.03066
G1 X131.546 Y116.136 E0.01517
G1 X131.337 Y115.834 E0.01153
G1 X130.652 Y114.999 E0.03385
G1 X130.446 Y114.709 E0.01116
G1 X130.277 Y114.391 E0.01128
G1 X130.162 Y114.037 E0.01167
G1 X130.120 Y113.642 E0.01248
G1 X130.157 Y113.281 E0.01135
G1 X130.264 Y112.976 E0.01015
G1 X130.432 Y112.729 E0.00938
G1 X130.647 Y112.544 E0.00888
G1 X130.890 Y112.419 E0.00858
G1 X131.148 Y112.350 E0.00837
G1 X131.409 Y112.329 E0.00820
G1 X131.663 Y112.351 E0.00801
G1 X131.904 Y112.414 E0.00779
G1 X132.019 Y112.469 E0.00398
G1 X131.972 Y112.220 E0.00794
G1 X131.817 Y111.798 E0.01411
G1 X131.353 Y110.816 E0.03403
G1 X132.167 Y111.106 E0.02711
G1 X132.478 Y111.154 E0.00987
G1 X132.798 Y111.141 E0.01002
G1 X133.623 Y110.976 E0.02639
G1 X133.143 Y111.743 E0.02836
G1 X132.964 Y112.150 E0.01395
G1 X132.876 Y112.493 E0.01110
G1 X133.024 Y112.414 E0.00528
G1 X133.254 Y112.340 E0.00756
G1 X133.491 Y112.309 E0.00750
G1 X133.729 Y112.323 E0.00748
G1 X133.960 Y112.388 E0.00752
G1 X134.174 Y112.507 E0.00766
G1 X134.356 Y112.682 E0.00794
G1 X134.495 Y112.911 E0.00839
G1 X134.580 Y113.188 E0.00909
G1 X134.608 Y113.514 E0.01026
G1 X134.562 Y113.857 E0.01085
G1 X134.440 Y114.186 E0.01099
G1 X134.264 Y114.500 E0.01129
G1 X134.049 Y114.808 E0.01177
G1 X133.304 Y115.766 E0.03807
G1 X133.063 Y116.116 E0.01332
G1 X132.844 Y116.490 E0.01358
G1 X132.659 Y116.892 E0.01388
G1 X132.518 Y117.327 E0.01435
G1 X132.458 Y117.664 E0.01073
G1 X132.031 Y117.643 E0.01341
G1 X132.190 Y118.851 E0.03821
G1 X133.300 Y118.869 E0.03482
G1 X133.719 Y116.441 E0.07725
G1 X134.965 Y116.460 E0.03908
G1 X133.780 Y122.276 E0.18612
G1 X134.686 Y122.299 E0.02840
G1 X134.579 Y123.555 E0.03953
G1 X134.642 Y124.009 F10800.000
G1 F8640
G1 X131.288 Y123.559 E-0.76000
G1 E-0.04000 F2100.00000
G1 Z0.800 F10800.000
G1 X127.302 Y116.777
G1 Z0.200
G1 E0.80000 F2100.00000
G1 F1200
G1 X126.355 Y116.378 E0.03225
G1 X125.919 Y116.223 E0.01449
G1 X125.487 Y116.098 E0.01411
G1 X125.056 Y116.003 E0.01383
G1 X124.626 Y115.936 E0.01365
G1 X124.195 Y115.898 E0.01357
G1 X123.761 Y115.889 E0.01360
G1 X123.324 Y115.907 E0.01372
G1 X122.882 Y115.952 E0.01394
G1 X122.436 Y116.025 E0.01417
G1 X120.958 Y116.388 E0.04772
G1 X121.586 Y115.494 E0.03424
G1 X121.879 Y115.027 E0.01729
G1 X122.158 Y114.529 E0.01792
G1 X122.420 Y114.004 E0.01838
G1 X122.660 Y113.460 E0.01867
G1 X122.874 Y112.900 E0.01879
G1 X123.058 Y112.330 E0.01876
G1 X123.207 Y111.757 E0.01858
G1 X123.319 Y111.185 E0.01826
G1 X123.388 Y110.621 E0.01784
G1 X123.411 Y110.054 E0.01777
G1 X123.229 Y110.268 E0.00881
G1 X122.582 Y110.781 E0.02586
G1 X121.860 Y111.164 E0.02565
G1 X121.089 Y111.412 E0.02538
G1 X120.297 Y111.516 E0.02504
G1 X119.512 Y111.468 E0.02466
G1 X118.762 Y111.259 E0.02441
G1 X118.079 Y110.878 E0.02453
G1 X117.496 Y110.318 E0.02534
G1 X117.048 Y109.577 E0.02716
G1 X116.764 Y108.654 E0.03027
G1 X116.668 Y107.544 E0.03493
G1 X116.827 Y106.372 E0.03709
M73 P4 R28
G1 X117.250 Y105.229 E0.03821
G1 X117.882 Y104.102 E0.04050
G1 X118.672 Y102.969 E0.04329
G1 X120.527 Y100.604 E0.09425
G1 X121.500 Y99.331 E0.05025
G1 X122.438 Y97.972 E0.05177
G1 X123.295 Y96.510 E0.05314
G1 X124.025 Y94.926 E0.05469
G1 X124.581 Y93.201 E0.05683
G1 X124.893 Y91.454 E0.05564
G1 X125.348 Y91.476 E0.01430
G1 X125.491 Y93.327 E0.05819
G1 X125.885 Y95.054 E0.05555
G1 X126.469 Y96.561 E0.05067
G1 X127.198 Y97.889 E0.04752
G1 X128.025 Y99.082 E0.04551
G1 X128.904 Y100.180 E0.04411
G1 X130.626 Y102.249 E0.08439
G1 X131.373 Y103.306 E0.04058
G1 X131.973 Y104.432 E0.04002
G1 X132.375 Y105.668 E0.04074
G1 X132.521 Y107.048 E0.04352
G1 X132.396 Y108.285 E0.03897
G1 X132.037 Y109.306 E0.03392
G1 X131.485 Y110.116 E0.03076
G1 X130.782 Y110.722 E0.02910
G1 X129.975 Y111.135 E0.02841
G1 X129.109 Y111.369 E0.02814
G1 X128.222 Y111.440 E0.02787
G1 X127.355 Y111.363 E0.02731
G1 X126.544 Y111.150 E0.02630
G1 X125.825 Y110.812 E0.02489
G1 X125.239 Y110.354 E0.02331
G1 X125.183 Y110.276 E0.00304
G1 X125.191 Y110.869 E0.01861
G1 X125.254 Y111.447 E0.01821
G1 X125.363 Y112.023 E0.01841
G1 X125.513 Y112.597 E0.01858
G1 X125.695 Y113.162 E0.01862
G1 X126.129 Y114.269 E0.03727
G1 X127.277 Y116.723 E0.08495
G1 X127.252 Y117.174 F10800.000
G1 F8640
G1 X126.355 Y116.378 E-0.22740
G1 X125.919 Y116.223 E-0.10670
G1 X125.487 Y116.098 E-0.10391
G1 X125.056 Y116.003 E-0.10184
G1 X124.626 Y115.936 E-0.10051
G1 X124.195 Y115.898 E-0.09994
G1 X124.110 Y115.896 E-0.01971
G1 E-0.04000 F2100.00000
G1 Z0.800 F10800.000
G1 X118.366 Y101.907
G1 Z0.200
G1 E0.80000 F2100.00000
G1 F1200
G1 X116.741 Y101.330 E0.05407
G1 X116.502 Y101.293 E0.00761
G1 X116.248 Y101.303 E0.00794
G1 X114.595 Y101.634 E0.05287
G1 X115.529 Y100.137 E0.05530
G1 X115.209 Y100.119 E0.01003
G1 X114.897 Y100.031 E0.01018
G1 X114.601 Y99.867 E0.01059
G1 X114.348 Y99.624 E0.01102
G1 X114.160 Y99.312 E0.01140
G1 X114.049 Y98.952 E0.01182
G1 X114.014 Y98.545 E0.01283
G1 X114.071 Y98.119 E0.01346
G1 X114.218 Y97.724 E0.01322
G1 X114.417 Y97.368 E0.01279
G1 X114.648 Y97.037 E0.01265
G1 X115.317 Y96.176 E0.03420
G1 X114.374 Y96.162 E0.02959
G1 X115.559 Y90.341 E0.18627
G1 X114.704 Y90.319 E0.02683
G1 X114.879 Y88.254 E0.06497
G1 X119.485 Y88.319 E0.14444
G1 X119.513 Y90.302 E0.06216
G1 X118.891 Y90.324 E0.01953
G1 X119.412 Y95.895 E0.17544
G1 X118.015 Y96.067 E0.04416
G1 X118.650 Y96.840 E0.03137
G1 X118.876 Y97.161 E0.01233
G1 X119.073 Y97.529 E0.01306
G1 X119.210 Y97.952 E0.01395
G1 X119.260 Y98.426 E0.01494
G1 X119.215 Y98.869 E0.01398
G1 X119.077 Y99.264 E0.01311
G1 X118.853 Y99.593 E0.01248
G1 X118.566 Y99.839 E0.01185
G1 X118.247 Y100.003 E0.01123
G1 X117.918 Y100.092 E0.01070
G1 X117.528 Y100.112 E0.01223
G1 X118.341 Y101.853 E0.06023
G1 X117.643 Y101.250 F10800.000
G1 F1200
G1 X116.834 Y100.962 E0.02690
G1 X116.523 Y100.914 E0.00987
G1 X116.204 Y100.927 E0.01002
G1 X115.378 Y101.092 E0.02639
G1 X115.858 Y100.325 E0.02836
G1 X116.037 Y99.918 E0.01395
G1 X116.126 Y99.576 E0.01110
G1 X115.977 Y99.655 E0.00528
G1 X115.747 Y99.728 E0.00756
G1 X115.510 Y99.759 E0.00750
G1 X115.272 Y99.745 E0.00748
G1 X115.041 Y99.680 E0.00752
G1 X114.828 Y99.561 E0.00766
G1 X114.645 Y99.386 E0.00794
G1 X114.506 Y99.157 E0.00839
G1 X114.421 Y98.880 E0.00909
G1 X114.393 Y98.554 E0.01026
G1 X114.439 Y98.211 E0.01085
G1 X114.561 Y97.882 E0.01099
G1 X114.737 Y97.568 E0.01129
G1 X114.952 Y97.261 E0.01177
G1 X115.697 Y96.302 E0.03807
G1 X116.022 Y95.809 E0.01851
G1 X114.834 Y95.792 E0.03726
G1 X116.019 Y89.975 E0.18612
G1 X115.113 Y89.952 E0.02840
G1 X115.225 Y88.636 E0.04141
G1 X119.113 Y88.691 E0.12193
G1 X119.131 Y89.938 E0.03910
G1 X118.478 Y89.962 E0.02049
G1 X119.003 Y95.566 E0.17648
G1 X117.912 Y95.700 E0.03446
G1 X117.609 Y93.400 E0.07272
G1 X116.499 Y93.382 E0.03482
G1 X116.104 Y95.669 E0.07277
G1 X116.342 Y95.177 E0.01712
G1 X116.489 Y94.708 E0.01542
G1 X116.543 Y94.404 E0.00969
G1 X116.999 Y94.427 E0.01430
G1 X117.027 Y94.788 E0.01137
G1 X117.125 Y95.221 E0.01392
G1 X117.272 Y95.598 E0.01268
G1 X117.455 Y95.932 E0.01195
G1 X117.664 Y96.234 E0.01153
G1 X118.349 Y97.069 E0.03385
G1 X118.555 Y97.360 E0.01116
G1 X118.724 Y97.677 E0.01128
G1 X118.839 Y98.031 E0.01167
G1 X118.881 Y98.427 E0.01248
G1 X118.845 Y98.787 E0.01135
G1 X118.737 Y99.092 E0.01015
G1 X118.569 Y99.339 E0.00938
G1 X118.354 Y99.524 E0.00888
G1 X118.111 Y99.649 E0.00858
G1 X117.853 Y99.718 E0.00837
G1 X117.592 Y99.739 E0.00820
G1 X117.338 Y99.717 E0.00801
G1 X117.098 Y99.654 E0.00779
G1 X116.983 Y99.600 E0.00398
G1 X117.029 Y99.848 E0.00794
G1 X117.185 Y100.270 E0.01410
G1 X117.617 Y101.195 E0.03202
G1 X117.606 Y101.648 F10800.000
G1 F8640
G1 X116.834 Y100.962 E-0.18862
G1 X116.523 Y100.914 E-0.07272
G1 X116.204 Y100.927 E-0.07382
G1 X115.378 Y101.092 E-0.19431
G1 X115.858 Y100.325 E-0.20886
G1 X115.896 Y100.240 E-0.02168
G1 E-0.04000 F2100.00000
G1 Z0.800 F10800.000
G1 X136.762 Y96.957
G1 Z0.200
G1 E0.80000 F2100.00000
G1 F1200
G1 X137.286 Y97.531 E0.02436
G1 X137.461 Y97.890 E0.01253
G1 X137.554 Y98.210 E0.01044
G1 X137.560 Y98.578 E0.01155
G1 X137.109 Y111.385 E0.40179
G1 X136.467 Y112.280 E0.03454
G1 X136.366 Y112.835 E0.01769
G1 X136.548 Y113.144 E0.01125
G1 X136.544 Y113.338 E0.00608
G1 X136.301 Y113.867 E0.01825
G1 X136.433 Y114.789 E0.02921
G1 X136.864 Y114.934 E0.01425
G1 X136.647 Y124.010 E0.28466
G1 X136.532 Y124.579 E0.01822
G1 X136.269 Y125.037 E0.01655
G1 X135.876 Y125.383 E0.01640
G1 X135.389 Y125.586 E0.01655
G1 X134.804 Y125.629 E0.01838
G1 X112.855 Y123.763 E0.69070
G1 X112.509 Y123.679 E0.01115
G1 X112.234 Y123.513 E0.01007
G1 X112.016 Y123.270 E0.01023
G1 X111.880 Y122.979 E0.01007
