; generated by PrusaSlicer 2.2.0+win64 on 2020-08-18 at 18:23:23 UTC

; 

; external perimeters extrusion width = 0.45mm
; perimeters extrusion width = 0.45mm
; infill extrusion width = 0.45mm
; solid infill extrusion width = 0.45mm
; top infill extrusion width = 0.40mm
; support material extrusion width = 0.35mm
; first layer extrusion width = 0.42mm

; external perimeters extrusion width = 0.45mm
; perimeters extrusion width = 0.45mm
; infill extrusion width = 0.45mm
; solid infill extrusion width = 0.45mm
; top infill extrusion width = 0.40mm
; support material extrusion width = 0.35mm
; first layer extrusion width = 0.42mm

M73 P0 R29
M201 X9000 Y9000 Z500 E10000 ; sets maximum accelerations, mm/sec^2
M203 X500 Y500 Z12 E120 ; sets maximum feedrates, mm/sec
M204 P2000 R1500 T2000 ; sets acceleration (P, T) and retract acceleration (R), mm/sec^2
M205 X10.00 Y10.00 Z0.20 E4.50 ; sets the jerk limits, mm/sec
M205 S0 T0 ; sets the minimum extruding and travel feed rate, mm/sec
M107
M862.3 P "MK2.5SMMU2S" ; printer model check
M862.1 P0.4 ; nozzle diameter check
M115 U3.9.0 ; tell printer latest fw version
G90 ; use absolute coordinates
M83 ; extruder relative mode
M104 S215 ; set extruder temp
M140 S60 ; set bed temp
M190 S60 ; wait for bed temp
M109 S215 ; wait for extruder temp
G28 W ; home all without mesh bed level
G80 ; mesh bed leveling

; Send the filament type to the MMU2.0 unit.
; E stands for extruder number, F stands for filament type (0: default; 1:flex; 2: PVA)
M403 E0 F0
M403 E1 F0
M403 E2 F0
M403 E3 F0
M403 E4 F0


;go outside print area
G1 Y-3.0 F1000.0
G1 Z0.4 F1000.0
; select extruder
T0
; initial load
G1 X55.0 E29.0 F1073.0
M73 P1 R29
G1 X5.0 E29.0 F1800.0
G1 X55.0 E8.0 F2000.0
G1 Z0.3 F1000.0
G92 E0.0
G1 X240.0 E25.0 F2200.0
G1 Y-2.0 F1000.0
G1 X55.0 E25 F1400.0
G1 Z0.20 F1000.0
G1 X5.0 E4.0 F1000.0
G92 E0.0

G92 E0.0
G21 ; set units to millimeters
G90 ; use absolute coordinates
M83 ; use relative distances for extrusion
T0
M900 K0.06 ; Filament gcode LA 1.5
M900 K30 ; Filament gcode LA 1.0
G1 Z0.200 F10800.000
;BEFORE_LAYER_CHANGE
G92 E0.0
;0.2


G1 E-0.80000 F2100.00000
G1 Z0.800 F10800.000
G1 Z0.200
;AFTER_LAYER_CHANGE
;0.2
G1 E-2.20000 F2100.00000
G1 Z0.800 F10800.000
G1 X139.179 Y68.972
G1 Z0.200
G1 E3.00000 F2100.00000
;-------------------------------------
; CP WIPE TOWER FIRST LAYER BRIM START
G1  X139.179 Y83.032  E0.8016 F2400
G1  X136.636 Y83.489   F7000
G1  Y68.515  E0.6260 F2100
G1  X75.722  E2.5466
G1  Y83.489  E0.6260
G1  X136.636  E2.5466
G1  X137.093 Y83.946   F7000
G1  Y68.058  E0.6642 F2100
G1  X75.265  E2.5849
G1  Y83.946  E0.6642
G1  X137.093  E2.5849
G1  X137.550 Y84.403   F7000
G1  Y67.601  E0.7025 F2100
G1  X74.808  E2.6231
G1  Y84.403  E0.7025
G1  X137.550  E2.6231
G1  X138.007 Y84.860   F7000
G1  Y67.144  E0.7407 F2100
G1  X74.351  E2.6613
G1  Y84.860  E0.7407
G1  X138.007  E2.6613
G1  X136.179 Y83.032   F7000
G1  X76.179 
G1  X136.179 
; CP WIPE TOWER FIRST LAYER BRIM END
;-----------------------------------
G1  X135.679 Y69.472   F7200
;--------------------
; CP EMPTY GRID START
; layer #1
G1  X136.179 
G1  Y68.972 
G1  Y83.032  E0.5344 F1450
G1  X76.179  E2.2804
G1  Y68.972  E0.5344
G1  X136.179  E2.2804
G1  X135.679 
G1  Y69.472 
G1  Y82.532  E0.4964
G1  X76.679  E2.2424
G1  Y69.472  E0.4964
G1  X135.679  E2.2424
G1  Y82.532 
G1  X135.179 Y82.009   E0.0275
G1  X77.179  E2.2044
G1  Y81.485  E0.0199
G1  X135.179  E2.2044
G1  Y80.962  E0.0199
G1  X77.179  E2.2044
M73 P4 R28
G1  Y80.439  E0.0199
G1  X135.179  E2.2044
G1  Y79.915  E0.0199
G1  X77.179  E2.2044
G1  Y79.392  E0.0199
G1  X135.179  E2.2044
G1  Y78.869  E0.0199
G1  X77.179  E2.2044
G1  Y78.345  E0.0199
G1  X135.179  E2.2044
G1  Y77.822  E0.0199
G1  X77.179  E2.2044
G1  Y77.299  E0.0199
G1  X135.179  E2.2044
G1  Y76.775  E0.0199
G1  X77.179  E2.2044
G1  Y76.252  E0.0199
G1  X135.179  E2.2044
G1  Y75.729  E0.0199
G1  X77.179  E2.2044
G1  Y75.205  E0.0199
G1  X135.179  E2.2044
G1  Y74.682  E0.0199
G1  X77.179  E2.2044
G1  Y74.159  E0.0199
G1  X135.179  E2.2044
G1  Y73.635  E0.0199
G1  X77.179  E2.2044
G1  Y73.112  E0.0199
G1  X135.179  E2.2044
G1  Y72.589  E0.0199
G1  X77.179  E2.2044
G1  Y72.065  E0.0199
G1  X135.179  E2.2044
G1  Y71.542  E0.0199
G1  X77.179  E2.2044
G1  Y71.019  E0.0199
G1  X135.179  E2.2044
G1  Y70.495  E0.0199
G1  X77.179  E2.2044
G1  Y69.972  E0.0199
G1  X135.179  E2.2044
G1  X77.179 
; CP EMPTY GRID END
;------------------







G1 F8640.000
G1 X73.888 Y69.972 E-0.76000
G1 E-0.04000 F2100.00000
G1 Z0.800 F10800.000
G1 X72.289 Y86.601
G1 Z0.200
G1 E0.80000 F2100.00000
M204 S1000
G1 F1200.000
G1 X71.859 Y85.814 E0.02813
G1 X71.746 Y85.102 E0.02260
G1 X71.752 Y66.743 E0.57562
G1 X71.907 Y66.055 E0.02213
G1 X72.254 Y65.445 E0.02201
G1 X72.765 Y64.963 E0.02201
G1 X73.398 Y64.651 E0.02213
G1 X74.118 Y64.538 E0.02284
G1 X138.240 Y64.538 E2.01051
G1 X138.795 Y64.604 E0.01752
G1 X139.319 Y64.798 E0.01752
G1 X172.381 Y82.023 E1.16890
M73 P8 R27
G1 X173.549 Y82.991 E0.04755
G1 X174.219 Y84.048 E0.03924
G1 X174.450 Y84.626 E0.01953
G1 X174.664 Y85.806 E0.03760
G1 X176.190 Y122.936 E1.16517
G1 X175.979 Y124.605 E0.05273
G1 X175.334 Y126.030 E0.04906
G1 X174.923 Y126.590 E0.02178
G1 X174.084 Y127.420 E0.03700
G1 X173.657 Y127.725 E0.01645
G1 X172.167 Y128.394 E0.05121
G1 X170.441 Y128.596 E0.05448
G1 X149.069 Y127.595 E0.67086
G1 X147.644 Y127.285 E0.04572
G1 X72.981 Y87.173 E2.65746
G1 X72.335 Y86.640 E0.02625
G1 F8640.000
G1 X71.859 Y85.814 E-0.22012
G1 X71.746 Y85.102 E-0.16646
G1 X71.746 Y83.485 E-0.37342
G1 E-0.04000 F2100.00000
G1 Z0.800 F10800.000
G1 X164.080 Y125.161
G1 Z0.200
G1 E0.80000 F2100.00000
G1 F1200.000
G1 X159.865 Y124.707 E0.13292
G1 X154.529 Y124.883 E0.16741
G1 X149.280 Y124.637 E0.16477
G1 X148.755 Y124.530 E0.01679
G1 X148.313 Y124.286 E0.01583
G1 X147.956 Y123.920 E0.01603
G1 X147.724 Y123.472 E0.01583
G1 X147.636 Y122.978 E0.01574
G1 X147.995 Y119.065 E0.12319
G1 X148.043 Y112.617 E0.20216
G1 X147.775 Y111.058 E0.04962
G1 X148.015 Y98.520 E0.39319
G1 X148.511 Y97.380 E0.03899
G1 X147.258 Y96.903 E0.04202
G1 X147.198 Y96.870 E0.00216
G1 X147.111 Y96.770 E0.00415
G1 X147.077 Y96.646 E0.00403
G1 X146.890 Y87.374 E0.29078
G1 X146.938 Y87.021 E0.01115
G1 X147.074 Y86.730 E0.01007
G1 X147.292 Y86.488 E0.01023
G1 X147.567 Y86.322 E0.01007
G1 X147.912 Y86.237 E0.01115
G1 X169.862 Y84.372 E0.69070
G1 X170.415 Y84.412 E0.01739
G1 X170.937 Y84.621 E0.01763
G1 X171.326 Y84.964 E0.01626
G1 X171.589 Y85.421 E0.01655
G1 X171.704 Y85.991 E0.01822
G1 X171.921 Y95.067 E0.28466
G1 X171.490 Y95.212 E0.01425
G1 X171.359 Y96.134 E0.02921
G1 X171.602 Y96.663 E0.01825
G1 X171.606 Y96.857 E0.00608
G1 X171.424 Y97.166 E0.01125
G1 X171.525 Y97.721 E0.01769
G1 X172.167 Y98.616 E0.03453
G1 X172.617 Y111.422 E0.40179
G1 X172.612 Y111.791 E0.01155
G1 X172.519 Y112.111 E0.01044
G1 X172.344 Y112.470 E0.01253
G1 X171.820 Y113.043 E0.02436
G1 X172.335 Y114.800 E0.05740
G1 X172.593 Y117.240 E0.07693
G1 X173.077 Y120.097 E0.09085
G1 X173.224 Y122.886 E0.08755
G1 X173.116 Y123.805 E0.02904
G1 X172.748 Y124.572 E0.02667
G1 X172.154 Y125.163 E0.02627
G1 X171.385 Y125.526 E0.02667
G1 X170.464 Y125.630 E0.02905
G1 X166.151 Y125.384 E0.13544
G1 X164.140 Y125.168 E0.06343
G1 F8640.000
G1 X160.867 Y124.815 E-0.76000
G1 E-0.04000 F2100.00000
G1 Z0.800 F10800.000
G1 X166.120 Y125.760
G1 Z0.200
G1 E0.80000 F2100.00000
G1 F1200.000
G1 X159.851 Y125.085 E0.19770
G1 X154.526 Y125.261 E0.16705
G1 X149.233 Y125.013 E0.16616
G1 X148.623 Y124.888 E0.01950
G1 X148.082 Y124.590 E0.01938
G1 X147.647 Y124.143 E0.01954
G1 X147.363 Y123.594 E0.01938
G1 X147.256 Y122.994 E0.01913
G1 X147.618 Y119.046 E0.12429
G1 X147.666 Y112.648 E0.20061
G1 X147.397 Y111.086 E0.04969
G1 X147.640 Y98.438 E0.39665
G1 X148.008 Y97.592 E0.02894
G1 X147.100 Y97.247 E0.03045
G1 X146.977 Y97.179 E0.00440
G1 X146.868 Y97.080 E0.00460
G1 X146.779 Y96.954 E0.00485
G1 X146.723 Y96.819 E0.00460
G1 X146.700 Y96.680 E0.00440
G1 X146.513 Y87.352 E0.29251
G1 X146.572 Y86.914 E0.01387
G1 X146.756 Y86.520 E0.01364
G1 X147.049 Y86.194 E0.01375
G1 X147.422 Y85.969 E0.01364
G1 X147.851 Y85.864 E0.01387
G1 X169.860 Y83.993 E0.69256
G1 X170.501 Y84.040 E0.02015
G1 X171.138 Y84.295 E0.02151
G1 X171.623 Y84.722 E0.02025
G1 X171.947 Y85.287 E0.02042
G1 X172.080 Y85.949 E0.02118
G1 X172.305 Y95.336 E0.29442
G1 X171.831 Y95.495 E0.01568
G1 X171.748 Y96.077 E0.01843
G1 X171.977 Y96.576 E0.01723
G1 X171.985 Y96.956 E0.01190
G1 X171.820 Y97.236 E0.01022
G1 X171.880 Y97.570 E0.01063
G1 X172.540 Y98.489 E0.03545
G1 X172.994 Y111.418 E0.40565
G1 X172.988 Y111.847 E0.01344
G1 X172.872 Y112.247 E0.01306
G1 X172.658 Y112.684 E0.01524
G1 X172.241 Y113.141 E0.01940
G1 X172.706 Y114.727 E0.05182
G1 X172.967 Y117.189 E0.07763
G1 X173.452 Y120.056 E0.09116
G1 X173.603 Y122.898 E0.08924
G1 X173.483 Y123.912 E0.03201
G1 X173.060 Y124.794 E0.03067
G1 X172.374 Y125.476 E0.03034
G1 X171.489 Y125.894 E0.03067
G1 X170.474 Y126.008 E0.03202
G1 X166.180 Y125.764 E0.13486
G1 X165.949 Y125.399 F10800.000
G1 F8640.000
G1 X162.908 Y125.413 E-0.76000
G1 E-0.04000 F2100.00000
G1 Z0.800 F10800.000
G1 X147.826 Y123.398
G1 Z0.200
G1 E0.80000 F2100.00000
G1 F1200.000
G1 X148.487 Y124.059 E0.02942
G1 X148.854 Y124.262 E0.01318
G1 X149.319 Y124.356 E0.01493
G1 X147.922 Y122.959 E0.06215
G1 X147.967 Y122.469 E0.01548
G1 X149.880 Y124.382 E0.08513
G1 X150.441 Y124.409 E0.01768
G1 X148.012 Y121.979 E0.10810
G1 X148.057 Y121.489 E0.01548
G1 X151.003 Y124.435 E0.13108
G1 X151.564 Y124.461 E0.01768
G1 X148.102 Y120.999 E0.15406
G1 X148.147 Y120.509 E0.01548
G1 X152.126 Y124.488 E0.17703
G1 X152.687 Y124.514 E0.01768
G1 X148.192 Y120.019 E0.20001
G1 X148.237 Y119.528 E0.01548
G1 X153.248 Y124.540 E0.22299
G1 X153.810 Y124.567 E0.01768
G1 X148.278 Y119.035 E0.24611
G1 X148.282 Y118.504 E0.01671
G1 X154.371 Y124.593 E0.27092
G1 X154.901 Y124.588 E0.01668
G1 X148.286 Y117.973 E0.29433
G1 X148.290 Y117.442 E0.01671
G1 X155.419 Y124.571 E0.31720
G1 X155.937 Y124.554 E0.01630
G1 X148.294 Y116.911 E0.34007
G1 X148.298 Y116.379 E0.01671
G1 X156.455 Y124.537 E0.36294
G1 X156.973 Y124.520 E0.01630
G1 X148.302 Y115.848 E0.38580
G1 X148.306 Y115.317 E0.01671
G1 X157.491 Y124.503 E0.40867
G1 X158.009 Y124.485 E0.01630
G1 X148.310 Y114.786 E0.43154
G1 X148.314 Y114.255 E0.01671
G1 X158.527 Y124.468 E0.45441
G1 X159.045 Y124.451 E0.01630
G1 X148.318 Y113.724 E0.47728
G1 X148.322 Y113.193 E0.01671
G1 X159.563 Y124.434 E0.50014
G1 X159.876 Y124.424 E0.00984
G1 X160.113 Y124.449 E0.00752
G1 X148.326 Y112.662 E0.52445
G1 X148.229 Y112.030 E0.02010
G1 X160.713 Y124.514 E0.55543
G1 X161.313 Y124.579 E0.01898
G1 X148.118 Y111.384 E0.58705
G1 X148.058 Y111.036 E0.01110
G1 X148.063 Y110.794 E0.00763
G1 X161.912 Y124.643 E0.61618
G1 X162.512 Y124.708 E0.01898
G1 X148.073 Y110.269 E0.64242
G1 X148.083 Y109.744 E0.01652
G1 X163.112 Y124.772 E0.66865
G1 X163.711 Y124.837 E0.01898
G1 X148.093 Y109.219 E0.69488
G1 X148.103 Y108.694 E0.01652
G1 X164.311 Y124.902 E0.72112
G1 X164.911 Y124.966 E0.01898
G1 X148.113 Y108.169 E0.74735
G1 X148.123 Y107.644 E0.01652
G1 X165.510 Y125.031 E0.77358
G1 X166.110 Y125.095 E0.01898
G1 X148.133 Y107.119 E0.79981
G1 X148.143 Y106.594 E0.01652
G1 X166.681 Y125.131 E0.82477
G1 X167.248 Y125.163 E0.01788
G1 X148.153 Y106.069 E0.84956
G1 X148.164 Y105.544 E0.01652
G1 X167.816 Y125.196 E0.87436
G1 X168.383 Y125.228 E0.01788
G1 X148.174 Y105.019 E0.89915
G1 X148.184 Y104.494 E0.01652
G1 X168.951 Y125.260 E0.92395
G1 X169.518 Y125.293 E0.01788
G1 X148.194 Y103.968 E0.94875
G1 X148.204 Y103.443 E0.01652
G1 X170.085 Y125.325 E0.97354
G1 X170.456 Y125.346 E0.01169
G1 X170.623 Y125.327 E0.00527
G1 X148.214 Y102.918 E0.99701
G1 X148.224 Y102.393 E0.01652
G1 X171.104 Y125.273 E1.01797
G1 X171.307 Y125.251 E0.00642
G1 X171.517 Y125.151 E0.00732
G1 X148.234 Y101.868 E1.03589
G1 X148.244 Y101.343 E0.01652
G1 X171.880 Y124.980 E1.05161
M73 P11 R26
G1 X171.989 Y124.928 E0.00379
G1 X172.177 Y124.741 E0.00834
G1 X148.254 Y100.818 E1.06437
G1 X148.264 Y100.293 E0.01652
G1 X172.445 Y124.474 E1.07585
G1 X172.514 Y124.406 E0.00305
G1 X172.643 Y124.137 E0.00938
G1 X148.274 Y99.768 E1.08421
G1 X148.284 Y99.243 E0.01652
G1 X172.816 Y123.776 E1.09148
G1 X172.840 Y123.725 E0.00175
G1 X172.889 Y123.313 E0.01306
G1 X148.294 Y98.718 E1.09426
G1 X148.297 Y98.581 E0.00431
G1 X148.417 Y98.306 E0.00945
G1 X172.938 Y122.827 E1.09099
G1 X172.908 Y122.262 E0.01780
G1 X148.579 Y97.933 E1.08245
G1 X148.741 Y97.560 E0.01279
G1 X172.878 Y121.697 E1.07390
G1 X172.848 Y121.132 E0.01780
G1 X147.339 Y95.623 E1.13494
G1 X147.328 Y95.077 E0.01718
G1 X172.818 Y120.567 E1.13409
G1 X172.795 Y120.128 E0.01382
G1 X172.771 Y119.984 E0.00460
G1 X147.317 Y94.531 E1.13246
G1 X147.306 Y93.985 E0.01718
G1 X172.662 Y119.340 E1.12810
G1 X172.553 Y118.696 E0.02055
G1 X147.295 Y93.439 E1.12374
G1 X147.284 Y92.893 E0.01718
G1 X172.444 Y118.052 E1.11938
G1 X172.334 Y117.408 E0.02055
G1 X147.273 Y92.346 E1.11502
G1 X147.262 Y91.800 E0.01718
G1 X172.262 Y116.800 E1.11229
G1 X172.199 Y116.202 E0.01893
G1 X147.251 Y91.254 E1.10996
G1 X147.240 Y90.708 E0.01718
G1 X172.136 Y115.604 E1.10764
G1 X172.072 Y115.005 E0.01893
G1 X147.229 Y90.162 E1.10531
G1 X147.218 Y89.616 E0.01718
G1 X171.890 Y114.288 E1.09770
G1 X171.668 Y113.531 E0.02482
G1 X147.207 Y89.070 E1.08830
G1 X147.196 Y88.524 E0.01718
G1 X171.570 Y112.898 E1.08443
G1 X171.825 Y112.618 E0.01192
G1 X147.185 Y87.978 E1.09627
G1 X147.174 Y87.432 E0.01718
G1 X172.081 Y112.338 E1.10812
G1 X172.261 Y111.984 E0.01251
G1 X147.265 Y86.988 E1.11211
G1 X147.312 Y86.888 E0.00347
G1 X147.503 Y86.691 E0.00864
G1 X172.333 Y111.521 E1.10472
G1 X172.318 Y110.971 E0.01730
G1 X147.883 Y86.536 E1.08716
G1 X148.365 Y86.483 E0.01526
G1 X172.299 Y110.416 E1.06484
G1 X172.279 Y109.862 E0.01746
G1 X148.859 Y86.441 E1.04203
G1 X149.352 Y86.399 E0.01557
G1 X172.260 Y109.307 E1.01922
G1 X172.240 Y108.752 E0.01746
G1 X149.845 Y86.357 E0.99641
G1 X150.338 Y86.315 E0.01557
G1 X172.221 Y108.198 E0.97360
G1 X172.201 Y107.643 E0.01746
G1 X150.831 Y86.273 E0.95079
G1 X151.324 Y86.231 E0.01557
G1 X172.182 Y107.089 E0.92798
G1 X172.162 Y106.534 E0.01746
G1 X151.817 Y86.189 E0.90517
M73 P15 R25
G1 X152.311 Y86.147 E0.01557
G1 X172.143 Y105.980 E0.88237
G1 X172.123 Y105.425 E0.01746
G1 X152.804 Y86.105 E0.85956
G1 X153.297 Y86.064 E0.01557
G1 X172.104 Y104.870 E0.83675
G1 X172.084 Y104.316 E0.01746
G1 X153.790 Y86.022 E0.81394
G1 X154.283 Y85.980 E0.01557
G1 X172.065 Y103.761 E0.79113
G1 X172.045 Y103.207 E0.01746
G1 X154.776 Y85.938 E0.76832
G1 X155.269 Y85.896 E0.01557
G1 X172.026 Y102.652 E0.74551
G1 X172.006 Y102.098 E0.01746
G1 X155.763 Y85.854 E0.72270
G1 X156.256 Y85.812 E0.01557
G1 X171.987 Y101.543 E0.69989
G1 X171.967 Y100.988 E0.01746
G1 X156.749 Y85.770 E0.67708
G1 X157.242 Y85.728 E0.01557
G1 X171.948 Y100.434 E0.65427
G1 X171.928 Y99.879 E0.01746
G1 X157.735 Y85.686 E0.63147
G1 X158.228 Y85.644 E0.01557
G1 X171.909 Y99.325 E0.60866
G1 X171.889 Y98.770 E0.01746
G1 X158.722 Y85.602 E0.58585
G1 X159.215 Y85.560 E0.01557
G1 X171.207 Y97.552 E0.53354
G1 X171.127 Y97.113 E0.01405
G1 X171.192 Y97.003 E0.00402
G1 X159.708 Y85.519 E0.51094
G1 X160.201 Y85.477 E0.01557
G1 X171.209 Y96.484 E0.48974
G1 X171.067 Y96.176 E0.01066
G1 X171.113 Y95.854 E0.01026
G1 X160.694 Y85.435 E0.46355
G1 X161.187 Y85.393 E0.01557
G1 X171.180 Y95.385 E0.44459
G1 X171.235 Y94.999 E0.01229
G1 X171.305 Y94.975 E0.00232
G1 X161.680 Y85.351 E0.42821
G1 X162.174 Y85.309 E0.01557
G1 X171.631 Y94.767 E0.42078
G1 X171.618 Y94.218 E0.01725
G1 X162.667 Y85.267 E0.39826
G1 X163.160 Y85.225 E0.01557
G1 X171.605 Y93.670 E0.37574
G1 X171.592 Y93.122 E0.01725
G1 X163.653 Y85.183 E0.35321
G1 X164.146 Y85.141 E0.01557
G1 X171.579 Y92.574 E0.33069
G1 X171.566 Y92.026 E0.01725
G1 X164.639 Y85.099 E0.30816
G1 X165.133 Y85.057 E0.01557
G1 X171.553 Y91.477 E0.28564
G1 X171.539 Y90.929 E0.01725
G1 X165.626 Y85.016 E0.26311
G1 X166.119 Y84.974 E0.01557
G1 X171.526 Y90.381 E0.24059
G1 X171.513 Y89.833 E0.01725
G1 X166.612 Y84.932 E0.21807
G1 X167.105 Y84.890 E0.01557
