; generated by PrusaSlicer 2.3.1+win64 on 2021-08-12 at 19:25:02 UTC

; 

; external perimeters extrusion width = 0.45mm
; perimeters extrusion width = 0.45mm
; infill extrusion width = 0.45mm
; solid infill extrusion width = 0.45mm
; top infill extrusion width = 0.40mm

; external perimeters extrusion width = 0.45mm
; perimeters extrusion width = 0.45mm
; infill extrusion width = 0.45mm
; solid infill extrusion width = 0.45mm
; top infill extrusion width = 0.40mm

M73 P0 R32
M201 X9000 Y9000 Z500 E10000 ; sets maximum accelerations, mm/sec^2
M203 X500 Y500 Z12 E120 ; sets maximum feedrates, mm/sec
M204 P2000 R1500 T2000 ; sets acceleration (P, T) and retract acceleration (R), mm/sec^2
M205 X10.00 Y10.00 Z0.20 E4.50 ; sets the jerk limits, mm/sec
M205 S0 T0 ; sets the minimum extruding and travel feed rate, mm/sec
M107
;TYPE:Custom
M862.3 P "MK2.5SMMU2S" ; printer model check
M862.1 P0.4 ; nozzle diameter check
M115 U3.9.3 ; tell printer latest fw version
G90 ; use absolute coordinates
M83 ; extruder relative mode
M104 S215 ; set extruder temp
M140 S60 ; set bed temp
M190 S60 ; wait for bed temp
M109 S215 ; wait for extruder temp
G28 W ; home all without mesh bed level
G80 ; mesh bed leveling

; Send the filament type to the MMU2.0 unit.
; E stands for extruder number, F stands for filament type (0: default; 1:flex; 2: PVA)
M403 E0 F0
M403 E1 F0
M403 E2 F0
M403 E3 F0
M403 E4 F0


;go outside print area
G1 Y-3.0 F1000.0
G1 Z0.4 F1000.0
; select extruder
T0
; initial load
G1 X55.0 E29.0 F1073.0
G1 X5.0 E29.0 F1800.0
G1 X55.0 E8.0 F2000.0
G1 Z0.3 F1000.0
G92 E0.0
G1 X240.0 E25.0 F2200.0
G1 Y-2.0 F1000.0
G1 X55.0 E25 F1400.0
M73 P1 R32
G1 Z0.20 F1000.0
G1 X5.0 E4.0 F1000.0
G92 E0.0

G92 E0.0
G21 ; set units to millimeters
G90 ; use absolute coordinates
M83 ; use relative distances for extrusion
T0
M900 K0.05 ; Filament gcode LA 1.5
M900 K30 ; Filament gcode LA 1.0
G1 Z0.200 F10800.000
;LAYER_CHANGE
;Z:0.2
;HEIGHT:0.2
;BEFORE_LAYER_CHANGE
G92 E0.0
;0.2


G1 E-0.80000 F3600.000
G1 Z0.800 F10800.000
G1 Z0.200
;AFTER_LAYER_CHANGE
;0.2
G1 E-2.20000 F3600.000
G1 Z0.800 F10800.000
G1 X160.078 Y78.949
G1 Z0.200
G1 E3.00000 F3600.000
;HEIGHT:0.200000
;TYPE:Wipe tower
;WIDTH:0.500000
;-------------------------------------
; CP WIPE TOWER FIRST LAYER BRIM START
G1  X160.078 Y93.009  E0.8016 F2400
G1  X157.535 Y93.466   F7000
G1  Y78.492  E0.6260 F2100
G1  X96.621  E2.5466
G1  Y93.466  E0.6260
G1  X157.535  E2.5466
G1  X157.992 Y93.923   F7000
G1  Y78.035  E0.6642 F2100
G1  X96.164  E2.5849
G1  Y93.923  E0.6642
G1  X157.992  E2.5849
G1  X158.449 Y94.380   F7000
G1  Y77.578  E0.7025 F2100
G1  X95.707  E2.6231
G1  Y94.380  E0.7025
G1  X158.449  E2.6231
G1  X158.906 Y94.837   F7000
G1  Y77.121  E0.7407 F2100
G1  X95.250  E2.6613
M73 P2 R32
G1  Y94.837  E0.7407
G1  X158.906  E2.6613
; CP WIPE TOWER FIRST LAYER BRIM END
;-----------------------------------

;WIPE_START
G1 F8640.000
G1 X158.449 Y94.380 E-0.25587
G1 X157.176 Y94.380 E-0.50413
;WIPE_END
G1 E-0.04000 F3600.000
G1 Z0.800 F10800.000
G1 X152.009 Y124.619
G1 Z0.200
G1 E0.80000 F3600.000
M204 S1000
;TYPE:External perimeter
;WIDTH:0.45
;HEIGHT:0.2
G1 F1200.000
G1 X151.547 Y124.503 E0.01612
G1 X151.546 Y124.475 E0.00095
G1 X151.520 Y124.468 E0.00090
G1 X151.350 Y119.616 E0.16434
G1 X151.313 Y118.010 E0.05437
G1 X151.295 Y117.747 E0.00894
G1 X151.244 Y117.439 E0.01057
G1 X151.044 Y116.699 E0.02594
G1 X150.907 Y116.312 E0.01389
G1 X150.560 Y115.540 E0.02863
G1 X150.366 Y115.197 E0.01335
G1 X150.170 Y114.910 E0.01176
G1 X149.978 Y114.686 E0.01000
G1 X149.776 Y114.514 E0.00899
G1 X149.581 Y114.415 E0.00738
G1 X148.741 Y114.206 E0.02931
G1 X147.133 Y113.852 E0.05573
G1 X143.006 Y112.999 E0.14265
G1 X140.428 Y112.502 E0.08887
G1 X139.901 Y112.411 E0.01810
G1 X139.502 Y112.385 E0.01354
G1 X139.110 Y112.429 E0.01332
G1 X138.723 Y112.534 E0.01359
G1 X138.346 Y112.694 E0.01388
G1 X137.985 Y112.901 E0.01406
G1 X137.650 Y113.147 E0.01407
G1 X137.346 Y113.422 E0.01387
G1 X137.081 Y113.716 E0.01342
G1 X136.861 Y114.021 E0.01271
G1 X136.693 Y114.325 E0.01175
G1 X136.583 Y114.616 E0.01054
G1 X136.532 Y114.891 E0.00945
G1 X136.516 Y115.382 E0.01665
G1 X136.561 Y115.900 E0.01759
G1 X136.686 Y116.381 E0.01682
G1 X136.786 Y116.601 E0.00819
G1 X136.894 Y116.772 E0.00683
G1 X137.234 Y117.098 E0.01598
G1 X137.757 Y117.333 E0.01941
G1 X143.497 Y118.894 E0.20135
G1 X143.500 Y116.628 E0.07671
G1 X146.268 Y117.639 E0.09976
G1 X146.269 Y117.664 E0.00085
G1 X146.295 Y117.673 E0.00095
G1 X146.480 Y123.053 E0.18220
G1 X132.729 Y119.179 E0.48354
G1 X132.726 Y119.151 E0.00096
G1 X132.702 Y119.144 E0.00083
G1 X132.290 Y115.857 E0.11213
G1 X132.788 Y115.883 E0.01689
G1 X133.340 Y116.024 E0.01928
G1 X133.136 Y115.259 E0.02678
G1 X133.077 Y114.508 E0.02551
G1 X133.141 Y113.718 E0.02684
G1 X133.330 Y112.912 E0.02802
G1 X133.648 Y112.115 E0.02904
G1 X134.099 Y111.352 E0.02999
G1 X134.687 Y110.650 E0.03101
G1 X135.415 Y110.034 E0.03228
G1 X136.287 Y109.534 E0.03403
G1 X137.303 Y109.174 E0.03648
G1 X138.464 Y108.982 E0.03983
G1 X139.772 Y108.980 E0.04426
G1 X140.828 Y109.142 E0.03618
G1 X143.778 Y109.701 E0.10162
G1 X150.183 Y110.991 E0.22115
G1 X151.121 Y111.278 E0.03323
G1 X151.948 Y111.729 E0.03186
G1 X152.656 Y112.306 E0.03091
G1 X153.279 Y113.011 E0.03185
G1 X153.773 Y113.743 E0.02991
G1 X154.174 Y114.509 E0.02925
G1 X154.492 Y115.277 E0.02815
G1 X154.736 Y116.020 E0.02647
G1 X154.913 Y116.709 E0.02408
G1 X155.031 Y117.316 E0.02093
G1 X155.100 Y117.813 E0.01698
G1 X155.126 Y118.169 E0.01210
G1 X155.278 Y125.442 E0.24622
G1 X152.067 Y124.634 E0.11210
G1 X151.885 Y124.999 F10800.000
;WIPE_START
G1 F8640.000
G1 X151.547 Y124.503 E-0.21228
G1 X151.546 Y124.475 E-0.01112
G1 X151.520 Y124.468 E-0.01054
G1 X151.473 Y123.140 E-0.52606
;WIPE_END
G1 E-0.04000 F3600.000
G1 Z0.800 F10800.000
G1 X143.646 Y130.908
G1 Z0.200
G1 E0.80000 F3600.000
;TYPE:Perimeter
G1 F1200.000
G1 X140.917 Y130.639 E0.09282
G1 X138.293 Y129.843 E0.09282
G1 X135.874 Y128.550 E0.09282
G1 X133.755 Y126.811 E0.09282
G1 X132.015 Y124.691 E0.09282
G1 X130.722 Y122.273 E0.09282
G1 X129.926 Y119.649 E0.09282
G1 X129.658 Y116.920 E0.09282
G1 X129.927 Y114.191 E0.09282
G1 X130.723 Y111.567 E0.09282
G1 X132.015 Y109.149 E0.09282
G1 X133.755 Y107.029 E0.09282
G1 X135.874 Y105.289 E0.09282
G1 X138.293 Y103.997 E0.09282
G1 X139.444 Y103.648 E0.04071
G1 X147.848 Y103.648 E0.28447
G1 X148.999 Y103.997 E0.04071
G1 X151.417 Y105.289 E0.09282
G1 X153.537 Y107.029 E0.09282
G1 X155.276 Y109.149 E0.09282
G1 X156.569 Y111.567 E0.09282
G1 X157.365 Y114.191 E0.09282
G1 X157.634 Y116.920 E0.09282
M73 P2 R31
G1 X157.365 Y119.649 E0.09282
G1 X156.569 Y122.273 E0.09282
G1 X156.047 Y123.250 E0.03749
G1 X155.939 Y118.131 E0.17328
G1 X155.910 Y117.728 E0.01370
G1 X155.835 Y117.182 E0.01864
G1 X155.707 Y116.530 E0.02250
G1 X155.518 Y115.792 E0.02578
G1 X155.256 Y114.995 E0.02841
G1 X154.912 Y114.163 E0.03045
G1 X154.473 Y113.325 E0.03202
G1 X153.924 Y112.512 E0.03323
G1 X153.222 Y111.717 E0.03591
G1 X152.404 Y111.050 E0.03572
G1 X151.439 Y110.524 E0.03720
G1 X150.383 Y110.201 E0.03738
G1 X143.934 Y108.902 E0.22266
G1 X140.966 Y108.339 E0.10226
G1 X139.833 Y108.166 E0.03878
G1 X138.397 Y108.167 E0.04863
G1 X137.099 Y108.383 E0.04452
G1 X135.946 Y108.791 E0.04141
G1 X134.946 Y109.365 E0.03902
G1 X134.108 Y110.073 E0.03715
G1 X133.432 Y110.881 E0.03564
G1 X132.915 Y111.755 E0.03437
G1 X132.552 Y112.667 E0.03323
G1 X132.335 Y113.591 E0.03214
G1 X132.261 Y114.507 E0.03109
G1 X132.303 Y115.043 E0.01820
G1 X131.361 Y114.994 E0.03191
G1 X131.962 Y119.782 E0.16331
G1 X131.985 Y119.788 E0.00083
G1 X131.989 Y119.816 E0.00096
G1 X147.331 Y124.139 E0.53954
G1 X147.090 Y117.097 E0.23850
G1 X147.064 Y117.087 E0.00095
G1 X147.063 Y117.062 E0.00085
G1 X142.687 Y115.465 E0.15770
G1 X142.684 Y117.830 E0.08005
G1 X138.032 Y116.564 E0.16318
G1 X137.696 Y116.413 E0.01248
G1 X137.505 Y116.214 E0.00934
G1 X137.448 Y116.090 E0.00463
G1 X137.368 Y115.781 E0.01078
G1 X137.332 Y115.360 E0.01433
G1 X137.344 Y114.979 E0.01291
G1 X137.370 Y114.837 E0.00488
G1 X137.434 Y114.668 E0.00612
G1 X137.550 Y114.458 E0.00813
G1 X137.716 Y114.228 E0.00957
G1 X137.923 Y113.997 E0.01052
G1 X138.165 Y113.779 E0.01102
G1 X138.430 Y113.585 E0.01113
G1 X138.709 Y113.424 E0.01088
G1 X138.990 Y113.305 E0.01033
G1 X139.263 Y113.231 E0.00958
G1 X139.520 Y113.203 E0.00876
G1 X139.805 Y113.221 E0.00967
G1 X142.846 Y113.797 E0.10477
G1 X146.963 Y114.648 E0.14229
G1 X148.555 Y114.999 E0.05518
G1 X149.295 Y115.183 E0.02583
G1 X149.402 Y115.265 E0.00453
G1 X149.523 Y115.406 E0.00629
G1 X149.833 Y115.908 E0.02000
G1 X150.150 Y116.616 E0.02624
G1 X150.267 Y116.942 E0.01171
G1 X150.447 Y117.612 E0.02349
G1 X150.486 Y117.841 E0.00788
G1 X150.728 Y125.108 E0.24612
G1 X150.752 Y125.115 E0.00086
G1 X150.753 Y125.143 E0.00095
G1 X154.195 Y126.009 E0.12013
G1 X153.537 Y126.811 E0.03513
G1 X151.417 Y128.550 E0.09282
M73 P3 R31
G1 X148.999 Y129.843 E0.09282
G1 X146.375 Y130.639 E0.09282
G1 X143.705 Y130.902 E0.09079
G1 X143.646 Y131.317 F10800.000
G1 F1200.000
G1 X140.837 Y131.040 E0.09553
G1 X138.136 Y130.221 E0.09553
G1 X135.647 Y128.891 E0.09553
G1 X133.465 Y127.100 E0.09553
G1 X131.675 Y124.918 E0.09553
G1 X130.345 Y122.429 E0.09553
G1 X129.525 Y119.729 E0.09553
G1 X129.249 Y116.920 E0.09553
G1 X129.525 Y114.111 E0.09553
G1 X130.345 Y111.410 E0.09553
G1 X131.675 Y108.921 E0.09553
G1 X133.465 Y106.740 E0.09553
G1 X135.647 Y104.949 E0.09553
G1 X138.136 Y103.619 E0.09553
G1 X139.383 Y103.240 E0.04411
G1 X147.908 Y103.240 E0.28856
G1 X149.155 Y103.619 E0.04411
G1 X151.644 Y104.949 E0.09553
G1 X153.826 Y106.740 E0.09553
G1 X155.616 Y108.921 E0.09553
G1 X156.947 Y111.410 E0.09553
G1 X157.766 Y114.111 E0.09553
G1 X158.043 Y116.920 E0.09553
G1 X157.766 Y119.729 E0.09553
G1 X156.947 Y122.429 E0.09553
G1 X155.672 Y124.813 E0.09150
G1 X155.533 Y118.150 E0.22559
G1 X155.505 Y117.770 E0.01290
G1 X155.433 Y117.249 E0.01781
G1 X155.310 Y116.620 E0.02171
G1 X155.127 Y115.906 E0.02493
G1 X154.874 Y115.136 E0.02744
G1 X154.543 Y114.336 E0.02930
G1 X154.123 Y113.534 E0.03064
G1 X153.601 Y112.761 E0.03157
G1 X152.939 Y112.011 E0.03388
G1 X152.176 Y111.389 E0.03331
G1 X151.280 Y110.901 E0.03453
G1 X150.283 Y110.596 E0.03531
G1 X143.856 Y109.302 E0.22191
G1 X140.897 Y108.741 E0.10194
G1 X139.802 Y108.573 E0.03748
G1 X138.430 Y108.575 E0.04645
G1 X137.201 Y108.778 E0.04218
G1 X136.116 Y109.162 E0.03895
G1 X135.181 Y109.700 E0.03652
G1 X134.397 Y110.361 E0.03471
G1 X133.765 Y111.116 E0.03333
G1 X133.282 Y111.935 E0.03218
G1 X132.941 Y112.789 E0.03114
G1 X132.738 Y113.654 E0.03008
G1 X132.669 Y114.507 E0.02897
G1 X132.733 Y115.328 E0.02787
G1 X132.772 Y115.475 E0.00513
G1 X131.826 Y115.426 E0.03209
G1 X132.332 Y119.463 E0.13772
G1 X132.355 Y119.470 E0.00083
G1 X132.359 Y119.498 E0.00096
G1 X146.905 Y123.596 E0.51154
G1 X146.693 Y117.385 E0.21035
G1 X146.667 Y117.375 E0.00094
G1 X146.666 Y117.350 E0.00085
G1 X143.093 Y116.046 E0.12873
G1 X143.091 Y118.362 E0.07838
G1 X137.895 Y116.949 E0.18227
G1 X137.465 Y116.756 E0.01595
G1 X137.211 Y116.512 E0.01191
G1 X137.067 Y116.235 E0.01057
G1 X136.965 Y115.841 E0.01380
G1 X136.924 Y115.371 E0.01596
G1 X136.938 Y114.935 E0.01478
G1 X136.977 Y114.727 E0.00716
G1 X137.064 Y114.496 E0.00833
G1 X137.206 Y114.239 E0.00994
G1 X137.398 Y113.972 E0.01114
G1 X137.635 Y113.709 E0.01197
G1 X137.907 Y113.463 E0.01244
G1 X138.208 Y113.243 E0.01260
G1 X138.527 Y113.059 E0.01247
G1 X138.856 Y112.920 E0.01210
G1 X139.187 Y112.830 E0.01158
G1 X139.511 Y112.794 E0.01104
G1 X139.853 Y112.816 E0.01160
G1 X142.926 Y113.398 E0.10587
G1 X147.048 Y114.250 E0.14247
G1 X148.648 Y114.603 E0.05546
G1 X149.438 Y114.799 E0.02757
G1 X149.549 Y114.855 E0.00419
G1 X149.690 Y114.975 E0.00627
G1 X149.847 Y115.158 E0.00815
G1 X150.020 Y115.413 E0.01043
G1 X150.197 Y115.724 E0.01213
G1 X150.529 Y116.464 E0.02744
G1 X150.655 Y116.820 E0.01280
G1 X150.846 Y117.525 E0.02472
G1 X150.890 Y117.794 E0.00922
G1 X151.124 Y124.788 E0.23688
G1 X151.149 Y124.795 E0.00088
G1 X151.150 Y124.823 E0.00095
G1 X154.917 Y125.771 E0.13149
G1 X153.826 Y127.100 E0.05822
G1 X151.644 Y128.891 E0.09553
G1 X149.155 Y130.221 E0.09553
G1 X146.454 Y131.040 E0.09553
G1 X143.705 Y131.311 E0.09350
G1 X143.646 Y131.726 F10800.000
;TYPE:External perimeter
G1 F1200.000
G1 X140.757 Y131.441 E0.09825
G1 X137.980 Y130.599 E0.09825
G1 X135.420 Y129.231 E0.09825
G1 X133.176 Y127.389 E0.09825
G1 X131.335 Y125.146 E0.09825
G1 X129.967 Y122.586 E0.09825
G1 X129.124 Y119.808 E0.09825
G1 X128.840 Y116.920 E0.09825
G1 X129.124 Y114.031 E0.09825
G1 X129.967 Y111.254 E0.09825
G1 X131.335 Y108.694 E0.09825
G1 X133.176 Y106.450 E0.09825
G1 X135.420 Y104.609 E0.09825
G1 X137.980 Y103.241 E0.09825
G1 X139.323 Y102.833 E0.04751
G1 X147.969 Y102.833 E0.29265
G1 X149.312 Y103.241 E0.04751
G1 X151.872 Y104.609 E0.09825
G1 X154.115 Y106.450 E0.09825
G1 X155.956 Y108.694 E0.09825
G1 X157.325 Y111.254 E0.09825
G1 X158.167 Y114.031 E0.09825
G1 X158.452 Y116.920 E0.09825
G1 X158.167 Y119.808 E0.09825
G1 X157.325 Y122.586 E0.09825
G1 X155.956 Y125.146 E0.09825
G1 X154.115 Y127.389 E0.09825
G1 X151.872 Y129.231 E0.09825
G1 X149.312 Y130.599 E0.09825
G1 X146.534 Y131.441 E0.09825
G1 X143.705 Y131.720 E0.09622
G1 X143.446 Y131.380 F10800.000
;WIPE_START
G1 F8640.000
G1 X141.794 Y131.539 E-0.76000
;WIPE_END
G1 E-0.04000 F3600.000
G1 Z0.800 F10800.000
G1 X141.407 Y130.565
G1 Z0.200
G1 E0.80000 F3600.000
;TYPE:Solid infill
;WIDTH:0.451323
G1 F1200.000
G1 X130.205 Y119.362 E0.53799
G1 X130.227 Y119.589 E0.00773
G1 X130.390 Y120.125 E0.01902
G1 X140.441 Y130.176 E0.48268
G1 X139.612 Y129.924 E0.02942
G1 X130.641 Y120.954 E0.43079
G1 X130.893 Y121.783 E0.02942
G1 X138.783 Y129.673 E0.37890
G1 X138.410 Y129.560 E0.01321
G1 X137.727 Y129.194 E0.02632
G1 X131.371 Y122.839 E0.30522
G1 X132.034 Y124.080 E0.04778
G1 X136.932 Y128.977 E0.23521
;WIPE_START
G1 F8640.000
G1 X135.574 Y127.620 E-0.76000
;WIPE_END
G1 E-0.04000 F3600.000
G1 Z0.800 F10800.000
G1 X137.480 Y115.664
M73 P4 R31
G1 Z0.200
G1 E0.80000 F3600.000
G1 F1200.000
G1 X138.057 Y116.241 E0.02769
G1 X138.869 Y116.475 E0.02872
G1 X137.641 Y115.247 E0.05901
G1 X137.665 Y114.920 E0.01113
G1 X137.732 Y114.760 E0.00587
G1 X139.663 Y116.691 E0.09273
G1 X140.456 Y116.907 E0.02792
G1 X137.961 Y114.412 E0.11983
G1 X138.245 Y114.118 E0.01387
G1 X141.250 Y117.123 E0.14431
G1 X142.043 Y117.339 E0.02792
G1 X138.567 Y113.863 E0.16693
G1 X138.940 Y113.658 E0.01444
G1 X142.380 Y117.098 E0.16521
G1 X142.380 Y116.521 E0.01959
G1 X139.384 Y113.525 E0.14389
G1 X139.527 Y113.509 E0.00488
G1 X139.769 Y113.525 E0.00824
G1 X140.002 Y113.565 E0.00801
G1 X142.381 Y115.944 E0.11427
G1 X142.382 Y115.367 E0.01959
G1 X140.711 Y113.697 E0.08022
G1 X141.427 Y113.835 E0.02474
G1 X142.758 Y115.165 E0.06391
G1 X143.667 Y115.497 E0.03288
G1 X142.142 Y113.972 E0.07324
G1 X142.859 Y114.112 E0.02479
G1 X144.577 Y115.829 E0.08250
G1 X145.486 Y116.161 E0.03288
G1 X143.587 Y114.262 E0.09122
G1 X144.315 Y114.413 E0.02525
G1 X146.703 Y116.801 E0.11468
;WIPE_START
G1 F8640.000
G1 X145.345 Y115.443 E-0.76000
;WIPE_END
G1 E-0.04000 F3600.000
G1 Z0.800 F10800.000
G1 X150.042 Y116.674
G1 Z0.200
G1 E0.80000 F3600.000
G1 F1200.000
G1 X148.723 Y115.355 E0.06331
G1 X147.974 Y115.184 E0.02611
G1 X150.031 Y117.241 E0.09880
G1 X150.149 Y117.677 E0.01533
G1 X150.184 Y117.972 E0.01009
G1 X147.233 Y115.020 E0.14173
G1 X146.499 Y114.864 E0.02548
G1 X150.204 Y118.569 E0.17793
G1 X150.224 Y119.167 E0.02030
G1 X145.771 Y114.714 E0.21385
G1 X145.043 Y114.563 E0.02525
G1 X150.244 Y119.764 E0.24978
G1 X150.264 Y120.362 E0.02030
G1 X147.410 Y117.508 E0.13707
G1 X147.430 Y118.106 E0.02032
G1 X150.284 Y120.959 E0.13704
G1 X150.304 Y121.557 E0.02030
G1 X147.451 Y118.704 E0.13702
G1 X147.471 Y119.302 E0.02032
G1 X150.324 Y122.154 E0.13699
G1 X150.344 Y122.752 E0.02030
G1 X147.492 Y119.900 E0.13696
G1 X147.512 Y120.498 E0.02032
G1 X150.364 Y123.349 E0.13694
G1 X150.383 Y123.946 E0.02030
G1 X147.533 Y121.096 E0.13691
G1 X147.553 Y121.694 E0.02032
G1 X150.593 Y124.734 E0.14599
;WIPE_START
G1 F8640.000
G1 X149.235 Y123.376 E-0.76000
