; generated by PrusaSlicer 2.2.0+win64 on 2020-08-18 at 21:10:59 UTC

; 

; external perimeters extrusion width = 0.45mm
; perimeters extrusion width = 0.45mm
; infill extrusion width = 0.45mm
; solid infill extrusion width = 0.45mm
; top infill extrusion width = 0.40mm
; first layer extrusion width = 0.42mm

; external perimeters extrusion width = 0.45mm
; perimeters extrusion width = 0.45mm
; infill extrusion width = 0.45mm
; solid infill extrusion width = 0.45mm
; top infill extrusion width = 0.40mm
; first layer extrusion width = 0.42mm

M73 P0 R35
M201 X9000 Y9000 Z500 E10000 ; sets maximum accelerations, mm/sec^2
M203 X500 Y500 Z12 E120 ; sets maximum feedrates, mm/sec
M204 P2000 R1500 T2000 ; sets acceleration (P, T) and retract acceleration (R), mm/sec^2
M205 X10.00 Y10.00 Z0.20 E4.50 ; sets the jerk limits, mm/sec
M205 S0 T0 ; sets the minimum extruding and travel feed rate, mm/sec
M107
M862.3 P "MK2.5SMMU2S" ; printer model check
M862.1 P0.4 ; nozzle diameter check
M115 U3.9.0 ; tell printer latest fw version
G90 ; use absolute coordinates
M83 ; extruder relative mode
M104 S215 ; set extruder temp
M140 S60 ; set bed temp
M190 S60 ; wait for bed temp
M109 S215 ; wait for extruder temp
G28 W ; home all without mesh bed level
G80 ; mesh bed leveling

; Send the filament type to the MMU2.0 unit.
; E stands for extruder number, F stands for filament type (0: default; 1:flex; 2: PVA)
M403 E0 F0
M403 E1 F0
M403 E2 F0
M403 E3 F0
M403 E4 F0


;go outside print area
G1 Y-3.0 F1000.0
G1 Z0.4 F1000.0
; select extruder
T0
; initial load
G1 X55.0 E29.0 F1073.0
M73 P0 R34
G1 X5.0 E29.0 F1800.0
G1 X55.0 E8.0 F2000.0
G1 Z0.3 F1000.0
G92 E0.0
G1 X240.0 E25.0 F2200.0
G1 Y-2.0 F1000.0
G1 X55.0 E25 F1400.0
G1 Z0.20 F1000.0
G1 X5.0 E4.0 F1000.0
G92 E0.0

G92 E0.0
G21 ; set units to millimeters
G90 ; use absolute coordinates
M83 ; use relative distances for extrusion
T0
M900 K0.06 ; Filament gcode LA 1.5
M900 K30 ; Filament gcode LA 1.0
G1 Z0.200 F10800.000
;BEFORE_LAYER_CHANGE
G92 E0.0
;0.2


G1 E-0.80000 F2100.00000
G1 Z0.800 F10800.000
G1 Z0.200
;AFTER_LAYER_CHANGE
;0.2
G1 E-2.20000 F2100.00000
G1 Z0.800 F10800.000
G1 X155.933 Y68.972
G1 Z0.200
G1 E3.00000 F2100.00000
;-------------------------------------
; CP WIPE TOWER FIRST LAYER BRIM START
G1  X155.933 Y83.032  E0.8016 F2400
G1  X153.390 Y83.489   F7000
G1  Y68.515  E0.6260 F2100
G1  X92.476  E2.5466
G1  Y83.489  E0.6260
G1  X153.390  E2.5466
G1  X153.847 Y83.946   F7000
G1  Y68.058  E0.6642 F2100
G1  X92.019  E2.5849
G1  Y83.946  E0.6642
G1  X153.847  E2.5849
G1  X154.304 Y84.403   F7000
G1  Y67.601  E0.7025 F2100
G1  X91.562  E2.6231
G1  Y84.403  E0.7025
G1  X154.304  E2.6231
G1  X154.761 Y84.860   F7000
G1  Y67.144  E0.7407 F2100
G1  X91.105  E2.6613
G1  Y84.860  E0.7407
G1  X154.761  E2.6613
G1  X152.933 Y83.032   F7000
G1  X92.933 
G1  X152.933 
; CP WIPE TOWER FIRST LAYER BRIM END
;-----------------------------------

G1 F8640.000
G1 X149.641 Y83.032 E-0.76000
G1 E-0.04000 F2100.00000
G1 Z0.800 F10800.000
G1 X155.774 Y64.671
G1 Z0.200
G1 E0.80000 F2100.00000
M204 S1000
G1 F1200.000
G1 X156.468 Y65.054 E0.02484
G1 X190.230 Y92.533 E1.36491
G1 X192.635 Y95.433 E0.11812
G1 X194.160 Y98.298 E0.10177
G1 X194.757 Y100.303 E0.06558
G1 X194.733 Y109.837 E0.29893
G1 X194.147 Y111.731 E0.06217
G1 X192.512 Y114.752 E0.10771
G1 X190.393 Y117.320 E0.10439
G1 X187.660 Y119.542 E0.11044
G1 X184.760 Y121.082 E0.10296
G1 X181.712 Y122.019 E0.09997
G1 X178.151 Y122.409 E0.11231
G1 X72.490 Y122.394 E3.31292
G1 X69.242 Y122.065 E0.10237
G1 X66.186 Y121.150 E0.10003
G1 X62.966 Y119.467 E0.11391
G1 X60.178 Y117.137 E0.11391
G1 X58.164 Y114.664 E0.10003
G1 X56.611 Y111.777 E0.10277
G1 X55.565 Y108.384 E0.11133
G1 X55.244 Y104.773 E0.11368
G1 X55.567 Y101.607 E0.09979
G1 X56.484 Y98.543 E0.10026
G1 X58.201 Y95.281 E0.11558
G1 X60.361 Y92.666 E0.10634
G1 X89.243 Y65.187 E1.24996
G1 X89.846 Y64.772 E0.02296
G1 X90.345 Y64.598 E0.01657
G1 X90.866 Y64.538 E0.01645
G1 X154.993 Y64.538 E2.01067
G1 X155.715 Y64.661 E0.02296
G1 F8640.000
G1 X156.468 Y65.054 E-0.19610
G1 X158.362 Y66.595 E-0.56390
G1 E-0.04000 F2100.00000
G1 Z0.800 F10800.000
G1 X71.113 Y116.329
G1 Z0.200
G1 E0.80000 F2100.00000
G1 F1200.000
G1 X71.138 Y115.850 E0.01504
G1 X71.280 Y115.276 E0.01854
G1 X70.497 Y115.486 E0.02541
G1 X69.748 Y115.544 E0.02355
G1 X68.960 Y115.480 E0.02479
G1 X68.156 Y115.292 E0.02588
G1 X67.361 Y114.975 E0.02683
G1 X66.601 Y114.525 E0.02771
G1 X65.900 Y113.939 E0.02864
G1 X65.287 Y113.212 E0.02982
G1 X64.787 Y112.343 E0.03143
G1 X64.429 Y111.330 E0.03371
G1 X64.236 Y110.171 E0.03682
G1 X64.235 Y108.866 E0.04093
G1 X64.397 Y107.811 E0.03346
G1 X64.741 Y105.963 E0.05896
G1 X66.245 Y98.458 E0.23999
M73 P3 R33
G1 X66.532 Y97.521 E0.03072
G1 X66.981 Y96.697 E0.02942
G1 X67.556 Y95.992 E0.02854
G1 X68.225 Y95.397 E0.02806
G1 X68.956 Y94.904 E0.02766
G1 X69.720 Y94.503 E0.02705
G1 X70.488 Y94.185 E0.02604
G1 X71.230 Y93.942 E0.02448
G1 X71.918 Y93.766 E0.02228
G1 X72.524 Y93.647 E0.01936
G1 X73.020 Y93.578 E0.01570
G1 X73.375 Y93.553 E0.01118
G1 X80.628 Y93.401 E0.22744
G1 X79.696 Y97.102 E0.11967
G1 X74.856 Y97.271 E0.15187
G1 X73.249 Y97.308 E0.05037
G1 X72.985 Y97.326 E0.00832
G1 X72.675 Y97.378 E0.00984
G1 X71.934 Y97.578 E0.02407
G1 X71.546 Y97.716 E0.01290
G1 X70.773 Y98.063 E0.02656
G1 X70.429 Y98.258 E0.01241
G1 X70.126 Y98.464 E0.01151
G1 X69.880 Y98.675 E0.01014
G1 X69.706 Y98.880 E0.00842
G1 X69.606 Y99.079 E0.00701
G1 X69.043 Y101.528 E0.07879
G1 X68.189 Y105.655 E0.13213
G1 X67.693 Y108.233 E0.08232
G1 X67.602 Y108.761 E0.01679
G1 X67.576 Y109.162 E0.01261
G1 X67.619 Y109.556 E0.01242
G1 X67.725 Y109.946 E0.01266
G1 X67.886 Y110.325 E0.01291
G1 X68.094 Y110.686 E0.01308
G1 X68.340 Y111.023 E0.01309
G1 X68.616 Y111.328 E0.01290
G1 X68.912 Y111.594 E0.01248
G1 X69.218 Y111.815 E0.01183
G1 X69.524 Y111.984 E0.01094
G1 X69.817 Y112.095 E0.00984
G1 X70.097 Y112.147 E0.00892
G1 X70.331 Y112.160 E0.00736
G1 X70.846 Y112.149 E0.01614
G1 X71.357 Y112.065 E0.01626
G1 X71.591 Y111.991 E0.00769
G1 X71.813 Y111.891 E0.00764
G1 X72.008 Y111.768 E0.00723
G1 X72.351 Y111.411 E0.01551
G1 X72.587 Y110.884 E0.01810
G1 X74.154 Y105.124 E0.18716
G1 X71.889 Y105.122 E0.07100
G1 X72.889 Y102.383 E0.09142
G1 X78.238 Y102.200 E0.16781
G1 X74.373 Y115.921 E0.44695
G1 X71.173 Y116.322 E0.10112
G1 X70.735 Y116.460 F10800.000
G1 F8640.000
G1 X71.138 Y115.850 E-0.10918
G1 X71.280 Y115.276 E-0.13652
G1 X70.497 Y115.486 E-0.18711
G1 X69.748 Y115.544 E-0.17341
G1 X69.084 Y115.490 E-0.15378
G1 E-0.04000 F2100.00000
G1 Z0.800 F10800.000
G1 X72.631 Y119.431
G1 Z0.200
G1 E0.80000 F2100.00000
G1 F1200.000
G1 X69.816 Y119.154 E0.08870
G1 X67.109 Y118.333 E0.08870
G1 X64.614 Y116.999 E0.08870
G1 X62.427 Y115.205 E0.08870
G1 X60.632 Y113.018 E0.08870
G1 X59.298 Y110.523 E0.08870
G1 X58.477 Y107.815 E0.08870
G1 X58.200 Y105.000 E0.08870
G1 X58.477 Y102.185 E0.08870
G1 X59.298 Y99.477 E0.08870
G1 X60.632 Y96.982 E0.08870
G1 X62.427 Y94.795 E0.08870
G1 X64.614 Y93.001 E0.08870
G1 X67.109 Y91.667 E0.08870
G1 X69.816 Y90.846 E0.08870
G1 X72.631 Y90.569 E0.08870
G1 X75.447 Y90.846 E0.08870
G1 X78.154 Y91.667 E0.08870
G1 X80.676 Y93.022 E0.08976
G1 X73.358 Y93.176 E0.22950
G1 X72.980 Y93.203 E0.01187
G1 X72.462 Y93.275 E0.01641
G1 X71.835 Y93.398 E0.02003
G1 X71.124 Y93.580 E0.02300
G1 X70.357 Y93.832 E0.02532
G1 X69.560 Y94.161 E0.02703
G1 X68.763 Y94.580 E0.02824
G1 X67.993 Y95.098 E0.02910
G1 X67.283 Y95.730 E0.02980
G1 X66.667 Y96.486 E0.03058
G1 X66.183 Y97.374 E0.03171
G1 X65.879 Y98.365 E0.03250
G1 X64.371 Y105.891 E0.24066
G1 X64.025 Y107.748 E0.05923
G1 X63.858 Y108.837 E0.03455
G1 X63.859 Y110.203 E0.04280
G1 X64.062 Y111.424 E0.03883
G1 X64.443 Y112.501 E0.03582
G1 X64.977 Y113.430 E0.03357
G1 X65.633 Y114.207 E0.03191
G1 X66.382 Y114.834 E0.03063
G1 X67.195 Y115.314 E0.02959
G1 X68.043 Y115.653 E0.02863
G1 X68.901 Y115.854 E0.02765
G1 X69.747 Y115.922 E0.02661
G1 X70.561 Y115.859 E0.02557
G1 X70.763 Y115.805 E0.00656
G1 X70.714 Y116.760 E0.02998
G1 X74.668 Y116.264 E0.12495
G1 X78.741 Y101.805 E0.47098
G1 X72.622 Y102.015 E0.19196
G1 X71.351 Y105.498 E0.11628
G1 X73.661 Y105.501 E0.07244
G1 X72.231 Y110.757 E0.17079
G1 X72.034 Y111.197 E0.01513
G1 X71.768 Y111.474 E0.01202
G1 X71.457 Y111.638 E0.01106
G1 X71.270 Y111.697 E0.00614
G1 X70.811 Y111.773 E0.01458
G1 X70.337 Y111.783 E0.01485
G1 X70.142 Y111.772 E0.00613
G1 X69.920 Y111.731 E0.00710
G1 X69.683 Y111.641 E0.00794
G1 X69.420 Y111.496 E0.00939
G1 X69.149 Y111.300 E0.01048
G1 X68.883 Y111.061 E0.01124
G1 X68.633 Y110.785 E0.01167
G1 X68.410 Y110.480 E0.01182
G1 X68.224 Y110.157 E0.01171
G1 X68.082 Y109.822 E0.01139
G1 X67.991 Y109.485 E0.01094
G1 X67.954 Y109.154 E0.01046
G1 X67.977 Y108.805 E0.01095
G1 X68.064 Y108.301 E0.01605
G1 X68.559 Y105.729 E0.08213
G1 X69.411 Y101.608 E0.13195
G1 X69.892 Y99.465 E0.06886
G1 X69.960 Y99.215 E0.00811
G1 X70.023 Y99.090 E0.00439
G1 X70.148 Y98.942 E0.00609
G1 X70.355 Y98.764 E0.00855
G1 X70.629 Y98.578 E0.01037
G1 X70.944 Y98.400 E0.01136
G1 X71.687 Y98.066 E0.02554
G1 X72.047 Y97.938 E0.01197
G1 X72.755 Y97.747 E0.02302
G1 X73.029 Y97.701 E0.00868
G1 X79.993 Y97.469 E0.21848
G1 X81.037 Y93.319 E0.13417
G1 X82.836 Y94.795 E0.07297
G1 X84.631 Y96.982 E0.08870
G1 X85.964 Y99.477 E0.08870
G1 X86.346 Y100.734 E0.04117
G1 X86.346 Y109.266 E0.26752
G1 X85.964 Y110.523 E0.04117
G1 X84.631 Y113.018 E0.08870
G1 X82.836 Y115.205 E0.08870
G1 X80.649 Y116.999 E0.08870
G1 X78.154 Y118.333 E0.08870
G1 X75.447 Y119.154 E0.08870
G1 X72.691 Y119.426 E0.08682
G1 X72.631 Y119.810 F10800.000
G1 F1200.000
G1 X69.742 Y119.526 E0.09103
G1 X66.964 Y118.683 E0.09103
G1 X64.403 Y117.314 E0.09103
G1 X62.159 Y115.473 E0.09103
G1 X60.317 Y113.228 E0.09103
G1 X58.948 Y110.668 E0.09103
G1 X58.106 Y107.889 E0.09103
G1 X57.821 Y105.000 E0.09103
G1 X58.106 Y102.111 E0.09103
G1 X58.948 Y99.332 E0.09103
G1 X60.317 Y96.772 E0.09103
G1 X62.159 Y94.527 E0.09103
G1 X64.403 Y92.686 E0.09103
G1 X66.964 Y91.317 E0.09103
G1 X69.742 Y90.474 E0.09103
G1 X72.631 Y90.190 E0.09103
G1 X75.521 Y90.474 E0.09103
G1 X78.299 Y91.317 E0.09103
G1 X80.860 Y92.686 E0.09103
G1 X83.104 Y94.527 E0.09103
G1 X84.946 Y96.772 E0.09103
G1 X86.314 Y99.332 E0.09103
G1 X86.723 Y100.678 E0.04409
G1 X86.723 Y109.322 E0.27102
G1 X86.314 Y110.668 E0.04409
G1 X84.946 Y113.228 E0.09103
G1 X83.104 Y115.473 E0.09103
G1 X80.860 Y117.314 E0.09103
G1 X78.299 Y118.683 E0.09103
G1 X75.521 Y119.526 E0.09103
G1 X72.691 Y119.804 E0.08915
G1 X72.431 Y119.464 F10800.000
G1 X73.280 Y119.254
G1 F1200.000
G1 X71.031 Y117.005 E0.09978
G1 X71.505 Y116.945 E0.01499
G1 X73.610 Y119.051 E0.09341
G1 X74.096 Y119.003 E0.01531
G1 X71.979 Y116.886 E0.09393
G1 X72.453 Y116.826 E0.01499
G1 X74.582 Y118.955 E0.09444
G1 X75.067 Y118.907 E0.01531
G1 X72.927 Y116.767 E0.09496
G1 X73.401 Y116.708 E0.01499
G1 X75.528 Y118.834 E0.09435
G1 X75.937 Y118.710 E0.01342
G1 X73.875 Y116.648 E0.09148
G1 X74.349 Y116.589 E0.01499
G1 X76.346 Y118.586 E0.08861
G1 X76.756 Y118.462 E0.01342
G1 X74.823 Y116.529 E0.08573
G1 X74.889 Y116.521 E0.00208
G1 X74.990 Y116.162 E0.01168
G1 X77.165 Y118.337 E0.09650
G1 X77.574 Y118.213 E0.01342
G1 X75.107 Y115.746 E0.10946
G1 X75.225 Y115.330 E0.01357
G1 X77.984 Y118.089 E0.12241
G1 X78.341 Y117.912 E0.01249
G1 X75.342 Y114.914 E0.13305
G1 X75.459 Y114.497 E0.01357
G1 X78.689 Y117.727 E0.14327
G1 X79.036 Y117.541 E0.01237
G1 X75.576 Y114.081 E0.15349
G1 X75.694 Y113.665 E0.01357
G1 X79.384 Y117.355 E0.16372
G1 X79.732 Y117.169 E0.01237
G1 X75.811 Y113.248 E0.17394
G1 X75.928 Y112.832 E0.01357
G1 X80.079 Y116.983 E0.18416
G1 X80.427 Y116.797 E0.01237
G1 X76.046 Y112.416 E0.19439
G1 X76.163 Y112.000 E0.01357
G1 X80.730 Y116.567 E0.20263
G1 X81.023 Y116.326 E0.01189
G1 X76.280 Y111.583 E0.21043
G1 X76.397 Y111.167 E0.01357
G1 X81.316 Y116.086 E0.21823
G1 X81.609 Y115.845 E0.01189
G1 X76.515 Y110.751 E0.22603
G1 X76.632 Y110.334 E0.01357
G1 X81.902 Y115.605 E0.23383
G1 X82.195 Y115.364 E0.01189
G1 X76.749 Y109.918 E0.24163
G1 X76.866 Y109.502 E0.01357
G1 X82.489 Y115.124 E0.24942
G1 X82.635 Y115.004 E0.00595
G1 X82.755 Y114.857 E0.00595
G1 X76.984 Y109.086 E0.25606
G1 X77.101 Y108.669 E0.01357
G1 X82.996 Y114.564 E0.26152
G1 X83.236 Y114.271 E0.01189
G1 X77.218 Y108.253 E0.26699
G1 X77.336 Y107.837 E0.01357
G1 X83.477 Y113.978 E0.27246
G1 X83.717 Y113.685 E0.01189
G1 X77.453 Y107.420 E0.27792
G1 X77.570 Y107.004 E0.01357
G1 X83.958 Y113.392 E0.28339
G1 X84.198 Y113.099 E0.01189
G1 X77.687 Y106.588 E0.28886
G1 X77.805 Y106.172 E0.01357
G1 X84.429 Y112.796 E0.29388
G1 X84.615 Y112.448 E0.01237
G1 X77.922 Y105.755 E0.29692
G1 X78.039 Y105.339 E0.01357
G1 X84.800 Y112.100 E0.29996
G1 X84.986 Y111.753 E0.01237
G1 X78.157 Y104.923 E0.30301
G1 X78.274 Y104.507 E0.01357
G1 X85.172 Y111.405 E0.30605
G1 X85.358 Y111.057 E0.01237
G1 X78.391 Y104.090 E0.30909
G1 X78.508 Y103.674 E0.01357
G1 X85.544 Y110.709 E0.31213
G1 X85.702 Y110.414 E0.01051
G1 X85.720 Y110.352 E0.00201
G1 X78.626 Y103.258 E0.31476
G1 X78.743 Y102.841 E0.01357
G1 X85.845 Y109.943 E0.31507
G1 X85.969 Y109.534 E0.01342
G1 X78.860 Y102.425 E0.31538
G1 X78.977 Y102.009 E0.01357
G1 X86.229 Y109.260 E0.32172
G1 F8640.000
G1 X83.902 Y106.933 E-0.76000
G1 E-0.04000 F2100.00000
G1 Z0.800 F10800.000
G1 X68.271 Y109.976
G1 Z0.200
G1 E0.80000 F2100.00000
G1 F1200.000
G1 X69.495 Y111.201 E0.05435
G1 X69.802 Y111.383 E0.01118
G1 X69.996 Y111.457 E0.00653
G1 X70.327 Y111.499 E0.01046
G1 X68.273 Y109.445 E0.09113
G1 X68.238 Y109.147 E0.00941
G1 X68.254 Y108.893 E0.00799
G1 X70.842 Y111.481 E0.11481
G1 X71.289 Y111.395 E0.01429
G1 X68.328 Y108.433 E0.13139
G1 X68.413 Y107.984 E0.01433
G1 X71.634 Y111.205 E0.14291
G1 X71.796 Y111.037 E0.00734
G1 X71.858 Y110.897 E0.00481
G1 X68.499 Y107.537 E0.14905
G1 X68.585 Y107.089 E0.01429
G1 X72.005 Y110.510 E0.15174
G1 X72.119 Y110.090 E0.01364
G1 X68.671 Y106.642 E0.15298
G1 X68.757 Y106.195 E0.01429
G1 X72.233 Y109.671 E0.15421
G1 X72.347 Y109.251 E0.01364
G1 X68.844 Y105.748 E0.15543
G1 X68.935 Y105.306 E0.01416
G1 X72.462 Y108.832 E0.15644
G1 X72.576 Y108.412 E0.01364
G1 X69.027 Y104.864 E0.15745
G1 X69.118 Y104.421 E0.01416
G1 X72.828 Y108.131 E0.16459
G1 F8640.000
G1 X70.501 Y105.804 E-0.76000
G1 E-0.04000 F2100.00000
G1 Z0.800 F10800.000
G1 X73.398 Y106.034
G1 Z0.200
G1 E0.80000 F2100.00000
G1 F1200.000
G1 X73.148 Y105.783 E0.01113
G1 X72.613 Y105.782 E0.01676
G1 X73.146 Y106.315 E0.02363
G1 X73.032 Y106.735 E0.01364
G1 X72.079 Y105.782 E0.04227
G1 X71.545 Y105.781 E0.01676
G1 X72.918 Y107.154 E0.06090
G1 X72.804 Y107.573 E0.01364
G1 X69.210 Y103.979 E0.15946
G1 X69.301 Y103.537 E0.01416
G1 X71.106 Y105.342 E0.08009
G1 X71.249 Y104.952 E0.01305
G1 X69.392 Y103.095 E0.08237
G1 X69.484 Y102.653 E0.01416
G1 X71.392 Y104.561 E0.08464
G1 X71.534 Y104.170 E0.01305
G1 X69.575 Y102.211 E0.08692
G1 X69.667 Y101.769 E0.01416
G1 X71.677 Y103.779 E0.08919
G1 X71.820 Y103.388 E0.01305
G1 X69.764 Y101.333 E0.09119
G1 X69.864 Y100.899 E0.01397
G1 X71.962 Y102.997 E0.09311
G1 X72.105 Y102.606 E0.01305
G1 X69.963 Y100.464 E0.09502
G1 X70.063 Y100.030 E0.01397
G1 X72.248 Y102.215 E0.09694
G1 X72.390 Y101.825 E0.01305
G1 X70.162 Y99.596 E0.09886
G1 X70.227 Y99.312 E0.00917
G1 X70.300 Y99.200 E0.00416
G1 X72.824 Y101.725 E0.11200
G1 X73.340 Y101.707 E0.01619
G1 X70.584 Y98.951 E0.12228
G1 X70.910 Y98.744 E0.01213
G1 X73.856 Y101.689 E0.13069
G1 X74.372 Y101.672 E0.01619
G1 X71.265 Y98.565 E0.13782
G1 X71.634 Y98.400 E0.01266
G1 X74.888 Y101.654 E0.14437
G1 X75.404 Y101.636 E0.01619
G1 X72.016 Y98.249 E0.15028
G1 X72.429 Y98.128 E0.01348
G1 X75.920 Y101.619 E0.15488
G1 X76.436 Y101.601 E0.01619
G1 X72.854 Y98.020 E0.15889
G1 X73.335 Y97.967 E0.01516
G1 X76.952 Y101.584 E0.16047
G1 X77.467 Y101.566 E0.01619
G1 X73.856 Y97.954 E0.16022
G1 X74.378 Y97.942 E0.01636
G1 X77.983 Y101.548 E0.15997
G1 X78.499 Y101.531 E0.01619
G1 X74.899 Y97.930 E0.15974
G1 X75.414 Y97.912 E0.01618
G1 X86.063 Y108.561 E0.47243
G1 X86.063 Y108.027 E0.01674
G1 X75.930 Y97.894 E0.44955
G1 X76.445 Y97.876 E0.01618
G1 X86.063 Y107.493 E0.42668
