; generated by PrusaSlicer 2.1.0+win64 on 2019-11-08 at 17:46:15 UTC

; 

; external perimeters extrusion width = 0.45mm
; perimeters extrusion width = 0.45mm
; infill extrusion width = 0.45mm
; solid infill extrusion width = 0.45mm
; top infill extrusion width = 0.40mm
; first layer extrusion width = 0.42mm

; external perimeters extrusion width = 0.45mm
; perimeters extrusion width = 0.45mm
; infill extrusion width = 0.45mm
; solid infill extrusion width = 0.45mm
; top infill extrusion width = 0.40mm
; first layer extrusion width = 0.42mm

M73 P0 R27
M201 X9000 Y9000 Z500 E10000 ; sets maximum accelerations, mm/sec^2
M203 X500 Y500 Z12 E120 ; sets maximum feedrates, mm/sec
M204 P2000 R1500 T2000 ; sets acceleration (P, T) and retract acceleration (R), mm/sec^2
M205 X10.00 Y10.00 Z0.20 E2.50 ; sets the jerk limits, mm/sec
M205 S0 T0 ; sets the minimum extruding and travel feed rate, mm/sec
M107
M862.3 P "MK2.5SMMU2S" ; printer model check
M862.1 P0.4 ; nozzle diameter check
M115 U3.8.1 ; tell printer latest fw version
G90 ; use absolute coordinates
M83 ; extruder relative mode
M104 S215 ; set extruder temp
M140 S60 ; set bed temp
M190 S60 ; wait for bed temp
M109 S215 ; wait for extruder temp
G28 W ; home all without mesh bed level
G80 ; mesh bed leveling
G21 ; set units to millimeters

; Send the filament type to the MMU2.0 unit.
; E stands for extruder number, F stands for filament type (0: default; 1:flex; 2: PVA)
M403 E0 F0
M403 E1 F0
M403 E2 F0
M403 E3 F0
M403 E4 F0


;go outside print area
G1 Y-3.0 F1000.0
G1 Z0.4 F1000.0
; select extruder
T0
; initial load
G1 X55.0 E29.0 F1073.0
M73 P1 R26
G1 X5.0 E29.0 F1800.0
G1 X55.0 E8.0 F2000.0
G1 Z0.3 F1000.0
G92 E0.0
G1 X240.0 E25.0 F2200.0
G1 Y-2.0 F1000.0
G1 X55.0 E25 F1400.0
G1 Z0.20 F1000.0
G1 X5.0 E4.0 F1000.0
G92 E0.0

G92 E0.0
G21 ; set units to millimeters
G90 ; use absolute coordinates
M83 ; use relative distances for extrusion
T0
M900 K30 ; Filament gcode
G1 Z0.200 F10800.000
;BEFORE_LAYER_CHANGE
G92 E0.0
;0.2


G1 E-0.80000 F2100.00000
G1 Z0.800 F10800.000
G1 Z0.200
;AFTER_LAYER_CHANGE
;0.2
G1 E-2.20000 F2100.00000
G1 Z0.800 F10800.000
G1 X233.000 Y140.000
G1 Z0.200
G1 E3.00000 F2100.00000
;-------------------------------------
; CP WIPE TOWER FIRST LAYER BRIM START
G1  X233.000 Y154.060 E0.8016 F2400
G1  X230.457 Y154.517  F7000
G1  Y139.543 E0.6260 F2100
G1  X169.543 E2.5466
G1  Y154.517 E0.6260
G1  X230.457 E2.5466
G1  X230.914 Y154.974  F7000
G1  Y139.086 E0.6642 F2100
G1  X169.086 E2.5849
G1  Y154.974 E0.6642
G1  X230.914 E2.5849
G1  X231.371 Y155.431  F7000
G1  Y138.629 E0.7025 F2100
G1  X168.629 E2.6231
G1  Y155.431 E0.7025
G1  X231.371 E2.6231
G1  X231.828 Y155.888  F7000
G1  Y138.172 E0.7407 F2100
G1  X168.172 E2.6613
G1  Y155.888 E0.7407
G1  X231.828 E2.6613
G1  X230.000 Y154.060  F7000
G1  X170.000
G1  X230.000
; CP WIPE TOWER FIRST LAYER BRIM END
;-----------------------------------

G1 F8640
G1 X226.709 Y154.060 E-0.76000
G1 E-0.04000 F2100.00000
G1 Z0.800 F10800.000
G1 X141.618 Y111.736
G1 Z0.200
G1 E0.80000 F2100.00000
M204 S1000
G1 F1200
G1 X139.978 Y114.798 E0.10891
G1 X137.811 Y117.436 E0.10705
G1 X135.296 Y119.517 E0.10234
G1 X131.874 Y121.338 E0.12155
G1 X128.780 Y122.262 E0.10123
G1 X125.359 Y122.598 E0.10779
G1 X121.926 Y122.259 E0.10816
G1 X118.625 Y121.258 E0.10817
G1 X115.582 Y119.631 E0.10817
G1 X112.916 Y117.443 E0.10816
G1 X110.728 Y114.776 E0.10817
G1 X109.102 Y111.733 E0.10817
G1 X108.100 Y108.432 E0.10816
G1 X107.763 Y104.999 E0.10817
G1 X108.101 Y101.566 E0.10816
G1 X109.103 Y98.264 E0.10817
G1 X110.729 Y95.222 E0.10816
G1 X112.918 Y92.556 E0.10817
G1 X115.585 Y90.367 E0.10817
G1 X118.627 Y88.741 E0.10817
G1 X121.929 Y87.740 E0.10816
G1 X125.366 Y87.402 E0.10829
G1 X128.814 Y87.745 E0.10866
G1 X132.314 Y88.845 E0.11504
G1 X135.138 Y90.369 E0.10061
G1 X137.620 Y92.390 E0.10036
G1 X139.894 Y95.086 E0.11058
G1 X141.588 Y98.194 E0.11098
G1 X142.203 Y100.226 E0.06657
G1 X142.237 Y109.356 E0.28626
G1 X142.155 Y110.002 E0.02042
G1 X141.636 Y111.678 E0.05502
G1 F8640
G1 X140.091 Y114.585 E-0.76000
G1 E-0.04000 F2100.00000
G1 Z0.800 F10800.000
G1 X123.840 Y116.445
G1 Z0.200
G1 E0.80000 F2100.00000
G1 F1200
G1 X116.892 Y116.590 E0.21787
G1 X117.824 Y112.889 E0.11967
G1 X122.665 Y112.719 E0.15187
G1 X124.271 Y112.682 E0.05037
G1 X124.535 Y112.664 E0.00832
G1 X124.845 Y112.613 E0.00984
G1 X125.586 Y112.413 E0.02407
G1 X125.974 Y112.275 E0.01290
G1 X126.747 Y111.928 E0.02656
G1 X127.091 Y111.733 E0.01241
G1 X127.394 Y111.526 E0.01151
G1 X127.640 Y111.316 E0.01014
G1 X127.814 Y111.111 E0.00842
G1 X127.914 Y110.914 E0.00694
G1 X128.123 Y110.071 E0.02721
G1 X128.477 Y108.463 E0.05163
G1 X129.331 Y104.336 E0.13215
G1 X129.828 Y101.758 E0.08232
G1 X129.918 Y101.230 E0.01679
G1 X129.944 Y100.828 E0.01261
G1 X129.901 Y100.435 E0.01242
G1 X129.795 Y100.045 E0.01266
G1 X129.634 Y99.666 E0.01291
G1 X129.426 Y99.304 E0.01308
G1 X129.180 Y98.968 E0.01309
G1 X128.904 Y98.663 E0.01290
G1 X128.608 Y98.396 E0.01248
G1 X128.302 Y98.176 E0.01183
G1 X127.996 Y98.007 E0.01094
G1 X127.703 Y97.896 E0.00984
G1 X127.426 Y97.844 E0.00883
G1 X126.932 Y97.829 E0.01548
G1 X126.413 Y97.873 E0.01634
G1 X126.167 Y97.925 E0.00788
G1 X125.929 Y98.000 E0.00783
G1 X125.707 Y98.100 E0.00764
G1 X125.512 Y98.223 E0.00723
G1 X125.169 Y98.580 E0.01551
G1 X124.933 Y99.107 E0.01810
G1 X123.366 Y104.867 E0.18716
G1 X125.631 Y104.869 E0.07100
G1 X124.631 Y107.608 E0.09142
G1 X119.282 Y107.791 E0.16781
G1 X123.147 Y94.070 E0.44695
G1 X126.407 Y93.661 E0.10300
G1 X126.382 Y94.140 E0.01504
G1 X126.227 Y94.718 E0.01876
G1 X127.023 Y94.505 E0.02585
G1 X127.772 Y94.447 E0.02355
G1 X128.560 Y94.510 E0.02479
G1 X129.364 Y94.699 E0.02588
G1 X130.159 Y95.016 E0.02683
G1 X130.919 Y95.466 E0.02771
G1 X131.620 Y96.052 E0.02864
G1 X132.234 Y96.778 E0.02982
G1 X132.733 Y97.648 E0.03143
G1 X133.092 Y98.661 E0.03371
G1 X133.284 Y99.820 E0.03682
G1 X133.285 Y101.125 E0.04093
G1 X133.123 Y102.180 E0.03346
G1 X132.779 Y104.028 E0.05896
G1 X131.275 Y111.533 E0.23999
G1 X130.988 Y112.470 E0.03072
G1 X130.539 Y113.294 E0.02942
G1 X129.964 Y113.999 E0.02854
G1 X129.295 Y114.594 E0.02806
G1 X128.564 Y115.087 E0.02766
G1 X127.800 Y115.488 E0.02705
G1 X127.032 Y115.805 E0.02604
G1 X126.290 Y116.048 E0.02448
G1 X125.602 Y116.225 E0.02228
G1 X124.996 Y116.344 E0.01936
G1 X124.498 Y116.413 E0.01577
G1 X123.900 Y116.442 E0.01879
G1 X123.655 Y116.800 F10800.000
G1 F8640
G1 X120.609 Y116.512 E-0.76000
G1 E-0.04000 F2100.00000
G1 Z0.800 F10800.000
G1 X125.360 Y119.442
G1 Z0.200
G1 E0.80000 F2100.00000
G1 F1200
G1 X122.543 Y119.165 E0.08877
G1 X119.834 Y118.343 E0.08877
G1 X117.551 Y117.123 E0.08116
G1 X117.591 Y116.953 E0.00548
G1 X123.853 Y116.822 E0.19637
G1 X124.533 Y116.788 E0.02136
G1 X125.058 Y116.716 E0.01662
G1 X125.685 Y116.593 E0.02003
G1 X126.396 Y116.411 E0.02300
G1 X127.163 Y116.159 E0.02532
G1 X127.960 Y115.830 E0.02703
G1 X128.757 Y115.411 E0.02824
G1 X129.527 Y114.892 E0.02910
G1 X130.237 Y114.261 E0.02980
G1 X130.853 Y113.505 E0.03058
G1 X131.337 Y112.617 E0.03171
G1 X131.641 Y111.626 E0.03250
G1 X133.149 Y104.100 E0.24066
G1 X133.495 Y102.243 E0.05923
G1 X133.662 Y101.153 E0.03455
G1 X133.661 Y99.788 E0.04280
G1 X133.458 Y98.567 E0.03883
G1 X133.077 Y97.490 E0.03582
G1 X132.544 Y96.561 E0.03357
G1 X131.887 Y95.784 E0.03191
G1 X131.138 Y95.157 E0.03063
G1 X130.325 Y94.677 E0.02959
G1 X129.477 Y94.338 E0.02863
G1 X128.619 Y94.137 E0.02765
G1 X127.773 Y94.069 E0.02661
G1 X126.960 Y94.132 E0.02557
G1 X126.757 Y94.186 E0.00656
G1 X126.807 Y93.231 E0.02998
G1 X122.852 Y93.727 E0.12495
G1 X118.779 Y108.186 E0.47098
G1 X124.898 Y107.976 E0.19196
G1 X126.170 Y104.493 E0.11628
G1 X123.859 Y104.490 E0.07244
G1 X125.289 Y99.234 E0.17079
G1 X125.486 Y98.794 E0.01513
G1 X125.752 Y98.517 E0.01202
G1 X126.064 Y98.352 E0.01106
G1 X126.468 Y98.247 E0.01310
G1 X126.943 Y98.206 E0.01495
G1 X127.385 Y98.220 E0.01388
G1 X127.601 Y98.260 E0.00687
G1 X127.837 Y98.350 E0.00794
G1 X128.100 Y98.495 E0.00939
G1 X128.371 Y98.690 E0.01048
G1 X128.637 Y98.930 E0.01124
G1 X128.887 Y99.206 E0.01167
G1 X129.110 Y99.510 E0.01182
G1 X129.296 Y99.834 E0.01171
G1 X129.438 Y100.169 E0.01139
G1 X129.529 Y100.505 E0.01094
G1 X129.566 Y100.837 E0.01046
G1 X129.543 Y101.185 E0.01095
G1 X129.457 Y101.690 E0.01605
G1 X128.961 Y104.262 E0.08213
G1 X128.109 Y108.384 E0.13199
G1 X127.756 Y109.985 E0.05140
G1 X127.558 Y110.781 E0.02572
G1 X127.497 Y110.901 E0.00421
G1 X127.372 Y111.049 E0.00609
G1 X127.165 Y111.227 E0.00855
G1 X126.892 Y111.413 E0.01037
G1 X126.576 Y111.591 E0.01136
G1 X125.833 Y111.925 E0.02554
G1 X125.473 Y112.053 E0.01197
G1 X124.765 Y112.244 E0.02302
G1 X124.253 Y112.306 E0.01614
G1 X122.654 Y112.343 E0.05018
G1 X117.527 Y112.522 E0.16083
G1 X116.559 Y116.370 E0.12442
G1 X115.148 Y115.212 E0.05723
G1 X113.352 Y113.024 E0.08877
M73 P4 R25
G1 X112.017 Y110.527 E0.08877
G1 X111.196 Y107.818 E0.08877
G1 X110.918 Y105.000 E0.08877
G1 X111.196 Y102.182 E0.08877
G1 X112.017 Y99.473 E0.08877
G1 X113.352 Y96.976 E0.08877
G1 X115.148 Y94.788 E0.08877
G1 X117.337 Y92.992 E0.08877
G1 X119.834 Y91.657 E0.08877
G1 X122.543 Y90.835 E0.08877
G1 X125.360 Y90.558 E0.08877
G1 X128.178 Y90.835 E0.08877
G1 X130.887 Y91.657 E0.08877
G1 X133.384 Y92.992 E0.08877
G1 X135.573 Y94.788 E0.08877
G1 X137.369 Y96.976 E0.08877
G1 X138.703 Y99.473 E0.08877
G1 X139.085 Y100.731 E0.04121
G1 X139.085 Y109.269 E0.26771
G1 X138.703 Y110.527 E0.04121
G1 X137.369 Y113.024 E0.08877
G1 X135.573 Y115.212 E0.08877
G1 X133.384 Y117.008 E0.08877
G1 X130.887 Y118.343 E0.08877
G1 X128.178 Y119.165 E0.08877
G1 X125.420 Y119.436 E0.08689
G1 X125.360 Y119.821 F10800.000
G1 F1200
G1 X122.469 Y119.536 E0.09110
G1 X119.689 Y118.693 E0.09110
G1 X117.126 Y117.323 E0.09110
G1 X114.880 Y115.480 E0.09110
G1 X113.037 Y113.234 E0.09110
G1 X111.667 Y110.672 E0.09110
G1 X110.824 Y107.891 E0.09110
G1 X110.539 Y105.000 E0.09110
G1 X110.824 Y102.109 E0.09110
G1 X111.667 Y99.328 E0.09110
G1 X113.037 Y96.766 E0.09110
G1 X114.880 Y94.520 E0.09110
G1 X117.126 Y92.677 E0.09110
G1 X119.689 Y91.307 E0.09110
G1 X122.469 Y90.464 E0.09110
G1 X125.360 Y90.179 E0.09110
G1 X128.252 Y90.464 E0.09110
G1 X131.032 Y91.307 E0.09110
G1 X133.595 Y92.677 E0.09110
G1 X135.840 Y94.520 E0.09110
G1 X137.684 Y96.766 E0.09110
G1 X139.053 Y99.328 E0.09110
G1 X139.462 Y100.675 E0.04413
G1 X139.462 Y109.325 E0.27122
G1 X139.053 Y110.672 E0.04413
G1 X137.684 Y113.234 E0.09110
G1 X135.840 Y115.480 E0.09110
G1 X133.595 Y117.323 E0.09110
G1 X131.032 Y118.693 E0.09110
G1 X128.252 Y119.536 E0.09110
G1 X125.420 Y119.815 E0.08922
G1 X125.160 Y119.475 F10800.000
G1 F8640
G1 X122.469 Y119.536 E-0.68446
G1 X122.156 Y119.441 E-0.07554
G1 E-0.04000 F2100.00000
G1 Z0.800 F10800.000
G1 X119.373 Y117.969
G1 Z0.200
G1 E0.80000 F2100.00000
G1 F1200
G1 X118.619 Y117.214 E0.03350
G1 X119.142 Y117.203 E0.01642
G1 X120.053 Y118.114 E0.04042
G1 X120.819 Y118.346 E0.02515
G1 X119.665 Y117.192 E0.05123
G1 X120.188 Y117.182 E0.01642
G1 X121.585 Y118.579 E0.06204
G1 X122.352 Y118.811 E0.02515
G1 X120.711 Y117.171 E0.07285
G1 X121.234 Y117.160 E0.01642
G1 X123.000 Y118.926 E0.07841
G1 X123.592 Y118.984 E0.01868
G1 X121.757 Y117.149 E0.08148
G1 X122.280 Y117.138 E0.01642
G1 X124.185 Y119.042 E0.08455
G1 X124.777 Y119.101 E0.01868
G1 X122.803 Y117.127 E0.08763
G1 X123.326 Y117.116 E0.01642
G1 X125.368 Y119.157 E0.09063
G1 X125.854 Y119.109 E0.01533
G1 X123.849 Y117.105 E0.08899
G1 X124.359 Y117.080 E0.01600
G1 X126.340 Y119.062 E0.08797
G1 X126.826 Y119.014 E0.01533
G1 X124.843 Y117.031 E0.08803
G1 X125.302 Y116.956 E0.01460
G1 X127.312 Y118.966 E0.08922
G1 X127.798 Y118.918 E0.01533
G1 X125.749 Y116.869 E0.09098
G1 X126.174 Y116.760 E0.01377
G1 X128.259 Y118.845 E0.09257
G1 X128.668 Y118.720 E0.01344
G1 X126.592 Y116.644 E0.09219
G1 X126.994 Y116.512 E0.01329
G1 X129.078 Y118.596 E0.09252
G1 X129.488 Y118.472 E0.01344
G1 X127.388 Y116.372 E0.09322
G1 X127.766 Y116.216 E0.01283
G1 X129.898 Y118.348 E0.09464
G1 X130.307 Y118.223 E0.01344
G1 X128.139 Y116.055 E0.09627
G1 X128.489 Y115.871 E0.01242
G1 X130.717 Y118.099 E0.09891
G1 X130.778 Y118.080 E0.00202
G1 X131.074 Y117.922 E0.01053
G1 X128.839 Y115.688 E0.09922
G1 X129.164 Y115.478 E0.01213
G1 X131.422 Y117.736 E0.10026
G1 X131.770 Y117.550 E0.01239
G1 X129.483 Y115.263 E0.10155
G1 X129.790 Y115.037 E0.01199
G1 X132.118 Y117.364 E0.10335
G1 X132.466 Y117.178 E0.01239
G1 X130.073 Y114.785 E0.10625
G1 X130.355 Y114.534 E0.01187
G1 X132.814 Y116.992 E0.10915
G1 X133.162 Y116.806 E0.01239
G1 X130.608 Y114.253 E0.11338
G1 X130.848 Y113.959 E0.01191
G1 X133.465 Y116.576 E0.11620
G1 X133.759 Y116.335 E0.01191
G1 X131.088 Y113.664 E0.11857
G1 X131.277 Y113.319 E0.01235
G1 X134.052 Y116.094 E0.12322
G1 X134.345 Y115.854 E0.01191
G1 X131.465 Y112.973 E0.12788
G1 X131.599 Y112.727 E0.00881
G1 X131.635 Y112.610 E0.00385
G1 X134.638 Y115.613 E0.13334
G1 X134.932 Y115.372 E0.01191
G1 X131.760 Y112.201 E0.14081
G1 X131.885 Y111.792 E0.01342
G1 X135.225 Y115.132 E0.14827
G1 X135.372 Y115.011 E0.00596
G1 X135.492 Y114.865 E0.00595
G1 X131.983 Y111.356 E0.15579
G1 X132.072 Y110.911 E0.01424
G1 X135.733 Y114.571 E0.16251
G1 X135.973 Y114.278 E0.01191
G1 X132.161 Y110.466 E0.16924
G1 X132.251 Y110.021 E0.01424
G1 X136.214 Y113.985 E0.17597
G1 X136.455 Y113.692 E0.01191
G1 X132.340 Y109.577 E0.18270
G1 X132.429 Y109.132 E0.01424
G1 X136.695 Y113.398 E0.18943
G1 X136.936 Y113.105 E0.01191
G1 X132.518 Y108.687 E0.19615
G1 X132.607 Y108.242 E0.01424
G1 X137.167 Y112.802 E0.20244
G1 X137.353 Y112.454 E0.01239
G1 X132.696 Y107.797 E0.20673
G1 X132.785 Y107.353 E0.01424
G1 X137.539 Y112.106 E0.21103
G1 X137.725 Y111.758 E0.01239
G1 X132.875 Y106.908 E0.21533
G1 X132.964 Y106.463 E0.01424
G1 X137.911 Y111.410 E0.21963
G1 X138.097 Y111.062 E0.01239
G1 X133.053 Y106.018 E0.22393
G1 X133.142 Y105.573 E0.01424
G1 X138.283 Y110.714 E0.22823
G1 X138.459 Y110.357 E0.01251
G1 X133.231 Y105.129 E0.23212
G1 X133.320 Y104.684 E0.01424
G1 X138.584 Y109.947 E0.23368
G1 X138.708 Y109.537 E0.01344
G1 X133.409 Y104.239 E0.23524
G1 X133.494 Y103.790 E0.01435
G1 X138.802 Y109.097 E0.23565
G1 X138.802 Y108.563 E0.01676
G1 X133.578 Y103.340 E0.23192
G1 X133.662 Y102.890 E0.01437
G1 X138.802 Y108.029 E0.22820
G1 X138.802 Y107.495 E0.01676
G1 X133.746 Y102.440 E0.22447
G1 X133.821 Y101.981 E0.01459
G1 X138.802 Y106.962 E0.22113
G1 X138.802 Y106.428 E0.01676
G1 X133.892 Y101.518 E0.21799
G1 X133.945 Y101.175 E0.01090
G1 X133.945 Y101.036 E0.00435
G1 X138.802 Y105.894 E0.21566
G1 X138.802 Y105.360 E0.01676
G1 X133.944 Y100.502 E0.21568
G1 X133.944 Y99.967 E0.01678
G1 X138.802 Y104.826 E0.21570
G1 X138.802 Y104.292 E0.01676
G1 X133.878 Y99.367 E0.21864
G1 X133.771 Y98.727 E0.02037
G1 X138.802 Y103.758 E0.22335
G1 X138.802 Y103.224 E0.01676
G1 X133.546 Y97.968 E0.23334
G1 X133.335 Y97.371 E0.01989
G1 X133.135 Y97.023 E0.01260
G1 X138.972 Y102.860 E0.25913
G1 F8640
G1 X136.644 Y100.532 E-0.76000
G1 E-0.04000 F2100.00000
G1 Z0.800 F10800.000
G1 X138.729 Y99.947
G1 Z0.200
G1 E0.80000 F2100.00000
G1 F1200
G1 X130.669 Y91.887 E0.35786
G1 X129.905 Y91.658 E0.02502
G1 X138.707 Y100.459 E0.39077
G1 X138.802 Y100.773 E0.01030
G1 X138.802 Y101.088 E0.00990
G1 X129.142 Y91.428 E0.42888
G1 X128.379 Y91.199 E0.02502
G1 X138.802 Y101.622 E0.46277
G1 X138.802 Y102.156 E0.01676
G1 X127.720 Y91.074 E0.49201
G1 X127.128 Y91.016 E0.01868
G1 X130.655 Y94.543 E0.15658
G1 X130.450 Y94.422 E0.00745
G1 X129.701 Y94.123 E0.02533
G1 X126.536 Y90.958 E0.14054
G1 X125.944 Y90.899 E0.01868
G1 X128.974 Y93.930 E0.13454
G1 X128.663 Y93.857 E0.01004
G1 X128.341 Y93.831 E0.01013
G1 X125.353 Y90.843 E0.13267
G1 X124.867 Y90.891 E0.01533
G1 X127.762 Y93.786 E0.12854
G1 X127.267 Y93.824 E0.01560
G1 X126.908 Y93.465 E0.01594
G1 X126.587 Y93.145 F10800.000
G1 F1200
G1 X124.381 Y90.938 E0.09796
G1 X123.895 Y90.986 E0.01533
G1 X125.961 Y93.052 E0.09173
G1 X125.486 Y93.112 E0.01501
G1 X123.409 Y91.034 E0.09225
G1 X122.922 Y91.082 E0.01533
G1 X125.012 Y93.171 E0.09276
G1 X124.537 Y93.231 E0.01501
G1 X122.462 Y91.155 E0.09215
G1 X122.052 Y91.280 E0.01344
