; generated by PrusaSlicer 2.0.0+ on 2019-08-26 at 10:10:55

; 

; external perimeters extrusion width = 0.45mm
; perimeters extrusion width = 0.45mm
; infill extrusion width = 0.45mm
; solid infill extrusion width = 0.45mm
; top infill extrusion width = 0.40mm
; first layer extrusion width = 0.42mm

; external perimeters extrusion width = 0.45mm
; perimeters extrusion width = 0.45mm
; infill extrusion width = 0.45mm
; solid infill extrusion width = 0.45mm
; top infill extrusion width = 0.40mm
; first layer extrusion width = 0.42mm

M73 P0 R31
M201 X9000 Y9000 Z500 E10000 ; sets maximum accelerations, mm/sec^2
M203 X500 Y500 Z12 E120 ; sets maximum feedrates, mm/sec
M204 P2000 R1500 T2000 ; sets acceleration (P, T) and retract acceleration (R), mm/sec^2
M205 X10.00 Y10.00 Z0.20 E2.50 ; sets the jerk limits, mm/sec
M205 S0 T0 ; sets the minimum extruding and travel feed rate, mm/sec
M107
M115 U3.7.2 ; tell printer latest fw version
G90 ; use absolute coordinates
M83 ; extruder relative mode
M104 S215 ; set extruder temp
M140 S60 ; set bed temp
M190 S60 ; wait for bed temp
M109 S215 ; wait for extruder temp
G28 W ; home all without mesh bed level
G80 ; mesh bed leveling
G21 ; set units to millimeters

; Send the filament type to the MMU2.0 unit.
; E stands for extruder number, F stands for filament type (0: default; 1:flex; 2: PVA)
M403 E0 F0
M403 E1 F0
M403 E2 F0
M403 E3 F0
M403 E4 F0


;go outside print area
G1 Y-3.0 F1000.0
G1 Z0.4 F1000.0
; select extruder
T0
; initial load
G1 X55.0 E29.0 F1073.0
M73 P0 R30
G1 X5.0 E29.0 F1800.0
G1 X55.0 E8.0 F2000.0
G1 Z0.3 F1000.0
G92 E0.0
G1 X240.0 E25.0 F2200.0
G1 Y-2.0 F1000.0
G1 X55.0 E25 F1400.0
G1 Z0.20 F1000.0
G1 X5.0 E4.0 F1000.0
G92 E0.0

G92 E0.0
G21 ; set units to millimeters
G90 ; use absolute coordinates
M83 ; use relative distances for extrusion
T0
M900 K30 ; Filament gcode
G1 Z0.200 F10800.000
;BEFORE_LAYER_CHANGE
G92 E0.0
;0.2


G1 E-0.80000 F2100.00000
G1 Z0.800 F10800.000
G1 Z0.200
;AFTER_LAYER_CHANGE
;0.2
M900 K0
G1 E-2.20000 F2100.00000
G1 Z0.800 F10800.000
G1 X233.000 Y140.000
G1 Z0.200
G1 E3.00000 F2100.00000
;-------------------------------------
; CP WIPE TOWER FIRST LAYER BRIM START
G1 X233.000 Y156.060 E0.9156 F2400
G1 X230.457 Y156.517  F7000
G1 Y139.543 E0.7096 F2100
G1 X169.543 E2.5466
G1 Y156.517 E0.7096
G1 X230.457 E2.5466
G1 X230.914 Y156.974  F7000
G1 Y139.086 E0.7479 F2100
G1 X169.086 E2.5849
G1 Y156.974 E0.7479
G1 X230.914 E2.5849
G1 X231.371 Y157.431  F7000
G1 Y138.629 E0.7861 F2100
G1 X168.629 E2.6231
G1 Y157.431 E0.7861
G1 X231.371 E2.6231
G1 X231.828 Y157.888  F7000
G1 Y138.172 E0.8243 F2100
G1 X168.172 E2.6613
G1 Y157.888 E0.8243
G1 X231.828 E2.6613
G1 X230.000 Y156.060  F7000
G1 X170.000
G1 X230.000
; CP WIPE TOWER FIRST LAYER BRIM END
;-----------------------------------
G1 X229.500 Y140.500  F7200
;--------------------
; CP EMPTY GRID START
; layer #1
G1 X230.000
G1 Y140.000
G1 Y156.060 E0.6104 F1450
G1 X170.000 E2.2804
G1 Y140.000 E0.6104
G1 X230.000 E2.2804
G1 X229.500
G1 Y140.500
G1 Y155.560 E0.5724
G1 X170.500 E2.2424
G1 Y140.500 E0.5724
G1 X229.500 E2.2424
G1 Y155.560
G1 X229.000 Y155.040  E0.0274
G1 X171.000 E2.2044
G1 Y154.520 E0.0198
G1 X229.000 E2.2044
G1 Y154.000 E0.0198
G1 X171.000 E2.2044
M73 P4 R29
G1 Y153.480 E0.0198
G1 X229.000 E2.2044
G1 Y152.960 E0.0198
G1 X171.000 E2.2044
G1 Y152.440 E0.0198
G1 X229.000 E2.2044
G1 Y151.920 E0.0198
G1 X171.000 E2.2044
G1 Y151.400 E0.0198
G1 X229.000 E2.2044
G1 Y150.880 E0.0198
G1 X171.000 E2.2044
G1 Y150.360 E0.0198
G1 X229.000 E2.2044
G1 Y149.840 E0.0198
G1 X171.000 E2.2044
G1 Y149.320 E0.0198
G1 X229.000 E2.2044
G1 Y148.800 E0.0198
G1 X171.000 E2.2044
G1 Y148.280 E0.0198
G1 X229.000 E2.2044
G1 Y147.760 E0.0198
G1 X171.000 E2.2044
G1 Y147.240 E0.0198
G1 X229.000 E2.2044
G1 Y146.720 E0.0198
G1 X171.000 E2.2044
G1 Y146.200 E0.0198
G1 X229.000 E2.2044
G1 Y145.680 E0.0198
G1 X171.000 E2.2044
G1 Y145.160 E0.0198
G1 X229.000 E2.2044
G1 Y144.640 E0.0198
G1 X171.000 E2.2044
G1 Y144.120 E0.0198
G1 X229.000 E2.2044
G1 Y143.600 E0.0198
G1 X171.000 E2.2044
G1 Y143.080 E0.0198
G1 X229.000 E2.2044
G1 Y142.560 E0.0198
G1 X171.000 E2.2044
G1 Y142.040 E0.0198
G1 X229.000 E2.2044
G1 Y141.520 E0.0198
G1 X171.000 E2.2044
G1 Y141.000 E0.0198
G1 X229.000 E2.2044
M73 P7 R28
G1 X171.000
; CP EMPTY GRID END
;------------------







M900 K30 ; Filament gcode
G1 F8640
G1 X167.709 Y141.000 E-0.76000
G1 E-0.04000 F2100.00000
G1 Z0.800 F10800.000
G1 X140.150 Y144.960
G1 Z0.200
G1 E0.80000 F2100.00000
M204 S1000
G1 F1200
G1 X139.900 Y145.636 E0.02259
G1 X139.444 Y146.194 E0.02259
G1 X138.832 Y146.573 E0.02259
G1 X138.134 Y146.734 E0.02247
G1 X111.589 Y146.699 E0.83228
G1 X110.888 Y146.435 E0.02349
G1 X110.315 Y145.946 E0.02360
G1 X109.942 Y145.293 E0.02360
G1 X109.811 Y144.555 E0.02349
G1 X109.813 Y134.480 E0.31590
G1 X111.311 Y93.794 E1.27655
G1 X111.415 Y92.785 E0.03179
G1 X120.578 Y64.403 E0.93513
G1 X120.864 Y63.998 E0.01555
G1 X121.233 Y63.666 E0.01555
G1 X121.667 Y63.427 E0.01555
G1 X122.144 Y63.291 E0.01555
G1 X127.504 Y63.262 E0.16805
G1 X128.155 Y63.362 E0.02066
G1 X128.747 Y63.652 E0.02066
G1 X129.226 Y64.105 E0.02066
G1 X129.549 Y64.683 E0.02078
G1 X138.598 Y92.859 E0.92787
G1 X138.689 Y93.795 E0.02948
G1 X140.188 Y134.483 E1.27663
G1 X140.150 Y144.900 E0.32660
G1 F8640
G1 X139.900 Y145.636 E-0.17941
G1 X139.444 Y146.194 E-0.16633
G1 X138.832 Y146.573 E-0.16633
G1 X138.134 Y146.734 E-0.16550
G1 X137.777 Y146.733 E-0.08242
G1 E-0.04000 F2100.00000
G1 Z0.800 F10800.000
G1 X119.260 Y129.444
G1 Z0.200
G1 E0.80000 F2100.00000
G1 F1200
G1 X118.923 Y129.855 E0.01666
G1 X118.512 Y130.192 E0.01666
G1 X118.043 Y130.443 E0.01666
G1 X117.534 Y130.597 E0.01666
G1 X117.006 Y130.649 E0.01666
G1 X116.477 Y130.597 E0.01666
G1 X115.968 Y130.443 E0.01666
G1 X115.499 Y130.192 E0.01666
G1 X115.089 Y129.855 E0.01666
G1 X114.751 Y129.444 E0.01666
G1 X114.501 Y128.975 E0.01666
G1 X114.347 Y128.467 E0.01666
G1 X114.295 Y127.938 E0.01666
G1 X114.347 Y127.409 E0.01666
G1 X114.501 Y126.900 E0.01666
G1 X114.751 Y126.432 E0.01666
G1 X115.089 Y126.021 E0.01666
G1 X115.499 Y125.684 E0.01666
G1 X115.969 Y125.433 E0.01669
G1 X116.502 Y125.276 E0.01742
G1 X117.006 Y125.227 E0.01586
G1 X117.534 Y125.279 E0.01666
G1 X118.043 Y125.433 E0.01666
G1 X118.512 Y125.684 E0.01666
G1 X118.923 Y126.021 E0.01666
G1 X119.260 Y126.432 E0.01666
G1 X119.510 Y126.900 E0.01666
G1 X119.664 Y127.409 E0.01666
G1 X119.717 Y127.938 E0.01666
G1 X119.664 Y128.467 E0.01666
G1 X119.510 Y128.975 E0.01666
G1 X119.288 Y129.391 E0.01478
G1 X119.437 Y129.803 F10800.000
G1 F8640
G1 X118.923 Y129.855 E-0.13633
G1 X118.512 Y130.192 E-0.12271
G1 X118.043 Y130.443 E-0.12271
G1 X117.534 Y130.597 E-0.12271
G1 X117.006 Y130.649 E-0.12271
G1 X116.477 Y130.597 E-0.12271
G1 X116.435 Y130.584 E-0.01010
G1 E-0.04000 F2100.00000
G1 Z0.800 F10800.000
G1 X117.527 Y122.082
G1 Z0.200
G1 E0.80000 F2100.00000
G1 F1200
G1 X116.998 Y122.134 E0.01666
G1 X116.469 Y122.082 E0.01666
G1 X115.960 Y121.928 E0.01666
G1 X115.491 Y121.677 E0.01666
G1 X115.081 Y121.340 E0.01666
G1 X114.744 Y120.929 E0.01666
G1 X114.493 Y120.460 E0.01666
G1 X114.339 Y119.952 E0.01666
G1 X114.287 Y119.423 E0.01666
G1 X114.339 Y118.894 E0.01666
G1 X114.493 Y118.385 E0.01666
G1 X114.744 Y117.917 E0.01666
G1 X115.081 Y117.506 E0.01666
G1 X115.491 Y117.169 E0.01666
G1 X115.961 Y116.918 E0.01669
G1 X116.494 Y116.762 E0.01742
G1 X116.998 Y116.712 E0.01586
G1 X117.527 Y116.764 E0.01666
G1 X118.035 Y116.918 E0.01666
G1 X118.504 Y117.169 E0.01666
G1 X118.915 Y117.506 E0.01666
G1 X119.252 Y117.917 E0.01666
G1 X119.502 Y118.385 E0.01666
G1 X119.657 Y118.894 E0.01666
G1 X119.709 Y119.423 E0.01666
G1 X119.657 Y119.952 E0.01666
G1 X119.502 Y120.460 E0.01666
G1 X119.252 Y120.929 E0.01666
G1 X118.915 Y121.340 E0.01666
G1 X118.504 Y121.677 E0.01666
G1 X118.035 Y121.928 E0.01666
G1 X117.584 Y122.064 E0.01478
G1 X117.398 Y122.461 F10800.000
G1 F8640
G1 X116.998 Y122.134 E-0.13633
G1 X116.469 Y122.082 E-0.12271
G1 X115.960 Y121.928 E-0.12271
G1 X115.491 Y121.677 E-0.12271
G1 X115.081 Y121.340 E-0.12271
G1 X114.744 Y120.929 E-0.12271
G1 X114.723 Y120.890 E-0.01010
G1 E-0.04000 F2100.00000
G1 Z0.800 F10800.000
G1 X116.998 Y113.619
G1 Z0.200
G1 E0.80000 F2100.00000
G1 F1200
G1 X116.469 Y113.567 E0.01666
G1 X115.960 Y113.413 E0.01666
G1 X115.491 Y113.162 E0.01666
G1 X115.081 Y112.825 E0.01666
G1 X114.744 Y112.414 E0.01666
G1 X114.493 Y111.945 E0.01666
G1 X114.339 Y111.437 E0.01666
G1 X114.287 Y110.908 E0.01666
G1 X114.339 Y110.379 E0.01666
G1 X114.493 Y109.871 E0.01666
G1 X114.744 Y109.402 E0.01666
G1 X115.081 Y108.991 E0.01666
G1 X115.491 Y108.654 E0.01666
G1 X115.961 Y108.403 E0.01669
G1 X116.494 Y108.247 E0.01742
G1 X116.998 Y108.197 E0.01586
G1 X117.527 Y108.249 E0.01666
G1 X118.035 Y108.403 E0.01666
G1 X118.504 Y108.654 E0.01666
G1 X118.915 Y108.991 E0.01666
G1 X119.252 Y109.402 E0.01666
G1 X119.502 Y109.871 E0.01666
G1 X119.657 Y110.379 E0.01666
G1 X119.709 Y110.908 E0.01666
G1 X119.657 Y111.437 E0.01666
G1 X119.502 Y111.945 E0.01666
G1 X119.252 Y112.414 E0.01666
G1 X118.915 Y112.825 E0.01666
G1 X118.504 Y113.162 E0.01666
G1 X118.035 Y113.413 E0.01666
G1 X117.527 Y113.567 E0.01666
G1 X117.057 Y113.613 E0.01478
G1 X116.798 Y113.965 F10800.000
G1 F8640
G1 X116.469 Y113.567 E-0.13633
G1 X115.960 Y113.413 E-0.12271
G1 X115.491 Y113.162 E-0.12271
G1 X115.081 Y112.825 E-0.12271
G1 X114.744 Y112.414 E-0.12271
G1 X114.493 Y111.945 E-0.12271
G1 X114.480 Y111.904 E-0.01010
G1 E-0.04000 F2100.00000
G1 Z0.800 F10800.000
G1 X116.998 Y105.104
G1 Z0.200
G1 E0.80000 F2100.00000
G1 F1200
G1 X116.469 Y105.052 E0.01666
G1 X115.960 Y104.898 E0.01666
G1 X115.491 Y104.647 E0.01666
G1 X115.081 Y104.310 E0.01666
G1 X114.744 Y103.899 E0.01666
G1 X114.493 Y103.430 E0.01666
G1 X114.339 Y102.922 E0.01666
G1 X114.287 Y102.393 E0.01666
G1 X114.339 Y101.864 E0.01666
G1 X114.493 Y101.356 E0.01666
G1 X114.744 Y100.887 E0.01666
G1 X115.081 Y100.476 E0.01666
G1 X115.491 Y100.139 E0.01666
G1 X115.961 Y99.888 E0.01669
G1 X116.494 Y99.732 E0.01742
G1 X116.998 Y99.682 E0.01586
G1 X117.527 Y99.734 E0.01666
G1 X118.035 Y99.888 E0.01666
G1 X118.504 Y100.139 E0.01666
G1 X118.915 Y100.476 E0.01666
G1 X119.252 Y100.887 E0.01666
G1 X119.502 Y101.356 E0.01666
G1 X119.657 Y101.864 E0.01666
G1 X119.709 Y102.393 E0.01666
G1 X119.657 Y102.922 E0.01666
G1 X119.502 Y103.430 E0.01666
G1 X119.252 Y103.899 E0.01666
G1 X118.915 Y104.310 E0.01666
G1 X118.504 Y104.647 E0.01666
G1 X118.035 Y104.898 E0.01666
G1 X117.527 Y105.052 E0.01666
G1 X117.057 Y105.098 E0.01478
G1 X116.798 Y105.450 F10800.000
G1 F8640
G1 X116.469 Y105.052 E-0.13633
G1 X115.960 Y104.898 E-0.12271
G1 X115.491 Y104.647 E-0.12271
G1 X115.081 Y104.310 E-0.12271
G1 X114.744 Y103.899 E-0.12271
G1 X114.493 Y103.430 E-0.12271
G1 X114.480 Y103.389 E-0.01010
G1 E-0.04000 F2100.00000
G1 Z0.800 F10800.000
G1 X116.998 Y96.589
G1 Z0.200
G1 E0.80000 F2100.00000
G1 F1200
G1 X116.469 Y96.537 E0.01666
G1 X115.960 Y96.383 E0.01666
G1 X115.491 Y96.132 E0.01666
G1 X115.081 Y95.795 E0.01666
G1 X114.744 Y95.384 E0.01666
G1 X114.493 Y94.916 E0.01666
G1 X114.339 Y94.407 E0.01666
G1 X114.287 Y93.878 E0.01666
G1 X114.339 Y93.349 E0.01666
G1 X114.493 Y92.841 E0.01666
G1 X114.744 Y92.372 E0.01666
G1 X115.081 Y91.961 E0.01666
G1 X115.491 Y91.624 E0.01666
G1 X115.961 Y91.373 E0.01669
G1 X116.494 Y91.217 E0.01742
G1 X116.998 Y91.167 E0.01586
G1 X117.527 Y91.219 E0.01666
G1 X118.035 Y91.373 E0.01666
G1 X118.504 Y91.624 E0.01666
G1 X118.915 Y91.961 E0.01666
G1 X119.252 Y92.372 E0.01666
G1 X119.502 Y92.841 E0.01666
G1 X119.657 Y93.349 E0.01666
G1 X119.709 Y93.878 E0.01666
G1 X119.657 Y94.407 E0.01666
G1 X119.502 Y94.916 E0.01666
G1 X119.252 Y95.384 E0.01666
G1 X118.915 Y95.795 E0.01666
G1 X118.504 Y96.132 E0.01666
G1 X118.035 Y96.383 E0.01666
G1 X117.527 Y96.537 E0.01666
G1 X117.057 Y96.583 E0.01478
G1 X116.798 Y96.935 F10800.000
G1 F8640
G1 X116.469 Y96.537 E-0.13633
G1 X115.960 Y96.383 E-0.12271
G1 X115.491 Y96.132 E-0.12271
G1 X115.081 Y95.795 E-0.12271
G1 X114.744 Y95.384 E-0.12271
G1 X114.493 Y94.916 E-0.12271
G1 X114.480 Y94.874 E-0.01010
G1 E-0.04000 F2100.00000
G1 Z0.800 F10800.000
G1 X120.047 Y94.291
G1 Z0.200
G1 E0.80000 F2100.00000
G1 F1200
G1 X120.088 Y93.878 E0.01301
G1 X120.047 Y93.465 E0.01301
G1 X123.087 Y93.465 E0.09532
G1 X123.087 Y66.038 E0.85997
G1 X126.913 Y66.038 E0.11996
G1 X126.913 Y93.465 E0.85997
G1 X129.953 Y93.465 E0.09532
G1 X129.912 Y93.878 E0.01301
G1 X129.953 Y94.291 E0.01301
G1 X126.913 Y94.291 E0.09532
G1 X126.913 Y101.980 E0.24109
G1 X129.953 Y101.980 E0.09532
G1 X129.912 Y102.393 E0.01301
G1 X129.953 Y102.806 E0.01301
G1 X126.913 Y102.806 E0.09532
G1 X126.913 Y110.495 E0.24109
G1 X129.953 Y110.495 E0.09532
G1 X129.912 Y110.908 E0.01301
G1 X129.953 Y111.321 E0.01301
G1 X126.913 Y111.321 E0.09532
G1 X126.913 Y119.010 E0.24109
G1 X129.953 Y119.010 E0.09532
G1 X129.912 Y119.423 E0.01301
G1 X129.953 Y119.836 E0.01301
G1 X126.913 Y119.836 E0.09532
G1 X126.913 Y127.525 E0.24109
G1 X129.945 Y127.525 E0.09508
G1 X129.905 Y127.938 E0.01301
G1 X129.945 Y128.351 E0.01301
G1 X126.913 Y128.351 E0.09508
G1 X126.913 Y135.136 E0.21276
G1 X137.413 Y135.136 E0.32922
G1 X137.413 Y143.962 E0.27673
G1 X112.587 Y143.962 E0.77840
G1 X112.587 Y135.136 E0.27673
G1 X123.087 Y135.136 E0.32922
G1 X123.087 Y128.351 E0.21276
G1 X120.055 Y128.351 E0.09508
G1 X120.095 Y127.938 E0.01301
G1 X120.055 Y127.525 E0.01301
G1 X123.087 Y127.525 E0.09508
G1 X123.087 Y119.836 E0.24109
G1 X120.047 Y119.836 E0.09532
G1 X120.088 Y119.423 E0.01301
G1 X120.047 Y119.010 E0.01301
G1 X123.087 Y119.010 E0.09532
G1 X123.087 Y111.321 E0.24109
G1 X120.047 Y111.321 E0.09532
G1 X120.088 Y110.908 E0.01301
G1 X120.047 Y110.495 E0.01301
G1 X123.087 Y110.495 E0.09532
G1 X123.087 Y102.806 E0.24109
G1 X120.047 Y102.806 E0.09532
G1 X120.088 Y102.393 E0.01301
G1 X120.047 Y101.980 E0.01301
G1 X123.087 Y101.980 E0.09532
G1 X123.087 Y94.291 E0.24109
G1 X120.107 Y94.291 E0.09344
G1 F8640
G1 X120.088 Y93.878 E-0.09545
G1 X120.047 Y93.465 E-0.09581
G1 X122.510 Y93.465 E-0.56874
G1 E-0.04000 F2100.00000
G1 Z0.800 F10800.000
G1 X130.291 Y93.878
G1 Z0.200
G1 E0.80000 F2100.00000
G1 F1200
G1 X130.343 Y93.349 E0.01666
G1 X130.498 Y92.841 E0.01666
G1 X130.748 Y92.372 E0.01666
G1 X131.085 Y91.961 E0.01666
G1 X131.496 Y91.624 E0.01666
G1 X131.965 Y91.373 E0.01666
G1 X132.473 Y91.219 E0.01666
G1 X132.977 Y91.170 E0.01586
G1 X133.530 Y91.219 E0.01742
G1 X134.040 Y91.373 E0.01669
G1 X134.509 Y91.624 E0.01666
G1 X134.919 Y91.961 E0.01666
G1 X135.256 Y92.372 E0.01666
G1 X135.507 Y92.841 E0.01666
G1 X135.661 Y93.349 E0.01666
G1 X135.713 Y93.878 E0.01666
G1 X135.661 Y94.407 E0.01666
G1 X135.507 Y94.916 E0.01666
G1 X135.256 Y95.384 E0.01666
G1 X134.919 Y95.795 E0.01666
G1 X134.509 Y96.132 E0.01666
G1 X134.040 Y96.383 E0.01666
G1 X133.531 Y96.537 E0.01666
G1 X133.002 Y96.589 E0.01666
G1 X132.473 Y96.537 E0.01666
G1 X131.965 Y96.383 E0.01666
G1 X131.496 Y96.132 E0.01666
G1 X131.085 Y95.795 E0.01666
G1 X130.748 Y95.384 E0.01666
G1 X130.498 Y94.916 E0.01666
G1 X130.343 Y94.407 E0.01666
G1 X130.297 Y93.938 E0.01478
G1 X129.945 Y93.678 F10800.000
G1 F8640
G1 X130.343 Y93.349 E-0.13633
G1 X130.498 Y92.841 E-0.12271
G1 X130.748 Y92.372 E-0.12271
G1 X131.085 Y91.961 E-0.12271
G1 X131.496 Y91.624 E-0.12271
G1 X131.965 Y91.373 E-0.12271
G1 X132.007 Y91.361 E-0.01010
G1 E-0.04000 F2100.00000
G1 Z0.800 F10800.000
G1 X131.965 Y99.888
G1 Z0.200
G1 E0.80000 F2100.00000
G1 F1200
G1 X132.473 Y99.734 E0.01666
G1 X132.977 Y99.685 E0.01586
G1 X133.530 Y99.734 E0.01742
G1 X134.040 Y99.888 E0.01669
G1 X134.509 Y100.139 E0.01666
G1 X134.919 Y100.476 E0.01666
G1 X135.256 Y100.887 E0.01666
G1 X135.507 Y101.356 E0.01666
G1 X135.661 Y101.864 E0.01666
G1 X135.713 Y102.393 E0.01666
G1 X135.661 Y102.922 E0.01666
G1 X135.507 Y103.430 E0.01666
G1 X135.256 Y103.899 E0.01666
G1 X134.919 Y104.310 E0.01666
G1 X134.509 Y104.647 E0.01666
G1 X134.040 Y104.898 E0.01666
G1 X133.531 Y105.052 E0.01666
G1 X133.002 Y105.104 E0.01666
G1 X132.473 Y105.052 E0.01666
G1 X131.965 Y104.898 E0.01666
G1 X131.496 Y104.647 E0.01666
