; generated by PrusaSlicer 2.2.0+win64 on 2020-11-09 at 19:14:12 UTC

; 

; external perimeters extrusion width = 0.45mm
; perimeters extrusion width = 0.45mm
; infill extrusion width = 0.45mm
; solid infill extrusion width = 0.45mm
; top infill extrusion width = 0.40mm
; first layer extrusion width = 0.42mm

M73 P0 R24
M201 X9000 Y9000 Z500 E10000 ; sets maximum accelerations, mm/sec^2
M203 X500 Y500 Z12 E120 ; sets maximum feedrates, mm/sec
M204 P2000 R1500 T2000 ; sets acceleration (P, T) and retract acceleration (R), mm/sec^2
M205 X10.00 Y10.00 Z0.20 E4.50 ; sets the jerk limits, mm/sec
M205 S0 T0 ; sets the minimum extruding and travel feed rate, mm/sec
M107
M862.3 P "MK2.5SMMU2S" ; printer model check
M862.1 P0.4 ; nozzle diameter check
M115 U3.9.1 ; tell printer latest fw version
G90 ; use absolute coordinates
M83 ; extruder relative mode
M104 S215 ; set extruder temp
M140 S60 ; set bed temp
Tx
M190 S60 ; wait for bed temp
M109 S215 ; wait for extruder temp
G28 W ; home all without mesh bed level
G80 ; mesh bed leveling

;go outside print area
G1 Y-3.0 F1000.0
G1 Z0.4 F1000.0
; select extruder
Tc
; purge line
G1 X55.0 F2000.0
G1 Z0.3 F1000.0
G92 E0.0
G1 X240.0 E25.0 F2200.0
M73 P0 R24
G1 Y-2.0 F1000.0
G1 X55.0 E25 F1400.0
G1 Z0.20 F1000.0
G1 X5.0 E4.0 F1000.0
G92 E0.0
G21 ; set units to millimeters
G90 ; use absolute coordinates
M83 ; use relative distances for extrusion
M900 K0.06 ; Filament gcode LA 1.5
M900 K30 ; Filament gcode LA 1.0
;BEFORE_LAYER_CHANGE
G92 E0.0
;0.2


G1 E-0.80000 F2100.00000
G1 Z0.600 F10800.000
;AFTER_LAYER_CHANGE
;0.2
G1 X105.763 Y95.848
G1 Z0.200
G1 E0.80000 F2100.00000
M204 S1000
G1 F1200.000
G1 X105.813 Y94.952 E0.02816
G1 X106.001 Y94.397 E0.01835
G1 X106.301 Y93.895 E0.01835
G1 X106.701 Y93.468 E0.01835
G1 X107.182 Y93.135 E0.01835
G1 X124.770 Y84.609 E0.61283
G1 X125.748 Y84.387 E0.03145
G1 X130.319 Y84.385 E0.14330
G1 X130.860 Y84.439 E0.01707
G1 X131.377 Y84.598 E0.01694
G1 X143.981 Y90.086 E0.43104
G1 X144.743 Y90.613 E0.02904
G1 X145.285 Y91.359 E0.02892
G1 X145.545 Y92.198 E0.02752
G1 X146.037 Y96.661 E0.14079
G1 X145.506 Y115.047 E0.57673
G1 X145.318 Y115.602 E0.01835
G1 X145.018 Y116.104 E0.01835
G1 X144.618 Y116.531 E0.01835
G1 X144.137 Y116.865 E0.01835
G1 X126.549 Y125.391 E0.61286
G1 X125.538 Y125.614 E0.03246
G1 X121.697 Y125.615 E0.12044
G1 X121.140 Y125.550 E0.01758
G1 X120.563 Y125.352 E0.01912
G1 X120.044 Y125.033 E0.01912
G1 X119.607 Y124.607 E0.01912
G1 X119.276 Y124.096 E0.01912
G1 X106.002 Y96.710 E0.95422
G1 X105.779 Y95.906 E0.02615
G1 X106.137 Y95.806 F10800.000
G1 F1200.000
G1 X106.182 Y95.030 E0.02437
G1 X106.345 Y94.552 E0.01585
G1 X106.608 Y94.115 E0.01597
G1 X106.955 Y93.747 E0.01585
G1 X107.375 Y93.459 E0.01597
G1 X124.930 Y84.951 E0.61168
G1 X125.777 Y84.763 E0.02720
G1 X130.318 Y84.762 E0.14239
G1 X131.235 Y84.947 E0.02931
G1 X143.816 Y90.425 E0.43025
G1 X144.480 Y90.884 E0.02532
G1 X144.951 Y91.535 E0.02520
G1 X145.172 Y92.256 E0.02367
G1 X145.660 Y96.664 E0.13904
G1 X145.137 Y114.970 E0.57419
G1 X144.974 Y115.448 E0.01585
G1 X144.711 Y115.885 E0.01597
G1 X144.364 Y116.253 E0.01585
G1 X143.944 Y116.541 E0.01597
G1 X126.392 Y125.048 E0.61156
G1 X125.519 Y125.238 E0.02802
G1 X121.707 Y125.238 E0.11951
G1 X121.216 Y125.180 E0.01550
G1 X120.720 Y125.010 E0.01645
G1 X120.271 Y124.732 E0.01657
G1 X119.896 Y124.365 E0.01645
G1 X119.610 Y123.921 E0.01657
G1 X106.346 Y96.555 E0.95350
G1 X106.154 Y95.864 E0.02249
G1 F8640.000
G1 X106.182 Y95.030 E-0.19267
G1 X106.345 Y94.552 E-0.11675
G1 X106.608 Y94.115 E-0.11763
G1 X106.955 Y93.747 E-0.11675
G1 X107.375 Y93.459 E-0.11763
G1 X107.759 Y93.273 E-0.09857
G1 E-0.04000 F2100.00000
G1 Z0.800 F10800.000
G1 X116.726 Y106.349
G1 Z0.200
G1 E0.80000 F2100.00000
G1 F1200.000
G1 X122.898 Y106.349 E0.19351
G1 X122.898 Y117.361 E0.34526
G1 X121.562 Y117.635 E0.04276
G1 X116.749 Y106.404 E0.38309
G1 X117.297 Y106.726 F10800.000
G1 F1200.000
G1 X122.520 Y106.726 E0.16376
G1 X122.520 Y117.053 E0.32379
G1 X121.787 Y117.204 E0.02348
G1 X117.321 Y106.781 E0.35552
G1 X117.235 Y106.331 F10800.000
G1 F8640.000
G1 X120.612 Y106.746 E-0.76000
G1 E-0.04000 F2100.00000
G1 Z0.800 F10800.000
G1 X115.890 Y104.398
G1 Z0.200
G1 E0.80000 F2100.00000
G1 F1200.000
G1 X122.898 Y104.398 E0.21972
G1 X122.898 Y101.784 E0.08197
G1 X124.756 Y101.784 E0.05828
G1 X125.123 Y105.020 E0.10210
G1 X124.672 Y106.431 E0.04644
G1 X124.672 Y122.074 E0.49049
G1 X122.231 Y122.074 E0.07655
G1 X109.757 Y96.340 E0.89667
G1 X112.437 Y96.340 E0.08402
G1 X115.866 Y104.343 E0.27301
G1 X116.138 Y104.021 F10800.000
G1 F1200.000
G1 X122.520 Y104.021 E0.20010
G1 X122.520 Y101.407 E0.08197
G1 X125.093 Y101.407 E0.08066
G1 X125.507 Y105.058 E0.11519
G1 X125.049 Y106.489 E0.04713
G1 X125.049 Y122.451 E0.50047
G1 X121.995 Y122.451 E0.09578
G1 X109.155 Y95.963 E0.92295
G1 X112.685 Y95.963 E0.11069
G1 X116.115 Y103.966 E0.27301
G1 X116.233 Y104.410 F10800.000
G1 F8640.000
G1 X119.406 Y103.995 E-0.76000
G1 E-0.04000 F2100.00000
G1 Z0.800 F10800.000
G1 X118.055 Y106.236
G1 Z0.200
G1 E0.80000 F2100.00000
G1 F1200.000
G1 X116.501 Y104.681 E0.06921
G1 X117.036 Y104.681 E0.01685
G1 X118.421 Y106.066 E0.06166
G1 X118.956 Y106.066 E0.01685
G1 X117.571 Y104.681 E0.06166
G1 X118.107 Y104.681 E0.01685
G1 X119.492 Y106.066 E0.06166
G1 X120.027 Y106.066 E0.01685
G1 X118.642 Y104.681 E0.06166
G1 X119.177 Y104.681 E0.01685
G1 X120.562 Y106.066 E0.06166
G1 X121.098 Y106.066 E0.01685
G1 X119.713 Y104.681 E0.06166
G1 X120.248 Y104.681 E0.01685
G1 X121.633 Y106.066 E0.06166
G1 X122.168 Y106.066 E0.01685
G1 X120.783 Y104.681 E0.06166
G1 X121.319 Y104.681 E0.01685
G1 X122.873 Y106.236 E0.06921
G1 F8640.000
G1 X121.319 Y104.681 E-0.50772
G1 X120.783 Y104.681 E-0.12361
G1 X121.177 Y105.075 E-0.12867
G1 E-0.04000 F2100.00000
G1 Z0.800 F10800.000
G1 X124.753 Y102.763
G1 Z0.200
G1 E0.80000 F2100.00000
G1 F1200.000
G1 X124.058 Y102.067 E0.03097
G1 X123.522 Y102.067 E0.01685
G1 X124.629 Y103.174 E0.04927
G1 X124.697 Y103.778 E0.01912
G1 X123.180 Y102.260 E0.06753
G1 X123.180 Y102.796 E0.01685
G1 X124.766 Y104.381 E0.07058
G1 X124.834 Y104.985 E0.01912
G1 X123.180 Y103.331 E0.07362
G1 X123.180 Y103.866 E0.01685
G1 X124.707 Y105.393 E0.06795
G1 X124.577 Y105.799 E0.01341
G1 X123.180 Y104.402 E0.06218
G1 X123.180 Y104.681 E0.00880
G1 X122.925 Y104.681 E0.00805
G1 X124.448 Y106.204 E0.06779
G1 X124.389 Y106.387 E0.00602
G1 X124.389 Y106.681 E0.00928
G1 X122.389 Y104.681 E0.08903
G1 X121.854 Y104.681 E0.01685
G1 X124.389 Y107.217 E0.11286
G1 X124.389 Y107.752 E0.01685
G1 X123.180 Y106.543 E0.05382
G1 X123.180 Y107.078 E0.01685
G1 X124.389 Y108.287 E0.05382
G1 X124.389 Y108.823 E0.01685
G1 X123.180 Y107.614 E0.05382
G1 X123.180 Y108.149 E0.01685
G1 X124.389 Y109.358 E0.05382
G1 X124.389 Y109.893 E0.01685
G1 X123.180 Y108.684 E0.05382
G1 X123.180 Y109.220 E0.01685
G1 X124.389 Y110.429 E0.05382
G1 X124.389 Y110.964 E0.01685
G1 X123.180 Y109.755 E0.05382
G1 X123.180 Y110.290 E0.01685
G1 X124.389 Y111.499 E0.05382
G1 X124.389 Y112.035 E0.01685
G1 X123.180 Y110.826 E0.05382
G1 X123.180 Y111.361 E0.01685
G1 X124.389 Y112.570 E0.05382
G1 X124.389 Y113.105 E0.01685
G1 X123.180 Y111.896 E0.05382
G1 X123.180 Y112.432 E0.01685
G1 X124.389 Y113.641 E0.05382
G1 X124.389 Y114.176 E0.01685
G1 X123.180 Y112.967 E0.05382
G1 X123.180 Y113.502 E0.01685
G1 X124.389 Y114.711 E0.05382
G1 X124.389 Y115.247 E0.01685
G1 X123.180 Y114.038 E0.05382
G1 X123.180 Y114.573 E0.01685
G1 X124.389 Y115.782 E0.05382
G1 X124.389 Y116.317 E0.01685
G1 X123.180 Y115.108 E0.05382
G1 X123.180 Y115.644 E0.01685
G1 X124.389 Y116.853 E0.05382
G1 X124.389 Y117.388 E0.01685
G1 X123.180 Y116.179 E0.05382
G1 X123.180 Y116.714 E0.01685
G1 X124.389 Y117.923 E0.05382
G1 X124.389 Y118.459 E0.01685
G1 X123.180 Y117.250 E0.05382
G1 X123.180 Y117.591 E0.01076
G1 X123.020 Y117.624 E0.00516
G1 X124.389 Y118.994 E0.06096
G1 X124.389 Y119.529 E0.01685
G1 X122.576 Y117.715 E0.08073
G1 X122.131 Y117.807 E0.01427
G1 X124.389 Y120.065 E0.10050
G1 X124.389 Y120.600 E0.01685
G1 X121.687 Y117.898 E0.12028
G1 X121.392 Y117.958 E0.00947
G1 X121.126 Y117.337 E0.02129
G1 X119.423 Y115.634 E0.07579
G1 X118.920 Y114.595 E0.03634
G1 X120.725 Y116.400 E0.08034
G1 X120.323 Y115.463 E0.03207
G1 X118.416 Y113.556 E0.08489
G1 X117.913 Y112.517 E0.03634
G1 X119.922 Y114.526 E0.08943
G1 X119.521 Y113.590 E0.03207
G1 X117.409 Y111.478 E0.09398
G1 X116.906 Y110.439 E0.03634
G1 X119.119 Y112.653 E0.09853
G1 X118.718 Y111.716 E0.03207
G1 X116.402 Y109.401 E0.10308
G1 X115.898 Y108.362 E0.03634
G1 X118.316 Y110.780 E0.10763
G1 X117.915 Y109.843 E0.03207
G1 X115.395 Y107.323 E0.11218
G1 X114.891 Y106.284 E0.03634
G1 X117.514 Y108.906 E0.11673
G1 X117.112 Y107.970 E0.03207
G1 X114.388 Y105.245 E0.12128
G1 X113.884 Y104.206 E0.03634
G1 X116.711 Y107.033 E0.12583
G1 X116.310 Y106.096 E0.03207
G1 X113.381 Y103.167 E0.13038
G1 X112.877 Y102.128 E0.03634
G1 X116.815 Y106.066 E0.17529
G1 X117.350 Y106.066 E0.01685
G1 X112.374 Y101.090 E0.22153
G1 X111.870 Y100.051 E0.03634
G1 X115.106 Y103.286 E0.14402
G1 X114.704 Y102.349 E0.03207
G1 X111.366 Y99.012 E0.14857
G1 X110.863 Y97.973 E0.03634
G1 X114.303 Y101.413 E0.15312
G1 X113.901 Y100.476 E0.03207
G1 X110.359 Y96.934 E0.15767
G1 X110.208 Y96.623 E0.01089
G1 X110.583 Y96.623 E0.01180
G1 X113.500 Y99.539 E0.12983
G1 X113.099 Y98.603 E0.03207
G1 X111.119 Y96.623 E0.08813
G1 X111.654 Y96.623 E0.01685
G1 X112.697 Y97.666 E0.04644
G1 X112.296 Y96.729 E0.03207
G1 X112.020 Y96.453 E0.01230
G1 F8640.000
G1 X112.296 Y96.729 E-0.09022
G1 X112.697 Y97.666 E-0.23530
G1 X111.654 Y96.623 E-0.34068
G1 X111.248 Y96.623 E-0.09380
G1 E-0.04000 F2100.00000
G1 Z0.800 F10800.000
G1 X121.575 Y120.462
G1 Z0.200
G1 E0.80000 F2100.00000
G1 F1200.000
G1 X122.904 Y121.791 E0.05916
G1 X123.440 Y121.791 E0.01685
G1 X121.438 Y119.789 E0.08911
G1 X120.934 Y118.751 E0.03634
G1 X123.975 Y121.791 E0.13536
G1 X124.389 Y121.791 E0.01304
G1 X124.389 Y121.670 E0.00381
G1 X120.430 Y117.712 E0.17622
G1 X119.927 Y116.673 E0.03634
G1 X124.559 Y121.305 E0.20619
G1 F8640.000
G1 X122.232 Y118.977 E-0.76000
G1 E-0.04000 F2100.00000
G1 Z0.800 F10800.000
G1 X138.920 Y109.221
G1 Z0.200
G1 E0.80000 F2100.00000
G1 F1200.000
G1 X134.084 Y97.935 E0.38497
G1 X140.256 Y97.935 E0.19351
G1 X140.256 Y108.947 E0.34526
G1 X138.979 Y109.209 E0.04088
G1 X139.146 Y108.790 F10800.000
G1 F1200.000
G1 X134.656 Y98.312 E0.35740
G1 X139.879 Y98.312 E0.16376
G1 X139.879 Y108.639 E0.32379
G1 X139.204 Y108.777 E0.02159
G1 X138.859 Y109.068 F10800.000
G1 F8640.000
G1 X137.893 Y105.759 E-0.76000
G1 E-0.04000 F2100.00000
G1 Z0.800 F10800.000
G1 X133.249 Y95.984
G1 Z0.200
G1 E0.80000 F2100.00000
G1 F1200.000
G1 X140.256 Y95.984 E0.21972
G1 X140.256 Y93.370 E0.08197
G1 X142.115 Y93.370 E0.05828
G1 X142.482 Y96.606 E0.10210
G1 X142.031 Y98.017 E0.04644
G1 X142.031 Y113.660 E0.49049
G1 X139.589 Y113.660 E0.07655
G1 X127.116 Y87.926 E0.89667
G1 X129.796 Y87.926 E0.08402
G1 X133.225 Y95.929 E0.27301
G1 X133.497 Y95.607 F10800.000
G1 F1200.000
G1 X139.879 Y95.607 E0.20010
G1 X139.879 Y92.993 E0.08197
G1 X142.452 Y92.993 E0.08066
G1 X142.865 Y96.644 E0.11519
G1 X142.408 Y98.075 E0.04713
G1 X142.408 Y114.037 E0.50047
M73 P4 R23
G1 X139.353 Y114.037 E0.09578
G1 X126.514 Y87.549 E0.92295
G1 X130.044 Y87.549 E0.11069
G1 X133.474 Y95.552 E0.27301
G1 X133.591 Y95.996 F10800.000
G1 F8640.000
G1 X136.765 Y95.580 E-0.76000
G1 E-0.04000 F2100.00000
G1 Z0.800 F10800.000
G1 X135.414 Y97.822
G1 Z0.200
G1 E0.80000 F2100.00000
G1 F1200.000
G1 X133.859 Y96.267 E0.06921
G1 X134.395 Y96.267 E0.01685
G1 X135.780 Y97.652 E0.06166
G1 X136.315 Y97.652 E0.01685
G1 X134.930 Y96.267 E0.06166
G1 X135.465 Y96.267 E0.01685
G1 X136.850 Y97.652 E0.06166
G1 X137.386 Y97.652 E0.01685
G1 X136.001 Y96.267 E0.06166
G1 X136.536 Y96.267 E0.01685
G1 X137.921 Y97.652 E0.06166
G1 X138.456 Y97.652 E0.01685
G1 X137.071 Y96.267 E0.06166
G1 X137.607 Y96.267 E0.01685
G1 X138.992 Y97.652 E0.06166
G1 X139.527 Y97.652 E0.01685
G1 X138.142 Y96.267 E0.06166
G1 X138.677 Y96.267 E0.01685
G1 X140.232 Y97.822 E0.06921
G1 F8640.000
G1 X138.677 Y96.267 E-0.50772
G1 X138.142 Y96.267 E-0.12361
G1 X138.536 Y96.661 E-0.12867
G1 E-0.04000 F2100.00000
G1 Z0.800 F10800.000
G1 X142.112 Y94.349
G1 Z0.200
G1 E0.80000 F2100.00000
G1 F1200.000
G1 X141.416 Y93.653 E0.03097
G1 X140.881 Y93.653 E0.01685
G1 X141.988 Y94.760 E0.04927
G1 X142.056 Y95.363 E0.01912
G1 X140.539 Y93.846 E0.06753
G1 X140.539 Y94.382 E0.01685
G1 X142.125 Y95.967 E0.07058
G1 X142.193 Y96.571 E0.01912
G1 X140.539 Y94.917 E0.07362
G1 X140.539 Y95.452 E0.01685
G1 X142.065 Y96.979 E0.06795
G1 X141.936 Y97.384 E0.01341
G1 X140.539 Y95.988 E0.06218
G1 X140.539 Y96.267 E0.00880
G1 X140.283 Y96.267 E0.00805
G1 X141.806 Y97.790 E0.06779
G1 X141.748 Y97.972 E0.00602
G1 X141.748 Y98.267 E0.00928
G1 X139.748 Y96.267 E0.08903
G1 X139.213 Y96.267 E0.01685
G1 X141.748 Y98.803 E0.11286
G1 X141.748 Y99.338 E0.01685
G1 X140.539 Y98.129 E0.05382
G1 X140.539 Y98.664 E0.01685
G1 X141.748 Y99.873 E0.05382
G1 X141.748 Y100.409 E0.01685
G1 X140.539 Y99.200 E0.05382
G1 X140.539 Y99.735 E0.01685
G1 X141.748 Y100.944 E0.05382
G1 X141.748 Y101.479 E0.01685
G1 X140.539 Y100.270 E0.05382
G1 X140.539 Y100.805 E0.01685
G1 X141.748 Y102.014 E0.05382
G1 X141.748 Y102.550 E0.01685
G1 X140.539 Y101.341 E0.05382
G1 X140.539 Y101.876 E0.01685
G1 X141.748 Y103.085 E0.05382
G1 X141.748 Y103.620 E0.01685
G1 X140.539 Y102.411 E0.05382
G1 X140.539 Y102.947 E0.01685
G1 X141.748 Y104.156 E0.05382
G1 X141.748 Y104.691 E0.01685
G1 X140.539 Y103.482 E0.05382
G1 X140.539 Y104.017 E0.01685
G1 X141.748 Y105.226 E0.05382
G1 X141.748 Y105.762 E0.01685
G1 X140.539 Y104.553 E0.05382
G1 X140.539 Y105.088 E0.01685
G1 X141.748 Y106.297 E0.05382
G1 X141.748 Y106.832 E0.01685
G1 X140.539 Y105.623 E0.05382
G1 X140.539 Y106.159 E0.01685
G1 X141.748 Y107.368 E0.05382
G1 X141.748 Y107.903 E0.01685
G1 X140.539 Y106.694 E0.05382
G1 X140.539 Y107.229 E0.01685
G1 X141.748 Y108.438 E0.05382
G1 X141.748 Y108.974 E0.01685
G1 X140.539 Y107.765 E0.05382
G1 X140.539 Y108.300 E0.01685
G1 X141.748 Y109.509 E0.05382
G1 X141.748 Y110.044 E0.01685
G1 X140.539 Y108.835 E0.05382
G1 X140.539 Y109.177 E0.01076
G1 X140.378 Y109.210 E0.00516
G1 X141.748 Y110.580 E0.06096
G1 X141.748 Y111.115 E0.01685
G1 X139.934 Y109.301 E0.08073
G1 X139.490 Y109.392 E0.01427
G1 X141.748 Y111.650 E0.10050
G1 X141.748 Y112.186 E0.01685
G1 X139.046 Y109.484 E0.12028
G1 X138.751 Y109.544 E0.00947
G1 X138.485 Y108.922 E0.02129
G1 X136.782 Y107.220 E0.07579
G1 X136.279 Y106.181 E0.03634
G1 X138.083 Y107.986 E0.08034
G1 X137.682 Y107.049 E0.03207
G1 X135.775 Y105.142 E0.08489
G1 X135.271 Y104.103 E0.03634
G1 X137.281 Y106.112 E0.08943
G1 X136.879 Y105.176 E0.03207
G1 X134.768 Y103.064 E0.09398
G1 X134.264 Y102.025 E0.03634
G1 X136.478 Y104.239 E0.09853
G1 X136.077 Y103.302 E0.03207
G1 X133.761 Y100.986 E0.10308
G1 X133.257 Y99.948 E0.03634
G1 X135.675 Y102.366 E0.10763
G1 X135.274 Y101.429 E0.03207
G1 X132.754 Y98.909 E0.11218
G1 X132.250 Y97.870 E0.03634
G1 X134.872 Y100.492 E0.11673
G1 X134.471 Y99.555 E0.03207
G1 X131.746 Y96.831 E0.12128
G1 X131.243 Y95.792 E0.03634
G1 X134.070 Y98.619 E0.12583
G1 X133.668 Y97.682 E0.03207
G1 X130.739 Y94.753 E0.13038
G1 X130.236 Y93.714 E0.03634
G1 X134.174 Y97.652 E0.17529
G1 X134.709 Y97.652 E0.01685
G1 X129.732 Y92.675 E0.22153
G1 X129.229 Y91.636 E0.03634
G1 X132.464 Y94.872 E0.14402
G1 X132.063 Y93.935 E0.03207
G1 X128.725 Y90.598 E0.14857
G1 X128.222 Y89.559 E0.03634
G1 X131.662 Y92.999 E0.15312
G1 X131.260 Y92.062 E0.03207
G1 X127.718 Y88.520 E0.15767
G1 X127.567 Y88.209 E0.01089
G1 X127.942 Y88.209 E0.01180
G1 X130.859 Y91.125 E0.12983
G1 X130.457 Y90.189 E0.03207
G1 X128.477 Y88.209 E0.08813
G1 X129.013 Y88.209 E0.01685
G1 X130.056 Y89.252 E0.04644
G1 X129.655 Y88.315 E0.03207
G1 X129.378 Y88.039 E0.01230
G1 F8640.000
G1 X129.655 Y88.315 E-0.09022
G1 X130.056 Y89.252 E-0.23530
G1 X129.013 Y88.209 E-0.34068
G1 X128.607 Y88.209 E-0.09380
G1 E-0.04000 F2100.00000
G1 Z0.800 F10800.000
G1 X138.934 Y112.048
G1 Z0.200
G1 E0.80000 F2100.00000
G1 F1200.000
