; generated by PrusaSlicer 2.2.0+win64 on 2020-11-09 at 19:11:40 UTC

; 

; external perimeters extrusion width = 0.60mm
; perimeters extrusion width = 0.43mm
; infill extrusion width = 0.45mm
; solid infill extrusion width = 0.70mm
; top infill extrusion width = 0.43mm
; first layer extrusion width = 0.42mm

M73 P0 R10
M201 X9000 Y9000 Z500 E10000 ; sets maximum accelerations, mm/sec^2
M203 X500 Y500 Z12 E120 ; sets maximum feedrates, mm/sec
M204 P2000 R1500 T2000 ; sets acceleration (P, T) and retract acceleration (R), mm/sec^2
M205 X10.00 Y10.00 Z0.20 E4.50 ; sets the jerk limits, mm/sec
M205 S0 T0 ; sets the minimum extruding and travel feed rate, mm/sec
M107
M862.3 P "MK2.5SMMU2S" ; printer model check
M862.1 P0.4 ; nozzle diameter check
M115 U3.9.1 ; tell printer latest fw version
G90 ; use absolute coordinates
M83 ; extruder relative mode
M104 S215 ; set extruder temp
M140 S60 ; set bed temp
Tx
M190 S60 ; wait for bed temp
M109 S215 ; wait for extruder temp
G28 W ; home all without mesh bed level
G80 ; mesh bed leveling

;go outside print area
G1 Y-3.0 F1000.0
G1 Z0.4 F1000.0
; select extruder
Tc
; purge line
G1 X55.0 F2000.0
G1 Z0.3 F1000.0
G92 E0.0
G1 X240.0 E25.0 F2200.0
M73 P1 R10
G1 Y-2.0 F1000.0
G1 X55.0 E25 F1400.0
G1 Z0.20 F1000.0
G1 X5.0 E4.0 F1000.0
G92 E0.0
G21 ; set units to millimeters
G90 ; use absolute coordinates
M83 ; use relative distances for extrusion
M900 K0.06 ; Filament gcode LA 1.5
M900 K30 ; Filament gcode LA 1.0
;BEFORE_LAYER_CHANGE
G92 E0.0
;0.2


G1 E-0.80000 F2100.00000
G1 Z0.600 F10800.000
;AFTER_LAYER_CHANGE
;0.2
G1 X93.386 Y77.753
G1 Z0.200
G1 E0.80000 F2100.00000
M204 S1000
G1 F1200.000
G1 X94.102 Y77.364 E0.02555
G1 X94.857 Y77.239 E0.02402
G1 X161.107 Y77.239 E2.07721
G1 X161.819 Y77.349 E0.02260
G1 X162.466 Y77.668 E0.02260
G1 X162.987 Y78.166 E0.02260
G1 X163.335 Y78.798 E0.02260
G1 X168.310 Y96.887 E0.58825
G1 X168.489 Y98.067 E0.03740
G1 X168.551 Y99.304 E0.03884
G1 X168.488 Y100.537 E0.03872
G1 X168.301 Y101.757 E0.03872
G1 X167.991 Y102.957 E0.03883
G1 X167.564 Y104.111 E0.03860
G1 X167.019 Y105.224 E0.03883
G1 X166.413 Y106.202 E0.03609
G1 X165.610 Y107.252 E0.04146
G1 X164.758 Y108.151 E0.03883
G1 X163.813 Y108.964 E0.03907
G1 X162.822 Y109.655 E0.03788
G1 X128.383 Y131.055 E1.27131
G1 X127.308 Y131.650 E0.03854
G1 X126.111 Y132.158 E0.04074
G1 X124.976 Y132.511 E0.03728
G1 X123.668 Y132.770 E0.04181
G1 X122.549 Y132.880 E0.03525
G1 X121.432 Y132.883 E0.03501
G1 X120.191 Y132.769 E0.03907
G1 X118.880 Y132.509 E0.04193
G1 X117.694 Y132.138 E0.03895
G1 X116.545 Y131.646 E0.03919
G1 X115.440 Y131.030 E0.03967
G1 X114.422 Y130.318 E0.03895
G1 X82.726 Y105.008 E1.27177
G1 X82.268 Y104.516 E0.02107
G1 X81.968 Y103.919 E0.02095
G1 X81.854 Y103.384 E0.01716
G1 X81.866 Y102.837 E0.01716
G1 X83.036 Y95.444 E0.23470
G1 X83.217 Y94.855 E0.01929
G1 X92.843 Y78.361 E0.59880
G1 X93.346 Y77.798 E0.02367
G1 F8640.000
G1 X94.102 Y77.364 E-0.20126
G1 X94.857 Y77.239 E-0.17689
G1 X96.511 Y77.239 E-0.38186
G1 E-0.04000 F2100.00000
G1 Z0.800 F10800.000
G1 X147.677 Y96.586
G1 Z0.200
G1 E0.80000 F2100.00000
G1 F1200.000
G1 X147.996 Y95.725 E0.02878
G1 X148.401 Y94.901 E0.02878
G1 X148.886 Y94.122 E0.02878
G1 X149.448 Y93.396 E0.02878
G1 X150.080 Y92.731 E0.02878
G1 X150.777 Y92.133 E0.02878
G1 X151.530 Y91.608 E0.02878
G1 X152.333 Y91.163 E0.02878
G1 X153.177 Y90.801 E0.02878
G1 X154.052 Y90.526 E0.02878
G1 X154.952 Y90.341 E0.02878
G1 X155.865 Y90.248 E0.02878
G1 X156.783 Y90.248 E0.02878
G1 X157.696 Y90.341 E0.02878
G1 X158.595 Y90.526 E0.02878
G1 X159.471 Y90.801 E0.02878
G1 X160.315 Y91.163 E0.02878
G1 X161.117 Y91.608 E0.02878
G1 X161.871 Y92.133 E0.02878
G1 X162.567 Y92.731 E0.02878
G1 X163.200 Y93.396 E0.02878
G1 X163.761 Y94.122 E0.02878
G1 X164.247 Y94.901 E0.02878
G1 X164.651 Y95.725 E0.02878
G1 X164.970 Y96.586 E0.02878
G1 X165.200 Y97.474 E0.02878
G1 X165.339 Y98.382 E0.02878
G1 X165.386 Y99.299 E0.02878
G1 X165.339 Y100.215 E0.02878
G1 X165.200 Y101.123 E0.02878
G1 X164.970 Y102.011 E0.02878
G1 X164.651 Y102.872 E0.02878
G1 X164.247 Y103.696 E0.02878
G1 X163.761 Y104.475 E0.02878
G1 X163.200 Y105.201 E0.02878
G1 X162.567 Y105.867 E0.02878
G1 X161.871 Y106.464 E0.02878
G1 X161.117 Y106.989 E0.02878
G1 X160.315 Y107.434 E0.02878
G1 X159.471 Y107.796 E0.02878
G1 X158.595 Y108.071 E0.02878
G1 X157.696 Y108.256 E0.02878
G1 X156.783 Y108.349 E0.02878
G1 X155.865 Y108.349 E0.02878
G1 X154.952 Y108.256 E0.02878
G1 X154.052 Y108.071 E0.02878
G1 X153.177 Y107.796 E0.02878
G1 X152.333 Y107.434 E0.02878
G1 X151.530 Y106.989 E0.02878
G1 X150.777 Y106.464 E0.02878
G1 X150.080 Y105.867 E0.02878
G1 X149.448 Y105.201 E0.02878
G1 X148.886 Y104.475 E0.02878
G1 X148.401 Y103.696 E0.02878
G1 X147.996 Y102.872 E0.02878
G1 X147.677 Y102.011 E0.02878
G1 X147.447 Y101.123 E0.02878
G1 X147.308 Y100.215 E0.02878
G1 X147.262 Y99.299 E0.02878
G1 X147.308 Y98.382 E0.02878
G1 X147.447 Y97.474 E0.02878
G1 X147.662 Y96.644 E0.02690
G1 X147.297 Y96.549 F10800.000
G1 F1200.000
G1 X147.649 Y95.576 E0.03245
G1 X148.070 Y94.718 E0.02998
G1 X148.576 Y93.906 E0.02998
G1 X149.161 Y93.150 E0.02998
G1 X149.820 Y92.457 E0.02998
G1 X150.546 Y91.834 E0.02998
G1 X151.331 Y91.288 E0.02998
G1 X152.167 Y90.824 E0.02998
G1 X153.045 Y90.447 E0.02998
G1 X153.958 Y90.160 E0.02998
G1 X154.894 Y89.968 E0.02998
G1 X155.846 Y89.871 E0.02998
G1 X156.802 Y89.871 E0.02998
G1 X157.753 Y89.968 E0.02998
G1 X158.690 Y90.160 E0.02998
G1 X159.602 Y90.447 E0.02998
G1 X160.481 Y90.824 E0.02998
G1 X161.317 Y91.288 E0.02998
G1 X162.102 Y91.834 E0.02998
G1 X162.827 Y92.457 E0.02998
G1 X163.486 Y93.150 E0.02998
G1 X164.071 Y93.906 E0.02998
G1 X164.577 Y94.718 E0.02998
G1 X164.998 Y95.576 E0.02998
G1 X165.330 Y96.473 E0.02998
G1 X165.570 Y97.398 E0.02998
G1 X165.715 Y98.344 E0.02998
G1 X165.763 Y99.299 E0.02998
G1 X165.715 Y100.253 E0.02998
G1 X165.570 Y101.199 E0.02998
G1 X165.330 Y102.124 E0.02998
G1 X164.998 Y103.021 E0.02998
G1 X164.577 Y103.880 E0.02998
G1 X164.071 Y104.691 E0.02998
G1 X163.486 Y105.447 E0.02998
G1 X162.827 Y106.140 E0.02998
G1 X162.102 Y106.763 E0.02998
G1 X161.317 Y107.309 E0.02998
G1 X160.481 Y107.773 E0.02998
G1 X159.602 Y108.150 E0.02998
G1 X158.690 Y108.437 E0.02998
G1 X157.753 Y108.629 E0.02998
G1 X156.802 Y108.726 E0.02998
G1 X155.846 Y108.726 E0.02998
G1 X154.894 Y108.629 E0.02998
G1 X153.958 Y108.437 E0.02998
G1 X153.045 Y108.150 E0.02998
G1 X152.167 Y107.773 E0.02998
G1 X151.331 Y107.309 E0.02998
G1 X150.546 Y106.763 E0.02998
G1 X149.820 Y106.140 E0.02998
G1 X149.161 Y105.447 E0.02998
G1 X148.576 Y104.691 E0.02998
G1 X148.070 Y103.880 E0.02998
G1 X147.649 Y103.021 E0.02998
G1 X147.317 Y102.124 E0.02998
G1 X147.078 Y101.199 E0.02998
G1 X146.933 Y100.253 E0.02998
G1 X146.884 Y99.299 E0.02998
G1 X146.933 Y98.344 E0.02998
G1 X147.078 Y97.398 E0.02998
G1 X147.282 Y96.607 E0.02562
G1 X147.687 Y96.460 F10800.000
G1 F8640.000
G1 X147.649 Y95.576 E-0.25277
G1 X148.070 Y94.718 E-0.22079
G1 X148.576 Y93.906 E-0.22079
G1 X148.750 Y93.681 E-0.06565
G1 E-0.04000 F2100.00000
G1 Z0.800 F10800.000
G1 X163.749 Y94.316
G1 Z0.200
G1 E0.80000 F2100.00000
G1 F1200.000
G1 X162.351 Y92.918 E0.06270
G1 X161.697 Y92.356 E0.02734
G1 X160.967 Y91.848 E0.02821
G1 X160.462 Y91.568 E0.01835
G1 X164.064 Y95.170 E0.16161
G1 X164.391 Y95.837 E0.02353
G1 X164.509 Y96.154 E0.01075
G1 X159.457 Y91.102 E0.22663
G1 X158.656 Y90.841 E0.02670
G1 X164.775 Y96.960 E0.27446
G1 X164.944 Y97.668 E0.02310
G1 X157.959 Y90.684 E0.31331
G1 X157.653 Y90.621 E0.00992
G1 X157.323 Y90.587 E0.01051
G1 X165.041 Y98.305 E0.34622
G1 X165.082 Y98.885 E0.01843
G1 X156.727 Y90.531 E0.37475
G1 X156.188 Y90.531 E0.01711
G1 X165.095 Y99.438 E0.39957
G1 X165.069 Y99.952 E0.01631
G1 X155.670 Y90.552 E0.42165
G1 X155.180 Y90.602 E0.01561
G1 X165.019 Y100.441 E0.44134
G1 X164.947 Y100.908 E0.01501
G1 X154.717 Y90.678 E0.45892
G1 X154.269 Y90.770 E0.01449
G1 X164.849 Y101.350 E0.47461
G1 X164.738 Y101.779 E0.01404
G1 X153.846 Y90.887 E0.48859
G1 X153.436 Y91.016 E0.01365
G1 X164.604 Y102.184 E0.50101
G1 X164.459 Y102.578 E0.01332
G1 X153.045 Y91.165 E0.51198
G1 X152.668 Y91.327 E0.01303
G1 X164.296 Y102.955 E0.52161
G1 X164.118 Y103.317 E0.01279
G1 X152.304 Y91.502 E0.52997
G1 X151.957 Y91.695 E0.01259
G1 X163.931 Y103.669 E0.53713
G1 X163.724 Y104.001 E0.01242
G1 X151.616 Y91.893 E0.54314
G1 X151.298 Y92.115 E0.01229
G1 X163.515 Y104.332 E0.54804
G1 X163.280 Y104.636 E0.01220
G1 X150.980 Y92.336 E0.55175
G1 X150.687 Y92.583 E0.01214
G1 X163.044 Y104.940 E0.55433
G1 X162.788 Y105.223 E0.01212
G1 X150.397 Y92.832 E0.55587
G1 X150.122 Y93.097 E0.01210
G1 X162.525 Y105.500 E0.55638
G1 X162.251 Y105.765 E0.01210
G1 X149.859 Y93.374 E0.55587
G1 X149.603 Y93.657 E0.01212
G1 X161.961 Y106.014 E0.55433
G1 X161.668 Y106.261 E0.01214
G1 X149.368 Y93.961 E0.55175
G1 X149.133 Y94.265 E0.01220
G1 X161.350 Y106.482 E0.54804
G1 X161.032 Y106.704 E0.01229
G1 X148.924 Y94.596 E0.54314
G1 X148.717 Y94.928 E0.01242
G1 X160.691 Y106.902 E0.53713
G1 X160.344 Y107.095 E0.01259
G1 X148.529 Y95.280 E0.52997
G1 X148.352 Y95.642 E0.01279
G1 X159.980 Y107.270 E0.52161
G1 X159.602 Y107.432 E0.01303
G1 X148.189 Y96.019 E0.51198
G1 X148.043 Y96.413 E0.01332
G1 X159.212 Y107.581 E0.50101
G1 X158.801 Y107.710 E0.01365
G1 X147.909 Y96.818 E0.48859
G1 X147.798 Y97.247 E0.01404
G1 X158.378 Y107.827 E0.47460
G1 X157.931 Y107.919 E0.01449
G1 X147.701 Y97.689 E0.45891
G1 X147.629 Y98.157 E0.01501
G1 X157.467 Y107.995 E0.44133
G1 X156.978 Y108.045 E0.01561
G1 X147.578 Y98.645 E0.42165
M73 P11 R9
G1 X147.552 Y99.159 E0.01631
G1 X156.459 Y108.066 E0.39957
G1 X155.920 Y108.066 E0.01711
G1 X147.566 Y99.712 E0.37474
G1 X147.606 Y100.292 E0.01843
G1 X155.324 Y108.010 E0.34621
G1 X154.994 Y107.976 E0.01051
G1 X154.688 Y107.913 E0.00992
G1 X147.704 Y100.929 E0.31330
G1 X147.873 Y101.637 E0.02310
G1 X153.991 Y107.755 E0.27446
G1 X153.191 Y107.495 E0.02670
G1 X148.139 Y102.443 E0.22662
G1 X148.256 Y102.760 E0.01074
G1 X148.583 Y103.427 E0.02354
G1 X152.186 Y107.029 E0.16159
G1 X151.680 Y106.749 E0.01834
G1 X150.950 Y106.241 E0.02821
G1 X150.295 Y105.678 E0.02738
G1 X148.899 Y104.282 E0.06265
G1 F8640.000
G1 X150.295 Y105.678 E-0.45610
G1 X150.950 Y106.241 E-0.19928
G1 X151.322 Y106.499 E-0.10462
G1 E-0.04000 F2100.00000
G1 Z0.800 F10800.000
G1 X160.266 Y82.529
G1 Z0.200
G1 E0.80000 F2100.00000
G1 F1200.000
G1 X95.699 Y82.529 E2.02443
G1 X95.663 Y80.403 E0.06666
G1 X160.302 Y80.403 E2.02673
G1 X160.267 Y82.469 E0.06478
G1 X160.636 Y82.906 F10800.000
G1 F1200.000
G1 X95.329 Y82.906 E2.04767
G1 X95.279 Y80.026 E0.09031
G1 X160.686 Y80.026 E2.05078
G1 X160.637 Y82.846 E0.08843
G1 X160.236 Y82.900 F10800.000
G1 F8640.000
G1 X157.346 Y82.849 E-0.76000
G1 E-0.04000 F2100.00000
G1 Z0.800 F10800.000
G1 X96.576 Y82.416
G1 Z0.200
G1 E0.80000 F2100.00000
G1 F1200.000
G1 X95.970 Y81.810 E0.02696
G1 X95.961 Y81.265 E0.01713
G1 X96.941 Y82.246 E0.04364
G1 X97.476 Y82.246 E0.01683
G1 X95.951 Y80.721 E0.06786
G1 X95.951 Y80.686 E0.00110
G1 X96.451 Y80.686 E0.01575
G1 X98.011 Y82.246 E0.06942
G1 X98.547 Y82.246 E0.01683
G1 X96.986 Y80.686 E0.06942
G1 X97.521 Y80.686 E0.01683
G1 X99.082 Y82.246 E0.06942
G1 X99.617 Y82.246 E0.01683
G1 X98.057 Y80.686 E0.06942
G1 X98.592 Y80.686 E0.01683
G1 X100.152 Y82.246 E0.06942
G1 X100.687 Y82.246 E0.01683
G1 X99.127 Y80.686 E0.06942
G1 X99.662 Y80.686 E0.01683
G1 X101.222 Y82.246 E0.06942
G1 X101.757 Y82.246 E0.01683
G1 X100.197 Y80.686 E0.06942
G1 X100.732 Y80.686 E0.01683
G1 X102.292 Y82.246 E0.06942
G1 X102.827 Y82.246 E0.01683
G1 X101.267 Y80.686 E0.06942
G1 X101.802 Y80.686 E0.01683
G1 X103.362 Y82.246 E0.06942
G1 X103.898 Y82.246 E0.01683
G1 X102.337 Y80.686 E0.06942
G1 X102.872 Y80.686 E0.01683
G1 X104.433 Y82.246 E0.06942
G1 X104.968 Y82.246 E0.01683
G1 X103.407 Y80.686 E0.06942
G1 X103.943 Y80.686 E0.01683
G1 X105.503 Y82.246 E0.06942
G1 X106.038 Y82.246 E0.01683
G1 X104.478 Y80.686 E0.06942
G1 X105.013 Y80.686 E0.01683
G1 X106.573 Y82.246 E0.06942
G1 X107.108 Y82.246 E0.01683
G1 X105.548 Y80.686 E0.06942
G1 X106.083 Y80.686 E0.01683
G1 X107.643 Y82.246 E0.06942
G1 X108.178 Y82.246 E0.01683
G1 X106.618 Y80.686 E0.06942
G1 X107.153 Y80.686 E0.01683
G1 X108.713 Y82.246 E0.06942
G1 X109.248 Y82.246 E0.01683
G1 X107.688 Y80.686 E0.06942
G1 X108.223 Y80.686 E0.01683
G1 X109.784 Y82.246 E0.06942
G1 X110.319 Y82.246 E0.01683
G1 X108.758 Y80.686 E0.06942
G1 X109.293 Y80.686 E0.01683
G1 X110.854 Y82.246 E0.06942
G1 X111.389 Y82.246 E0.01683
G1 X109.829 Y80.686 E0.06942
G1 X110.364 Y80.686 E0.01683
G1 X111.924 Y82.246 E0.06942
G1 X112.459 Y82.246 E0.01683
G1 X110.899 Y80.686 E0.06942
G1 X111.434 Y80.686 E0.01683
G1 X112.994 Y82.246 E0.06942
G1 X113.529 Y82.246 E0.01683
G1 X111.969 Y80.686 E0.06942
G1 X112.504 Y80.686 E0.01683
G1 X114.064 Y82.246 E0.06942
G1 X114.599 Y82.246 E0.01683
G1 X113.039 Y80.686 E0.06942
G1 X113.574 Y80.686 E0.01683
G1 X115.134 Y82.246 E0.06942
G1 X115.670 Y82.246 E0.01683
G1 X114.109 Y80.686 E0.06942
G1 X114.644 Y80.686 E0.01683
G1 X116.205 Y82.246 E0.06942
G1 X116.740 Y82.246 E0.01683
G1 X115.179 Y80.686 E0.06942
G1 X115.715 Y80.686 E0.01683
G1 X117.275 Y82.246 E0.06942
G1 X117.810 Y82.246 E0.01683
G1 X116.250 Y80.686 E0.06942
G1 X116.785 Y80.686 E0.01683
G1 X118.345 Y82.246 E0.06942
G1 X118.880 Y82.246 E0.01683
G1 X117.320 Y80.686 E0.06942
G1 X117.855 Y80.686 E0.01683
G1 X119.415 Y82.246 E0.06942
G1 X119.950 Y82.246 E0.01683
G1 X118.390 Y80.686 E0.06942
G1 X118.925 Y80.686 E0.01683
G1 X120.485 Y82.246 E0.06942
G1 X121.020 Y82.246 E0.01683
G1 X119.460 Y80.686 E0.06942
G1 X119.995 Y80.686 E0.01683
G1 X121.556 Y82.246 E0.06942
G1 X122.091 Y82.246 E0.01683
G1 X120.530 Y80.686 E0.06942
G1 X121.066 Y80.686 E0.01683
G1 X122.626 Y82.246 E0.06942
G1 X123.161 Y82.246 E0.01683
G1 X121.601 Y80.686 E0.06942
G1 X122.136 Y80.686 E0.01683
G1 X123.696 Y82.246 E0.06942
G1 X124.231 Y82.246 E0.01683
G1 X122.671 Y80.686 E0.06942
G1 X123.206 Y80.686 E0.01683
G1 X124.766 Y82.246 E0.06942
G1 X125.301 Y82.246 E0.01683
G1 X123.741 Y80.686 E0.06942
G1 X124.276 Y80.686 E0.01683
G1 X125.836 Y82.246 E0.06942
G1 X126.371 Y82.246 E0.01683
G1 X124.811 Y80.686 E0.06942
G1 X125.346 Y80.686 E0.01683
G1 X126.907 Y82.246 E0.06942
G1 X127.442 Y82.246 E0.01683
G1 X125.881 Y80.686 E0.06942
G1 X126.416 Y80.686 E0.01683
G1 X127.977 Y82.246 E0.06942
G1 X128.512 Y82.246 E0.01683
G1 X126.952 Y80.686 E0.06942
G1 X127.487 Y80.686 E0.01683
G1 X129.047 Y82.246 E0.06942
G1 X129.582 Y82.246 E0.01683
G1 X128.022 Y80.686 E0.06942
G1 X128.557 Y80.686 E0.01683
G1 X130.117 Y82.246 E0.06942
G1 X130.652 Y82.246 E0.01683
G1 X129.092 Y80.686 E0.06942
G1 X129.627 Y80.686 E0.01683
G1 X131.187 Y82.246 E0.06942
G1 X131.722 Y82.246 E0.01683
G1 X130.162 Y80.686 E0.06942
G1 X130.697 Y80.686 E0.01683
G1 X132.257 Y82.246 E0.06942
G1 X132.793 Y82.246 E0.01683
G1 X131.232 Y80.686 E0.06942
G1 X131.767 Y80.686 E0.01683
G1 X133.328 Y82.246 E0.06942
G1 X133.863 Y82.246 E0.01683
G1 X132.302 Y80.686 E0.06942
G1 X132.838 Y80.686 E0.01683
G1 X134.398 Y82.246 E0.06942
G1 X134.933 Y82.246 E0.01683
G1 X133.373 Y80.686 E0.06942
G1 X133.908 Y80.686 E0.01683
G1 X135.468 Y82.246 E0.06942
G1 X136.003 Y82.246 E0.01683
G1 X134.443 Y80.686 E0.06942
G1 X134.978 Y80.686 E0.01683
G1 X136.538 Y82.246 E0.06942
G1 X137.073 Y82.246 E0.01683
G1 X135.513 Y80.686 E0.06942
G1 X136.048 Y80.686 E0.01683
G1 X137.608 Y82.246 E0.06942
G1 X138.143 Y82.246 E0.01683
G1 X136.583 Y80.686 E0.06942
G1 X137.118 Y80.686 E0.01683
G1 X138.679 Y82.246 E0.06942
G1 X139.214 Y82.246 E0.01683
G1 X137.653 Y80.686 E0.06942
G1 X138.189 Y80.686 E0.01683
G1 X139.749 Y82.246 E0.06942
G1 X140.284 Y82.246 E0.01683
G1 X138.724 Y80.686 E0.06942
G1 X139.259 Y80.686 E0.01683
G1 X140.819 Y82.246 E0.06942
G1 X141.354 Y82.246 E0.01683
G1 X139.794 Y80.686 E0.06942
G1 X140.329 Y80.686 E0.01683
G1 X141.889 Y82.246 E0.06942
G1 X142.424 Y82.246 E0.01683
G1 X140.864 Y80.686 E0.06942
G1 X141.399 Y80.686 E0.01683
G1 X142.959 Y82.246 E0.06942
G1 X143.494 Y82.246 E0.01683
G1 X141.934 Y80.686 E0.06942
G1 X142.469 Y80.686 E0.01683
G1 X144.029 Y82.246 E0.06942
G1 X144.565 Y82.246 E0.01683
