; generated by PrusaSlicer 2.2.0+win64 on 2020-12-01 at 21:10:23 UTC

; 

; external perimeters extrusion width = 0.60mm
; perimeters extrusion width = 0.43mm
; infill extrusion width = 0.45mm
; solid infill extrusion width = 0.70mm
; top infill extrusion width = 0.43mm
; first layer extrusion width = 0.42mm

M73 P0 R13
M201 X9000 Y9000 Z500 E10000 ; sets maximum accelerations, mm/sec^2
M203 X500 Y500 Z12 E120 ; sets maximum feedrates, mm/sec
M204 P2000 R1500 T2000 ; sets acceleration (P, T) and retract acceleration (R), mm/sec^2
M205 X10.00 Y10.00 Z0.20 E2.50 ; sets the jerk limits, mm/sec
M205 S0 T0 ; sets the minimum extruding and travel feed rate, mm/sec
M107
M862.3 P "MK2.5SMMU2S" ; printer model check
M862.1 P0.4 ; nozzle diameter check
M115 U3.8.0 ; tell printer latest fw version
G90 ; use absolute coordinates
M83 ; extruder relative mode
M104 S215 ; set extruder temp
M140 S60 ; set bed temp
Tx
M190 S60 ; wait for bed temp
M109 S215 ; wait for extruder temp
G28 W ; home all without mesh bed level
G80 ; mesh bed leveling

G21 ; set units to millimeters

;go outside print area
G1 Y-3.0 F1000.0
G1 Z0.4 F1000.0
; select extruder
Tc
; purge line
G1 X55.0 F2000.0
G1 Z0.3 F1000.0
G92 E0.0
G1 X240.0 E25.0 F2200.0
M73 P0 R13
G1 Y-2.0 F1000.0
G1 X55.0 E25 F1400.0
G1 Z0.20 F1000.0
G1 X5.0 E4.0 F1000.0
G92 E0.0
G21 ; set units to millimeters
G90 ; use absolute coordinates
M83 ; use relative distances for extrusion
M900 K0.05 ; Filament gcode LA 1.5
M900 K30 ; Filament gcode LA 1.0
;BEFORE_LAYER_CHANGE
G92 E0.0
;0.2


G1 E-0.80000 F2100.00000
G1 Z0.600 F10800.000
;AFTER_LAYER_CHANGE
;0.2
G1 X83.813 Y75.926
G1 Z0.200
G1 E0.80000 F2100.00000
M204 S1000
G1 F1200.000
G1 X84.500 Y75.409 E0.02696
G1 X85.011 Y75.223 E0.01704
G1 X85.555 Y75.159 E0.01716
G1 X155.877 Y75.159 E2.20490
G1 X156.498 Y75.242 E0.01965
G1 X157.072 Y75.483 E0.01953
G1 X157.567 Y75.868 E0.01965
G1 X157.942 Y76.365 E0.01953
G1 X165.440 Y92.077 E0.54586
G1 X165.526 Y93.107 E0.03239
G1 X165.321 Y97.048 E0.12376
G1 X164.779 Y100.878 E0.12128
G1 X163.908 Y104.616 E0.12032
G1 X162.655 Y108.431 E0.12593
G1 X161.093 Y112.041 E0.12331
G1 X159.215 Y115.496 E0.12331
G1 X156.976 Y118.848 E0.12638
G1 X154.580 Y121.827 E0.11987
G1 X151.932 Y124.584 E0.11985
G1 X148.970 Y127.170 E0.12330
G1 X145.707 Y129.537 E0.12641
G1 X142.272 Y131.575 E0.12522
G1 X138.783 Y133.246 E0.12128
G1 X135.005 Y134.650 E0.12638
G1 X131.318 Y135.661 E0.11987
G1 X127.557 Y136.343 E0.11985
G1 X123.645 Y136.704 E0.12318
G1 X119.614 Y136.711 E0.12640
G1 X115.700 Y136.360 E0.12320
G1 X111.830 Y135.661 E0.12331
G1 X108.042 Y134.620 E0.12319
G1 X104.362 Y133.244 E0.12319
G1 X100.816 Y131.543 E0.12331
G1 X97.439 Y129.535 E0.12319
G1 X94.177 Y127.168 E0.12638
G1 X91.217 Y124.584 E0.12318
G1 X88.569 Y121.827 E0.11987
G1 X86.173 Y118.848 E0.11985
G1 X83.934 Y115.496 E0.12641
G1 X82.068 Y112.064 E0.12247
G1 X80.461 Y108.337 E0.12724
G1 X79.264 Y104.703 E0.11997
G1 X78.389 Y100.967 E0.12032
G1 X77.821 Y96.976 E0.12641
G1 X77.631 Y92.545 E0.13906
G1 X77.767 Y91.894 E0.02083
G1 X83.356 Y76.650 E0.50909
G1 X83.781 Y75.977 E0.02496
G1 E-0.80000 F2100.00000
G1 Z0.800 F10800.000
G1 X114.474 Y81.726
G1 Z0.200
G1 E0.80000 F2100.00000
G1 F1200.000
G1 X126.962 Y81.726 E0.39155
G1 X126.962 Y84.296 E0.08058
G1 X114.474 Y84.296 E0.39155
G1 X114.474 Y81.786 E0.07870
G1 X114.297 Y81.367 F10800.000
G1 E-0.80000 F2100.00000
G1 Z0.800 F10800.000
G1 X114.096 Y84.449
G1 Z0.200
G1 E0.80000 F2100.00000
G1 F1200.000
G1 X113.671 Y84.449 E0.01335
G1 X113.671 Y78.323 E0.19207
G1 X114.096 Y78.323 E0.01335
G1 X114.096 Y84.389 E0.19019
G1 E-0.80000 F2100.00000
G1 Z0.800 F10800.000
G1 X114.474 Y81.046
G1 Z0.200
G1 E0.80000 F2100.00000
G1 F1200.000
G1 X114.474 Y78.476 E0.08058
G1 X126.962 Y78.476 E0.39155
G1 X126.962 Y81.046 E0.08058
G1 X114.534 Y81.046 E0.38967
G1 X114.074 Y81.073 F10800.000
G1 E-0.80000 F2100.00000
G1 Z0.800 F10800.000
G1 X128.142 Y81.046
G1 Z0.200
G1 E0.80000 F2100.00000
G1 F1200.000
G1 X128.142 Y78.476 E0.08058
G1 X140.630 Y78.476 E0.39155
G1 X140.630 Y81.046 E0.08058
G1 X128.202 Y81.046 E0.38967
G1 X127.742 Y81.073 F10800.000
G1 X128.202 Y81.726
G1 F1200.000
G1 X140.630 Y81.726 E0.38967
G1 X140.630 Y84.296 E0.08058
G1 X128.142 Y84.296 E0.39155
G1 X128.142 Y81.726 E0.08058
G1 X128.026 Y81.367 F10800.000
G1 E-0.80000 F2100.00000
G1 Z0.800 F10800.000
G1 X127.764 Y84.449
G1 Z0.200
G1 E0.80000 F2100.00000
G1 F1200.000
G1 X127.339 Y84.449 E0.01335
G1 X127.339 Y78.323 E0.19207
G1 X127.764 Y78.323 E0.01335
G1 X127.764 Y84.389 E0.19019
G1 E-0.80000 F2100.00000
G1 Z0.800 F10800.000
G1 X141.810 Y81.046
G1 Z0.200
G1 E0.80000 F2100.00000
G1 F1200.000
G1 X141.810 Y78.476 E0.08058
G1 X154.298 Y78.476 E0.39155
G1 X154.298 Y81.046 E0.08058
G1 X141.870 Y81.046 E0.38967
G1 X141.410 Y81.073 F10800.000
G1 X141.870 Y81.726
G1 F1200.000
G1 X154.298 Y81.726 E0.38967
G1 X154.298 Y84.296 E0.08058
G1 X141.810 Y84.296 E0.39155
G1 X141.810 Y81.726 E0.08058
G1 X141.694 Y81.367 F10800.000
G1 E-0.80000 F2100.00000
G1 Z0.800 F10800.000
G1 X141.432 Y84.449
G1 Z0.200
G1 E0.80000 F2100.00000
G1 F1200.000
G1 X141.007 Y84.449 E0.01335
G1 X141.007 Y78.323 E0.19207
G1 X141.432 Y78.323 E0.01335
G1 X141.432 Y84.389 E0.19019
G1 E-0.80000 F2100.00000
G1 Z0.800 F10800.000
G1 X154.675 Y84.389
G1 Z0.200
G1 E0.80000 F2100.00000
G1 F1200.000
G1 X154.675 Y78.323 E0.19019
G1 X155.072 Y78.323 E0.01246
G1 X154.966 Y84.449 E0.19210
G1 X154.675 Y84.449 E0.00915
G1 E-0.80000 F2100.00000
G1 Z0.800 F10800.000
G1 X100.429 Y84.449
G1 Z0.200
G1 E0.80000 F2100.00000
G1 F1200.000
G1 X100.003 Y84.449 E0.01335
G1 X100.003 Y78.323 E0.19207
G1 X100.429 Y78.323 E0.01335
G1 X100.429 Y84.389 E0.19019
G1 X100.806 Y84.296 F10800.000
G1 F1200.000
G1 X100.806 Y81.726 E0.08058
G1 X113.294 Y81.726 E0.39155
G1 X113.294 Y84.296 E0.08058
G1 X100.866 Y84.296 E0.38967
G1 X100.406 Y84.323 F10800.000
G1 E-0.80000 F2100.00000
G1 Z0.800 F10800.000
G1 X100.866 Y81.046
G1 Z0.200
G1 E0.80000 F2100.00000
G1 F1200.000
G1 X100.806 Y81.046 E0.00188
G1 X100.806 Y78.476 E0.08058
G1 X113.294 Y78.476 E0.39155
G1 X113.294 Y81.046 E0.08058
G1 X100.926 Y81.046 E0.38779
G1 X100.839 Y81.100 F10800.000
G1 X99.626 Y81.046
G1 F1200.000
G1 X87.138 Y81.046 E0.39155
G1 X87.138 Y78.476 E0.08058
G1 X99.626 Y78.476 E0.39155
G1 X99.626 Y80.986 E0.07870
G1 X99.802 Y81.405 F10800.000
G1 X99.626 Y81.726
G1 F1200.000
G1 X99.626 Y84.296 E0.08058
G1 X87.138 Y84.296 E0.39155
G1 X87.138 Y81.726 E0.08058
G1 X99.566 Y81.726 E0.38967
G1 X100.025 Y81.699 F10800.000
G1 E-0.80000 F2100.00000
G1 Z0.800 F10800.000
G1 X86.761 Y84.449
G1 Z0.200
G1 E0.80000 F2100.00000
G1 F1200.000
G1 X86.469 Y84.449 E0.00915
G1 X86.363 Y78.323 E0.19210
G1 X86.761 Y78.323 E0.01246
G1 X86.761 Y84.389 E0.19019
G1 X86.098 Y84.826 F10800.000
G1 F1200.000
G1 X85.979 Y77.946 E0.21575
G1 X155.456 Y77.946 E2.17838
G1 X155.337 Y84.826 E0.21575
G1 X86.158 Y84.826 E2.16906
G1 X86.282 Y84.471 F10800.000
G1 X86.949 Y84.561
G1 F1200.000
G1 X99.814 Y84.561 E0.16358
G1 X100.617 Y84.561 F10800.000
G1 F1200.000
G1 X113.482 Y84.561 E0.16358
G1 X114.285 Y84.561 F10800.000
G1 F1200.000
G1 X127.150 Y84.561 E0.16358
G1 X127.953 Y84.561 F10800.000
G1 F1200.000
G1 X140.818 Y84.561 E0.16358
G1 X141.621 Y84.561 F10800.000
G1 F1200.000
G1 X154.486 Y84.561 E0.16358
M73 P8 R12
G1 E-0.80000 F2100.00000
G1 Z0.800 F10800.000
G1 X154.486 Y81.386
G1 Z0.200
G1 E0.80000 F2100.00000
G1 F1200.000
G1 X141.621 Y81.386 E0.32405
G1 X140.818 Y81.386 F10800.000
G1 F1200.000
G1 X127.953 Y81.386 E0.32405
G1 X127.150 Y81.386 F10800.000
G1 F1200.000
G1 X114.285 Y81.386 E0.32405
G1 X113.482 Y81.386 F10800.000
G1 F1200.000
G1 X100.617 Y81.386 E0.32405
G1 X99.814 Y81.386 F10800.000
G1 F1200.000
G1 X86.949 Y81.386 E0.32405
G1 E-0.80000 F2100.00000
G1 Z0.800 F10800.000
G1 X86.949 Y78.211
G1 Z0.200
G1 E0.80000 F2100.00000
G1 F1200.000
G1 X99.814 Y78.211 E0.16360
G1 X100.617 Y78.211 F10800.000
G1 F1200.000
G1 X113.482 Y78.211 E0.16360
G1 X114.285 Y78.211 F10800.000
G1 F1200.000
G1 X127.150 Y78.211 E0.16360
G1 X127.953 Y78.211 F10800.000
G1 F1200.000
G1 X140.818 Y78.211 E0.16360
G1 X141.621 Y78.211 F10800.000
G1 F1200.000
G1 X154.486 Y78.211 E0.16360
G1 E-0.80000 F2100.00000
G1 Z0.800 F10800.000
G1 X114.150 Y104.815
G1 Z0.200
G1 E0.80000 F2100.00000
G1 F1200.000
G1 X114.150 Y108.135 E0.10410
G1 X107.180 Y108.135 E0.21854
G1 X107.180 Y104.815 E0.10410
G1 X114.090 Y104.815 E0.21666
G1 X114.545 Y104.756 F10800.000
G1 X114.090 Y104.135
G1 F1200.000
G1 X107.180 Y104.135 E0.21666
G1 X107.180 Y100.815 E0.10410
G1 X114.150 Y100.815 E0.21854
G1 X114.150 Y104.135 E0.10410
G1 X114.236 Y104.507 F10800.000
G1 E-0.80000 F2100.00000
G1 Z0.800 F10800.000
G1 X114.151 Y100.135
G1 Z0.200
G1 E0.80000 F2100.00000
G1 F1200.000
G1 X107.180 Y100.135 E0.21857
G1 X107.180 Y96.815 E0.10411
G1 X112.328 Y96.822 E0.16143
G1 X112.819 Y96.857 E0.01542
G1 X113.922 Y97.043 E0.03508
G1 X114.116 Y98.202 E0.03685
G1 X114.145 Y98.719 E0.01623
G1 X114.150 Y100.075 E0.04252
G1 X114.153 Y100.535 F10800.000
G1 E-0.80000 F2100.00000
G1 Z0.800 F10800.000
G1 X106.840 Y93.956
G1 Z0.200
G1 E0.80000 F2100.00000
G1 F1200.000
G1 X106.802 Y93.616 E0.01072
G1 X106.671 Y93.126 E0.01590
G1 X107.011 Y93.119 E0.01064
G1 X106.878 Y93.616 E0.01614
G1 X106.847 Y93.896 E0.00884
G1 E-0.80000 F2100.00000
G1 Z0.800 F10800.000
G1 X99.779 Y93.015
G1 Z0.200
G1 E0.80000 F2100.00000
G1 F1200.000
G1 X106.251 Y93.015 E0.20294
G1 X106.430 Y93.686 E0.02178
G1 X106.489 Y94.213 E0.01661
G1 X106.501 Y96.135 E0.06027
G1 X99.529 Y96.135 E0.21862
G1 X99.541 Y94.213 E0.06027
G1 X99.599 Y93.686 E0.01661
G1 X99.763 Y93.073 E0.01990
G1 X99.805 Y92.616 F10800.000
G1 X99.347 Y93.168
G1 F1200.000
G1 X99.228 Y93.616 E0.01454
G1 X99.193 Y93.924 E0.00972
G1 X99.149 Y93.193 E0.02297
G1 X99.288 Y93.176 E0.00438
G1 X98.778 Y93.301 F10800.000
G1 F1200.000
G1 X98.847 Y94.435 E0.03561
G1 X98.850 Y96.135 E0.05330
G1 X96.664 Y96.135 E0.06857
G1 X97.582 Y94.250 E0.06575
G1 X98.187 Y93.184 E0.03842
G1 X98.719 Y93.290 E0.01701
G1 X99.164 Y93.197 F10800.000
G1 X97.696 Y93.275
G1 F1200.000
G1 X97.246 Y94.078 E0.02885
G1 X96.096 Y96.438 E0.08231
G1 X95.884 Y96.438 E0.00665
G1 X97.412 Y93.284 E0.10986
G1 X97.636 Y93.277 E0.00703
G1 E-0.80000 F2100.00000
G1 Z0.800 F10800.000
G1 X96.057 Y96.815
G1 Z0.200
G1 E0.80000 F2100.00000
G1 F1200.000
G1 X98.850 Y96.815 E0.08756
G1 X98.850 Y100.135 E0.10410
G1 X97.715 Y100.135 E0.03557
G1 X97.265 Y99.033 E0.03734
G1 X96.868 Y98.223 E0.02827
G1 X96.087 Y96.867 E0.04906
G1 X95.991 Y96.420 F10800.000
G1 E-0.80000 F2100.00000
G1 Z0.800 F10800.000
G1 X99.530 Y96.867
G1 Z0.200
G1 E0.80000 F2100.00000
G1 F1200.000
G1 X99.530 Y96.815 E0.00163
G1 X106.500 Y96.815 E0.21854
G1 X106.500 Y100.135 E0.10410
G1 X99.530 Y100.135 E0.21854
G1 X99.530 Y96.927 E0.10058
G1 X99.479 Y96.859 F10800.000
G1 E-0.80000 F2100.00000
G1 Z0.800 F10800.000
G1 X99.530 Y100.815
G1 Z0.200
G1 E0.80000 F2100.00000
G1 F1200.000
G1 X106.500 Y100.815 E0.21854
G1 X106.500 Y104.135 E0.10410
G1 X99.530 Y104.135 E0.21854
G1 X99.530 Y100.875 E0.10222
G1 X99.383 Y100.443 F10800.000
G1 E-0.80000 F2100.00000
G1 Z0.800 F10800.000
G1 X99.530 Y104.815
G1 Z0.200
G1 E0.80000 F2100.00000
G1 F1200.000
G1 X106.500 Y104.815 E0.21854
G1 X106.500 Y108.135 E0.10410
G1 X99.530 Y108.135 E0.21854
G1 X99.530 Y104.875 E0.10221
G1 X99.383 Y104.443 F10800.000
G1 E-0.80000 F2100.00000
G1 Z0.800 F10800.000
G1 X99.530 Y108.815
G1 Z0.200
G1 E0.80000 F2100.00000
G1 F1200.000
G1 X106.502 Y108.815 E0.21861
G1 X106.481 Y110.739 E0.06033
G1 X106.416 Y111.262 E0.01653
G1 X106.256 Y111.932 E0.02160
G1 X105.155 Y111.951 E0.03454
G1 X103.261 Y112.121 E0.05961
G1 X99.530 Y112.136 E0.11699
G1 X99.530 Y108.875 E0.10224
G1 X99.419 Y108.431 F10800.000
G1 X99.153 Y108.438
G1 F1200.000
G1 X97.517 Y108.438 E0.05129
G1 X97.662 Y108.002 E0.01440
G1 X97.955 Y106.681 E0.04243
G1 X98.110 Y105.337 E0.04243
G1 X98.125 Y103.983 E0.04243
G1 X98.001 Y102.636 E0.04243
G1 X97.738 Y101.308 E0.04243
G1 X97.492 Y100.512 E0.02613
G1 X99.153 Y100.512 E0.05207
G1 X99.153 Y108.378 E0.24663
G1 X98.850 Y108.815 F10800.000
G1 F1200.000
G1 X98.850 Y112.135 E0.10410
G1 X96.109 Y112.135 E0.08595
G1 X96.907 Y110.729 E0.05070
G1 X97.298 Y109.919 E0.02819
G1 X97.741 Y108.815 E0.03731
G1 X98.790 Y108.815 E0.03288
G1 X99.241 Y108.733 F10800.000
G1 E-0.80000 F2100.00000
G1 Z0.800 F10800.000
G1 X95.732 Y112.034
G1 Z0.200
G1 E0.80000 F2100.00000
G1 F1200.000
G1 X95.480 Y112.479 E0.01604
G1 X95.318 Y112.502 E0.00512
G1 X95.696 Y112.082 E0.01772
G1 E-0.80000 F2100.00000
G1 Z0.800 F10800.000
G1 X106.713 Y111.644
G1 Z0.200
G1 E0.80000 F2100.00000
G1 F1200.000
G1 X106.788 Y111.329 E0.01013
G1 X106.835 Y110.949 E0.01202
G1 X106.878 Y111.334 E0.01214
G1 X106.947 Y111.595 E0.00847
G1 X106.772 Y111.631 E0.00563
G1 E-0.80000 F2100.00000
G1 Z0.800 F10800.000
G1 X114.830 Y108.135
G1 Z0.200
G1 E0.80000 F2100.00000
G1 F1200.000
G1 X114.830 Y104.815 E0.10411
G1 X120.456 Y104.826 E0.17641
G1 X120.958 Y104.885 E0.01584
G1 X121.597 Y105.065 E0.02082
G1 X121.609 Y105.715 E0.02039
G1 X121.777 Y108.090 E0.07465
G1 X120.447 Y108.133 E0.04173
G1 X114.890 Y108.135 E0.17424
G1 X114.430 Y108.136 F10800.000
G1 E-0.80000 F2100.00000
G1 Z0.800 F10800.000
G1 X120.702 Y104.475
G1 Z0.200
G1 E0.80000 F2100.00000
G1 F1200.000
G1 X121.031 Y104.436 E0.01041
G1 X121.393 Y104.334 E0.01178
G1 X121.426 Y104.625 E0.00918
G1 X121.031 Y104.514 E0.01284
G1 X120.761 Y104.482 E0.00853
G1 E-0.80000 F2100.00000
G1 Z0.800 F10800.000
G1 X120.763 Y100.590
G1 Z0.200
G1 E0.80000 F2100.00000
G1 F1200.000
G1 X120.333 Y100.512 E0.01369
G1 X120.732 Y100.500 E0.01250
G1 X120.743 Y100.533 E0.00109
G1 E-0.80000 F2100.00000
G1 Z0.800 F10800.000
G1 X114.466 Y98.010
G1 Z0.200
G1 E0.80000 F2100.00000
G1 F1200.000
G1 X114.447 Y97.894 E0.00369
G1 X114.467 Y97.913 E0.00087
G1 X114.467 Y97.950 E0.00117
G1 E-0.80000 F2100.00000
G1 Z0.800 F10800.000
G1 X107.429 Y93.015
G1 Z0.200
G1 E0.80000 F2100.00000
G1 F1200.000
G1 X107.249 Y93.686 E0.02178
G1 X107.191 Y94.213 E0.01661
G1 X107.179 Y96.135 E0.06029
G1 X113.032 Y96.121 E0.18353
G1 X113.262 Y96.324 E0.00961
G1 X113.662 Y96.591 E0.01507
G1 X113.999 Y96.889 E0.01412
G1 X114.338 Y97.195 E0.01430
G1 X114.642 Y97.560 E0.01489
G1 X114.845 Y97.751 E0.00877
G1 X114.828 Y100.135 E0.07474
G1 X120.342 Y100.135 E0.17288
G1 X120.998 Y100.115 E0.02056
G1 X121.215 Y100.742 E0.02080
G1 X121.258 Y101.015 E0.00867
G1 X120.940 Y101.015 E0.00998
G1 X120.481 Y100.914 E0.01472
G1 X119.991 Y100.844 E0.01554
G1 X119.503 Y100.819 E0.01532
G1 X114.830 Y100.815 E0.14652
G1 X114.830 Y104.135 E0.10412
G1 X120.456 Y104.124 E0.17641
G1 X120.958 Y104.065 E0.01584
G1 X121.600 Y103.884 E0.02092
G1 X121.600 Y103.174 E0.02227
G1 X121.746 Y104.099 E0.02937
G1 X121.801 Y104.588 E0.01542
G1 X121.975 Y105.547 E0.03057
G1 X122.176 Y107.985 E0.07672
G1 X122.258 Y108.577 E0.01873
G1 X121.119 Y108.815 E0.03649
G1 X114.830 Y108.815 E0.19719
G1 X114.830 Y110.129 E0.04121
G1 X114.150 Y110.271 E0.02178
G1 X114.150 Y108.815 E0.04566
G1 X107.179 Y108.815 E0.21858
G1 X107.191 Y110.737 E0.06027
G1 X107.249 Y111.264 E0.01661
G1 X107.415 Y111.883 E0.02008
G1 X105.336 Y112.316 E0.06657
G1 X103.386 Y112.537 E0.06154
G1 X101.979 Y112.815 E0.04496
G1 X99.530 Y112.815 E0.07679
G1 X99.530 Y113.326 E0.01604
G1 X98.850 Y113.469 E0.02178
G1 X98.850 Y112.815 E0.02050
G1 X96.080 Y112.819 E0.08686
G1 X95.594 Y112.843 E0.01525
G1 X95.105 Y112.914 E0.01547
G1 X94.649 Y113.015 E0.01465
G1 X94.205 Y113.013 E0.01393
G1 X94.443 Y112.750 E0.01112
G1 X94.776 Y112.488 E0.01330
G1 X95.112 Y112.180 E0.01430
G1 X95.403 Y111.844 E0.01393
G1 X95.677 Y111.482 E0.01423
G1 X96.341 Y110.346 E0.04126
G1 X96.883 Y109.148 E0.04121
G1 X97.298 Y107.902 E0.04121
G1 X97.583 Y106.619 E0.04121
G1 X97.733 Y105.313 E0.04121
G1 X97.748 Y103.999 E0.04121
G1 X97.627 Y102.690 E0.04121
G1 X97.372 Y101.401 E0.04121
G1 X96.984 Y100.145 E0.04121
G1 X96.470 Y98.936 E0.04121
G1 X95.833 Y97.786 E0.04121
G1 X95.230 Y96.923 E0.03300
G1 X97.172 Y92.915 E0.13963
G1 X97.904 Y92.891 E0.02296
G1 X98.391 Y92.852 E0.01533
G1 X98.886 Y92.846 E0.01551
G1 X99.864 Y92.722 E0.03092
G1 X106.210 Y92.722 E0.19900
