; generated by PrusaSlicer 2.1.0+ on 2019-10-01 at 21:49:40 UTC

; 

; external perimeters extrusion width = 0.45mm
; perimeters extrusion width = 0.45mm
; infill extrusion width = 0.45mm
; solid infill extrusion width = 0.45mm
; top infill extrusion width = 0.40mm
; support material extrusion width = 0.35mm
; first layer extrusion width = 0.42mm

M73 P0 R90
M201 X9000 Y9000 Z500 E10000 ; sets maximum accelerations, mm/sec^2
M203 X500 Y500 Z12 E120 ; sets maximum feedrates, mm/sec
M204 P2000 R1500 T2000 ; sets acceleration (P, T) and retract acceleration (R), mm/sec^2
M205 X10.00 Y10.00 Z0.20 E2.50 ; sets the jerk limits, mm/sec
M205 S0 T0 ; sets the minimum extruding and travel feed rate, mm/sec
M107
M862.3 P "MK2.5SMMU2S" ; printer model check
M862.1 P0.4 ; nozzle diameter check
M115 U3.8.0 ; tell printer latest fw version
G90 ; use absolute coordinates
M83 ; extruder relative mode
M104 S230 ; set extruder temp
M140 S60 ; set bed temp
Tx
M190 S60 ; wait for bed temp
M109 S230 ; wait for extruder temp
G28 W ; home all without mesh bed level
G80 ; mesh bed leveling

G21 ; set units to millimeters

;go outside print area
G1 Y-3.0 F1000.0
G1 Z0.4 F1000.0
; select extruder
Tc
; purge line
G1 X55.0 F2000.0
G1 Z0.3 F1000.0
G92 E0.0
G1 X240.0 E25.0 F2200.0
M73 P0 R90
G1 Y-2.0 F1000.0
G1 X55.0 E25 F1400.0
G1 Z0.20 F1000.0
G1 X5.0 E4.0 F1000.0
G92 E0.0
G21 ; set units to millimeters
G90 ; use absolute coordinates
M83 ; use relative distances for extrusion
M900 K30 ; Filament gcode
;BEFORE_LAYER_CHANGE
G92 E0.0
;0.2


G1 E-0.80000 F2100.00000
G1 Z0.600 F10800.000
;AFTER_LAYER_CHANGE
;0.2
G1 X82.993 Y71.793
G1 Z0.200
G1 E0.80000 F2100.00000
M204 S1000
G1 F1200
G1 X83.685 Y71.343 E0.02586
G1 X84.493 Y71.182 E0.02586
G1 X165.493 Y71.182 E2.53969
G1 X166.293 Y71.334 E0.02552
G1 X166.984 Y71.771 E0.02563
G1 X167.465 Y72.428 E0.02552
G1 X167.673 Y73.218 E0.02563
G1 X167.655 Y102.320 E0.91248
G1 X155.502 Y141.786 E1.29475
G1 X155.273 Y142.283 E0.01714
G1 X154.931 Y142.705 E0.01703
G1 X154.253 Y143.148 E0.02541
G1 X153.460 Y143.315 E0.02541
G1 X133.645 Y143.139 E0.62129
G1 X97.311 Y138.681 E1.14777
G1 X96.617 Y138.464 E0.02281
G1 X96.029 Y138.029 E0.02293
G1 X95.564 Y137.297 E0.02721
G1 X82.363 Y102.422 E1.16919
G1 X82.322 Y73.326 E0.91227
G1 X82.505 Y72.493 E0.02676
G1 X82.959 Y71.842 E0.02488
G1 F8640
G1 X83.685 Y71.343 E-0.20333
G1 X84.493 Y71.182 E-0.19042
G1 X86.080 Y71.182 E-0.36625
G1 E-0.04000 F2100.00000
G1 Z0.800 F10800.000
G1 X97.607 Y119.263
G1 Z0.200
G1 E0.80000 F2100.00000
G1 F1200
G1 X97.607 Y107.342 E0.37378
G1 X98.361 Y107.342 E0.02365
G1 X98.361 Y118.269 E0.34261
G1 X99.115 Y117.515 E0.03344
G1 X99.115 Y107.342 E0.31897
G1 X99.869 Y107.342 E0.02365
G1 X99.869 Y112.690 E0.16767
G1 X100.624 Y112.690 E0.02365
G1 X100.624 Y107.342 E0.16767
G1 X101.378 Y107.342 E0.02365
G1 X101.378 Y112.690 E0.16767
G1 X102.132 Y112.690 E0.02365
G1 X102.132 Y107.342 E0.16767
G1 X102.886 Y107.342 E0.02365
G1 X102.886 Y112.690 E0.16767
G1 X103.640 Y112.690 E0.02365
G1 X103.640 Y107.342 E0.16767
G1 X104.394 Y107.342 E0.02365
G1 X104.394 Y112.690 E0.16767
G1 X105.149 Y112.690 E0.02365
G1 X105.149 Y107.342 E0.16767
G1 X105.903 Y107.342 E0.02365
G1 X105.903 Y112.690 E0.16767
G1 X106.657 Y112.690 E0.02365
G1 X106.657 Y107.342 E0.16767
G1 X107.411 Y107.342 E0.02365
G1 X107.411 Y112.690 E0.16767
G1 X108.165 Y112.690 E0.02365
G1 X108.165 Y107.342 E0.16767
G1 X108.919 Y107.342 E0.02365
G1 X108.919 Y112.690 E0.16767
G1 X109.673 Y112.690 E0.02365
G1 X109.673 Y107.342 E0.16767
G1 X110.428 Y107.342 E0.02365
G1 X110.428 Y112.690 E0.16767
G1 X111.182 Y112.690 E0.02365
G1 X111.182 Y107.342 E0.16767
G1 X111.936 Y107.342 E0.02365
G1 X111.936 Y114.579 E0.22691
G1 X112.690 Y114.579 E0.02365
G1 X112.690 Y107.342 E0.22691
G1 X113.444 Y107.342 E0.02365
G1 X113.444 Y114.579 E0.22691
G1 X114.198 Y114.579 E0.02365
G1 X114.198 Y107.342 E0.22691
G1 X114.370 Y107.342 E0.00537
G1 X114.370 Y111.956 E0.14467
G1 X114.953 Y111.956 E0.01828
G1 X114.953 Y114.579 E0.08224
G1 X115.707 Y114.579 E0.02365
G1 X115.707 Y111.956 E0.08224
G1 X116.461 Y111.956 E0.02365
G1 X116.461 Y114.579 E0.08224
G1 X117.215 Y114.579 E0.02365
G1 X117.215 Y111.956 E0.08224
G1 X117.969 Y111.956 E0.02365
G1 X117.969 Y114.579 E0.08224
G1 X118.668 Y114.579 E0.02191
G1 X118.668 Y117.438 E0.08964
G1 X118.723 Y117.438 E0.00173
G1 X118.723 Y111.956 E0.17188
G1 X119.478 Y111.956 E0.02365
G1 X119.478 Y117.438 E0.17188
G1 X120.232 Y117.438 E0.02365
G1 X120.232 Y111.956 E0.17188
G1 X120.986 Y111.956 E0.02365
G1 X120.986 Y117.608 E0.17720
G1 X118.124 Y117.611 F10800.000
G1 F1200
G1 X118.124 Y114.921 E0.06869
G1 X117.617 Y114.921 E0.01295
G1 X117.617 Y117.473 E0.06516
G1 X117.110 Y117.473 E0.01295
G1 X117.110 Y114.921 E0.06516
G1 X116.603 Y114.921 E0.01295
G1 X116.603 Y117.473 E0.06516
G1 X116.096 Y117.473 E0.01295
G1 X116.096 Y114.921 E0.06516
G1 X115.589 Y114.921 E0.01295
G1 X115.589 Y117.399 E0.06328
G1 X115.480 Y117.291 E0.00393
G1 X115.082 Y117.291 E0.01017
G1 X115.082 Y114.921 E0.06050
G1 X114.575 Y114.921 E0.01295
G1 X114.575 Y117.291 E0.06050
G1 X114.068 Y117.291 E0.01295
G1 X114.068 Y114.921 E0.06050
G1 X113.561 Y114.921 E0.01295
G1 X113.561 Y117.291 E0.06050
G1 X113.053 Y117.291 E0.01295
G1 X113.053 Y114.921 E0.06050
G1 X112.546 Y114.921 E0.01295
G1 X112.546 Y117.291 E0.06050
G1 X112.361 Y117.291 E0.00473
G1 X112.178 Y117.473 E0.00659
G1 X112.039 Y117.473 E0.00355
G1 X112.039 Y114.783 E0.06869
G1 F8640
G1 X112.039 Y117.473 E-0.62114
G1 X112.178 Y117.473 E-0.03213
G1 X112.361 Y117.291 E-0.05961
G1 X112.546 Y117.291 E-0.04280
G1 X112.546 Y117.272 E-0.00431
G1 E-0.04000 F2100.00000
G1 Z0.800 F10800.000
G1 X112.039 Y127.019
G1 Z0.200
G1 E0.80000 F2100.00000
G1 F1200
G1 X112.039 Y128.764 E0.04456
G1 X112.546 Y128.764 E0.01295
G1 X112.546 Y127.339 E0.03637
G1 X113.053 Y127.339 E0.01295
G1 X113.053 Y128.764 E0.03637
G1 X113.561 Y128.764 E0.01295
G1 X113.561 Y127.339 E0.03637
G1 X114.068 Y127.339 E0.01295
G1 X114.068 Y128.764 E0.03637
G1 X114.575 Y128.764 E0.01295
G1 X114.575 Y127.339 E0.03637
G1 X115.082 Y127.339 E0.01295
G1 X115.082 Y128.764 E0.03637
G1 X115.589 Y128.764 E0.01295
G1 X115.589 Y127.230 E0.03915
G1 X115.663 Y127.157 E0.00266
G1 X116.096 Y127.157 E0.01107
G1 X116.096 Y128.764 E0.04103
G1 X116.603 Y128.764 E0.01295
G1 X116.603 Y127.157 E0.04103
G1 X117.110 Y127.157 E0.01295
G1 X117.110 Y128.764 E0.04103
G1 X117.617 Y128.764 E0.01295
G1 X117.617 Y127.157 E0.04103
G1 X118.124 Y127.157 E0.01295
G1 X118.124 Y128.902 E0.04456
G1 X120.986 Y131.898 F10800.000
G1 F1200
G1 X120.986 Y127.192 E0.14757
G1 X120.232 Y127.192 E0.02365
G1 X120.232 Y131.729 E0.14225
G1 X119.478 Y131.729 E0.02365
G1 X119.478 Y127.192 E0.14225
G1 X118.723 Y127.192 E0.02365
G1 X118.723 Y131.729 E0.14225
G1 X117.969 Y131.729 E0.02365
G1 X117.969 Y129.106 E0.08224
G1 X117.215 Y129.106 E0.02365
G1 X117.215 Y131.729 E0.08224
G1 X116.461 Y131.729 E0.02365
G1 X116.461 Y129.106 E0.08224
G1 X115.707 Y129.106 E0.02365
G1 X115.707 Y131.729 E0.08224
G1 X114.953 Y131.729 E0.02365
G1 X114.953 Y129.106 E0.08224
G1 X114.198 Y129.106 E0.02365
G1 X114.198 Y136.343 E0.22691
G1 X113.444 Y136.343 E0.02365
G1 X113.444 Y129.106 E0.22691
G1 X112.690 Y129.106 E0.02365
G1 X112.690 Y136.343 E0.22691
G1 X111.936 Y136.343 E0.02365
G1 X111.936 Y129.106 E0.22691
G1 X111.752 Y129.106 E0.00576
G1 X111.752 Y131.698 E0.08127
G1 X111.510 Y131.940 E0.01074
G1 X111.182 Y131.940 E0.01029
G1 X111.182 Y136.343 E0.13805
G1 X110.428 Y136.343 E0.02365
G1 X110.428 Y131.940 E0.13805
G1 X109.673 Y131.940 E0.02365
G1 X109.673 Y136.343 E0.13805
G1 X108.919 Y136.343 E0.02365
G1 X108.919 Y131.940 E0.13805
G1 X108.165 Y131.940 E0.02365
G1 X108.165 Y136.343 E0.13805
G1 X107.411 Y136.343 E0.02365
G1 X107.411 Y131.940 E0.13805
G1 X106.657 Y131.940 E0.02365
G1 X106.657 Y136.343 E0.13805
G1 X105.903 Y136.343 E0.02365
G1 X105.903 Y131.940 E0.13805
G1 X105.149 Y131.940 E0.02365
G1 X105.149 Y136.343 E0.13805
G1 X104.394 Y136.343 E0.02365
G1 X104.394 Y131.940 E0.13805
G1 X103.640 Y131.940 E0.02365
G1 X103.640 Y136.343 E0.13805
G1 X102.886 Y136.343 E0.02365
G1 X102.886 Y131.940 E0.13805
G1 X102.132 Y131.940 E0.02365
G1 X102.132 Y136.343 E0.13805
G1 X101.378 Y136.343 E0.02365
G1 X101.378 Y131.940 E0.13805
G1 X100.624 Y131.940 E0.02365
G1 X100.624 Y136.343 E0.13805
G1 X99.869 Y136.343 E0.02365
G1 X99.869 Y131.940 E0.13805
G1 X99.698 Y131.940 E0.00537
G1 X99.456 Y131.698 E0.01074
G1 X99.456 Y127.455 E0.13302
G1 X99.115 Y127.115 E0.01510
G1 X99.115 Y136.343 E0.28934
G1 X98.361 Y136.343 E0.02365
G1 X98.361 Y126.360 E0.31299
G1 X97.607 Y125.606 E0.03344
G1 X97.607 Y136.512 E0.34195
G1 F8640
G1 X97.607 Y133.221 E-0.76000
G1 E-0.04000 F2100.00000
G1 Z0.800 F10800.000
G1 X127.019 Y138.820
G1 Z0.200
G1 E0.80000 F2100.00000
G1 F1200
G1 X127.019 Y128.106 E0.33592
G1 X127.773 Y128.106 E0.02365
G1 X127.773 Y138.650 E0.33060
G1 X128.527 Y138.650 E0.02365
G1 X128.527 Y128.106 E0.33060
G1 X129.282 Y128.106 E0.02365
G1 X129.282 Y138.650 E0.33060
G1 X130.036 Y138.650 E0.02365
G1 X130.036 Y128.106 E0.33060
G1 X130.257 Y128.106 E0.00693
G1 X130.257 Y133.182 E0.15916
G1 X130.499 Y133.424 E0.01074
G1 X130.790 Y133.424 E0.00913
G1 X130.790 Y138.650 E0.16385
G1 X131.544 Y138.650 E0.02365
G1 X131.544 Y133.424 E0.16385
G1 X132.298 Y133.424 E0.02365
G1 X132.298 Y138.650 E0.16385
G1 X133.052 Y138.650 E0.02365
G1 X133.052 Y133.424 E0.16385
G1 X133.807 Y133.424 E0.02365
G1 X133.818 Y140.957 E0.23618
G1 X134.561 Y140.957 E0.02330
G1 X134.561 Y133.424 E0.23618
G1 X135.315 Y133.424 E0.02365
G1 X135.315 Y140.957 E0.23618
G1 X136.069 Y140.957 E0.02365
G1 X136.069 Y133.424 E0.23618
G1 X136.823 Y133.424 E0.02365
G1 X136.823 Y140.957 E0.23618
G1 X137.577 Y140.957 E0.02365
G1 X137.577 Y133.424 E0.23618
G1 X138.332 Y133.424 E0.02365
G1 X138.332 Y140.957 E0.23618
M73 P1 R89
G1 X139.086 Y140.957 E0.02365
G1 X139.086 Y133.424 E0.23618
G1 X139.840 Y133.424 E0.02365
G1 X139.840 Y140.957 E0.23618
G1 X140.594 Y140.957 E0.02365
G1 X140.594 Y133.424 E0.23618
G1 X141.136 Y133.424 E0.01701
G1 X141.348 Y133.212 E0.00939
G1 X141.348 Y140.957 E0.24282
G1 X142.102 Y140.957 E0.02365
G1 X142.102 Y130.413 E0.33060
G1 X142.856 Y130.413 E0.02365
G1 X142.856 Y140.957 E0.33060
G1 X143.611 Y140.957 E0.02365
G1 X143.611 Y102.728 E1.19864
G1 X144.365 Y102.728 E0.02365
G1 X144.365 Y140.957 E1.19864
G1 X145.119 Y140.957 E0.02365
G1 X145.119 Y102.728 E1.19864
G1 X145.873 Y102.728 E0.02365
G1 X145.873 Y140.957 E1.19864
G1 X146.627 Y140.957 E0.02365
G1 X146.627 Y102.728 E1.19864
G1 X147.381 Y102.728 E0.02365
G1 X147.381 Y140.957 E1.19864
G1 X148.136 Y140.957 E0.02365
G1 X148.136 Y102.728 E1.19864
G1 X148.890 Y102.728 E0.02365
G1 X148.890 Y140.957 E1.19864
G1 X149.644 Y140.957 E0.02365
G1 X149.644 Y102.728 E1.19864
G1 X150.398 Y102.728 E0.02365
G1 X150.398 Y140.957 E1.19864
G1 X151.152 Y140.957 E0.02365
G1 X151.152 Y102.728 E1.19864
G1 X151.906 Y102.728 E0.02365
G1 X151.906 Y140.957 E1.19864
G1 X152.661 Y140.957 E0.02365
G1 X152.661 Y102.728 E1.19864
G1 X153.415 Y102.728 E0.02365
G1 X153.415 Y141.127 E1.20396
G1 X142.856 Y115.749 F10800.000
G1 F1200
G1 X142.856 Y102.728 E0.40826
G1 X142.102 Y102.728 E0.02365
G1 X142.102 Y115.579 E0.40294
G1 X141.379 Y115.579 E0.02269
G1 X141.379 Y111.448 E0.12953
G1 X141.348 Y111.417 E0.00135
G1 X141.348 Y102.728 E0.27245
G1 X140.594 Y102.728 E0.02365
G1 X140.594 Y111.206 E0.26581
G1 X139.840 Y111.206 E0.02365
G1 X139.840 Y102.728 E0.26581
G1 X139.086 Y102.728 E0.02365
G1 X139.086 Y111.206 E0.26581
G1 X138.332 Y111.206 E0.02365
G1 X138.332 Y102.728 E0.26581
G1 X137.577 Y102.728 E0.02365
G1 X137.577 Y111.206 E0.26581
G1 X136.823 Y111.206 E0.02365
G1 X136.823 Y102.728 E0.26581
G1 X136.069 Y102.728 E0.02365
G1 X136.069 Y111.206 E0.26581
G1 X135.315 Y111.206 E0.02365
G1 X135.315 Y102.728 E0.26581
G1 X134.561 Y102.728 E0.02365
G1 X134.561 Y111.206 E0.26581
G1 X133.807 Y111.206 E0.02365
G1 X133.807 Y105.035 E0.19347
G1 X133.052 Y105.035 E0.02365
G1 X133.052 Y111.206 E0.19347
G1 X132.298 Y111.206 E0.02365
G1 X132.298 Y105.035 E0.19347
G1 X131.544 Y105.035 E0.02365
G1 X131.544 Y111.206 E0.19347
G1 X130.790 Y111.206 E0.02365
G1 X130.790 Y105.035 E0.19347
G1 X130.036 Y105.035 E0.02365
G1 X130.036 Y115.579 E0.33060
G1 X129.282 Y115.579 E0.02365
G1 X129.282 Y105.035 E0.33060
G1 X128.527 Y105.035 E0.02365
G1 X128.527 Y115.579 E0.33060
G1 X127.773 Y115.579 E0.02365
G1 X127.773 Y105.035 E0.33060
G1 X127.019 Y105.035 E0.02365
G1 X127.019 Y115.749 E0.33592
G1 F8640
G1 X127.019 Y112.457 E-0.76000
G1 E-0.04000 F2100.00000
G1 Z0.800 F10800.000
G1 X131.257 Y132.424
G1 Z0.200
G1 E0.80000 F2100.00000
G1 F1200
G1 X131.257 Y126.191 E0.19542
G1 X110.752 Y126.191 E0.64294
G1 X110.752 Y130.939 E0.14888
G1 X100.457 Y130.939 E0.32280
G1 X100.457 Y113.690 E0.54083
G1 X110.752 Y113.690 E0.32280
G1 X110.752 Y118.439 E0.14888
G1 X131.257 Y118.439 E0.64294
G1 X131.257 Y112.206 E0.19542
G1 X140.378 Y112.206 E0.28598
G1 X140.378 Y132.424 E0.63390
G1 X131.317 Y132.424 E0.28410
G1 X130.880 Y132.801 F10800.000
G1 F1200
G1 X130.880 Y126.568 E0.19542
G1 X111.129 Y126.568 E0.61929
G1 X111.129 Y131.316 E0.14888
G1 X100.079 Y131.316 E0.34644
G1 X100.079 Y113.313 E0.56448
G1 X111.129 Y113.313 E0.34644
G1 X111.129 Y118.062 E0.14888
G1 X130.880 Y118.062 E0.61929
G1 X130.880 Y111.829 E0.19542
G1 X140.755 Y111.829 E0.30962
G1 X140.755 Y132.801 E0.65755
G1 X130.940 Y132.801 E0.30774
G1 X130.939 Y132.405 F10800.000
G1 X131.370 Y131.457
G1 F1200
G1 X132.055 Y132.141 E0.03042
G1 X132.589 Y132.141 E0.01681
G1 X131.540 Y131.092 E0.04664
G1 X131.540 Y130.557 E0.01681
G1 X133.124 Y132.141 E0.07041
G1 X133.659 Y132.141 E0.01681
G1 X131.540 Y130.022 E0.09418
G1 X131.540 Y129.488 E0.01681
G1 X134.193 Y132.141 E0.11795
G1 X134.728 Y132.141 E0.01681
G1 X131.540 Y128.953 E0.14172
G1 X131.540 Y128.418 E0.01681
G1 X135.263 Y132.141 E0.16549
G1 X135.797 Y132.141 E0.01681
G1 X131.540 Y127.884 E0.18926
G1 X131.540 Y127.349 E0.01681
G1 X136.332 Y132.141 E0.21303
G1 X136.867 Y132.141 E0.01681
G1 X131.540 Y126.814 E0.23680
G1 X131.540 Y126.280 E0.01681
G1 X137.571 Y132.310 E0.26811
G1 F8640
G1 X135.243 Y129.983 E-0.76000
G1 E-0.04000 F2100.00000
G1 Z0.800 F10800.000
G1 X140.265 Y113.084
G1 Z0.200
G1 E0.80000 F2100.00000
G1 F1200
G1 X139.670 Y112.489 E0.02644
G1 X139.136 Y112.489 E0.01681
G1 X140.095 Y113.449 E0.04266
G1 X140.095 Y113.983 E0.01681
M73 P2 R88
G1 X138.601 Y112.489 E0.06643
G1 X138.066 Y112.489 E0.01681
G1 X140.095 Y114.518 E0.09020
G1 X140.095 Y115.053 E0.01681
G1 X137.532 Y112.489 E0.11397
G1 X136.997 Y112.489 E0.01681
G1 X140.095 Y115.587 E0.13774
G1 X140.095 Y116.122 E0.01681
G1 X136.462 Y112.489 E0.16151
G1 X135.928 Y112.489 E0.01681
G1 X140.095 Y116.657 E0.18528
G1 X140.095 Y117.191 E0.01681
G1 X135.393 Y112.489 E0.20905
G1 X134.858 Y112.489 E0.01681
G1 X140.095 Y117.726 E0.23282
G1 X140.095 Y118.261 E0.01681
G1 X134.324 Y112.489 E0.25659
G1 X133.789 Y112.489 E0.01681
G1 X140.095 Y118.795 E0.28036
G1 X140.095 Y119.330 E0.01681
G1 X133.254 Y112.489 E0.30412
G1 X132.720 Y112.489 E0.01681
G1 X140.095 Y119.864 E0.32789
G1 X140.095 Y120.399 E0.01681
G1 X132.185 Y112.489 E0.35166
G1 X131.650 Y112.489 E0.01681
G1 X140.095 Y120.934 E0.37543
G1 X140.095 Y121.468 E0.01681
G1 X131.540 Y112.913 E0.38034
G1 X131.540 Y113.448 E0.01681
G1 X140.095 Y122.003 E0.38034
G1 X140.095 Y122.538 E0.01681
G1 X131.540 Y113.983 E0.38034
G1 X131.540 Y114.517 E0.01681
G1 X140.095 Y123.072 E0.38034
G1 X140.095 Y123.607 E0.01681
G1 X131.540 Y115.052 E0.38034
G1 X131.540 Y115.587 E0.01681
G1 X140.095 Y124.142 E0.38034
G1 X140.095 Y124.676 E0.01681
G1 X131.540 Y116.121 E0.38034
G1 X131.540 Y116.656 E0.01681
G1 X140.095 Y125.211 E0.38034
G1 X140.095 Y125.746 E0.01681
G1 X131.540 Y117.190 E0.38034
G1 X131.540 Y117.725 E0.01681
G1 X140.095 Y126.280 E0.38034
G1 X140.095 Y126.815 E0.01681
G1 X131.540 Y118.260 E0.38034
G1 X131.540 Y118.721 E0.01451
G1 X131.467 Y118.721 E0.00229
G1 X140.095 Y127.350 E0.38358
G1 X140.095 Y127.884 E0.01681
G1 X130.932 Y118.721 E0.40735
G1 X130.398 Y118.721 E0.01681
G1 X140.095 Y128.419 E0.43112
G1 X140.095 Y128.954 E0.01681
G1 X129.863 Y118.721 E0.45489
