; generated by PrusaSlicer 2.2.0+win64 on 2020-11-03 at 17:54:22 UTC

; 

; external perimeters extrusion width = 0.60mm
; perimeters extrusion width = 0.43mm
; infill extrusion width = 0.45mm
; solid infill extrusion width = 0.70mm
; top infill extrusion width = 0.43mm
; support material extrusion width = 0.37mm
; first layer extrusion width = 0.42mm

M73 P0 R26
M201 X9000 Y9000 Z500 E10000 ; sets maximum accelerations, mm/sec^2
M203 X500 Y500 Z12 E120 ; sets maximum feedrates, mm/sec
M204 P2000 R1500 T2000 ; sets acceleration (P, T) and retract acceleration (R), mm/sec^2
M205 X10.00 Y10.00 Z0.20 E2.50 ; sets the jerk limits, mm/sec
M205 S0 T0 ; sets the minimum extruding and travel feed rate, mm/sec
M107
M862.3 P "MK2.5SMMU2S" ; printer model check
M862.1 P0.4 ; nozzle diameter check
M115 U3.8.0 ; tell printer latest fw version
G90 ; use absolute coordinates
M83 ; extruder relative mode
M104 S215 ; set extruder temp
M140 S60 ; set bed temp
Tx
M190 S60 ; wait for bed temp
M109 S215 ; wait for extruder temp
G28 W ; home all without mesh bed level
G80 ; mesh bed leveling

G21 ; set units to millimeters

;go outside print area
G1 Y-3.0 F1000.0
G1 Z0.4 F1000.0
; select extruder
Tc
; purge line
G1 X55.0 F2000.0
G1 Z0.3 F1000.0
G92 E0.0
G1 X240.0 E25.0 F2200.0
M73 P0 R26
G1 Y-2.0 F1000.0
G1 X55.0 E25 F1400.0
G1 Z0.20 F1000.0
G1 X5.0 E4.0 F1000.0
G92 E0.0
G21 ; set units to millimeters
G90 ; use absolute coordinates
M83 ; use relative distances for extrusion
M900 K0.06 ; Filament gcode LA 1.5
M900 K30 ; Filament gcode LA 1.0
;BEFORE_LAYER_CHANGE
G92 E0.0
;0.2


G1 E-0.80000 F2100.00000
G1 Z0.600 F10800.000
;AFTER_LAYER_CHANGE
;0.2
G1 X117.028 Y66.273
G1 Z0.200
G1 E0.80000 F2100.00000
M204 S1000
G1 F1200.000
G1 X117.958 Y66.004 E0.03036
G1 X127.948 Y65.997 E0.31320
G1 X128.521 Y66.068 E0.01811
G1 X129.056 Y66.273 E0.01799
G1 X129.530 Y66.604 E0.01811
G1 X129.908 Y67.035 E0.01799
G1 X163.829 Y118.449 E1.93127
G1 X164.291 Y119.295 E0.03022
G1 X164.686 Y120.502 E0.03983
G1 X164.809 Y121.622 E0.03533
G1 X164.810 Y134.762 E0.41199
G1 X164.650 Y136.059 E0.04098
G1 X164.363 Y136.967 E0.02985
G1 X163.931 Y137.799 E0.02937
G1 X163.096 Y138.868 E0.04255
G1 X162.047 Y139.700 E0.04197
G1 X161.183 Y140.150 E0.03057
G1 X160.283 Y140.436 E0.02961
G1 X158.989 Y140.599 E0.04089
G1 X91.043 Y140.600 E2.13039
G1 X89.730 Y140.440 E0.04146
G1 X88.823 Y140.153 E0.02985
G1 X87.991 Y139.721 E0.02937
G1 X86.924 Y138.888 E0.04244
G1 X86.103 Y137.860 E0.04126
G1 X85.562 Y136.758 E0.03851
G1 X85.302 Y135.861 E0.02925
G1 X85.199 Y134.930 E0.02937
G1 X85.193 Y121.577 E0.41867
G1 X85.354 Y120.346 E0.03896
G1 X85.637 Y119.452 E0.02937
G1 X86.069 Y118.621 E0.02937
G1 X116.280 Y66.893 E1.87825
G1 X116.621 Y66.546 E0.01526
G1 X116.978 Y66.306 E0.01350
G1 E-0.80000 F2100.00000
G1 Z0.800 F10800.000
G1 X120.755 Y71.200
G1 Z0.200
G1 E0.80000 F2100.00000
G1 F1200.000
G1 X120.755 Y72.592 E0.03785
G1 X120.885 Y72.462 E0.00498
G1 X121.250 Y72.462 E0.00994
G1 X121.250 Y71.333 E0.03072
G1 X121.745 Y71.333 E0.01346
G1 X121.745 Y72.462 E0.03072
G1 X122.240 Y72.462 E0.01346
G1 X122.240 Y71.333 E0.03072
G1 X122.735 Y71.333 E0.01346
G1 X122.735 Y72.462 E0.03072
G1 X123.230 Y72.462 E0.01346
G1 X123.230 Y71.333 E0.03072
G1 X123.725 Y71.333 E0.01346
G1 X123.725 Y73.628 E0.06241
G1 X124.219 Y73.628 E0.01346
G1 X124.219 Y71.333 E0.06241
G1 X124.714 Y71.333 E0.01346
G1 X124.714 Y73.760 E0.06602
G1 E-0.80000 F2100.00000
G1 Z0.800 F10800.000
G1 X122.665 Y73.201
G1 Z0.200
G1 E0.80000 F2100.00000
G1 F1200.000
G1 X122.665 Y72.798 E0.01263
G1 X121.911 Y72.798 E0.02365
G1 X121.911 Y73.032 E0.00731
G1 X121.156 Y73.032 E0.02365
G1 X121.156 Y72.629 E0.01263
G1 X120.402 Y73.794 F10800.000
G1 F1200.000
G1 X120.402 Y76.586 E0.08756
G1 X119.648 Y76.586 E0.02365
G1 X119.648 Y68.374 E0.25750
G1 X120.402 Y68.374 E0.02365
G1 X120.402 Y70.997 E0.08224
G1 X121.156 Y70.997 E0.02365
G1 X121.156 Y68.374 E0.08224
G1 X121.911 Y68.374 E0.02365
G1 X121.911 Y70.997 E0.08224
G1 X122.665 Y70.997 E0.02365
G1 X122.665 Y68.374 E0.08224
G1 X123.419 Y68.374 E0.02365
G1 X123.419 Y70.997 E0.08224
G1 X124.173 Y70.997 E0.02365
G1 X124.173 Y68.374 E0.08224
G1 X124.927 Y68.374 E0.02365
G1 X124.927 Y71.166 E0.08756
G1 X127.944 Y76.756 F10800.000
G1 F1200.000
G1 X127.944 Y68.374 E0.26282
G1 X127.190 Y68.374 E0.02365
G1 X127.190 Y76.586 E0.25750
G1 X126.435 Y76.586 E0.02365
G1 X126.435 Y68.374 E0.25750
G1 X125.681 Y68.374 E0.02365
G1 X125.681 Y76.586 E0.25750
G1 X124.927 Y76.586 E0.02365
G1 X124.927 Y73.964 E0.08224
G1 X124.173 Y73.964 E0.02365
G1 X124.173 Y76.756 E0.08756
G1 E-0.80000 F2100.00000
G1 Z0.800 F10800.000
G1 X118.894 Y76.756
G1 Z0.200
G1 E0.80000 F2100.00000
G1 F1200.000
G1 X118.894 Y68.374 E0.26282
G1 X118.140 Y68.374 E0.02365
G1 X118.140 Y76.756 E0.26282
G1 E-0.80000 F2100.00000
G1 Z0.800 F10800.000
G1 X110.283 Y87.783
G1 Z0.200
G1 E0.80000 F2100.00000
G1 F1200.000
G1 X110.283 Y111.409 E0.74080
G1 X100.422 Y111.409 E0.30918
G1 X100.422 Y103.506 E0.24781
G1 X109.857 Y103.506 E0.29583
G1 X109.857 Y87.357 E0.50634
G1 X121.857 Y87.357 E0.37625
G1 X121.857 Y74.307 E0.40917
G1 X122.283 Y74.307 E0.01334
G1 X122.283 Y87.783 E0.42252
G1 X110.343 Y87.783 E0.37437
G1 X110.660 Y88.160 F10800.000
G1 F1200.000
G1 X110.660 Y111.786 E0.74080
G1 X100.045 Y111.786 E0.33282
G1 X100.045 Y103.129 E0.27146
G1 X109.480 Y103.129 E0.29583
G1 X109.480 Y86.980 E0.50634
G1 X121.480 Y86.980 E0.37625
G1 X121.480 Y73.930 E0.40917
G1 X122.660 Y73.930 E0.03699
G1 X122.660 Y88.160 E0.44616
G1 X110.720 Y88.160 E0.37437
G1 X110.276 Y88.274 F10800.000
G1 E-0.80000 F2100.00000
G1 Z0.800 F10800.000
G1 X100.535 Y110.528
G1 Z0.200
G1 E0.80000 F2100.00000
G1 F1200.000
G1 X101.134 Y111.127 E0.02677
G1 X101.671 Y111.127 E0.01699
G1 X100.705 Y110.160 E0.04320
G1 X100.705 Y109.622 E0.01699
G1 X102.209 Y111.127 E0.06722
G1 X102.746 Y111.127 E0.01699
G1 X100.705 Y109.085 E0.09125
G1 X100.705 Y108.547 E0.01699
G1 X103.284 Y111.127 E0.11527
G1 X103.821 Y111.127 E0.01699
G1 X100.705 Y108.010 E0.13929
G1 X100.705 Y107.472 E0.01699
G1 X104.359 Y111.127 E0.16331
G1 X104.896 Y111.127 E0.01699
G1 X100.705 Y106.935 E0.18733
G1 X100.705 Y106.398 E0.01699
G1 X105.434 Y111.127 E0.21135
G1 X105.971 Y111.127 E0.01699
G1 X100.705 Y105.860 E0.23537
G1 X100.705 Y105.323 E0.01699
G1 X106.509 Y111.127 E0.25940
G1 X107.046 Y111.127 E0.01699
G1 X100.705 Y104.785 E0.28342
G1 X100.705 Y104.248 E0.01699
G1 X107.584 Y111.127 E0.30744
G1 X108.121 Y111.127 E0.01699
G1 X100.783 Y103.789 E0.32795
G1 X101.321 Y103.789 E0.01699
G1 X108.659 Y111.127 E0.32795
G1 X109.196 Y111.127 E0.01699
G1 X101.858 Y103.789 E0.32795
G1 X102.396 Y103.789 E0.01699
G1 X109.734 Y111.127 E0.32795
G1 X110.000 Y111.127 E0.00841
G1 X110.000 Y110.855 E0.00857
G1 X102.933 Y103.789 E0.31583
G1 X103.471 Y103.789 E0.01699
G1 X110.000 Y110.318 E0.29181
G1 X110.000 Y109.780 E0.01699
G1 X104.008 Y103.789 E0.26779
G1 X104.546 Y103.789 E0.01699
G1 X110.000 Y109.243 E0.24376
G1 X110.000 Y108.705 E0.01699
G1 X105.083 Y103.789 E0.21974
G1 X105.621 Y103.789 E0.01699
G1 X110.000 Y108.168 E0.19572
G1 X110.000 Y107.630 E0.01699
G1 X106.158 Y103.789 E0.17170
G1 X106.695 Y103.789 E0.01699
G1 X110.000 Y107.093 E0.14768
G1 X110.000 Y106.555 E0.01699
G1 X107.233 Y103.789 E0.12366
G1 X107.770 Y103.789 E0.01699
G1 X110.000 Y106.018 E0.09964
G1 X110.000 Y105.480 E0.01699
G1 X108.308 Y103.789 E0.07562
G1 X108.845 Y103.789 E0.01699
G1 X110.000 Y104.943 E0.05159
G1 X110.000 Y104.405 E0.01699
G1 X109.383 Y103.789 E0.02757
G1 X109.920 Y103.789 E0.01699
G1 X110.170 Y104.038 E0.01114
G1 E-0.80000 F2100.00000
G1 Z0.800 F10800.000
G1 X124.451 Y89.228
G1 Z0.200
G1 E0.80000 F2100.00000
G1 F1200.000
G1 X124.451 Y99.905 E0.33477
G1 X125.205 Y99.905 E0.02365
G1 X125.205 Y89.398 E0.32945
G1 X125.959 Y89.398 E0.02365
G1 X125.959 Y99.905 E0.32945
G1 X126.713 Y99.905 E0.02365
G1 X126.713 Y89.398 E0.32945
G1 X127.468 Y89.398 E0.02365
G1 X127.468 Y99.905 E0.32945
G1 X128.222 Y99.905 E0.02365
G1 X128.222 Y89.398 E0.32945
G1 X128.976 Y89.398 E0.02365
G1 X128.976 Y99.905 E0.32945
G1 X129.730 Y99.905 E0.02365
G1 X129.730 Y89.398 E0.32945
M73 P4 R25
G1 X130.484 Y89.398 E0.02365
G1 X130.484 Y99.905 E0.32945
G1 X131.238 Y99.905 E0.02365
G1 X131.238 Y89.398 E0.32945
G1 X131.992 Y89.398 E0.02365
G1 X131.992 Y100.075 E0.33477
G1 X135.763 Y100.075 F10800.000
G1 F1200.000
G1 X135.763 Y95.423 E0.14587
G1 X135.665 Y95.601 E0.00639
G1 X135.465 Y95.863 E0.01033
G1 X135.238 Y96.070 E0.00963
G1 X135.009 Y96.217 E0.00854
G1 X135.009 Y99.905 E0.11563
G1 X134.255 Y99.905 E0.02365
G1 X134.255 Y96.433 E0.10886
G1 X133.836 Y96.409 E0.01316
G1 X133.501 Y96.314 E0.01092
G1 X133.501 Y99.905 E0.11259
G1 X132.747 Y99.905 E0.02365
G1 X132.747 Y95.751 E0.13024
G1 X132.629 Y95.582 E0.00647
G1 X132.483 Y95.286 E0.01033
G1 X132.395 Y94.969 E0.01033
G1 X132.367 Y94.663 E0.00963
G1 X132.395 Y94.334 E0.01033
G1 X132.483 Y94.017 E0.01033
G1 X132.629 Y93.721 E0.01033
G1 X132.747 Y93.552 E0.00647
G1 X132.747 Y89.398 E0.13024
G1 X133.501 Y89.398 E0.02365
G1 X133.501 Y92.989 E0.11259
G1 X133.836 Y92.894 E0.01092
G1 X134.255 Y92.870 E0.01316
G1 X134.255 Y89.398 E0.10886
G1 X135.009 Y89.398 E0.02365
G1 X135.009 Y93.086 E0.11563
G1 X135.238 Y93.233 E0.00854
G1 X135.465 Y93.440 E0.00963
G1 X135.665 Y93.702 E0.01033
G1 X135.763 Y93.880 E0.00639
G1 X135.763 Y89.398 E0.14055
G1 X136.517 Y89.398 E0.02365
G1 X136.517 Y100.075 E0.33477
G1 E-0.80000 F2100.00000
G1 Z0.800 F10800.000
G1 X134.364 Y95.325
G1 Z0.200
G1 E0.80000 F2100.00000
G1 F1200.000
G1 X134.212 Y95.356 E0.00485
G1 X134.088 Y95.356 E0.00390
G1 X133.837 Y95.285 E0.00816
G1 X133.735 Y95.222 E0.00379
G1 X133.603 Y95.093 E0.00579
G1 X133.517 Y94.961 E0.00493
G1 X133.472 Y94.845 E0.00389
G1 X133.448 Y94.586 E0.00816
G1 X133.519 Y94.336 E0.00816
G1 X133.676 Y94.128 E0.00816
G1 X133.897 Y93.991 E0.00816
G1 X134.013 Y93.958 E0.00378
G1 X134.199 Y93.948 E0.00583
G1 X134.352 Y93.973 E0.00488
G1 X134.468 Y94.018 E0.00390
G1 X134.676 Y94.175 E0.00816
G1 X134.749 Y94.271 E0.00378
G1 X134.827 Y94.442 E0.00589
G1 X134.858 Y94.592 E0.00482
G1 X134.858 Y94.717 E0.00391
G1 X134.787 Y94.967 E0.00816
G1 X134.630 Y95.175 E0.00816
G1 X134.534 Y95.247 E0.00378
G1 X134.418 Y95.300 E0.00397
G1 X134.728 Y95.573 F10800.000
G1 F1200.000
G1 X134.482 Y95.685 E0.00848
G1 X134.251 Y95.733 E0.00739
G1 X134.053 Y95.733 E0.00622
G1 X133.856 Y95.697 E0.00629
G1 X133.669 Y95.624 E0.00629
G1 X133.501 Y95.520 E0.00618
G1 X133.309 Y95.333 E0.00840
G1 X133.179 Y95.134 E0.00747
G1 X133.108 Y94.949 E0.00621
G1 X133.071 Y94.752 E0.00629
G1 X133.071 Y94.551 E0.00629
G1 X133.108 Y94.354 E0.00629
G1 X133.180 Y94.167 E0.00629
G1 X133.286 Y93.997 E0.00629
G1 X133.421 Y93.849 E0.00629
G1 X133.581 Y93.728 E0.00629
G1 X133.760 Y93.638 E0.00629
G1 X133.950 Y93.584 E0.00617
G1 X134.219 Y93.569 E0.00845
G1 X134.452 Y93.607 E0.00742
G1 X134.637 Y93.679 E0.00622
G1 X134.808 Y93.784 E0.00629
G1 X134.956 Y93.919 E0.00629
G1 X135.075 Y94.077 E0.00617
G1 X135.187 Y94.324 E0.00851
G1 X135.235 Y94.553 E0.00736
G1 X135.235 Y94.752 E0.00622
G1 X135.198 Y94.949 E0.00629
G1 X135.126 Y95.136 E0.00629
G1 X135.020 Y95.306 E0.00629
G1 X134.885 Y95.454 E0.00629
G1 X134.776 Y95.537 E0.00429
G1 X134.493 Y95.440 F10800.000
G1 X133.569 Y94.640
G1 F1200.000
G1 X133.933 Y95.004 E0.01733
G1 X134.038 Y95.056 E0.00392
G1 X134.196 Y95.071 E0.00536
G1 X134.375 Y95.009 E0.00637
G1 X134.445 Y94.944 E0.00319
G1 X133.860 Y94.359 E0.02781
G1 X133.932 Y94.294 E0.00327
G1 X134.075 Y94.238 E0.00514
G1 X134.184 Y94.232 E0.00368
G1 X134.264 Y94.245 E0.00273
G1 X134.371 Y94.299 E0.00403
G1 X134.737 Y94.665 E0.01740
G1 E-0.80000 F2100.00000
G1 Z0.800 F10800.000
G1 X126.587 Y103.369
G1 Z0.200
G1 E0.80000 F2100.00000
G1 F1200.000
G1 X126.872 Y103.717 E0.01410
G1 X127.084 Y104.113 E0.01410
G1 X127.215 Y104.544 E0.01410
G1 X127.259 Y104.991 E0.01410
G1 X127.215 Y105.439 E0.01410
G1 X127.084 Y105.869 E0.01410
G1 X126.872 Y106.266 E0.01410
G1 X126.587 Y106.614 E0.01410
G1 X126.239 Y106.899 E0.01410
G1 X125.843 Y107.111 E0.01410
G1 X125.412 Y107.242 E0.01410
G1 X124.965 Y107.286 E0.01410
G1 X124.517 Y107.242 E0.01410
G1 X124.087 Y107.111 E0.01410
G1 X123.690 Y106.899 E0.01410
G1 X123.342 Y106.614 E0.01410
G1 X123.057 Y106.266 E0.01410
G1 X122.845 Y105.869 E0.01410
G1 X122.714 Y105.439 E0.01410
G1 X122.670 Y104.991 E0.01410
G1 X122.714 Y104.544 E0.01410
G1 X122.845 Y104.113 E0.01410
G1 X123.057 Y103.717 E0.01410
G1 X123.342 Y103.369 E0.01410
G1 X123.690 Y103.084 E0.01410
G1 X124.087 Y102.871 E0.01410
G1 X124.514 Y102.742 E0.01401
G1 X124.993 Y102.700 E0.01507
G1 X125.412 Y102.741 E0.01321
G1 X125.843 Y102.871 E0.01410
G1 X126.239 Y103.084 E0.01410
G1 X126.541 Y103.331 E0.01222
G1 X126.855 Y103.101 F10800.000
G1 F1200.000
G1 X127.187 Y103.506 E0.01643
G1 X127.435 Y103.968 E0.01643
G1 X127.587 Y104.470 E0.01643
G1 X127.638 Y104.991 E0.01643
G1 X127.587 Y105.513 E0.01643
G1 X127.435 Y106.014 E0.01643
G1 X127.187 Y106.476 E0.01643
G1 X126.855 Y106.882 E0.01643
G1 X126.450 Y107.214 E0.01643
G1 X125.988 Y107.461 E0.01643
G1 X125.486 Y107.613 E0.01643
G1 X124.965 Y107.665 E0.01643
G1 X124.443 Y107.613 E0.01643
G1 X123.942 Y107.461 E0.01643
G1 X123.479 Y107.214 E0.01643
G1 X123.074 Y106.882 E0.01643
G1 X122.742 Y106.476 E0.01643
G1 X122.495 Y106.014 E0.01643
G1 X122.343 Y105.513 E0.01643
G1 X122.291 Y104.991 E0.01643
G1 X122.343 Y104.470 E0.01643
G1 X122.495 Y103.968 E0.01643
G1 X122.742 Y103.506 E0.01643
G1 X123.074 Y103.101 E0.01643
G1 X123.479 Y102.768 E0.01643
G1 X123.942 Y102.521 E0.01643
G1 X124.442 Y102.370 E0.01640
G1 X124.995 Y102.321 E0.01740
G1 X125.486 Y102.369 E0.01548
G1 X125.988 Y102.521 E0.01643
G1 X126.450 Y102.768 E0.01643
G1 X126.809 Y103.063 E0.01455
G1 X126.752 Y103.487 F10800.000
G1 E-0.80000 F2100.00000
G1 Z0.800 F10800.000
G1 X122.941 Y105.795
G1 Z0.200
G1 E0.80000 F2100.00000
G1 F1200.000
G1 X123.626 Y106.481 E0.03222
G1 X123.848 Y106.663 E0.00955
G1 X124.195 Y106.849 E0.01311
G1 X124.573 Y106.963 E0.01311
G1 X124.685 Y106.974 E0.00376
G1 X122.982 Y105.271 E0.08009
G1 X122.954 Y104.991 E0.00935
G1 X122.983 Y104.706 E0.00953
G1 X125.250 Y106.973 E0.10664
G1 X125.357 Y106.963 E0.00357
G1 X125.701 Y106.859 E0.01195
G1 X123.097 Y104.255 E0.12244
G1 X123.289 Y103.882 E0.01397
G1 X126.074 Y106.667 E0.13098
G1 X126.386 Y106.413 E0.01337
G1 X123.543 Y103.570 E0.13371
G1 X123.855 Y103.316 E0.01337
G1 X126.640 Y106.101 E0.13098
G1 X126.822 Y105.761 E0.01284
G1 X126.832 Y105.727 E0.00115
G1 X124.229 Y103.124 E0.12244
G1 X124.568 Y103.021 E0.01180
G1 X124.681 Y103.011 E0.00377
G1 X126.947 Y105.277 E0.10656
G1 X126.975 Y104.991 E0.00954
G1 X126.947 Y104.712 E0.00935
G1 X125.244 Y103.009 E0.08010
G1 X125.357 Y103.020 E0.00376
G1 X125.734 Y103.134 E0.01311
G1 X126.082 Y103.320 E0.01311
G1 X126.303 Y103.501 E0.00952
G1 X126.989 Y104.187 E0.03226
G1 E-0.80000 F2100.00000
G1 Z0.800 F10800.000
G1 X153.754 Y120.327
G1 Z0.200
G1 E0.80000 F2100.00000
G1 F1200.000
G1 X156.560 Y120.327 E0.08796
G1 X157.006 Y119.783 E0.02208
G1 X157.418 Y119.445 E0.01669
G1 X157.887 Y119.194 E0.01669
G1 X158.394 Y119.040 E0.01661
G1 X158.956 Y118.990 E0.01768
G1 X159.456 Y119.040 E0.01577
G1 X159.966 Y119.194 E0.01669
G1 X160.435 Y119.445 E0.01669
G1 X160.847 Y119.783 E0.01669
G1 X161.185 Y120.194 E0.01669
G1 X161.436 Y120.664 E0.01669
G1 X161.590 Y121.173 E0.01669
G1 X161.642 Y121.703 E0.01669
G1 X161.590 Y122.233 E0.01669
G1 X161.436 Y122.742 E0.01669
G1 X161.185 Y123.212 E0.01669
G1 X160.847 Y123.623 E0.01669
G1 X160.435 Y123.961 E0.01669
G1 X159.966 Y124.212 E0.01669
G1 X159.456 Y124.367 E0.01669
G1 X158.927 Y124.419 E0.01669
G1 X158.397 Y124.367 E0.01669
G1 X157.887 Y124.212 E0.01669
G1 X157.418 Y123.961 E0.01669
G1 X157.006 Y123.623 E0.01669
G1 X156.669 Y123.212 E0.01669
G1 X156.418 Y122.742 E0.01669
G1 X156.263 Y122.233 E0.01669
G1 X156.133 Y120.916 E0.04149
G1 X154.181 Y120.916 E0.06123
G1 X154.051 Y122.233 E0.04149
G1 X153.896 Y122.742 E0.01669
G1 X153.645 Y123.212 E0.01669
G1 X153.308 Y123.623 E0.01669
G1 X152.896 Y123.961 E0.01669
G1 X152.427 Y124.212 E0.01669
G1 X151.917 Y124.367 E0.01669
G1 X151.387 Y124.419 E0.01669
