; generated by PrusaSlicer 2.2.0+win64 on 2020-08-17 at 20:21:34 UTC

; 

; external perimeters extrusion width = 0.45mm
; perimeters extrusion width = 0.45mm
; infill extrusion width = 0.45mm
; solid infill extrusion width = 0.45mm
; top infill extrusion width = 0.40mm
; support material extrusion width = 0.35mm
; first layer extrusion width = 0.42mm

M73 P0 R99
M201 X9000 Y9000 Z500 E10000 ; sets maximum accelerations, mm/sec^2
M203 X500 Y500 Z12 E120 ; sets maximum feedrates, mm/sec
M204 P2000 R1500 T2000 ; sets acceleration (P, T) and retract acceleration (R), mm/sec^2
M205 X10.00 Y10.00 Z0.20 E4.50 ; sets the jerk limits, mm/sec
M205 S0 T0 ; sets the minimum extruding and travel feed rate, mm/sec
M107
M862.3 P "MK2.5SMMU2S" ; printer model check
M862.1 P0.4 ; nozzle diameter check
M115 U3.9.0 ; tell printer latest fw version
G90 ; use absolute coordinates
M83 ; extruder relative mode
M104 S215 ; set extruder temp
M140 S60 ; set bed temp
Tx
M190 S60 ; wait for bed temp
M109 S215 ; wait for extruder temp
G28 W ; home all without mesh bed level
G80 ; mesh bed leveling

;go outside print area
G1 Y-3.0 F1000.0
G1 Z0.4 F1000.0
; select extruder
Tc
; purge line
G1 X55.0 F2000.0
G1 Z0.3 F1000.0
G92 E0.0
G1 X240.0 E25.0 F2200.0
M73 P0 R99
G1 Y-2.0 F1000.0
G1 X55.0 E25 F1400.0
G1 Z0.20 F1000.0
G1 X5.0 E4.0 F1000.0
G92 E0.0
G21 ; set units to millimeters
G90 ; use absolute coordinates
M83 ; use relative distances for extrusion
M900 K0.06 ; Filament gcode LA 1.5
M900 K30 ; Filament gcode LA 1.0
;BEFORE_LAYER_CHANGE
G92 E0.0
;0.2


G1 E-0.80000 F2100.00000
G1 Z0.600 F10800.000
;AFTER_LAYER_CHANGE
;0.2
G1 X85.498 Y65.388
G1 Z0.200
G1 E0.80000 F2100.00000
M204 S1000
G1 F1200.000
G1 X86.235 Y65.192 E0.02390
G1 X164.433 Y65.077 E2.45185
G1 X165.307 Y65.246 E0.02790
G1 X166.055 Y65.721 E0.02778
G1 X173.084 Y72.750 E0.31170
G1 X173.421 Y73.201 E0.01763
G1 X173.642 Y73.718 E0.01763
G1 X173.985 Y77.863 E0.13042
G1 X173.977 Y97.671 E0.62106
G1 X173.327 Y101.091 E0.10916
G1 X158.757 Y137.514 E1.22997
G1 X158.376 Y138.148 E0.02319
G1 X152.189 Y144.343 E0.27452
G1 X151.518 Y144.764 E0.02484
G1 X150.742 Y144.941 E0.02496
G1 X144.623 Y145.198 E0.19204
G1 X137.883 Y145.193 E0.21131
G1 X101.919 Y141.923 E1.13228
G1 X101.236 Y141.748 E0.02213
G1 X100.636 Y141.382 E0.02201
G1 X93.042 Y134.042 E0.33116
G1 X92.680 Y133.587 E0.01823
G1 X76.147 Y101.518 E1.13124
G1 X76.015 Y100.768 E0.02390
G1 X75.831 Y77.872 E0.71790
G1 X76.608 Y74.473 E0.10932
G1 X76.794 Y74.015 E0.01550
G1 X77.068 Y73.609 E0.01538
G1 X84.861 Y65.806 E0.34575
G1 X85.448 Y65.421 E0.02202
G1 F8640.000
G1 X86.235 Y65.192 E-0.18921
G1 X88.707 Y65.189 E-0.57079
G1 E-0.04000 F2100.00000
G1 Z0.800 F10800.000
G1 X102.591 Y105.261
G1 Z0.200
G1 E0.80000 F2100.00000
G1 F1200.000
G1 X95.016 Y112.837 E0.33592
G1 X95.549 Y113.370 E0.02365
G1 X103.005 Y105.915 E0.33060
G1 X103.538 Y106.448 E0.02365
G1 X96.082 Y113.904 E0.33060
G1 X96.616 Y114.437 E0.02365
G1 X105.703 Y105.350 E0.40294
G1 X106.236 Y105.883 E0.02365
G1 X97.029 Y115.090 E0.40826
G1 X99.513 Y116.872 F10800.000
G1 F1200.000
G1 X99.282 Y117.103 E0.01025
G1 X98.749 Y116.570 E0.02365
G1 X99.343 Y115.975 E0.02637
G1 X99.343 Y114.909 E0.03344
G1 X98.215 Y116.037 E0.05002
G1 X97.682 Y115.503 E0.02365
G1 X99.343 Y113.842 E0.07367
G1 X99.343 Y112.885 E0.03000
G1 X99.652 Y112.577 E0.01366
G1 X100.608 Y112.577 E0.03000
G1 X106.769 Y106.416 E0.27318
G1 X107.302 Y106.950 E0.02365
G1 X101.675 Y112.577 E0.24954
G1 X102.741 Y112.577 E0.03344
G1 X107.836 Y107.483 E0.22589
G1 X108.369 Y108.016 E0.02365
G1 X103.808 Y112.577 E0.20225
G1 X104.874 Y112.577 E0.03344
G1 X110.534 Y106.918 E0.25094
G1 X111.067 Y107.451 E0.02365
G1 X105.941 Y112.577 E0.22729
G1 X107.008 Y112.577 E0.03344
G1 X111.600 Y107.985 E0.20364
G1 X112.133 Y108.518 E0.02365
G1 X108.074 Y112.577 E0.18000
G1 X109.141 Y112.577 E0.03344
G1 X112.667 Y109.051 E0.15635
G1 X113.200 Y109.584 E0.02365
G1 X110.207 Y112.577 E0.13271
G1 X111.274 Y112.577 E0.03344
G1 X113.733 Y110.118 E0.10906
G1 X114.266 Y110.651 E0.02365
G1 X111.865 Y113.053 E0.10650
G1 X111.865 Y114.119 E0.03344
G1 X114.800 Y111.184 E0.13014
G1 X115.333 Y111.718 E0.02365
G1 X111.865 Y115.186 E0.15379
G1 X111.865 Y115.390 E0.00640
G1 X113.581 Y113.674 E0.07608
G1 X114.012 Y114.105 E0.01912
G1 X115.866 Y112.251 E0.08224
G1 X116.400 Y112.784 E0.02365
G1 X114.545 Y114.639 E0.08224
G1 X115.078 Y115.172 E0.02365
G1 X116.933 Y113.317 E0.08224
G1 X117.466 Y113.851 E0.02365
G1 X115.611 Y115.705 E0.08224
G1 X116.145 Y116.239 E0.02365
G1 X117.999 Y114.384 E0.08224
G1 X118.533 Y114.917 E0.02365
G1 X116.678 Y116.772 E0.08224
G1 X117.211 Y117.305 E0.02365
G1 X119.066 Y115.450 E0.08224
G1 X119.599 Y115.984 E0.02365
G1 X118.257 Y117.326 E0.05950
G1 X119.324 Y117.326 E0.03344
G1 X120.132 Y116.517 E0.03585
G1 X120.666 Y117.050 E0.02365
G1 X120.221 Y117.495 E0.01973
G1 F8640.000
G1 X120.666 Y117.050 E-0.14531
G1 X120.132 Y116.517 E-0.17414
G1 X119.324 Y117.326 E-0.26403
G1 X118.559 Y117.326 E-0.17652
G1 E-0.04000 F2100.00000
G1 Z0.800 F10800.000
G1 X113.785 Y114.167
G1 Z0.200
G1 E0.80000 F2100.00000
G1 F1200.000
G1 X111.830 Y116.123 E0.07061
G1 X111.830 Y116.474 E0.00897
G1 X112.196 Y116.474 E0.00934
G1 X114.046 Y114.624 E0.06682
G1 X114.405 Y114.982 E0.01295
G1 X112.913 Y116.474 E0.05388
G1 X113.630 Y116.474 E0.01831
G1 X114.763 Y115.341 E0.04093
G1 X115.122 Y115.699 E0.01295
G1 X114.347 Y116.474 E0.02798
G1 X115.064 Y116.474 E0.01831
G1 X115.480 Y116.058 E0.01503
G1 X115.839 Y116.416 E0.01295
G1 X115.643 Y116.612 E0.00708
G1 F8640.000
G1 X115.839 Y116.416 E-0.06399
G1 X115.480 Y116.058 E-0.11709
G1 X115.064 Y116.474 E-0.13595
G1 X114.347 Y116.474 E-0.16558
G1 X115.122 Y115.699 E-0.25304
G1 X115.047 Y115.625 E-0.02435
G1 E-0.04000 F2100.00000
G1 Z0.800 F10800.000
G1 X116.654 Y117.036
G1 Z0.200
G1 E0.80000 F2100.00000
G1 F1200.000
G1 X116.380 Y117.310 E0.00989
G1 X115.955 Y117.495 F10800.000
G1 F1200.000
G1 X116.176 Y117.274 E0.00982
G1 X116.176 Y117.018 E0.00803
G1 X115.975 Y116.816 E0.00893
G1 X115.567 Y116.816 E0.01278
G1 X115.058 Y117.326 E0.02258
G1 X113.991 Y117.326 E0.03344
G1 X114.500 Y116.816 E0.02258
G1 X113.434 Y116.816 E0.03344
G1 X112.925 Y117.326 E0.02258
G1 X111.865 Y117.326 E0.03323
G1 X112.537 Y116.647 E0.02996
G1 F8640.000
G1 X111.865 Y117.326 E-0.22062
G1 X112.925 Y117.326 E-0.24472
G1 X113.434 Y116.816 E-0.16629
G1 X113.990 Y116.816 E-0.12837
G1 E-0.04000 F2100.00000
G1 Z0.800 F10800.000
G1 X115.066 Y127.983
G1 Z0.200
G1 E0.80000 F2100.00000
G1 F1200.000
G1 X115.745 Y127.304 E0.03011
G1 X114.678 Y127.304 E0.03344
G1 X114.169 Y127.813 E0.02258
G1 X113.102 Y127.813 E0.03344
G1 X113.611 Y127.304 E0.02258
G1 X112.545 Y127.304 E0.03344
G1 X111.866 Y127.983 E0.03011
G1 X111.692 Y128.452 F10800.000
G1 F1200.000
G1 X111.988 Y128.156 E0.01071
G1 X112.705 Y128.156 E0.01831
G1 X111.985 Y128.876 E0.02602
G1 X112.343 Y129.235 E0.01295
G1 X113.422 Y128.156 E0.03896
G1 X114.140 Y128.156 E0.01831
G1 X112.702 Y129.593 E0.05191
G1 X113.061 Y129.952 E0.01295
G1 X114.857 Y128.156 E0.06486
G1 X115.574 Y128.156 E0.01831
G1 X113.321 Y130.408 E0.08133
G1 X111.695 Y130.287 F10800.000
G1 F1200.000
G1 X112.304 Y129.679 E0.02698
G1 X112.837 Y130.212 E0.02365
G1 X111.695 Y131.354 E0.05063
G1 F8640.000
G1 X112.837 Y130.212 E-0.37285
G1 X112.304 Y129.679 E-0.17414
G1 X111.695 Y130.287 E-0.19872
G1 E-0.05429 F2100.00000
G1 Z0.800 F10800.000
G1 X109.733 Y137.582
G1 Z0.200
G1 E0.80000 F2100.00000
G1 F1200.000
G1 X120.011 Y127.304 E0.45574
G1 X118.944 Y127.304 E0.03344
G1 X109.319 Y136.929 E0.42678
G1 X108.786 Y136.396 E0.02365
G1 X117.878 Y127.304 E0.40313
G1 X117.232 Y127.304 E0.02025
G1 X113.581 Y130.955 E0.16190
G1 X113.370 Y130.745 E0.00933
G1 X104.990 Y139.125 E0.37158
G1 X104.457 Y138.592 E0.02365
G1 X110.996 Y132.052 E0.28997
G1 X109.930 Y132.052 E0.03344
G1 X103.924 Y138.059 E0.26632
G1 X103.792 Y137.927 E0.00582
G1 X102.161 Y139.559 E0.07234
G1 X101.759 Y139.157 E0.01783
G1 X108.863 Y132.052 E0.31501
G1 X107.797 Y132.052 E0.03344
G1 X101.226 Y138.623 E0.29136
G1 X100.692 Y138.090 E0.02365
G1 X106.730 Y132.052 E0.26772
G1 X105.664 Y132.052 E0.03344
G1 X100.159 Y137.557 E0.24407
G1 X99.626 Y137.024 E0.02365
G1 X104.597 Y132.052 E0.22043
G1 X103.530 Y132.052 E0.03344
G1 X99.093 Y136.490 E0.19678
G1 X98.559 Y135.957 E0.02365
G1 X102.464 Y132.052 E0.17313
G1 X101.397 Y132.052 E0.03344
G1 X98.026 Y135.424 E0.14949
G1 X97.493 Y134.890 E0.02365
G1 X100.331 Y132.052 E0.12584
G1 X99.652 Y132.052 E0.02130
G1 X99.458 Y131.859 E0.00859
G1 X96.960 Y134.357 E0.11078
G1 X96.426 Y133.824 E0.02365
G1 X99.343 Y130.907 E0.12935
G1 X99.343 Y129.840 E0.03344
G1 X95.893 Y133.291 E0.15300
G1 X95.360 Y132.757 E0.02365
G1 X99.343 Y128.774 E0.17664
G1 X99.343 Y127.707 E0.03344
G1 X94.706 Y132.344 E0.20561
G1 F8640.000
G1 X97.034 Y130.017 E-0.76000
G1 E-0.04000 F2100.00000
G1 Z0.800 F10800.000
G1 X124.289 Y135.825
G1 Z0.200
G1 E0.80000 F2100.00000
G1 F1200.000
G1 X130.144 Y129.969 E0.25964
G1 X130.144 Y131.036 E0.03344
G1 X124.942 Y136.238 E0.23067
G1 X125.475 Y136.771 E0.02365
G1 X130.144 Y132.102 E0.20703
G1 X130.144 Y133.169 E0.03344
G1 X126.009 Y137.305 E0.18338
G1 X126.542 Y137.838 E0.02365
G1 X130.843 Y133.537 E0.19072
G1 X131.909 Y133.537 E0.03344
G1 X127.075 Y138.371 E0.21436
G1 X127.608 Y138.904 E0.02365
G1 X132.976 Y133.537 E0.23801
G1 X134.042 Y133.537 E0.03344
G1 X128.142 Y139.438 E0.26166
G1 X128.675 Y139.971 E0.02365
G1 X135.109 Y133.537 E0.28530
G1 X136.176 Y133.537 E0.03344
G1 X129.208 Y140.504 E0.30895
G1 X129.741 Y141.037 E0.02365
G1 X137.242 Y133.537 E0.33259
G1 X138.309 Y133.537 E0.03344
G1 X131.906 Y139.939 E0.28390
G1 X132.439 Y140.473 E0.02365
G1 X139.375 Y133.537 E0.30755
G1 X140.442 Y133.537 E0.03344
G1 X132.973 Y141.006 E0.33119
G1 X133.157 Y141.190 E0.00817
G1 X134.788 Y139.559 E0.07234
G1 X135.137 Y139.908 E0.01548
G1 X155.644 Y119.401 E0.90929
M73 P1 R98
G1 X156.177 Y119.935 E0.02365
G1 X135.670 Y140.441 E0.90929
G1 X136.204 Y140.974 E0.02365
G1 X156.710 Y120.468 E0.90929
G1 X156.926 Y120.684 E0.00957
G1 X155.295 Y122.315 E0.07234
G1 X155.612 Y122.632 E0.01408
G1 X136.737 Y141.508 E0.83696
G1 X137.270 Y142.041 E0.02365
G1 X156.145 Y123.166 E0.83696
G1 X156.679 Y123.699 E0.02365
G1 X137.804 Y142.574 E0.83696
G1 X138.051 Y142.821 E0.01096
G1 X139.682 Y141.190 E0.07234
G1 X139.968 Y141.476 E0.01268
G1 X155.581 Y125.864 E0.69228
G1 X156.114 Y126.397 E0.02365
G1 X140.501 Y142.009 E0.69228
G1 X141.035 Y142.543 E0.02365
G1 X156.647 Y126.930 E0.69228
G1 X156.926 Y127.209 E0.01236
G1 X155.295 Y128.840 E0.07234
G1 X155.549 Y129.095 E0.01128
G1 X143.199 Y141.445 E0.54761
G1 X143.733 Y141.978 E0.02365
G1 X156.082 Y129.628 E0.54761
G1 X156.616 Y130.161 E0.02365
G1 X144.266 Y142.511 E0.54761
G1 X144.576 Y142.821 E0.01376
G1 X146.208 Y141.190 E0.07234
G1 X146.430 Y141.413 E0.00988
G1 X155.518 Y132.326 E0.40294
G1 X156.051 Y132.859 E0.02365
G1 X146.964 Y141.946 E0.40294
G1 X147.497 Y142.480 E0.02365
G1 X156.584 Y133.392 E0.40294
G1 X156.926 Y133.734 E0.01516
G1 X155.295 Y135.366 E0.07234
G1 X155.486 Y135.557 E0.00849
G1 X149.662 Y141.381 E0.25826
G1 X150.195 Y141.915 E0.02365
G1 X156.019 Y136.090 E0.25826
G1 X156.553 Y136.624 E0.02365
G1 X150.608 Y142.568 E0.26358
G1 X141.322 Y132.657 F10800.000
G1 F1200.000
G1 X156.742 Y117.237 E0.68376
G1 X156.209 Y116.703 E0.02365
G1 X141.491 Y131.421 E0.65259
G1 X141.491 Y130.354 E0.03344
G1 X142.624 Y129.221 E0.05025
G1 X142.091 Y128.688 E0.02365
G1 X141.491 Y129.288 E0.02660
G1 X141.491 Y128.221 E0.03344
G1 X141.678 Y128.034 E0.00828
G1 F8640.000
G1 X141.491 Y128.221 E-0.06097
G1 X141.491 Y129.288 E-0.24627
G1 X142.091 Y128.688 E-0.19593
G1 X142.624 Y129.221 E-0.17414
G1 X142.371 Y129.474 E-0.08270
G1 E-0.04000 F2100.00000
G1 Z0.800 F10800.000
G1 X143.205 Y128.640
G1 Z0.200
G1 E0.80000 F2100.00000
G1 F1200.000
G1 X155.675 Y116.170 E0.55293
G1 X155.295 Y115.789 E0.01688
G1 X156.926 Y114.158 E0.07234
G1 X156.773 Y114.005 E0.00677
G1 X142.792 Y127.987 E0.61995
G1 X142.259 Y127.453 E0.02365
G1 X156.240 Y113.472 E0.61995
G1 X155.707 Y112.939 E0.02365
G1 X143.357 Y125.289 E0.54761
G1 X142.824 Y124.755 E0.02365
G1 X156.805 Y110.774 E0.61995
G1 X156.272 Y110.241 E0.02365
G1 X142.290 Y124.222 E0.61995
G1 X142.015 Y123.946 E0.01224
G1 X143.646 Y122.315 E0.07234
G1 X143.389 Y122.058 E0.01141
G1 X155.738 Y109.708 E0.54761
G1 X155.295 Y109.264 E0.01967
G1 X156.926 Y107.633 E0.07234
G1 X156.836 Y107.543 E0.00397
G1 X142.855 Y121.524 E0.61995
G1 X142.322 Y120.991 E0.02365
G1 X156.303 Y107.010 E0.61995
G1 X155.770 Y106.477 E0.02365
G1 X143.420 Y118.826 E0.54761
G1 X142.887 Y118.293 E0.02365
G1 X155.237 Y105.943 E0.54761
G1 X154.703 Y105.410 E0.02365
G1 X142.354 Y117.760 E0.54761
G1 X142.015 Y117.421 E0.01503
G1 X143.646 Y115.789 E0.07234
G1 X143.452 Y115.595 E0.00861
G1 X154.170 Y104.877 E0.47527
G1 X153.637 Y104.344 E0.02365
G1 X141.491 Y116.489 E0.53856
G1 X141.491 Y115.423 E0.03344
G1 X153.104 Y103.810 E0.51491
G1 X152.570 Y103.277 E0.02365
G1 X141.491 Y114.356 E0.49126
G1 X141.491 Y113.289 E0.03344
G1 X152.037 Y102.744 E0.46762
G1 X151.504 Y102.210 E0.02365
G1 X141.491 Y112.223 E0.44397
G1 X141.491 Y111.401 E0.02577
G1 X141.369 Y111.279 E0.00543
G1 X149.339 Y103.309 E0.35342
G1 X148.806 Y102.775 E0.02365
G1 X140.488 Y111.093 E0.36883
G1 X139.421 Y111.093 E0.03344
G1 X148.273 Y102.242 E0.39247
G1 X147.839 Y101.808 E0.01923
G1 X146.208 Y103.440 E0.07234
G1 X146.108 Y103.340 E0.00442
G1 X138.355 Y111.093 E0.34378
G1 X137.288 Y111.093 E0.03344
G1 X145.575 Y102.807 E0.36743
G1 X145.041 Y102.273 E0.02365
G1 X136.222 Y111.093 E0.39107
G1 X135.155 Y111.093 E0.03344
G1 X142.877 Y103.372 E0.34238
G1 X142.344 Y102.838 E0.02365
G1 X134.089 Y111.093 E0.36603
G1 X133.022 Y111.093 E0.03344
G1 X141.810 Y102.305 E0.38968
G1 X141.314 Y101.808 E0.02203
G1 X139.682 Y103.440 E0.07234
G1 X139.646 Y103.403 E0.00162
G1 X131.956 Y111.093 E0.34099
G1 X130.889 Y111.093 E0.03344
G1 X139.112 Y102.870 E0.36463
G1 X138.579 Y102.337 E0.02365
G1 X127.861 Y113.055 E0.47527
G1 X128.394 Y113.588 E0.02365
G1 X130.144 Y111.838 E0.07761
G1 X130.144 Y112.905 E0.03344
G1 X128.927 Y114.122 E0.05396
G1 X129.460 Y114.655 E0.02365
G1 X130.144 Y113.971 E0.03032
G1 X130.144 Y115.038 E0.03344
G1 X129.874 Y115.308 E0.01199
G1 X127.207 Y112.642 F10800.000
G1 F1200.000
G1 X134.783 Y105.066 E0.33592
G1 X134.250 Y104.533 E0.02365
G1 X126.794 Y111.988 E0.33060
G1 X126.261 Y111.455 E0.02365
G1 X133.717 Y103.999 E0.33060
G1 X133.183 Y103.466 E0.02365
G1 X125.728 Y110.922 E0.33060
G1 X125.194 Y110.389 E0.02365
G1 X131.019 Y104.564 E0.25826
G1 X130.485 Y104.031 E0.02365
G1 X124.661 Y109.855 E0.25826
G1 X124.128 Y109.322 E0.02365
G1 X130.072 Y103.378 E0.26358
G1 F8640.000
G1 X127.745 Y105.705 E-0.76000
G1 E-0.04000 F2100.00000
G1 Z0.800 F10800.000
G1 X131.257 Y132.424
G1 Z0.200
G1 E0.80000 F2100.00000
G1 F1200.000
G1 X131.257 Y126.191 E0.19542
G1 X110.752 Y126.191 E0.64294
G1 X110.752 Y130.939 E0.14888
G1 X100.457 Y130.939 E0.32280
G1 X100.457 Y113.690 E0.54083
G1 X110.752 Y113.690 E0.32280
G1 X110.752 Y118.439 E0.14888
G1 X131.257 Y118.439 E0.64294
G1 X131.257 Y112.206 E0.19542
G1 X140.378 Y112.206 E0.28598
G1 X140.378 Y132.424 E0.63390
G1 X131.317 Y132.424 E0.28410
G1 X130.880 Y132.801 F10800.000
G1 F1200.000
G1 X130.880 Y126.568 E0.19542
G1 X111.129 Y126.568 E0.61929
G1 X111.129 Y131.316 E0.14888
G1 X100.079 Y131.316 E0.34644
G1 X100.079 Y113.313 E0.56448
M73 P2 R97
G1 X111.129 Y113.313 E0.34644
G1 X111.129 Y118.062 E0.14888
G1 X130.880 Y118.062 E0.61929
G1 X130.880 Y111.829 E0.19542
G1 X140.755 Y111.829 E0.30962
G1 X140.755 Y132.801 E0.65755
G1 X130.940 Y132.801 E0.30774
G1 X130.939 Y132.405 F10800.000
G1 F8640.000
G1 X130.909 Y129.509 E-0.76000
G1 E-0.04000 F2100.00000
G1 Z0.800 F10800.000
G1 X131.370 Y131.457
G1 Z0.200
G1 E0.80000 F2100.00000
G1 F1200.000
G1 X132.055 Y132.141 E0.03042
G1 X132.589 Y132.141 E0.01681
G1 X131.540 Y131.092 E0.04664
G1 X131.540 Y130.557 E0.01681
G1 X133.124 Y132.141 E0.07041
G1 X133.659 Y132.141 E0.01681
G1 X131.540 Y130.022 E0.09418
G1 X131.540 Y129.488 E0.01681
G1 X134.193 Y132.141 E0.11795
G1 X134.728 Y132.141 E0.01681
