; generated by PrusaSlicer 2.1.0+ on 2019-10-02 at 15:05:56 UTC

; 

; external perimeters extrusion width = 0.45mm
; perimeters extrusion width = 0.45mm
; infill extrusion width = 0.45mm
; solid infill extrusion width = 0.45mm
; top infill extrusion width = 0.40mm
; support material extrusion width = 0.35mm
; first layer extrusion width = 0.42mm

M73 P0 R41
M201 X9000 Y9000 Z500 E10000 ; sets maximum accelerations, mm/sec^2
M203 X500 Y500 Z12 E120 ; sets maximum feedrates, mm/sec
M204 P2000 R1500 T2000 ; sets acceleration (P, T) and retract acceleration (R), mm/sec^2
M205 X10.00 Y10.00 Z0.20 E2.50 ; sets the jerk limits, mm/sec
M205 S0 T0 ; sets the minimum extruding and travel feed rate, mm/sec
M107
M862.3 P "MK2.5SMMU2S" ; printer model check
M862.1 P0.4 ; nozzle diameter check
M115 U3.8.0 ; tell printer latest fw version
G90 ; use absolute coordinates
M83 ; extruder relative mode
M104 S230 ; set extruder temp
M140 S60 ; set bed temp
Tx
M190 S60 ; wait for bed temp
M109 S230 ; wait for extruder temp
G28 W ; home all without mesh bed level
G80 ; mesh bed leveling

G21 ; set units to millimeters

;go outside print area
G1 Y-3.0 F1000.0
G1 Z0.4 F1000.0
; select extruder
Tc
; purge line
G1 X55.0 F2000.0
G1 Z0.3 F1000.0
G92 E0.0
G1 X240.0 E25.0 F2200.0
M73 P0 R40
G1 Y-2.0 F1000.0
G1 X55.0 E25 F1400.0
G1 Z0.20 F1000.0
G1 X5.0 E4.0 F1000.0
G92 E0.0
G21 ; set units to millimeters
G90 ; use absolute coordinates
M83 ; use relative distances for extrusion
M900 K30 ; Filament gcode
;BEFORE_LAYER_CHANGE
G92 E0.0
;0.2


G1 E-0.80000 F2100.00000
G1 Z0.600 F10800.000
;AFTER_LAYER_CHANGE
;0.2
G1 X169.732 Y73.051
G1 Z0.200
G1 E0.80000 F2100.00000
M204 S1000
G1 F1200
G1 X170.393 Y73.573 E0.02642
G1 X170.767 Y74.193 E0.02270
G1 X170.918 Y74.901 E0.02270
G1 X170.920 Y85.729 E0.33952
G1 X161.508 Y127.456 E1.34118
G1 X161.203 Y128.424 E0.03183
G1 X160.685 Y129.389 E0.03432
G1 X159.992 Y130.236 E0.03432
G1 X159.206 Y130.895 E0.03215
G1 X157.954 Y131.550 E0.04432
G1 X157.036 Y131.815 E0.02997
G1 X155.982 Y131.919 E0.03318
G1 X88.057 Y131.919 E2.12976
G1 X86.935 Y131.799 E0.03537
G1 X85.735 Y131.400 E0.03966
G1 X84.932 Y130.959 E0.02872
G1 X84.218 Y130.386 E0.02872
G1 X83.427 Y129.480 E0.03772
G1 X82.770 Y128.224 E0.04443
G1 X82.506 Y127.306 E0.02997
G1 X82.402 Y126.238 E0.03364
G1 X82.405 Y113.090 E0.41224
G1 X82.509 Y112.113 E0.03080
G1 X82.763 Y111.234 E0.02871
G1 X83.300 Y110.145 E0.03806
G1 X84.089 Y109.165 E0.03944
G1 X110.844 Y83.255 E1.16778
G1 X117.859 Y79.156 E0.25474
G1 X118.474 Y78.921 E0.02066
G1 X159.686 Y72.639 E1.30709
G1 X168.922 Y72.817 E0.28966
G1 X169.674 Y73.034 E0.02454
G1 F8640
G1 X170.393 Y73.573 E-0.20746
G1 X170.767 Y74.193 E-0.16717
G1 X170.918 Y74.901 E-0.16717
G1 X170.918 Y75.846 E-0.21821
G1 E-0.04000 F2100.00000
G1 Z0.800 F10800.000
G1 X159.681 Y74.828
G1 Z0.200
G1 E0.80000 F2100.00000
G1 F1200
G1 X159.681 Y79.856 E0.15765
G1 X160.436 Y79.856 E0.02365
G1 X160.436 Y74.997 E0.15233
G1 X161.190 Y74.997 E0.02365
G1 X161.190 Y79.856 E0.15233
G1 X161.944 Y79.856 E0.02365
G1 X161.944 Y74.997 E0.15233
G1 X162.698 Y74.997 E0.02365
G1 X162.698 Y79.856 E0.15233
G1 X163.452 Y79.856 E0.02365
G1 X163.452 Y74.997 E0.15233
G1 X164.206 Y74.997 E0.02365
G1 X164.206 Y77.620 E0.08224
G1 X164.961 Y77.620 E0.02365
G1 X164.961 Y74.997 E0.08224
G1 X165.715 Y74.997 E0.02365
G1 X165.715 Y77.620 E0.08224
G1 X166.469 Y77.620 E0.02365
G1 X166.469 Y74.997 E0.08224
G1 X167.223 Y74.997 E0.02365
G1 X167.223 Y85.541 E0.33060
G1 X167.977 Y85.541 E0.02365
G1 X167.977 Y74.997 E0.33060
G1 X168.731 Y74.997 E0.02365
G1 X168.731 Y85.711 E0.33592
G1 X166.469 Y85.711 F10800.000
G1 F1200
G1 X166.469 Y82.918 E0.08756
G1 X165.715 Y82.918 E0.02365
G1 X165.715 Y85.541 E0.08224
G1 X164.961 Y85.541 E0.02365
G1 X164.961 Y82.918 E0.08224
G1 X164.206 Y82.918 E0.02365
G1 X164.206 Y85.541 E0.08224
G1 X163.452 Y85.541 E0.02365
G1 X163.452 Y82.683 E0.08963
G1 X162.698 Y82.683 E0.02365
G1 X162.698 Y85.541 E0.08963
G1 X161.944 Y85.541 E0.02365
G1 X161.944 Y82.683 E0.08963
G1 X161.190 Y82.683 E0.02365
G1 X161.190 Y85.541 E0.08963
G1 X160.436 Y85.541 E0.02365
G1 X160.436 Y82.683 E0.08963
G1 X159.681 Y82.683 E0.02365
G1 X159.681 Y85.711 E0.09495
G1 F8640
G1 X159.681 Y82.683 E-0.69926
G1 X159.945 Y82.683 E-0.06074
G1 E-0.04000 F2100.00000
G1 Z0.800 F10800.000
G1 X164.542 Y82.715
G1 Z0.200
G1 E0.80000 F2100.00000
G1 F1200
G1 X164.542 Y77.962 E0.12135
G1 X165.049 Y77.962 E0.01295
G1 X165.049 Y82.576 E0.11782
G1 X165.556 Y82.576 E0.01295
G1 X165.556 Y77.962 E0.11782
G1 X166.064 Y77.962 E0.01295
G1 X166.064 Y82.715 E0.12135
G1 F8640
G1 X166.064 Y79.423 E-0.76000
G1 E-0.04000 F2100.00000
G1 Z0.800 F10800.000
G1 X133.881 Y103.117
G1 Z0.200
G1 E0.80000 F2100.00000
G1 F1200
G1 X125.577 Y103.117 E0.26036
G1 X125.577 Y92.856 E0.32172
G1 X149.204 Y92.856 E0.74080
G1 X149.204 Y80.856 E0.37625
G1 X163.079 Y80.856 E0.43506
G1 X163.079 Y81.682 E0.02589
G1 X150.030 Y81.682 E0.40917
G1 X150.030 Y93.682 E0.37625
G1 X133.881 Y93.682 E0.50634
G1 X133.881 Y103.057 E0.29395
G1 X134.258 Y103.494 F10800.000
G1 F1200
G1 X125.200 Y103.494 E0.28400
G1 X125.200 Y92.479 E0.34536
G1 X148.827 Y92.479 E0.74080
G1 X148.827 Y80.479 E0.37625
G1 X163.457 Y80.479 E0.45871
G1 X163.457 Y82.059 E0.04953
G1 X150.407 Y82.059 E0.40917
G1 X150.407 Y94.059 E0.37625
G1 X134.258 Y94.059 E0.50634
G1 X134.258 Y103.434 E0.29395
G1 X134.000 Y103.188 F10800.000
G1 F8640
G1 X130.967 Y103.456 E-0.76000
G1 E-0.04000 F2100.00000
G1 Z0.800 F10800.000
G1 X125.690 Y102.239
G1 Z0.200
G1 E0.80000 F2100.00000
G1 F1200
G1 X126.285 Y102.834 E0.02647
G1 X126.820 Y102.834 E0.01683
G1 X125.860 Y101.874 E0.04273
G1 X125.860 Y101.339 E0.01683
G1 X127.355 Y102.834 E0.06653
G1 X127.890 Y102.834 E0.01683
G1 X125.860 Y100.804 E0.09033
G1 X125.860 Y100.269 E0.01683
G1 X128.425 Y102.834 E0.11413
G1 X128.960 Y102.834 E0.01683
G1 X125.860 Y99.734 E0.13793
G1 X125.860 Y99.199 E0.01683
G1 X129.496 Y102.834 E0.16173
G1 X130.031 Y102.834 E0.01683
G1 X125.860 Y98.664 E0.18553
G1 X125.860 Y98.129 E0.01683
G1 X130.566 Y102.834 E0.20933
G1 X131.101 Y102.834 E0.01683
G1 X125.860 Y97.594 E0.23313
G1 X125.860 Y97.059 E0.01683
G1 X131.636 Y102.834 E0.25693
G1 X132.171 Y102.834 E0.01683
G1 X125.860 Y96.524 E0.28073
G1 X125.860 Y95.989 E0.01683
G1 X132.706 Y102.834 E0.30453
G1 X133.241 Y102.834 E0.01683
G1 X125.860 Y95.454 E0.32833
G1 X125.860 Y94.919 E0.01683
G1 X133.598 Y102.657 E0.34424
G1 X133.598 Y102.122 E0.01683
G1 X125.860 Y94.384 E0.34424
G1 X125.860 Y93.849 E0.01683
G1 X133.598 Y101.587 E0.34424
G1 X133.598 Y101.052 E0.01683
G1 X125.860 Y93.314 E0.34424
G1 X125.860 Y93.139 E0.00549
G1 X126.220 Y93.139 E0.01134
G1 X133.598 Y100.517 E0.32820
G1 X133.598 Y99.982 E0.01683
G1 X126.755 Y93.139 E0.30440
G1 X127.290 Y93.139 E0.01683
G1 X133.598 Y99.447 E0.28060
G1 X133.598 Y98.912 E0.01683
G1 X127.825 Y93.139 E0.25680
G1 X128.360 Y93.139 E0.01683
G1 X133.598 Y98.377 E0.23300
G1 X133.598 Y97.842 E0.01683
G1 X128.895 Y93.139 E0.20920
G1 X129.430 Y93.139 E0.01683
G1 X133.598 Y97.307 E0.18540
G1 X133.598 Y96.772 E0.01683
G1 X129.965 Y93.139 E0.16160
G1 X130.501 Y93.139 E0.01683
G1 X133.598 Y96.237 E0.13780
G1 X133.598 Y95.702 E0.01683
G1 X131.036 Y93.139 E0.11400
G1 X131.571 Y93.139 E0.01683
G1 X133.598 Y95.167 E0.09020
G1 X133.598 Y94.632 E0.01683
G1 X132.106 Y93.139 E0.06640
G1 X132.641 Y93.139 E0.01683
G1 X133.598 Y94.097 E0.04260
G1 X133.598 Y93.562 E0.01683
G1 X133.176 Y93.139 E0.01880
G1 X133.711 Y93.139 E0.01683
G1 X133.971 Y93.399 E0.01157
G1 X134.506 Y93.399 E0.01683
G1 X134.246 Y93.139 E0.01157
G1 X134.781 Y93.139 E0.01683
G1 X135.041 Y93.399 E0.01157
G1 X135.576 Y93.399 E0.01683
G1 X135.316 Y93.139 E0.01157
G1 X135.851 Y93.139 E0.01683
G1 X136.111 Y93.399 E0.01157
G1 X136.646 Y93.399 E0.01683
G1 X136.386 Y93.139 E0.01157
G1 X136.921 Y93.139 E0.01683
G1 X137.181 Y93.399 E0.01157
G1 X137.716 Y93.399 E0.01683
G1 X137.456 Y93.139 E0.01157
G1 X137.991 Y93.139 E0.01683
G1 X138.251 Y93.399 E0.01157
G1 X138.786 Y93.399 E0.01683
G1 X138.526 Y93.139 E0.01157
G1 X139.061 Y93.139 E0.01683
G1 X139.321 Y93.399 E0.01157
G1 X139.856 Y93.399 E0.01683
G1 X139.596 Y93.139 E0.01157
G1 X140.131 Y93.139 E0.01683
G1 X140.391 Y93.399 E0.01157
G1 X140.926 Y93.399 E0.01683
G1 X140.666 Y93.139 E0.01157
G1 X141.201 Y93.139 E0.01683
G1 X141.461 Y93.399 E0.01157
G1 X141.996 Y93.399 E0.01683
G1 X141.736 Y93.139 E0.01157
G1 X142.271 Y93.139 E0.01683
G1 X142.531 Y93.399 E0.01157
G1 X143.066 Y93.399 E0.01683
G1 X142.806 Y93.139 E0.01157
G1 X143.341 Y93.139 E0.01683
G1 X143.601 Y93.399 E0.01157
G1 X144.136 Y93.399 E0.01683
G1 X143.876 Y93.139 E0.01157
G1 X144.411 Y93.139 E0.01683
G1 X144.671 Y93.399 E0.01157
G1 X145.206 Y93.399 E0.01683
G1 X144.946 Y93.139 E0.01157
G1 X145.481 Y93.139 E0.01683
G1 X145.741 Y93.399 E0.01157
G1 X146.276 Y93.399 E0.01683
G1 X146.016 Y93.139 E0.01157
G1 X146.551 Y93.139 E0.01683
G1 X146.811 Y93.399 E0.01157
G1 X147.346 Y93.399 E0.01683
G1 X147.086 Y93.139 E0.01157
G1 X147.621 Y93.139 E0.01683
G1 X147.881 Y93.399 E0.01157
G1 X148.416 Y93.399 E0.01683
G1 X148.156 Y93.139 E0.01157
G1 X148.691 Y93.139 E0.01683
G1 X148.951 Y93.399 E0.01157
G1 X149.486 Y93.399 E0.01683
G1 X149.226 Y93.139 E0.01157
G1 X149.487 Y93.139 E0.00821
G1 X149.487 Y92.865 E0.00862
G1 X149.747 Y93.125 E0.01158
G1 X149.747 Y92.590 E0.01683
G1 X149.487 Y92.330 E0.01158
G1 X149.487 Y91.795 E0.01683
G1 X149.747 Y92.055 E0.01158
G1 X149.747 Y91.520 E0.01683
G1 X149.487 Y91.260 E0.01158
G1 X149.487 Y90.725 E0.01683
G1 X149.747 Y90.985 E0.01158
G1 X149.747 Y90.450 E0.01683
G1 X149.487 Y90.190 E0.01158
G1 X149.487 Y89.655 E0.01683
G1 X149.747 Y89.915 E0.01158
G1 X149.747 Y89.380 E0.01683
G1 X149.487 Y89.120 E0.01158
G1 X149.487 Y88.585 E0.01683
G1 X149.747 Y88.845 E0.01158
G1 X149.747 Y88.310 E0.01683
G1 X149.487 Y88.050 E0.01158
G1 X149.487 Y87.515 E0.01683
G1 X149.747 Y87.775 E0.01158
G1 X149.747 Y87.240 E0.01683
G1 X149.487 Y86.980 E0.01158
G1 X149.487 Y86.445 E0.01683
G1 X149.747 Y86.705 E0.01158
G1 X149.747 Y86.170 E0.01683
G1 X149.487 Y85.910 E0.01158
G1 X149.487 Y85.375 E0.01683
G1 X149.747 Y85.635 E0.01158
G1 X149.747 Y85.100 E0.01683
G1 X149.487 Y84.840 E0.01158
G1 X149.487 Y84.305 E0.01683
G1 X149.747 Y84.565 E0.01158
M73 P2 R39
G1 X149.747 Y84.030 E0.01683
G1 X149.487 Y83.770 E0.01158
G1 X149.487 Y83.235 E0.01683
G1 X149.747 Y83.495 E0.01158
G1 X149.747 Y82.960 E0.01683
G1 X149.487 Y82.700 E0.01158
G1 X149.487 Y82.165 E0.01683
G1 X149.747 Y82.425 E0.01158
G1 X149.747 Y81.890 E0.01683
G1 X149.487 Y81.630 E0.01158
G1 X149.487 Y81.139 E0.01544
G1 X149.531 Y81.139 E0.00139
G1 X149.791 Y81.399 E0.01157
G1 X150.326 Y81.399 E0.01683
G1 X150.066 Y81.139 E0.01157
G1 X150.601 Y81.139 E0.01683
G1 X150.861 Y81.399 E0.01157
G1 X151.396 Y81.399 E0.01683
G1 X151.136 Y81.139 E0.01157
G1 X151.671 Y81.139 E0.01683
G1 X151.931 Y81.399 E0.01157
G1 X152.466 Y81.399 E0.01683
G1 X152.206 Y81.139 E0.01157
G1 X152.741 Y81.139 E0.01683
G1 X153.001 Y81.399 E0.01157
G1 X153.536 Y81.399 E0.01683
G1 X153.276 Y81.139 E0.01157
G1 X153.811 Y81.139 E0.01683
G1 X154.071 Y81.399 E0.01157
G1 X154.606 Y81.399 E0.01683
G1 X154.346 Y81.139 E0.01157
G1 X154.881 Y81.139 E0.01683
G1 X155.141 Y81.399 E0.01157
G1 X155.676 Y81.399 E0.01683
G1 X155.416 Y81.139 E0.01157
G1 X155.951 Y81.139 E0.01683
G1 X156.211 Y81.399 E0.01157
G1 X156.746 Y81.399 E0.01683
G1 X156.486 Y81.139 E0.01157
G1 X157.021 Y81.139 E0.01683
G1 X157.281 Y81.399 E0.01157
G1 X157.816 Y81.399 E0.01683
G1 X157.556 Y81.139 E0.01157
G1 X158.091 Y81.139 E0.01683
G1 X158.351 Y81.399 E0.01157
G1 X158.886 Y81.399 E0.01683
G1 X158.626 Y81.139 E0.01157
G1 X159.161 Y81.139 E0.01683
G1 X159.421 Y81.399 E0.01157
G1 X159.956 Y81.399 E0.01683
G1 X159.696 Y81.139 E0.01157
G1 X160.231 Y81.139 E0.01683
G1 X160.491 Y81.399 E0.01157
G1 X161.026 Y81.399 E0.01683
G1 X160.766 Y81.139 E0.01157
G1 X161.301 Y81.139 E0.01683
G1 X161.561 Y81.399 E0.01157
G1 X162.096 Y81.399 E0.01683
G1 X161.836 Y81.139 E0.01157
G1 X162.371 Y81.139 E0.01683
G1 X162.801 Y81.569 E0.01912
G1 F8640
G1 X162.371 Y81.139 E-0.14032
G1 X161.836 Y81.139 E-0.12353
G1 X162.096 Y81.399 E-0.08491
G1 X161.561 Y81.399 E-0.12354
G1 X161.301 Y81.139 E-0.08491
G1 X160.766 Y81.139 E-0.12353
G1 X161.009 Y81.382 E-0.07924
G1 E-0.04000 F2100.00000
G1 Z0.800 F10800.000
G1 X115.845 Y102.049
G1 Z0.200
G1 E0.80000 F2100.00000
G1 F1200
G1 X115.358 Y102.001 E0.01534
G1 X114.890 Y101.859 E0.01534
G1 X114.459 Y101.628 E0.01534
G1 X114.081 Y101.318 E0.01534
G1 X113.770 Y100.940 E0.01534
G1 X113.540 Y100.508 E0.01534
G1 X113.398 Y100.040 E0.01534
G1 X113.350 Y99.553 E0.01534
G1 X113.398 Y99.066 E0.01534
G1 X113.540 Y98.598 E0.01534
G1 X113.770 Y98.167 E0.01534
G1 X114.081 Y97.789 E0.01534
G1 X114.459 Y97.478 E0.01534
G1 X114.890 Y97.248 E0.01534
G1 X115.354 Y97.107 E0.01520
G1 X115.892 Y97.062 E0.01691
G1 X116.332 Y97.106 E0.01388
G1 X116.800 Y97.248 E0.01534
G1 X117.232 Y97.478 E0.01534
G1 X117.610 Y97.789 E0.01534
G1 X117.920 Y98.167 E0.01534
G1 X118.151 Y98.598 E0.01534
G1 X118.293 Y99.066 E0.01534
G1 X118.341 Y99.553 E0.01534
G1 X118.293 Y100.040 E0.01534
G1 X118.151 Y100.508 E0.01534
G1 X117.920 Y100.940 E0.01534
G1 X117.610 Y101.318 E0.01534
G1 X117.232 Y101.628 E0.01534
G1 X116.800 Y101.859 E0.01534
G1 X116.332 Y102.001 E0.01534
G1 X115.905 Y102.043 E0.01346
G1 X115.845 Y102.427 F10800.000
G1 F1200
G1 X115.284 Y102.372 E0.01767
G1 X114.745 Y102.209 E0.01767
G1 X114.248 Y101.943 E0.01767
G1 X113.813 Y101.586 E0.01767
G1 X113.455 Y101.150 E0.01767
G1 X113.190 Y100.653 E0.01767
G1 X113.026 Y100.114 E0.01767
G1 X112.971 Y99.553 E0.01767
G1 X113.026 Y98.992 E0.01767
G1 X113.190 Y98.453 E0.01767
G1 X113.455 Y97.956 E0.01767
G1 X113.813 Y97.521 E0.01767
G1 X114.248 Y97.163 E0.01767
G1 X114.745 Y96.898 E0.01767
G1 X115.283 Y96.735 E0.01762
G1 X115.895 Y96.684 E0.01924
G1 X116.406 Y96.734 E0.01611
G1 X116.945 Y96.898 E0.01767
G1 X117.442 Y97.163 E0.01767
G1 X117.878 Y97.521 E0.01767
G1 X118.235 Y97.956 E0.01767
G1 X118.501 Y98.453 E0.01767
G1 X118.664 Y98.992 E0.01767
G1 X118.720 Y99.553 E0.01767
G1 X118.664 Y100.114 E0.01767
G1 X118.501 Y100.653 E0.01767
G1 X118.235 Y101.150 E0.01767
G1 X117.878 Y101.586 E0.01767
G1 X117.442 Y101.943 E0.01767
G1 X116.945 Y102.209 E0.01767
G1 X116.406 Y102.372 E0.01767
G1 X115.905 Y102.422 E0.01579
G1 X115.645 Y102.081 F10800.000
G1 X115.663 Y101.917
G1 F1200
G1 X113.671 Y99.925 E0.09372
G1 X113.634 Y99.553 E0.01243
G1 X113.655 Y99.343 E0.00702
G1 X116.055 Y101.744 E0.11295
G1 X116.277 Y101.722 E0.00740
G1 X116.524 Y101.647 E0.00861
G1 X113.752 Y98.874 E0.13045
G1 X113.802 Y98.707 E0.00581
G1 X113.923 Y98.480 E0.00855
G1 X116.918 Y101.475 E0.14090
G1 X117.074 Y101.392 E0.00587
G1 X117.253 Y101.244 E0.00773
G1 X114.154 Y98.145 E0.14582
G1 X114.282 Y97.990 E0.00669
G1 X114.437 Y97.862 E0.00669
G1 X117.536 Y100.961 E0.14582
G1 X117.684 Y100.782 E0.00774
G1 X117.767 Y100.626 E0.00587
G1 X114.772 Y97.631 E0.14090
G1 X114.999 Y97.510 E0.00856
G1 X115.166 Y97.460 E0.00581
G1 X117.939 Y100.232 E0.13046
G1 X118.014 Y99.985 E0.00861
G1 X118.036 Y99.763 E0.00740
G1 X115.640 Y97.367 E0.11274
G1 X115.889 Y97.346 E0.00834
G1 X116.217 Y97.379 E0.01094
G1 X118.209 Y99.371 E0.09373
G1 X118.045 Y98.641 F10800.000
G1 F1200
G1 X116.757 Y97.353 E0.06062
G1 X113.645 Y100.465 F10800.000
G1 F1200
G1 X114.933 Y101.753 E0.06060
G1 F8640
G1 X113.645 Y100.465 E-0.42056
G1 E-0.37944 F2100.00000
G1 Z0.800 F10800.000
G1 X116.678 Y95.723
G1 Z0.200
G1 E0.80000 F2100.00000
G1 F1200
G1 X116.678 Y88.376 E0.23035
G1 X116.322 Y88.564 E0.01261
G1 X115.924 Y88.661 E0.01286
G1 X115.924 Y95.553 E0.21608
G1 X115.170 Y95.553 E0.02365
G1 X115.170 Y88.586 E0.21845
G1 X114.804 Y88.414 E0.01266
G1 X114.567 Y88.236 E0.00930
G1 X114.415 Y88.078 E0.00685
G1 X114.415 Y95.553 E0.23436
G1 X113.661 Y95.553 E0.02365
G1 X113.661 Y85.009 E0.33060
G1 X114.415 Y85.009 E0.02365
G1 X114.415 Y85.851 E0.02641
G1 X114.567 Y85.694 E0.00685
G1 X114.804 Y85.515 E0.00930
G1 X115.170 Y85.344 E0.01266
G1 X115.170 Y85.009 E0.01050
G1 X115.661 Y85.009 E0.01540
G1 X115.924 Y84.692 E0.01290
G1 X115.924 Y85.268 E0.01805
G1 X116.322 Y85.366 E0.01286
