; generated by PrusaSlicer 2.1.0+ on 2019-10-02 at 17:52:38 UTC

; 

; external perimeters extrusion width = 0.45mm
; perimeters extrusion width = 0.45mm
; infill extrusion width = 0.45mm
; solid infill extrusion width = 0.45mm
; top infill extrusion width = 0.40mm
; support material extrusion width = 0.35mm
; first layer extrusion width = 0.42mm

M73 P0 R50
M201 X9000 Y9000 Z500 E10000 ; sets maximum accelerations, mm/sec^2
M203 X500 Y500 Z12 E120 ; sets maximum feedrates, mm/sec
M204 P2000 R1500 T2000 ; sets acceleration (P, T) and retract acceleration (R), mm/sec^2
M205 X10.00 Y10.00 Z0.20 E2.50 ; sets the jerk limits, mm/sec
M205 S0 T0 ; sets the minimum extruding and travel feed rate, mm/sec
M107
M862.3 P "MK2.5SMMU2S" ; printer model check
M862.1 P0.4 ; nozzle diameter check
M115 U3.8.0 ; tell printer latest fw version
G90 ; use absolute coordinates
M83 ; extruder relative mode
M104 S230 ; set extruder temp
M140 S60 ; set bed temp
Tx
M190 S60 ; wait for bed temp
M109 S230 ; wait for extruder temp
G28 W ; home all without mesh bed level
G80 ; mesh bed leveling

G21 ; set units to millimeters

;go outside print area
G1 Y-3.0 F1000.0
G1 Z0.4 F1000.0
; select extruder
Tc
; purge line
G1 X55.0 F2000.0
G1 Z0.3 F1000.0
G92 E0.0
G1 X240.0 E25.0 F2200.0
M73 P0 R50
G1 Y-2.0 F1000.0
G1 X55.0 E25 F1400.0
G1 Z0.20 F1000.0
G1 X5.0 E4.0 F1000.0
G92 E0.0
G21 ; set units to millimeters
G90 ; use absolute coordinates
M83 ; use relative distances for extrusion
M900 K30 ; Filament gcode
;BEFORE_LAYER_CHANGE
G92 E0.0
;0.2


G1 E-0.80000 F2100.00000
G1 Z0.600 F10800.000
;AFTER_LAYER_CHANGE
;0.2
G1 X107.904 Y79.207
G1 Z0.200
G1 E0.80000 F2100.00000
M204 S1000
G1 F1200
G1 X108.602 Y78.760 E0.02597
G1 X109.419 Y78.604 E0.02608
G1 X130.580 Y78.774 E0.66354
G1 X131.156 Y78.865 E0.01828
G1 X131.688 Y79.105 E0.01828
G1 X132.152 Y79.492 E0.01896
G1 X132.494 Y79.996 E0.01908
G1 X141.142 Y98.351 E0.63622
G1 X143.775 Y109.003 E0.34403
G1 X143.806 Y111.617 E0.08195
G1 X143.622 Y112.402 E0.02529
G1 X143.384 Y112.812 E0.01487
G1 X142.490 Y113.941 E0.04515
G1 X127.828 Y129.905 E0.67963
G1 X127.409 Y130.257 E0.01714
G1 X126.920 Y130.493 E0.01703
G1 X126.271 Y130.607 E0.02066
G1 X114.685 Y130.777 E0.36332
G1 X113.033 Y130.582 E0.05213
G1 X112.531 Y130.441 E0.01635
G1 X111.965 Y130.097 E0.02078
G1 X111.529 Y129.603 E0.02066
G1 X107.339 Y122.366 E0.26220
G1 X107.225 Y121.673 E0.02202
G1 X107.227 Y80.690 E1.28499
G1 X107.423 Y79.881 E0.02608
G1 X107.870 Y79.256 E0.02409
G1 E-0.80000 F2100.00000
G1 Z0.800 F10800.000
G1 X137.712 Y100.715
G1 Z0.200
G1 E0.80000 F2100.00000
G1 F1200
G1 X137.497 Y100.694 E0.00677
G1 X137.290 Y100.631 E0.00677
G1 X137.100 Y100.530 E0.00677
G1 X136.933 Y100.393 E0.00677
G1 X136.796 Y100.226 E0.00677
G1 X136.694 Y100.035 E0.00677
G1 X136.632 Y99.829 E0.00677
G1 X136.610 Y99.614 E0.00677
G1 X136.632 Y99.399 E0.00677
G1 X136.694 Y99.193 E0.00677
G1 X136.796 Y99.002 E0.00677
G1 X136.933 Y98.836 E0.00677
G1 X137.100 Y98.699 E0.00677
G1 X137.290 Y98.597 E0.00677
G1 X137.497 Y98.534 E0.00677
G1 X137.701 Y98.514 E0.00644
G1 X137.925 Y98.534 E0.00706
G1 X138.133 Y98.597 E0.00680
G1 X138.323 Y98.699 E0.00677
G1 X138.490 Y98.836 E0.00677
G1 X138.627 Y99.002 E0.00677
G1 X138.729 Y99.193 E0.00677
G1 X138.791 Y99.399 E0.00677
G1 X138.813 Y99.614 E0.00677
G1 X138.791 Y99.829 E0.00677
G1 X138.729 Y100.035 E0.00677
G1 X138.627 Y100.226 E0.00677
G1 X138.490 Y100.393 E0.00677
G1 X138.323 Y100.530 E0.00677
G1 X138.133 Y100.631 E0.00677
G1 X137.926 Y100.694 E0.00677
G1 X137.771 Y100.709 E0.00489
G1 X137.604 Y100.902 F10800.000
G1 X137.712 Y100.820
G1 F1200
G1 X137.476 Y100.797 E0.00741
G1 X137.250 Y100.728 E0.00741
G1 X137.042 Y100.617 E0.00741
G1 X136.859 Y100.467 E0.00741
G1 X136.709 Y100.284 E0.00741
G1 X136.597 Y100.076 E0.00741
G1 X136.529 Y99.849 E0.00741
G1 X136.506 Y99.614 E0.00741
G1 X136.529 Y99.379 E0.00741
G1 X136.597 Y99.153 E0.00741
G1 X136.709 Y98.944 E0.00741
G1 X136.859 Y98.761 E0.00741
G1 X137.042 Y98.611 E0.00741
G1 X137.250 Y98.500 E0.00741
G1 X137.476 Y98.431 E0.00741
G1 X137.712 Y98.408 E0.00741
G1 X137.887 Y98.425 E0.00553
G1 X138.176 Y98.502 E0.00939
G1 X138.382 Y98.611 E0.00729
G1 X138.564 Y98.761 E0.00741
G1 X138.714 Y98.944 E0.00741
G1 X138.826 Y99.153 E0.00741
G1 X138.894 Y99.379 E0.00741
G1 X138.917 Y99.614 E0.00741
G1 X138.894 Y99.849 E0.00741
G1 X138.826 Y100.076 E0.00741
G1 X138.714 Y100.284 E0.00741
G1 X138.564 Y100.467 E0.00741
G1 X138.382 Y100.617 E0.00741
G1 X138.173 Y100.728 E0.00741
G1 X137.947 Y100.797 E0.00741
G1 X137.771 Y100.814 E0.00553
G1 X137.593 Y100.615 F10800.000
G1 E-0.80000 F2100.00000
G1 Z0.800 F10800.000
G1 X130.530 Y91.675
G1 Z0.200
G1 E0.80000 F2100.00000
G1 F1200
G1 X130.530 Y80.962 E0.33592
G1 X129.776 Y80.962 E0.02365
G1 X129.776 Y91.506 E0.33060
G1 X129.022 Y91.506 E0.02365
G1 X129.022 Y80.962 E0.33060
G1 X128.267 Y80.962 E0.02365
G1 X128.267 Y91.506 E0.33060
G1 X127.513 Y91.506 E0.02365
G1 X127.513 Y80.962 E0.33060
G1 X126.759 Y80.962 E0.02365
G1 X126.759 Y91.506 E0.33060
G1 X126.005 Y91.506 E0.02365
G1 X126.005 Y80.962 E0.33060
G1 X125.251 Y80.962 E0.02365
G1 X125.251 Y83.585 E0.08224
G1 X124.497 Y83.585 E0.02365
G1 X124.497 Y80.962 E0.08224
G1 X123.743 Y80.962 E0.02365
G1 X123.743 Y83.585 E0.08224
G1 X122.988 Y83.585 E0.02365
G1 X122.988 Y80.962 E0.08224
G1 X122.234 Y80.962 E0.02365
G1 X122.234 Y83.585 E0.08224
G1 X121.480 Y83.585 E0.02365
G1 X121.480 Y80.962 E0.08224
G1 X120.726 Y80.962 E0.02365
G1 X120.726 Y83.585 E0.08224
G1 X120.607 Y83.585 E0.00373
G1 X120.607 Y85.820 E0.07010
G1 X119.972 Y85.820 E0.01991
G1 X119.972 Y80.962 E0.15233
G1 X119.218 Y80.962 E0.02365
G1 X119.218 Y85.820 E0.15233
G1 X118.984 Y85.820 E0.00733
G1 X118.984 Y83.585 E0.07010
G1 X118.463 Y83.585 E0.01632
G1 X118.463 Y80.962 E0.08224
G1 X117.709 Y80.962 E0.02365
G1 X117.709 Y83.585 E0.08224
G1 X116.955 Y83.585 E0.02365
G1 X116.955 Y80.962 E0.08224
G1 X116.201 Y80.962 E0.02365
G1 X116.201 Y83.585 E0.08224
G1 X115.447 Y83.585 E0.02365
G1 X115.447 Y80.962 E0.08224
G1 X114.693 Y80.962 E0.02365
G1 X114.693 Y83.585 E0.08224
G1 X113.938 Y83.585 E0.02365
G1 X113.938 Y80.962 E0.08224
G1 X113.184 Y80.962 E0.02365
G1 X113.184 Y91.506 E0.33060
G1 X113.938 Y91.506 E0.02365
G1 X113.938 Y88.883 E0.08224
G1 X114.693 Y88.883 E0.02365
G1 X114.693 Y91.506 E0.08224
G1 X115.447 Y91.506 E0.02365
G1 X115.447 Y88.883 E0.08224
G1 X116.201 Y88.883 E0.02365
G1 X116.201 Y91.506 E0.08224
G1 X116.955 Y91.506 E0.02365
G1 X116.955 Y88.883 E0.08224
G1 X117.709 Y88.883 E0.02365
G1 X117.709 Y91.506 E0.08224
G1 X118.463 Y91.506 E0.02365
G1 X118.463 Y88.883 E0.08224
G1 X118.984 Y88.883 E0.01632
G1 X118.984 Y88.056 E0.02593
G1 X118.463 Y88.016 E0.01637
G1 X118.463 Y87.136 E0.02758
G1 X119.218 Y87.511 E0.02640
G1 X119.218 Y91.506 E0.12527
G1 X119.972 Y91.506 E0.02365
G1 X119.972 Y87.527 E0.12475
G1 X120.726 Y87.153 E0.02640
G1 X120.726 Y91.506 E0.13649
G1 X121.480 Y91.506 E0.02365
G1 X121.480 Y88.883 E0.08224
G1 X122.234 Y88.883 E0.02365
G1 X122.234 Y91.506 E0.08224
G1 X122.988 Y91.506 E0.02365
G1 X122.988 Y88.883 E0.08224
G1 X123.743 Y88.883 E0.02365
G1 X123.743 Y91.506 E0.08224
G1 X124.497 Y91.506 E0.02365
G1 X124.497 Y88.883 E0.08224
G1 X125.251 Y88.883 E0.02365
G1 X125.251 Y91.675 E0.08756
G1 X122.988 Y92.327 F10800.000
G1 F1200
G1 X122.988 Y95.120 E0.08756
G1 X122.234 Y95.120 E0.02365
G1 X122.234 Y92.497 E0.08224
G1 X121.480 Y92.497 E0.02365
G1 X121.480 Y95.120 E0.08224
G1 X120.726 Y95.120 E0.02365
G1 X120.726 Y92.497 E0.08224
G1 X119.972 Y92.497 E0.02365
G1 X119.972 Y95.120 E0.08224
G1 X119.218 Y95.120 E0.02365
G1 X119.218 Y92.497 E0.08224
G1 X118.463 Y92.497 E0.02365
G1 X118.463 Y95.120 E0.08224
G1 X117.709 Y95.120 E0.02365
G1 X117.709 Y92.497 E0.08224
G1 X116.955 Y92.497 E0.02365
G1 X116.955 Y95.120 E0.08224
G1 X116.201 Y95.120 E0.02365
G1 X116.201 Y92.497 E0.08224
G1 X115.447 Y92.497 E0.02365
G1 X115.447 Y128.419 E1.12631
G1 X116.201 Y128.419 E0.02365
G1 X116.201 Y118.875 E0.29925
G1 X116.955 Y118.875 E0.02365
G1 X116.955 Y128.419 E0.29925
G1 X117.709 Y128.419 E0.02365
G1 X117.709 Y118.875 E0.29925
G1 X118.463 Y118.875 E0.02365
G1 X118.463 Y128.419 E0.29925
G1 X119.218 Y128.419 E0.02365
G1 X119.218 Y118.875 E0.29925
G1 X119.972 Y118.875 E0.02365
G1 X119.972 Y128.419 E0.29925
G1 X120.726 Y128.419 E0.02365
G1 X120.726 Y118.875 E0.29925
G1 X121.480 Y118.875 E0.02365
G1 X121.480 Y128.419 E0.29925
G1 X122.234 Y128.419 E0.02365
G1 X122.234 Y118.875 E0.29925
G1 X122.988 Y118.875 E0.02365
G1 X122.988 Y128.419 E0.29925
G1 X123.743 Y128.419 E0.02365
G1 X123.743 Y92.497 E1.12631
G1 X124.497 Y92.497 E0.02365
G1 X124.497 Y128.419 E1.12631
G1 X125.251 Y128.419 E0.02365
G1 X125.251 Y92.497 E1.12631
G1 X126.005 Y92.497 E0.02365
G1 X126.005 Y128.419 E1.12631
G1 X126.221 Y128.419 E0.00677
G1 X126.221 Y121.498 E0.21701
G1 X126.759 Y121.498 E0.01688
G1 X126.759 Y92.497 E0.90929
G1 X127.513 Y92.497 E0.02365
G1 X127.513 Y121.498 E0.90929
G1 X128.267 Y121.498 E0.02365
G1 X128.267 Y92.497 E0.90929
G1 X129.022 Y92.497 E0.02365
G1 X129.022 Y121.498 E0.90929
G1 X129.776 Y121.498 E0.02365
G1 X129.776 Y92.497 E0.90929
G1 X130.530 Y92.497 E0.02365
G1 X130.530 Y121.667 E0.91462
G1 E-0.80000 F2100.00000
G1 Z0.800 F10800.000
G1 X123.105 Y118.671
G1 Z0.200
G1 E0.80000 F2100.00000
G1 F1200
G1 X123.105 Y95.462 E0.59261
G1 X122.598 Y95.462 E0.01295
G1 X122.598 Y118.533 E0.58909
M73 P2 R49
G1 X122.090 Y118.533 E0.01295
G1 X122.090 Y95.462 E0.58909
G1 X121.583 Y95.462 E0.01295
G1 X121.583 Y118.533 E0.58909
G1 X121.076 Y118.533 E0.01295
G1 X121.076 Y95.462 E0.58909
G1 X120.569 Y95.462 E0.01295
G1 X120.569 Y118.533 E0.58909
G1 X120.062 Y118.533 E0.01295
G1 X120.062 Y112.332 E0.15833
G1 X119.555 Y112.332 E0.01295
G1 X119.555 Y118.533 E0.15833
G1 X119.048 Y118.533 E0.01295
G1 X119.048 Y95.462 E0.58909
G1 X119.555 Y95.462 E0.01295
G1 X119.555 Y100.030 E0.11664
G1 X120.062 Y100.030 E0.01295
G1 X120.062 Y95.324 E0.12017
G1 X116.513 Y95.324 F10800.000
G1 F1200
G1 X116.513 Y118.533 E0.59261
G1 X117.020 Y118.533 E0.01295
G1 X117.020 Y95.462 E0.58909
G1 X117.527 Y95.462 E0.01295
G1 X117.527 Y118.533 E0.58909
G1 X118.034 Y118.533 E0.01295
G1 X118.034 Y95.462 E0.58909
G1 X118.541 Y95.462 E0.01295
G1 X118.541 Y118.671 E0.59261
G1 E-0.80000 F2100.00000
G1 Z0.800 F10800.000
G1 X119.555 Y110.178
G1 Z0.200
G1 E0.80000 F2100.00000
G1 F1200
G1 X119.555 Y107.328 E0.07276
G1 X120.062 Y107.328 E0.01295
G1 X120.062 Y110.178 E0.07276
G1 E-0.80000 F2100.00000
G1 Z0.800 F10800.000
G1 X120.062 Y105.174
G1 Z0.200
G1 E0.80000 F2100.00000
G1 F1200
G1 X120.062 Y102.323 E0.07281
G1 X119.555 Y102.323 E0.01295
G1 X119.555 Y105.174 E0.07281
G1 E-0.80000 F2100.00000
G1 Z0.800 F10800.000
G1 X112.430 Y91.675
G1 Z0.200
G1 E0.80000 F2100.00000
G1 F1200
G1 X112.430 Y80.962 E0.33592
G1 X111.676 Y80.962 E0.02365
G1 X111.676 Y91.506 E0.33060
G1 X110.922 Y91.506 E0.02365
G1 X110.922 Y80.962 E0.33060
G1 X110.168 Y80.962 E0.02365
G1 X110.168 Y91.506 E0.33060
G1 X109.413 Y91.506 E0.02365
G1 X109.413 Y80.792 E0.33592
G1 E-0.80000 F2100.00000
G1 Z0.800 F10800.000
G1 X114.484 Y88.679
G1 Z0.200
G1 E0.80000 F2100.00000
G1 F1200
G1 X114.484 Y83.927 E0.12135
G1 X114.991 Y83.927 E0.01295
G1 X114.991 Y88.541 E0.11782
G1 X115.498 Y88.541 E0.01295
G1 X115.498 Y83.927 E0.11782
G1 X116.006 Y83.927 E0.01295
G1 X116.006 Y88.679 E0.12135
G1 X117.709 Y87.774 F10800.000
G1 F1200
G1 X117.709 Y86.028 E0.05476
G1 X118.541 Y83.788 F10800.000
G1 F1200
G1 X118.541 Y85.855 E0.05277
G1 X118.034 Y85.855 E0.01295
G1 X118.034 Y83.927 E0.04924
G1 X117.527 Y83.927 E0.01295
G1 X117.527 Y85.855 E0.04924
G1 X117.020 Y85.855 E0.01295
G1 X117.020 Y83.927 E0.04924
G1 X116.513 Y83.927 E0.01295
G1 X116.513 Y88.541 E0.11782
G1 X117.020 Y88.541 E0.01295
G1 X117.020 Y86.780 E0.04497
G1 X117.299 Y87.467 E0.01894
G1 X117.527 Y87.812 E0.01055
G1 X117.527 Y88.541 E0.01862
G1 X118.034 Y88.541 E0.01295
G1 X118.034 Y88.302 E0.00611
G1 X118.541 Y88.372 E0.01307
G1 X118.541 Y88.679 E0.00784
G1 X121.076 Y88.178 F10800.000
G1 F1200
G1 X121.076 Y88.541 E0.00927
G1 X121.583 Y88.541 E0.01295
G1 X121.583 Y87.978 E0.01436
G1 X121.905 Y87.501 E0.01469
G1 X122.090 Y87.055 E0.01233
G1 X122.090 Y88.541 E0.03793
G1 X122.598 Y88.541 E0.01295
G1 X122.598 Y83.927 E0.11782
G1 X123.105 Y83.927 E0.01295
G1 X123.105 Y88.541 E0.11782
G1 X123.612 Y88.541 E0.01295
G1 X123.612 Y83.927 E0.11782
G1 X124.119 Y83.927 E0.01295
G1 X124.119 Y88.541 E0.11782
G1 X124.626 Y88.541 E0.01295
G1 X124.626 Y83.927 E0.11782
G1 X125.133 Y83.927 E0.01295
G1 X125.133 Y88.679 E0.12135
G1 X121.480 Y87.823 F10800.000
G1 F1200
G1 X121.480 Y86.028 E0.05630
G1 X122.090 Y85.993 F10800.000
G1 F1200
G1 X122.090 Y83.927 E0.05277
G1 X121.583 Y83.927 E0.01295
G1 X121.583 Y85.855 E0.04924
G1 X121.076 Y85.855 E0.01295
G1 X121.076 Y83.788 E0.05277
G1 E-0.80000 F2100.00000
G1 Z0.800 F10800.000
G1 X109.413 Y121.667
G1 Z0.200
G1 E0.80000 F2100.00000
G1 F1200
G1 X109.413 Y92.497 E0.91462
G1 X110.168 Y92.497 E0.02365
G1 X110.168 Y121.498 E0.90929
G1 X110.922 Y121.498 E0.02365
G1 X110.922 Y92.497 E0.90929
G1 X111.676 Y92.497 E0.02365
G1 X111.676 Y121.498 E0.90929
G1 X112.430 Y121.498 E0.02365
G1 X112.430 Y92.497 E0.90929
G1 X113.184 Y92.497 E0.02365
G1 X113.184 Y121.498 E0.90929
G1 X113.370 Y121.498 E0.00582
G1 X113.370 Y128.419 E0.21701
G1 X113.938 Y128.419 E0.01783
G1 X113.938 Y92.497 E1.12631
G1 X114.693 Y92.497 E0.02365
G1 X114.693 Y128.589 E1.13163
G1 E-0.80000 F2100.00000
G1 Z0.800 F10800.000
G1 X119.611 Y87.010
G1 Z0.200
G1 E0.80000 F2100.00000
G1 F1200
G1 X118.760 Y86.587 E0.02980
G1 X118.663 Y86.444 E0.00542
G1 X120.559 Y86.444 E0.05945
G1 X120.463 Y86.587 E0.00542
G1 X119.665 Y86.983 E0.02792
G1 X119.457 Y86.641 F10800.000
G1 E-0.80000 F2100.00000
G1 Z0.800 F10800.000
G1 X134.832 Y108.225
G1 Z0.200
G1 E0.80000 F2100.00000
G1 F1200
G1 X134.832 Y112.091 E0.12121
G1 X137.849 Y110.920 F10800.000
G1 F1200
G1 X137.849 Y109.576 E0.04215
G1 X137.964 Y109.541 E0.00376
G1 X138.148 Y109.532 E0.00579
G1 X138.327 Y109.577 E0.00579
G1 X138.485 Y109.672 E0.00579
G1 X138.603 Y109.800 E0.00546
G1 X138.603 Y110.766 E0.03029
G1 X141.620 Y111.518 F10800.000
G1 F1200
G1 X141.620 Y109.385 E0.06687
G1 X141.550 Y109.107 E0.00898
G1 X141.431 Y108.773 E0.01114
G1 X141.279 Y108.452 E0.01114
G1 X141.096 Y108.147 E0.01114
G1 X140.866 Y107.841 E0.01201
G1 X140.866 Y112.475 E0.14530
G1 X140.646 Y112.717 E0.01026
G1 X140.383 Y112.956 E0.01114
G1 X140.112 Y113.157 E0.01059
G1 X140.112 Y112.251 E0.02842
G1 X139.714 Y112.575 E0.01609
G1 X139.357 Y112.777 E0.01284
G1 X139.357 Y113.543 E0.02403
G1 X139.137 Y113.622 E0.00733
G1 X138.603 Y113.736 E0.01713
G1 X138.603 Y113.024 E0.02234
G1 X138.097 Y113.072 E0.01595
G1 X137.849 Y113.060 E0.00777
G1 X137.849 Y113.766 E0.02212
G1 X137.380 Y113.708 E0.01481
G1 X137.095 Y113.637 E0.00923
G1 X137.095 Y112.894 E0.02327
G1 X136.704 Y112.723 E0.01338
G1 X136.341 Y112.487 E0.01359
G1 X136.341 Y113.326 E0.02633
G1 X136.076 Y113.168 E0.00969
G1 X135.790 Y112.956 E0.01114
G1 X135.587 Y112.771 E0.00862
G1 X135.587 Y111.648 E0.03521
G1 X135.399 Y111.282 E0.01290
G1 X135.296 Y110.994 E0.00960
G1 X135.227 Y110.716 E0.00896
G1 X135.186 Y110.434 E0.00896
G1 X135.173 Y110.168 E0.00833
G1 X135.188 Y109.862 E0.00960
G1 X135.227 Y109.600 E0.00833
G1 X135.296 Y109.322 E0.00896
G1 X135.399 Y109.034 E0.00960
G1 X135.587 Y108.668 E0.01290
G1 X135.587 Y107.545 E0.03521
G1 X135.790 Y107.360 E0.00862
G1 X136.076 Y107.148 E0.01114
G1 X136.341 Y106.990 E0.00969
G1 X136.341 Y107.829 E0.02633
G1 X136.704 Y107.593 E0.01358
G1 X137.095 Y107.422 E0.01338
G1 X137.095 Y106.680 E0.02327
G1 X137.380 Y106.608 E0.00923
G1 X137.732 Y106.556 E0.01114
G1 X137.849 Y106.550 E0.00368
G1 X137.849 Y107.256 E0.02212
G1 X138.097 Y107.245 E0.00777
G1 X138.603 Y107.292 E0.01595
G1 X138.603 Y106.580 E0.02234
G1 X139.137 Y106.694 E0.01712
G1 X139.357 Y106.773 E0.00733
G1 X139.357 Y107.539 E0.02403
G1 X139.714 Y107.741 E0.01284
G1 X140.112 Y108.065 E0.01609
G1 X140.112 Y106.959 E0.03469
G1 E-0.80000 F2100.00000
G1 Z0.800 F10800.000
G1 X138.087 Y111.791
G1 Z0.200
G1 E0.80000 F2100.00000
G1 F1200
G1 X137.768 Y111.759 E0.01004
