; generated by PrusaSlicer 2.1.1+win64 on 2020-01-06 at 18:56:50 UTC

; 

; external perimeters extrusion width = 0.60mm
; perimeters extrusion width = 0.43mm
; infill extrusion width = 0.45mm
; solid infill extrusion width = 0.70mm
; top infill extrusion width = 0.43mm
; first layer extrusion width = 0.42mm

M73 P0 R21
M201 X9000 Y9000 Z500 E10000 ; sets maximum accelerations, mm/sec^2
M203 X500 Y500 Z12 E120 ; sets maximum feedrates, mm/sec
M204 P2000 R1500 T2000 ; sets acceleration (P, T) and retract acceleration (R), mm/sec^2
M205 X10.00 Y10.00 Z0.20 E2.50 ; sets the jerk limits, mm/sec
M205 S0 T0 ; sets the minimum extruding and travel feed rate, mm/sec
M107
M862.3 P "MK2.5SMMU2S" ; printer model check
M862.1 P0.4 ; nozzle diameter check
M115 U3.8.0 ; tell printer latest fw version
G90 ; use absolute coordinates
M83 ; extruder relative mode
M104 S215 ; set extruder temp
M140 S60 ; set bed temp
Tx
M190 S60 ; wait for bed temp
M109 S215 ; wait for extruder temp
G28 W ; home all without mesh bed level
G80 ; mesh bed leveling

G21 ; set units to millimeters

;go outside print area
G1 Y-3.0 F1000.0
G1 Z0.4 F1000.0
; select extruder
Tc
; purge line
G1 X55.0 F2000.0
G1 Z0.3 F1000.0
G92 E0.0
G1 X240.0 E25.0 F2200.0
M73 P0 R21
G1 Y-2.0 F1000.0
G1 X55.0 E25 F1400.0
G1 Z0.20 F1000.0
G1 X5.0 E4.0 F1000.0
G92 E0.0
G21 ; set units to millimeters
G90 ; use absolute coordinates
M83 ; use relative distances for extrusion
M900 K30 ; Filament gcode
;BEFORE_LAYER_CHANGE
G92 E0.0
;0.2


G1 E-0.80000 F2100.00000
G1 Z0.600 F10800.000
;AFTER_LAYER_CHANGE
;0.2
G1 X71.277 Y112.999
G1 Z0.200
G1 E0.80000 F2100.00000
M204 S1000
G1 F1200
G1 X71.788 Y112.276 E0.02777
G1 X148.468 Y55.958 E2.98303
G1 X148.960 Y55.765 E0.01658
G1 X149.488 Y55.695 E0.01669
G1 X176.722 Y55.695 E0.85390
G1 X177.552 Y55.860 E0.02653
G1 X178.257 Y56.328 E0.02653
G1 X178.733 Y57.028 E0.02653
G1 X178.907 Y57.852 E0.02642
G1 X178.907 Y152.131 E2.95605
G1 X178.723 Y152.994 E0.02766
G1 X178.212 Y153.716 E0.02777
G1 X177.527 Y154.150 E0.02541
G1 X176.732 Y154.305 E0.02541
G1 X73.278 Y154.305 E3.24372
G1 X72.408 Y154.123 E0.02788
G1 X71.682 Y153.610 E0.02788
G1 X71.252 Y152.935 E0.02507
G1 X71.093 Y152.148 E0.02518
G1 X71.093 Y113.869 E1.20022
G1 X71.264 Y113.057 E0.02600
G1 E-0.80000 F2100.00000
G1 Z0.800 F10800.000
G1 X73.869 Y114.463
G1 Z0.200
G1 E0.80000 F2100.00000
G1 F1200
G1 X150.095 Y114.463 E2.39002
G1 X150.095 Y58.471 E1.75560
G1 X176.131 Y58.471 E0.81636
G1 X176.131 Y151.529 E2.91779
G1 X73.869 Y151.529 E3.20637
G1 X73.869 Y114.523 E1.16030
G1 E-0.80000 F2100.00000
G1 Z0.800 F10800.000
G1 X149.718 Y114.086
G1 Z0.200
G1 E0.80000 F2100.00000
G1 F1200
G1 X149.718 Y58.094 E1.75560
G1 X176.508 Y58.094 E0.84000
G1 X176.508 Y151.906 E2.94143
M73 P5 R20
G1 X73.492 Y151.906 E3.23002
G1 X73.492 Y114.086 E1.18583
G1 X149.658 Y114.086 E2.38813
G1 X150.113 Y114.025 F10800.000
G1 E-0.80000 F2100.00000
G1 Z0.800 F10800.000
G1 X176.018 Y59.347
G1 Z0.200
G1 E0.80000 F2100.00000
G1 F1200
G1 X175.424 Y58.753 E0.02637
G1 X174.890 Y58.753 E0.01677
G1 X175.849 Y59.712 E0.04255
G1 X175.849 Y60.246 E0.01677
G1 X174.356 Y58.753 E0.06627
G1 X173.822 Y58.753 E0.01677
G1 X175.849 Y60.780 E0.08999
G1 X175.849 Y61.314 E0.01677
G1 X173.288 Y58.753 E0.11371
G1 X172.754 Y58.753 E0.01677
G1 X175.849 Y61.848 E0.13743
G1 X175.849 Y62.382 E0.01677
G1 X172.220 Y58.753 E0.16115
G1 X171.686 Y58.753 E0.01677
G1 X175.849 Y62.916 E0.18487
G1 X175.849 Y63.450 E0.01677
G1 X171.152 Y58.753 E0.20859
G1 X170.618 Y58.753 E0.01677
G1 X175.849 Y63.984 E0.23231
G1 X175.849 Y64.519 E0.01677
G1 X170.083 Y58.753 E0.25603
G1 X169.549 Y58.753 E0.01677
G1 X175.849 Y65.053 E0.27975
G1 X175.849 Y65.587 E0.01677
G1 X169.015 Y58.753 E0.30347
G1 X168.481 Y58.753 E0.01677
G1 X175.849 Y66.121 E0.32718
G1 X175.849 Y66.655 E0.01677
G1 X167.947 Y58.753 E0.35090
G1 X167.413 Y58.753 E0.01677
G1 X175.849 Y67.189 E0.37462
G1 X175.849 Y67.723 E0.01677
G1 X166.879 Y58.753 E0.39834
G1 X166.345 Y58.753 E0.01677
G1 X175.849 Y68.257 E0.42206
G1 X175.849 Y68.791 E0.01677
G1 X165.811 Y58.753 E0.44578
G1 X165.277 Y58.753 E0.01677
G1 X175.849 Y69.325 E0.46950
G1 X175.849 Y69.859 E0.01677
G1 X164.743 Y58.753 E0.49322
G1 X164.208 Y58.753 E0.01677
G1 X175.849 Y70.394 E0.51694
G1 X175.849 Y70.928 E0.01677
G1 X163.674 Y58.753 E0.54066
G1 X163.140 Y58.753 E0.01677
G1 X175.849 Y71.462 E0.56438
G1 X175.849 Y71.996 E0.01677
G1 X162.606 Y58.753 E0.58809
G1 X162.072 Y58.753 E0.01677
G1 X175.849 Y72.530 E0.61181
G1 X175.849 Y73.064 E0.01677
G1 X161.538 Y58.753 E0.63553
G1 X161.004 Y58.753 E0.01677
G1 X175.849 Y73.598 E0.65925
G1 X175.849 Y74.132 E0.01677
G1 X160.470 Y58.753 E0.68297
G1 X159.936 Y58.753 E0.01677
G1 X175.849 Y74.666 E0.70669
G1 X175.849 Y75.200 E0.01677
G1 X159.402 Y58.753 E0.73041
G1 X158.868 Y58.753 E0.01677
G1 X175.849 Y75.734 E0.75413
G1 X175.849 Y76.269 E0.01677
G1 X158.333 Y58.753 E0.77785
G1 X157.799 Y58.753 E0.01677
G1 X175.849 Y76.803 E0.80157
G1 X175.849 Y77.337 E0.01677
G1 X157.265 Y58.753 E0.82529
G1 X156.731 Y58.753 E0.01677
G1 X175.849 Y77.871 E0.84900
G1 X175.849 Y78.405 E0.01677
G1 X156.197 Y58.753 E0.87272
G1 X155.663 Y58.753 E0.01677
G1 X175.849 Y78.939 E0.89644
G1 X175.849 Y79.473 E0.01677
G1 X155.129 Y58.753 E0.92016
G1 X154.595 Y58.753 E0.01677
G1 X175.849 Y80.007 E0.94388
G1 X175.849 Y80.541 E0.01677
G1 X154.061 Y58.753 E0.96760
G1 X153.527 Y58.753 E0.01677
G1 X175.849 Y81.075 E0.99132
G1 X175.849 Y81.610 E0.01677
G1 X152.992 Y58.753 E1.01504
G1 X152.458 Y58.753 E0.01677
G1 X175.849 Y82.144 E1.03876
G1 X175.849 Y82.678 E0.01677
G1 X151.924 Y58.753 E1.06248
G1 X151.390 Y58.753 E0.01677
G1 X175.849 Y83.212 E1.08620
G1 X175.849 Y83.746 E0.01677
G1 X150.856 Y58.753 E1.10991
G1 X150.378 Y58.753 E0.01503
G1 X150.378 Y58.809 E0.00174
G1 X175.849 Y84.280 E1.13117
G1 X175.849 Y84.814 E0.01677
G1 X150.378 Y59.343 E1.13117
G1 X150.378 Y59.877 E0.01677
G1 X175.849 Y85.348 E1.13117
M73 P10 R19
G1 X175.849 Y85.882 E0.01677
G1 X150.378 Y60.411 E1.13117
G1 X150.378 Y60.945 E0.01677
G1 X175.849 Y86.416 E1.13117
G1 X175.849 Y86.950 E0.01677
G1 X150.378 Y61.479 E1.13117
G1 X150.378 Y62.014 E0.01677
G1 X175.849 Y87.485 E1.13117
G1 X175.849 Y88.019 E0.01677
G1 X150.378 Y62.548 E1.13117
G1 X150.378 Y63.082 E0.01677
G1 X175.849 Y88.553 E1.13117
G1 X175.849 Y89.087 E0.01677
G1 X150.378 Y63.616 E1.13117
G1 X150.378 Y64.150 E0.01677
G1 X175.849 Y89.621 E1.13117
G1 X175.849 Y90.155 E0.01677
G1 X150.378 Y64.684 E1.13117
G1 X150.378 Y65.218 E0.01677
G1 X175.849 Y90.689 E1.13117
G1 X175.849 Y91.223 E0.01677
G1 X150.378 Y65.752 E1.13117
G1 X150.378 Y66.286 E0.01677
G1 X175.849 Y91.757 E1.13117
G1 X175.849 Y92.291 E0.01677
G1 X150.378 Y66.820 E1.13117
G1 X150.378 Y67.354 E0.01677
G1 X175.849 Y92.825 E1.13117
G1 X175.849 Y93.360 E0.01677
G1 X150.378 Y67.889 E1.13117
G1 X150.378 Y68.423 E0.01677
G1 X175.849 Y93.894 E1.13117
G1 X175.849 Y94.428 E0.01677
G1 X150.378 Y68.957 E1.13117
G1 X150.378 Y69.491 E0.01677
G1 X175.849 Y94.962 E1.13117
G1 X175.849 Y95.496 E0.01677
G1 X150.378 Y70.025 E1.13117
G1 X150.378 Y70.559 E0.01677
G1 X175.849 Y96.030 E1.13117
G1 X175.849 Y96.564 E0.01677
G1 X150.378 Y71.093 E1.13117
G1 X150.378 Y71.627 E0.01677
G1 X175.849 Y97.098 E1.13117
G1 X175.849 Y97.632 E0.01677
G1 X150.378 Y72.161 E1.13117
G1 X150.378 Y72.695 E0.01677
G1 X175.849 Y98.166 E1.13117
G1 X175.849 Y98.701 E0.01677
G1 X150.378 Y73.230 E1.13117
G1 X150.378 Y73.764 E0.01677
G1 X175.849 Y99.235 E1.13117
G1 X175.849 Y99.769 E0.01677
G1 X150.378 Y74.298 E1.13117
G1 X150.378 Y74.832 E0.01677
G1 X175.849 Y100.303 E1.13117
G1 X175.849 Y100.837 E0.01677
G1 X150.378 Y75.366 E1.13117
G1 X150.378 Y75.900 E0.01677
G1 X175.849 Y101.371 E1.13117
G1 X175.849 Y101.905 E0.01677
G1 X150.378 Y76.434 E1.13117
G1 X150.378 Y76.968 E0.01677
G1 X175.849 Y102.439 E1.13117
G1 X175.849 Y102.973 E0.01677
G1 X150.378 Y77.502 E1.13117
M73 P14 R18
G1 X150.378 Y78.036 E0.01677
G1 X175.849 Y103.507 E1.13117
G1 X175.849 Y104.041 E0.01677
G1 X150.378 Y78.570 E1.13117
G1 X150.378 Y79.105 E0.01677
G1 X175.849 Y104.576 E1.13117
G1 X175.849 Y105.110 E0.01677
G1 X150.378 Y79.639 E1.13117
G1 X150.378 Y80.173 E0.01677
G1 X175.849 Y105.644 E1.13117
G1 X175.849 Y106.178 E0.01677
G1 X150.378 Y80.707 E1.13117
G1 X150.378 Y81.241 E0.01677
G1 X175.849 Y106.712 E1.13117
G1 X175.849 Y107.246 E0.01677
G1 X150.378 Y81.775 E1.13117
G1 X150.378 Y82.309 E0.01677
G1 X175.849 Y107.780 E1.13117
G1 X175.849 Y108.314 E0.01677
G1 X150.378 Y82.843 E1.13117
G1 X150.378 Y83.377 E0.01677
G1 X175.849 Y108.848 E1.13117
G1 X175.849 Y109.382 E0.01677
G1 X150.378 Y83.911 E1.13117
G1 X150.378 Y84.445 E0.01677
G1 X175.849 Y109.916 E1.13117
G1 X175.849 Y110.451 E0.01677
G1 X150.378 Y84.980 E1.13117
G1 X150.378 Y85.514 E0.01677
G1 X175.849 Y110.985 E1.13117
G1 X175.849 Y111.519 E0.01677
G1 X150.378 Y86.048 E1.13117
G1 X150.378 Y86.582 E0.01677
G1 X175.849 Y112.053 E1.13117
G1 X175.849 Y112.587 E0.01677
G1 X150.378 Y87.116 E1.13117
G1 X150.378 Y87.650 E0.01677
G1 X175.849 Y113.121 E1.13117
G1 X175.849 Y113.655 E0.01677
G1 X150.378 Y88.184 E1.13117
G1 X150.378 Y88.718 E0.01677
G1 X175.849 Y114.189 E1.13117
G1 X175.849 Y114.723 E0.01677
G1 X150.378 Y89.252 E1.13117
G1 X150.378 Y89.786 E0.01677
G1 X175.849 Y115.257 E1.13117
G1 X175.849 Y115.791 E0.01677
G1 X150.378 Y90.320 E1.13117
G1 X150.378 Y90.855 E0.01677
G1 X175.849 Y116.326 E1.13117
G1 X175.849 Y116.860 E0.01677
G1 X150.378 Y91.389 E1.13117
G1 X150.378 Y91.923 E0.01677
G1 X175.849 Y117.394 E1.13117
G1 X175.849 Y117.928 E0.01677
G1 X150.378 Y92.457 E1.13117
G1 X150.378 Y92.991 E0.01677
G1 X175.849 Y118.462 E1.13117
G1 X175.849 Y118.996 E0.01677
G1 X150.378 Y93.525 E1.13117
G1 X150.378 Y94.059 E0.01677
G1 X175.849 Y119.530 E1.13117
G1 X175.849 Y120.064 E0.01677
G1 X150.378 Y94.593 E1.13117
G1 X150.378 Y95.127 E0.01677
G1 X175.849 Y120.598 E1.13117
M73 P19 R17
G1 X175.849 Y121.132 E0.01677
G1 X150.378 Y95.661 E1.13117
G1 X150.378 Y96.196 E0.01677
G1 X175.849 Y121.667 E1.13117
G1 X175.849 Y122.201 E0.01677
G1 X150.378 Y96.730 E1.13117
G1 X150.378 Y97.264 E0.01677
G1 X175.849 Y122.735 E1.13117
G1 X175.849 Y123.269 E0.01677
G1 X150.378 Y97.798 E1.13117
G1 X150.378 Y98.332 E0.01677
G1 X175.849 Y123.803 E1.13117
G1 X175.849 Y124.337 E0.01677
G1 X150.378 Y98.866 E1.13117
G1 X150.378 Y99.400 E0.01677
G1 X175.849 Y124.871 E1.13117
G1 X175.849 Y125.405 E0.01677
G1 X150.378 Y99.934 E1.13117
G1 X150.378 Y100.468 E0.01677
G1 X175.849 Y125.939 E1.13117
G1 X175.849 Y126.473 E0.01677
G1 X150.378 Y101.002 E1.13117
G1 X150.378 Y101.536 E0.01677
G1 X175.849 Y127.007 E1.13117
G1 X175.849 Y127.542 E0.01677
G1 X150.378 Y102.071 E1.13117
G1 X150.378 Y102.605 E0.01677
G1 X175.849 Y128.076 E1.13117
G1 X175.849 Y128.610 E0.01677
G1 X150.378 Y103.139 E1.13117
G1 X150.378 Y103.673 E0.01677
G1 X175.849 Y129.144 E1.13117
G1 X175.849 Y129.678 E0.01677
G1 X150.378 Y104.207 E1.13117
G1 X150.378 Y104.741 E0.01677
G1 X175.849 Y130.212 E1.13117
G1 X175.849 Y130.746 E0.01677
G1 X150.378 Y105.275 E1.13117
G1 X150.378 Y105.809 E0.01677
G1 X175.849 Y131.280 E1.13117
G1 X175.849 Y131.814 E0.01677
G1 X150.378 Y106.343 E1.13117
G1 X150.378 Y106.877 E0.01677
G1 X175.849 Y132.348 E1.13117
G1 X175.849 Y132.882 E0.01677
G1 X150.378 Y107.411 E1.13117
G1 X150.378 Y107.946 E0.01677
G1 X175.849 Y133.417 E1.13117
G1 X175.849 Y133.951 E0.01677
G1 X150.378 Y108.480 E1.13117
G1 X150.378 Y109.014 E0.01677
G1 X175.849 Y134.485 E1.13117
G1 X175.849 Y135.019 E0.01677
G1 X150.378 Y109.548 E1.13117
G1 X150.378 Y110.082 E0.01677
G1 X175.849 Y135.553 E1.13117
G1 X175.849 Y136.087 E0.01677
G1 X150.378 Y110.616 E1.13117
G1 X150.378 Y111.150 E0.01677
G1 X175.849 Y136.621 E1.13117
G1 X175.849 Y137.155 E0.01677
G1 X150.378 Y111.684 E1.13117
G1 X150.378 Y112.218 E0.01677
G1 X175.849 Y137.689 E1.13117
G1 X175.849 Y138.223 E0.01677
G1 X150.378 Y112.752 E1.13117
M73 P24 R16
G1 X150.378 Y113.287 E0.01677
G1 X175.849 Y138.758 E1.13117
G1 X175.849 Y139.292 E0.01677
G1 X150.378 Y113.821 E1.13117
G1 X150.378 Y114.355 E0.01677
G1 X175.849 Y139.826 E1.13117
G1 X175.849 Y140.360 E0.01677
G1 X150.235 Y114.746 E1.13751
G1 X149.701 Y114.746 E0.01677
G1 X175.849 Y140.894 E1.16123
G1 X175.849 Y141.428 E0.01677
G1 X149.166 Y114.746 E1.18495
G1 X148.632 Y114.746 E0.01677
G1 X175.849 Y141.962 E1.20867
G1 X175.849 Y142.496 E0.01677
G1 X148.098 Y114.746 E1.23239
G1 X147.564 Y114.746 E0.01677
G1 X175.849 Y143.030 E1.25611
G1 X175.849 Y143.564 E0.01677
G1 X147.030 Y114.746 E1.27983
G1 X146.496 Y114.746 E0.01677
G1 X175.849 Y144.098 E1.30355
G1 X175.849 Y144.633 E0.01677
G1 X145.962 Y114.746 E1.32727
G1 X145.428 Y114.746 E0.01677
G1 X175.849 Y145.167 E1.35099
G1 X175.849 Y145.701 E0.01677
G1 X144.894 Y114.746 E1.37471
G1 X144.360 Y114.746 E0.01677
G1 X175.849 Y146.235 E1.39842
G1 X175.849 Y146.769 E0.01677
G1 X143.826 Y114.746 E1.42214
G1 X143.291 Y114.746 E0.01677
G1 X175.849 Y147.303 E1.44586
G1 X175.849 Y147.837 E0.01677
G1 X142.757 Y114.746 E1.46958
G1 X142.223 Y114.746 E0.01677
G1 X175.849 Y148.371 E1.49330
G1 X175.849 Y148.905 E0.01677
G1 X141.689 Y114.746 E1.51702
G1 X141.155 Y114.746 E0.01677
G1 X175.849 Y149.439 E1.54074
G1 X175.849 Y149.973 E0.01677
G1 X140.621 Y114.746 E1.56446
G1 X140.087 Y114.746 E0.01677
G1 X175.849 Y150.508 E1.58818
G1 X175.849 Y151.042 E0.01677
G1 X139.553 Y114.746 E1.61190
G1 X139.019 Y114.746 E0.01677
G1 X175.519 Y151.247 E1.62100
G1 X174.985 Y151.247 E0.01677
G1 X138.485 Y114.746 E1.62100
G1 X137.950 Y114.746 E0.01677
G1 X174.451 Y151.247 E1.62100
M73 P28 R15
G1 X173.917 Y151.247 E0.01677
G1 X137.416 Y114.746 E1.62100
G1 X136.882 Y114.746 E0.01677
G1 X173.383 Y151.247 E1.62100
G1 X172.849 Y151.247 E0.01677
G1 X136.348 Y114.746 E1.62100
G1 X135.814 Y114.746 E0.01677
G1 X172.315 Y151.247 E1.62100
G1 X171.781 Y151.247 E0.01677
G1 X135.280 Y114.746 E1.62100
G1 X134.746 Y114.746 E0.01677
G1 X171.247 Y151.247 E1.62100
G1 X170.712 Y151.247 E0.01677
G1 X134.212 Y114.746 E1.62100
G1 X133.678 Y114.746 E0.01677
G1 X170.178 Y151.247 E1.62100
G1 X169.644 Y151.247 E0.01677
G1 X133.144 Y114.746 E1.62100
G1 X132.610 Y114.746 E0.01677
G1 X169.110 Y151.247 E1.62100
G1 X168.576 Y151.247 E0.01677
G1 X132.075 Y114.746 E1.62100
G1 X131.541 Y114.746 E0.01677
G1 X168.042 Y151.247 E1.62100
G1 X167.508 Y151.247 E0.01677
G1 X131.007 Y114.746 E1.62100
G1 X130.473 Y114.746 E0.01677
G1 X166.974 Y151.247 E1.62100
G1 X166.440 Y151.247 E0.01677
G1 X129.939 Y114.746 E1.62100
G1 X129.405 Y114.746 E0.01677
G1 X165.906 Y151.247 E1.62100
G1 X165.372 Y151.247 E0.01677
G1 X128.871 Y114.746 E1.62100
G1 X128.337 Y114.746 E0.01677
G1 X164.837 Y151.247 E1.62100
G1 X164.303 Y151.247 E0.01677
G1 X127.803 Y114.746 E1.62100
G1 X127.269 Y114.746 E0.01677
G1 X163.769 Y151.247 E1.62100
G1 X163.235 Y151.247 E0.01677
G1 X126.735 Y114.746 E1.62100
G1 X126.200 Y114.746 E0.01677
G1 X162.701 Y151.247 E1.62100
G1 X162.167 Y151.247 E0.01677
G1 X125.666 Y114.746 E1.62100
M73 P33 R14
G1 X125.132 Y114.746 E0.01677
G1 X161.633 Y151.247 E1.62100
G1 X161.099 Y151.247 E0.01677
G1 X124.598 Y114.746 E1.62100
G1 X124.064 Y114.746 E0.01677
G1 X160.565 Y151.247 E1.62100
G1 X160.031 Y151.247 E0.01677
G1 X123.530 Y114.746 E1.62100
G1 X122.996 Y114.746 E0.01677
G1 X159.497 Y151.247 E1.62100
G1 X158.962 Y151.247 E0.01677
G1 X122.462 Y114.746 E1.62100
G1 X121.928 Y114.746 E0.01677
G1 X158.428 Y151.247 E1.62100
G1 X157.894 Y151.247 E0.01677
G1 X121.394 Y114.746 E1.62100
G1 X120.859 Y114.746 E0.01677
G1 X157.360 Y151.247 E1.62100
G1 X156.826 Y151.247 E0.01677
G1 X120.325 Y114.746 E1.62100
G1 X119.791 Y114.746 E0.01677
G1 X156.292 Y151.247 E1.62100
G1 X155.758 Y151.247 E0.01677
G1 X119.257 Y114.746 E1.62100
G1 X118.723 Y114.746 E0.01677
G1 X155.224 Y151.247 E1.62100
G1 X154.690 Y151.247 E0.01677
G1 X118.189 Y114.746 E1.62100
G1 X117.655 Y114.746 E0.01677
G1 X154.156 Y151.247 E1.62100
G1 X153.622 Y151.247 E0.01677
G1 X117.121 Y114.746 E1.62100
G1 X116.587 Y114.746 E0.01677
G1 X153.087 Y151.247 E1.62100
G1 X152.553 Y151.247 E0.01677
G1 X116.053 Y114.746 E1.62100
G1 X115.519 Y114.746 E0.01677
G1 X152.019 Y151.247 E1.62100
G1 X151.485 Y151.247 E0.01677
G1 X114.984 Y114.746 E1.62100
