; generated by PrusaSlicer 2.2.0+win64 on 2020-11-04 at 22:02:38 UTC

; 

; external perimeters extrusion width = 0.45mm
; perimeters extrusion width = 0.45mm
; infill extrusion width = 0.45mm
; solid infill extrusion width = 0.45mm
; top infill extrusion width = 0.40mm
; support material extrusion width = 0.35mm
; first layer extrusion width = 0.42mm

M73 P0 R22
M201 X9000 Y9000 Z500 E10000 ; sets maximum accelerations, mm/sec^2
M203 X500 Y500 Z12 E120 ; sets maximum feedrates, mm/sec
M204 P2000 R1500 T2000 ; sets acceleration (P, T) and retract acceleration (R), mm/sec^2
M205 X10.00 Y10.00 Z0.20 E2.50 ; sets the jerk limits, mm/sec
M205 S0 T0 ; sets the minimum extruding and travel feed rate, mm/sec
M107
M862.3 P "MK2.5SMMU2S" ; printer model check
M862.1 P0.4 ; nozzle diameter check
M115 U3.8.0 ; tell printer latest fw version
G90 ; use absolute coordinates
M83 ; extruder relative mode
M104 S215 ; set extruder temp
M140 S60 ; set bed temp
Tx
M190 S60 ; wait for bed temp
M109 S215 ; wait for extruder temp
G28 W ; home all without mesh bed level
G80 ; mesh bed leveling

G21 ; set units to millimeters

;go outside print area
G1 Y-3.0 F1000.0
G1 Z0.4 F1000.0
; select extruder
Tc
; purge line
G1 X55.0 F2000.0
G1 Z0.3 F1000.0
G92 E0.0
G1 X240.0 E25.0 F2200.0
M73 P0 R22
G1 Y-2.0 F1000.0
G1 X55.0 E25 F1400.0
G1 Z0.20 F1000.0
G1 X5.0 E4.0 F1000.0
G92 E0.0
G21 ; set units to millimeters
G90 ; use absolute coordinates
M83 ; use relative distances for extrusion
M900 K30 ; Filament gcode
;BEFORE_LAYER_CHANGE
G92 E0.0
;0.2


G1 E-0.80000 F2100.00000
G1 Z0.600 F10800.000
;AFTER_LAYER_CHANGE
;0.2
G1 X134.123 Y78.693
G1 Z0.200
G1 E0.80000 F2100.00000
M204 S1000
G1 F1200.000
G1 X134.886 Y79.192 E0.02860
G1 X143.383 Y87.931 E0.38217
G1 X143.730 Y88.416 E0.01870
G1 X143.946 Y88.972 E0.01870
G1 X144.418 Y93.192 E0.13313
G1 X144.418 Y119.328 E0.81950
G1 X144.228 Y122.560 E0.10151
G1 X144.041 Y123.330 E0.02484
G1 X143.614 Y123.993 E0.02473
G1 X137.577 Y130.033 E0.26774
G1 X137.073 Y130.411 E0.01977
G1 X136.567 Y130.621 E0.01716
G1 X136.027 Y130.710 E0.01716
G1 X129.522 Y130.771 E0.20399
G1 X129.032 Y130.684 E0.01562
G1 X128.574 Y130.498 E0.01550
G1 X111.098 Y120.962 E0.62420
G1 X110.568 Y120.561 E0.02083
G1 X110.170 Y120.029 E0.02083
G1 X109.951 Y119.474 E0.01870
G1 X109.877 Y118.884 E0.01865
G1 X109.877 Y108.851 E0.31457
G1 X110.158 Y95.498 E0.41879
G1 X110.440 Y93.879 E0.05150
G1 X110.991 Y92.538 E0.04549
G1 X111.953 Y91.164 E0.05256
G1 X113.030 Y90.181 E0.04572
G1 X132.038 Y78.836 E0.69408
G1 X132.614 Y78.598 E0.01953
G1 X133.231 Y78.517 E0.01953
G1 X134.064 Y78.681 E0.02661
G1 E-0.80000 F2100.00000
G1 Z0.800 F10800.000
G1 X133.227 Y80.894
G1 Z0.200
G1 E0.80000 F2100.00000
G1 F1200.000
G1 X124.020 Y90.102 E0.40826
G1 X124.553 Y90.635 E0.02365
G1 X133.640 Y81.548 E0.40294
G1 X134.173 Y82.081 E0.02365
G1 X125.086 Y91.168 E0.40294
G1 X125.498 Y91.580 E0.01827
G1 X123.867 Y93.212 E0.07234
G1 X123.988 Y93.333 E0.00537
G1 X134.707 Y82.614 E0.47527
G1 X135.240 Y83.148 E0.02365
G1 X124.521 Y93.866 E0.47527
G1 X125.055 Y94.399 E0.02365
G1 X135.773 Y83.681 E0.47527
G1 X136.306 Y84.214 E0.02365
G1 X123.837 Y96.684 E0.55293
G1 E-0.80000 F2100.00000
G1 Z0.800 F10800.000
G1 X129.325 Y124.037
G1 Z0.200
G1 E0.80000 F2100.00000
G1 F1200.000
G1 X131.218 Y122.144 E0.06836
G1 X131.096 Y122.144 E0.00313
G1 X131.066 Y122.113 E0.00109
G1 X130.781 Y122.113 E0.00727
G1 X130.656 Y121.989 E0.00451
G1 X129.064 Y123.580 E0.05747
G1 X128.706 Y123.222 E0.01295
G1 X130.379 Y121.549 E0.06041
G1 X130.379 Y120.832 E0.01831
G1 X128.347 Y122.863 E0.07336
G1 X128.060 Y122.576 E0.01037
G1 X129.691 Y120.945 E0.05891
G1 X129.620 Y120.873 E0.00258
G1 X130.379 Y120.114 E0.02740
G1 X130.379 Y119.397 E0.01831
G1 X129.262 Y120.515 E0.04035
G1 X128.903 Y120.156 E0.01295
G1 X130.379 Y118.680 E0.05330
G1 X130.379 Y117.963 E0.01831
G1 X128.544 Y119.798 E0.06624
G1 X128.186 Y119.439 E0.01295
G1 X130.379 Y117.246 E0.07919
G1 X130.379 Y116.529 E0.01831
G1 X129.459 Y117.449 E0.03323
G1 X129.100 Y117.091 E0.01295
G1 X130.379 Y115.812 E0.04618
G1 X130.379 Y115.095 E0.01831
G1 X128.742 Y116.732 E0.05913
G1 X128.383 Y116.373 E0.01295
G1 X130.379 Y114.377 E0.07207
G1 X130.379 Y113.660 E0.01831
G1 X129.656 Y114.383 E0.02611
G1 X129.297 Y114.025 E0.01295
G1 X130.379 Y112.943 E0.03906
G1 X130.379 Y112.226 E0.01831
G1 X128.939 Y113.666 E0.05201
G1 X128.580 Y113.308 E0.01295
G1 X130.379 Y111.509 E0.06496
G1 X130.379 Y110.792 E0.01831
G1 X128.222 Y112.949 E0.07790
G1 X128.060 Y112.788 E0.00583
G1 X129.691 Y111.156 E0.05891
G1 X129.494 Y110.959 E0.00712
G1 X130.379 Y110.075 E0.03194
G1 X130.379 Y109.358 E0.01831
G1 X129.136 Y110.601 E0.04489
G1 X128.777 Y110.242 E0.01295
G1 X130.379 Y108.641 E0.05784
G1 X130.379 Y107.923 E0.01831
G1 X128.419 Y109.884 E0.07079
G1 X128.060 Y109.525 E0.01295
G1 X130.379 Y107.206 E0.08373
G1 X130.379 Y106.489 E0.01831
G1 X129.333 Y107.535 E0.03777
G1 X128.974 Y107.177 E0.01295
G1 X130.379 Y105.772 E0.05072
G1 X130.379 Y105.055 E0.01831
G1 X128.616 Y106.818 E0.06367
G1 X128.257 Y106.460 E0.01295
G1 X130.379 Y104.338 E0.07662
G1 X130.379 Y103.621 E0.01831
G1 X129.530 Y104.470 E0.03065
G1 X129.171 Y104.111 E0.01295
G1 X130.379 Y102.904 E0.04360
G1 X130.379 Y102.186 E0.01831
G1 X128.813 Y103.753 E0.05655
G1 X128.454 Y103.394 E0.01295
G1 X130.379 Y101.469 E0.06950
G1 X130.379 Y100.752 E0.01831
G1 X128.096 Y103.035 E0.08244
G1 X128.060 Y103.000 E0.00129
G1 X129.691 Y101.368 E0.05891
G1 X129.369 Y101.045 E0.01166
G1 X130.379 Y100.035 E0.03648
G1 X130.379 Y99.318 E0.01831
G1 X129.010 Y100.687 E0.04943
G1 X128.651 Y100.328 E0.01295
G1 X130.379 Y98.601 E0.06238
G1 X130.379 Y97.884 E0.01831
G1 X128.293 Y99.970 E0.07533
G1 X128.060 Y99.737 E0.00841
G1 X129.691 Y98.106 E0.05891
G1 X129.566 Y97.980 E0.00454
G1 X130.379 Y97.167 E0.02937
G1 X130.379 Y96.450 E0.01831
G1 X129.207 Y97.621 E0.04231
G1 X128.849 Y97.263 E0.01295
G1 X130.379 Y95.732 E0.05526
G1 X130.379 Y95.015 E0.01831
G1 X128.490 Y96.904 E0.06821
G1 X128.131 Y96.546 E0.01295
G1 X130.379 Y94.298 E0.08116
G1 X130.379 Y93.589 E0.01810
G1 X130.781 Y93.188 E0.01451
G1 X131.066 Y93.188 E0.00727
G1 X131.096 Y93.158 E0.00109
G1 X131.269 Y93.158 E0.00442
G1 X131.036 Y92.924 E0.00842
G1 X129.404 Y94.556 E0.05891
G1 X129.046 Y94.197 E0.01295
G1 X130.677 Y92.566 E0.05891
G1 X130.319 Y92.207 E0.01295
G1 X128.687 Y93.839 E0.05891
G1 X128.329 Y93.480 E0.01295
G1 X130.058 Y91.751 E0.06244
G1 X131.457 Y93.330 F10800.000
G1 F1200.000
G1 X130.721 Y94.066 E0.03263
G1 X130.721 Y95.132 E0.03344
G1 X131.464 Y94.389 E0.03296
G1 X131.464 Y95.455 E0.03344
G1 X130.721 Y96.199 E0.03296
G1 X130.721 Y97.265 E0.03344
G1 X131.464 Y96.522 E0.03296
G1 X131.464 Y97.589 E0.03344
G1 X130.721 Y98.332 E0.03296
G1 X130.721 Y99.398 E0.03344
G1 X131.464 Y98.655 E0.03296
G1 X131.464 Y99.722 E0.03344
G1 X130.721 Y100.465 E0.03296
G1 X130.721 Y101.532 E0.03344
G1 X131.464 Y100.788 E0.03296
G1 X131.464 Y101.855 E0.03344
G1 X130.721 Y102.598 E0.03296
G1 X130.721 Y103.665 E0.03344
G1 X131.464 Y102.921 E0.03296
G1 X131.464 Y103.988 E0.03344
G1 X130.721 Y104.731 E0.03296
G1 X130.721 Y105.798 E0.03344
G1 X131.464 Y105.054 E0.03296
G1 X131.464 Y106.121 E0.03344
G1 X130.721 Y106.864 E0.03296
G1 X130.721 Y107.931 E0.03344
G1 X131.464 Y107.187 E0.03296
G1 X131.464 Y108.254 E0.03344
G1 X130.721 Y108.997 E0.03296
G1 X130.721 Y110.064 E0.03344
G1 X131.464 Y109.320 E0.03296
G1 X131.464 Y110.387 E0.03344
G1 X130.721 Y111.130 E0.03296
G1 X130.721 Y112.197 E0.03344
G1 X131.464 Y111.454 E0.03296
G1 X131.464 Y112.520 E0.03344
G1 X130.721 Y113.263 E0.03296
G1 X130.721 Y114.330 E0.03344
G1 X131.464 Y113.587 E0.03296
G1 X131.464 Y114.653 E0.03344
G1 X130.721 Y115.397 E0.03296
G1 X130.721 Y116.463 E0.03344
G1 X131.464 Y115.720 E0.03296
G1 X131.464 Y116.786 E0.03344
G1 X130.721 Y117.530 E0.03296
G1 X130.721 Y118.596 E0.03344
G1 X131.464 Y117.853 E0.03296
G1 X131.464 Y118.919 E0.03344
G1 X130.721 Y119.663 E0.03296
G1 X130.721 Y120.729 E0.03344
G1 X131.464 Y119.986 E0.03296
G1 X131.464 Y121.052 E0.03344
G1 X130.714 Y121.803 E0.03328
G1 E-0.80000 F2100.00000
G1 Z0.800 F10800.000
G1 X134.274 Y121.442
G1 Z0.200
G1 E0.80000 F2100.00000
G1 F1200.000
G1 X135.187 Y120.529 E0.04049
G1 X135.187 Y119.463 E0.03344
G1 X134.444 Y120.206 E0.03296
G1 X134.444 Y119.139 E0.03344
G1 X135.187 Y118.396 E0.03296
G1 X135.187 Y117.329 E0.03344
G1 X134.444 Y118.073 E0.03296
G1 X134.444 Y117.006 E0.03344
G1 X135.187 Y116.263 E0.03296
G1 X135.187 Y115.196 E0.03344
G1 X134.444 Y115.940 E0.03296
G1 X134.444 Y114.873 E0.03344
G1 X135.187 Y114.130 E0.03296
G1 X135.187 Y113.063 E0.03344
G1 X134.444 Y113.807 E0.03296
G1 X134.444 Y112.740 E0.03344
G1 X135.187 Y111.997 E0.03296
G1 X135.187 Y110.930 E0.03344
G1 X134.444 Y111.674 E0.03296
G1 X134.444 Y110.607 E0.03344
G1 X135.187 Y109.864 E0.03296
G1 X135.187 Y108.797 E0.03344
G1 X134.444 Y109.541 E0.03296
G1 X134.444 Y108.474 E0.03344
G1 X135.187 Y107.731 E0.03296
G1 X135.187 Y106.664 E0.03344
G1 X134.444 Y107.407 E0.03296
G1 X134.444 Y106.341 E0.03344
G1 X135.187 Y105.598 E0.03296
G1 X135.187 Y104.531 E0.03344
G1 X134.444 Y105.274 E0.03296
G1 X134.444 Y104.208 E0.03344
G1 X135.187 Y103.464 E0.03296
G1 X135.187 Y102.398 E0.03344
G1 X134.444 Y103.141 E0.03296
G1 X134.444 Y102.075 E0.03344
G1 X135.187 Y101.331 E0.03296
G1 X135.187 Y100.265 E0.03344
G1 X134.444 Y101.008 E0.03296
G1 X134.444 Y99.942 E0.03344
G1 X135.187 Y99.198 E0.03296
G1 X135.187 Y98.132 E0.03344
G1 X134.444 Y98.875 E0.03296
G1 X134.444 Y97.809 E0.03344
G1 X135.187 Y97.065 E0.03296
G1 X135.187 Y95.999 E0.03344
G1 X134.444 Y96.742 E0.03296
G1 X134.444 Y95.675 E0.03344
G1 X135.187 Y94.932 E0.03296
G1 X135.187 Y93.866 E0.03344
G1 X134.444 Y94.609 E0.03296
G1 X134.444 Y93.542 E0.03344
G1 X134.656 Y93.330 E0.00942
G1 E-0.80000 F2100.00000
G1 Z0.800 F10800.000
G1 X136.547 Y91.715
G1 Z0.200
G1 E0.80000 F2100.00000
G1 F1200.000
G1 X135.075 Y93.188 E0.05316
G1 X135.128 Y93.188 E0.00134
G1 X135.460 Y93.520 E0.01200
G1 X136.808 Y92.172 E0.04869
G1 X137.167 Y92.530 E0.01295
G1 X135.529 Y94.168 E0.05913
G1 X135.529 Y94.885 E0.01831
G1 X137.525 Y92.889 E0.07207
G1 X137.848 Y93.212 E0.01166
G1 X136.217 Y94.843 E0.05891
G1 X136.253 Y94.879 E0.00129
G1 X135.529 Y95.602 E0.02611
G1 X135.529 Y96.319 E0.01831
G1 X136.611 Y95.237 E0.03906
G1 X136.970 Y95.596 E0.01295
G1 X135.529 Y97.036 E0.05201
G1 X135.529 Y97.753 E0.01831
G1 X137.328 Y95.954 E0.06496
G1 X137.687 Y96.313 E0.01295
G1 X135.529 Y98.470 E0.07790
G1 X135.529 Y99.187 E0.01831
G1 X136.414 Y98.303 E0.03194
G1 X136.773 Y98.661 E0.01295
G1 X135.529 Y99.904 E0.04489
G1 X135.529 Y100.622 E0.01831
G1 X137.131 Y99.020 E0.05784
G1 X137.490 Y99.378 E0.01295
G1 X135.529 Y101.339 E0.07079
G1 X135.529 Y102.056 E0.01831
G1 X137.848 Y99.737 E0.08373
G1 X136.217 Y101.368 E0.05891
G1 X136.575 Y101.727 E0.01295
G1 X135.529 Y102.773 E0.03777
G1 X135.529 Y103.490 E0.01831
G1 X136.934 Y102.085 E0.05072
G1 X137.293 Y102.444 E0.01295
G1 X135.529 Y104.207 E0.06367
G1 X135.529 Y104.924 E0.01831
G1 X137.651 Y102.803 E0.07662
G1 X137.848 Y103.000 E0.00712
G1 X136.217 Y104.631 E0.05891
G1 X136.378 Y104.792 E0.00583
G1 X135.529 Y105.641 E0.03066
G1 X135.529 Y106.359 E0.01831
G1 X136.737 Y105.151 E0.04360
G1 X137.095 Y105.510 E0.01295
G1 X135.529 Y107.076 E0.05655
G1 X135.529 Y107.793 E0.01831
G1 X137.454 Y105.868 E0.06950
G1 X137.813 Y106.227 E0.01295
G1 X135.529 Y108.510 E0.08245
G1 X135.529 Y109.227 E0.01831
G1 X136.540 Y108.217 E0.03648
G1 X136.898 Y108.575 E0.01295
G1 X135.529 Y109.944 E0.04943
G1 X135.529 Y110.661 E0.01831
G1 X137.257 Y108.934 E0.06238
G1 X137.615 Y109.292 E0.01295
G1 X135.529 Y111.378 E0.07533
G1 X135.529 Y112.095 E0.01831
G1 X136.343 Y111.282 E0.02937
G1 X136.701 Y111.641 E0.01295
G1 X135.529 Y112.813 E0.04231
G1 X135.529 Y113.530 E0.01831
G1 X137.060 Y111.999 E0.05526
G1 X137.418 Y112.358 E0.01295
G1 X135.529 Y114.247 E0.06821
G1 X135.529 Y114.964 E0.01831
G1 X137.777 Y112.716 E0.08116
G1 X137.848 Y112.788 E0.00258
G1 X136.217 Y114.419 E0.05891
G1 X136.504 Y114.706 E0.01037
G1 X135.529 Y115.681 E0.03520
G1 X135.529 Y116.398 E0.01831
G1 X136.863 Y115.065 E0.04814
G1 X137.221 Y115.423 E0.01295
G1 X135.529 Y117.115 E0.06109
G1 X135.529 Y117.832 E0.01831
G1 X137.580 Y115.782 E0.07404
G1 X137.848 Y116.050 E0.00969
G1 X136.217 Y117.682 E0.05891
G1 X136.307 Y117.772 E0.00325
G1 X135.529 Y118.550 E0.02808
G1 X135.529 Y119.267 E0.01831
G1 X136.666 Y118.130 E0.04103
G1 X137.024 Y118.489 E0.01295
G1 X135.529 Y119.984 E0.05397
G1 X135.529 Y120.701 E0.01831
G1 X137.383 Y118.848 E0.06692
G1 X137.741 Y119.206 E0.01295
G1 X135.529 Y121.418 E0.07987
G1 X135.529 Y121.712 E0.00750
G1 X135.128 Y122.113 E0.01451
G1 X134.843 Y122.113 E0.00727
G1 X134.478 Y122.469 E0.01299
G1 X134.837 Y122.827 E0.01295
G1 X136.468 Y121.196 E0.05891
G1 X136.827 Y121.555 E0.01295
G1 X135.196 Y123.186 E0.05891
G1 X135.554 Y123.545 E0.01295
G1 X137.186 Y121.913 E0.05891
G1 X137.544 Y122.272 E0.01295
G1 X135.815 Y124.001 E0.06244
G1 X135.913 Y128.336 F10800.000
G1 F1200.000
G1 X141.857 Y122.392 E0.26358
G1 X141.324 Y121.858 E0.02365
G1 X135.499 Y127.683 E0.25826
G1 X134.966 Y127.150 E0.02365
G1 X140.791 Y121.325 E0.25826
G1 X140.410 Y120.945 E0.01688
G1 X142.041 Y119.313 E0.07234
G1 X141.889 Y119.161 E0.00677
G1 X134.433 Y126.616 E0.33060
G1 X133.900 Y126.083 E0.02365
G1 X135.754 Y124.228 E0.08224
G1 X135.221 Y123.695 E0.02365
G1 X133.366 Y125.550 E0.08224
G1 X132.954 Y125.138 E0.01828
G1 X129.691 Y128.400 E0.14467
G1 X129.570 Y128.279 E0.00537
G1 X134.688 Y123.162 E0.22691
G1 X134.154 Y122.629 E0.02365
G1 X129.037 Y127.746 E0.22691
G1 X128.504 Y127.213 E0.02365
G1 X133.538 Y122.179 E0.22322
G1 X132.471 Y122.179 E0.03344
G1 X127.971 Y126.679 E0.19957
G1 X127.437 Y126.146 E0.02365
G1 X129.292 Y124.291 E0.08224
G1 X128.759 Y123.758 E0.02365
G1 X126.904 Y125.613 E0.08224
G1 X126.371 Y125.080 E0.02365
G1 X128.225 Y123.225 E0.08224
G1 X127.692 Y122.692 E0.02365
G1 X125.837 Y124.546 E0.08224
G1 X125.304 Y124.013 E0.02365
G1 X128.790 Y120.527 E0.15457
G1 X128.257 Y119.994 E0.02365
G1 X124.771 Y123.480 E0.15457
G1 X124.238 Y122.946 E0.02365
G1 X127.724 Y119.460 E0.15457
G1 X127.576 Y119.313 E0.00653
G1 X129.208 Y117.682 E0.07234
G1 X128.822 Y117.296 E0.01711
G1 X125.336 Y120.782 E0.15457
G1 X124.802 Y120.249 E0.02365
G1 X128.288 Y116.763 E0.15457
G1 X127.755 Y116.229 E0.02365
G1 X124.269 Y119.715 E0.15457
G1 X123.867 Y119.313 E0.01783
G1 X125.498 Y117.682 E0.07234
G1 X125.367 Y117.551 E0.00582
G1 X128.853 Y114.065 E0.15457
G1 X128.320 Y113.531 E0.02365
G1 X124.834 Y117.017 E0.15457
G1 X124.301 Y116.484 E0.02365
G1 X127.787 Y112.998 E0.15457
G1 X127.576 Y112.788 E0.00933
G1 X129.208 Y111.156 E0.07234
G1 X128.885 Y110.834 E0.01432
G1 X125.399 Y114.320 E0.15457
G1 X124.866 Y113.786 E0.02365
G1 X128.352 Y110.300 E0.15457
G1 X127.818 Y109.767 E0.02365
G1 X124.332 Y113.253 E0.15457
G1 X123.867 Y112.788 E0.02063
G1 X125.498 Y111.156 E0.07234
G1 X125.430 Y111.088 E0.00302
G1 X128.916 Y107.602 E0.15457
G1 X128.383 Y107.069 E0.02365
G1 X124.897 Y110.555 E0.15457
G1 X124.364 Y110.022 E0.02365
G1 X127.850 Y106.536 E0.15457
G1 X127.576 Y106.262 E0.01213
G1 X129.208 Y104.631 E0.07234
G1 X128.948 Y104.371 E0.01152
G1 X125.462 Y107.857 E0.15457
G1 X124.929 Y107.324 E0.02365
G1 X128.415 Y103.838 E0.15457
G1 X127.881 Y103.305 E0.02365
G1 X124.395 Y106.791 E0.15457
G1 X123.867 Y106.262 E0.02342
G1 X128.979 Y101.140 E0.22691
G1 X128.446 Y100.607 E0.02365
G1 X124.960 Y104.093 E0.15457
G1 X124.427 Y103.559 E0.02365
G1 X127.913 Y100.074 E0.15457
G1 X127.576 Y99.737 E0.01492
G1 X129.208 Y98.106 E0.07234
G1 X129.011 Y97.909 E0.00872
G1 X123.894 Y103.026 E0.22691
G1 X123.867 Y103.000 E0.00118
G1 X125.498 Y101.368 E0.07234
G1 X124.992 Y100.862 E0.02247
G1 X128.478 Y97.376 E0.15457
G1 X127.944 Y96.842 E0.02365
G1 X124.458 Y100.328 E0.15457
G1 X123.925 Y99.795 E0.02365
G1 X129.042 Y94.678 E0.22691
G1 X128.509 Y94.144 E0.02365
M73 P5 R21
G1 X125.023 Y97.630 E0.15457
G1 X124.490 Y97.097 E0.02365
G1 X127.976 Y93.611 E0.15457
G1 X127.576 Y93.212 E0.01772
G1 X129.691 Y91.096 E0.09379
G1 X130.091 Y91.496 E0.01772
