; generated by PrusaSlicer 2.2.0+win64 on 2020-11-03 at 18:01:20 UTC

; 

; external perimeters extrusion width = 0.60mm
; perimeters extrusion width = 0.43mm
; infill extrusion width = 0.45mm
; solid infill extrusion width = 0.70mm
; top infill extrusion width = 0.43mm
; support material extrusion width = 0.37mm
; first layer extrusion width = 0.42mm

M73 P0 R99
M201 X9000 Y9000 Z500 E10000 ; sets maximum accelerations, mm/sec^2
M203 X500 Y500 Z12 E120 ; sets maximum feedrates, mm/sec
M204 P2000 R1500 T2000 ; sets acceleration (P, T) and retract acceleration (R), mm/sec^2
M205 X10.00 Y10.00 Z0.20 E2.50 ; sets the jerk limits, mm/sec
M205 S0 T0 ; sets the minimum extruding and travel feed rate, mm/sec
M107
M862.3 P "MK2.5SMMU2S" ; printer model check
M862.1 P0.4 ; nozzle diameter check
M115 U3.8.0 ; tell printer latest fw version
G90 ; use absolute coordinates
M83 ; extruder relative mode
M104 S215 ; set extruder temp
M140 S60 ; set bed temp
Tx
M190 S60 ; wait for bed temp
M109 S215 ; wait for extruder temp
G28 W ; home all without mesh bed level
G80 ; mesh bed leveling

G21 ; set units to millimeters

;go outside print area
G1 Y-3.0 F1000.0
G1 Z0.4 F1000.0
; select extruder
Tc
; purge line
G1 X55.0 F2000.0
G1 Z0.3 F1000.0
G92 E0.0
G1 X240.0 E25.0 F2200.0
M73 P0 R99
G1 Y-2.0 F1000.0
G1 X55.0 E25 F1400.0
G1 Z0.20 F1000.0
G1 X5.0 E4.0 F1000.0
G92 E0.0
G21 ; set units to millimeters
G90 ; use absolute coordinates
M83 ; use relative distances for extrusion
M900 K0.06 ; Filament gcode LA 1.5
M900 K30 ; Filament gcode LA 1.0
;BEFORE_LAYER_CHANGE
G92 E0.0
;0.2


G1 E-0.80000 F2100.00000
G1 Z0.600 F10800.000
;AFTER_LAYER_CHANGE
;0.2
G1 X77.585 Y81.599
G1 Z0.200
G1 E0.80000 F2100.00000
M204 S1000
G1 F1200.000
G1 X78.318 Y81.234 E0.02567
G1 X116.909 Y69.895 E1.26113
G1 X117.444 Y69.831 E0.01692
G1 X127.265 Y69.831 E0.30793
G1 X127.749 Y69.881 E0.01526
G1 X128.216 Y70.031 E0.01538
G1 X129.005 Y70.592 E0.03036
G1 X171.027 Y116.509 E1.95158
G1 X173.054 Y119.200 E0.10564
G1 X173.290 Y119.752 E0.01882
G1 X173.379 Y120.350 E0.01894
G1 X173.380 Y131.089 E0.33672
G1 X173.316 Y131.625 E0.01692
G1 X173.057 Y132.273 E0.02190
G1 X168.985 Y139.055 E0.24802
G1 X168.626 Y139.498 E0.01787
G1 X168.170 Y139.845 E0.01799
G1 X167.606 Y140.083 E0.01917
G1 X167.001 Y140.169 E0.01917
G1 X154.385 Y140.169 E0.39557
G1 X153.601 Y140.027 E0.02496
G1 X81.299 Y109.801 E2.45711
G1 X77.666 Y107.635 E0.13261
G1 X77.261 Y107.290 E0.01669
G1 X76.943 Y106.863 E0.01668
G1 X76.706 Y106.304 E0.01906
G1 X76.618 Y105.698 E0.01917
G1 X76.619 Y83.451 E0.69754
G1 X76.694 Y82.917 E0.01692
G1 X76.888 Y82.413 E0.01692
G1 X77.190 Y81.966 E0.01692
G1 X77.541 Y81.639 E0.01504
G1 E-0.80000 F2100.00000
G1 Z0.800 F10800.000
G1 X78.995 Y83.512
G1 Z0.200
G1 E0.80000 F2100.00000
G1 F1200.000
G1 X78.995 Y105.664 E0.69455
G1 X79.749 Y105.664 E0.02365
G1 X79.749 Y83.682 E0.68923
G1 X80.504 Y83.682 E0.02365
G1 X80.504 Y105.664 E0.68923
G1 X81.258 Y105.664 E0.02365
G1 X81.258 Y83.682 E0.68923
G1 X82.012 Y83.682 E0.02365
G1 X82.012 Y87.165 E0.10921
G1 X82.042 Y87.136 E0.00131
G1 X82.766 Y87.136 E0.02272
G1 X82.766 Y83.682 E0.10828
G1 X83.520 Y83.682 E0.02365
G1 X83.520 Y87.136 E0.10828
G1 X84.274 Y87.136 E0.02365
G1 X84.274 Y83.682 E0.10828
G1 X85.029 Y83.682 E0.02365
G1 X85.029 Y87.136 E0.10828
G1 X85.783 Y87.136 E0.02365
G1 X85.783 Y83.682 E0.10828
G1 X86.537 Y83.682 E0.02365
G1 X86.537 Y87.136 E0.10828
G1 X87.291 Y87.136 E0.02365
G1 X87.291 Y83.682 E0.10828
G1 X88.045 Y83.682 E0.02365
G1 X88.045 Y87.136 E0.10828
G1 X88.799 Y87.136 E0.02365
G1 X88.799 Y83.682 E0.10828
G1 X89.553 Y83.682 E0.02365
G1 X89.553 Y87.136 E0.10828
G1 X90.308 Y87.136 E0.02365
G1 X90.308 Y83.682 E0.10828
G1 X91.062 Y83.682 E0.02365
G1 X91.062 Y87.136 E0.10828
G1 X91.816 Y87.136 E0.02365
G1 X91.816 Y83.682 E0.10828
G1 X92.570 Y83.682 E0.02365
G1 X92.570 Y87.136 E0.10828
G1 X93.324 Y87.136 E0.02365
G1 X93.324 Y83.682 E0.10828
G1 X94.078 Y83.682 E0.02365
G1 X94.078 Y87.136 E0.10828
G1 X94.833 Y87.136 E0.02365
G1 X94.833 Y83.682 E0.10828
G1 X95.587 Y83.682 E0.02365
G1 X95.587 Y87.136 E0.10828
G1 X96.341 Y87.136 E0.02365
G1 X96.341 Y83.682 E0.10828
G1 X97.095 Y83.682 E0.02365
G1 X97.095 Y87.136 E0.10828
G1 X97.849 Y87.136 E0.02365
G1 X97.849 Y83.682 E0.10828
G1 X98.603 Y83.682 E0.02365
G1 X98.603 Y87.136 E0.10828
G1 X99.358 Y87.136 E0.02365
G1 X99.358 Y83.682 E0.10828
G1 X100.112 Y83.682 E0.02365
G1 X100.112 Y87.136 E0.10828
G1 X100.866 Y87.136 E0.02365
G1 X100.866 Y83.682 E0.10828
G1 X101.620 Y83.682 E0.02365
G1 X101.620 Y87.136 E0.10828
G1 X102.374 Y87.136 E0.02365
G1 X102.374 Y83.682 E0.10828
G1 X103.128 Y83.682 E0.02365
G1 X103.128 Y87.136 E0.10828
G1 X103.883 Y87.136 E0.02365
G1 X103.883 Y83.682 E0.10828
G1 X104.637 Y83.682 E0.02365
G1 X104.637 Y87.136 E0.10828
G1 X105.391 Y87.136 E0.02365
G1 X105.391 Y83.682 E0.10828
G1 X106.145 Y83.682 E0.02365
G1 X106.145 Y87.136 E0.10828
G1 X106.899 Y87.136 E0.02365
G1 X106.899 Y83.682 E0.10828
G1 X107.653 Y83.682 E0.02365
G1 X107.653 Y87.136 E0.10828
G1 X108.407 Y87.136 E0.02365
G1 X108.407 Y83.682 E0.10829
G1 X109.162 Y83.682 E0.02365
G1 X109.162 Y87.305 E0.11361
G1 E-0.80000 F2100.00000
G1 Z0.800 F10800.000
G1 X117.457 Y87.306
G1 Z0.200
G1 E0.80000 F2100.00000
G1 F1200.000
G1 X117.457 Y72.208 E0.47339
G1 X118.212 Y72.208 E0.02365
G1 X118.212 Y87.136 E0.46807
G1 X118.966 Y87.136 E0.02365
G1 X118.966 Y72.208 E0.46807
G1 X119.720 Y72.208 E0.02365
G1 X119.720 Y87.136 E0.46807
G1 X120.474 Y87.136 E0.02365
G1 X120.474 Y72.208 E0.46807
G1 X121.228 Y72.208 E0.02365
G1 X121.228 Y87.136 E0.46808
G1 X121.944 Y87.136 E0.02245
G1 X121.982 Y87.136 E0.00120
G1 X121.982 Y72.208 E0.46808
G1 X122.736 Y72.208 E0.02365
G1 X122.736 Y87.136 E0.46808
G1 X123.491 Y87.136 E0.02365
G1 X123.491 Y72.208 E0.46808
G1 X124.245 Y72.208 E0.02365
G1 X124.245 Y87.232 E0.47108
G1 X124.435 Y87.422 E0.00844
G1 X124.435 Y89.600 E0.06827
G1 X124.999 Y89.600 E0.01768
G1 X124.999 Y72.208 E0.54532
G1 X125.753 Y72.208 E0.02365
G1 X125.753 Y89.600 E0.54532
G1 X126.507 Y89.600 E0.02365
G1 X126.507 Y72.208 E0.54532
G1 X127.261 Y72.208 E0.02365
G1 X127.261 Y89.769 E0.55064
G1 E-0.80000 F2100.00000
G1 Z0.800 F10800.000
G1 X106.145 Y107.939
G1 Z0.200
G1 E0.80000 F2100.00000
G1 F1200.000
G1 X106.145 Y114.843 E0.21649
G1 X106.899 Y114.843 E0.02365
G1 X106.899 Y108.108 E0.21117
G1 X107.653 Y108.108 E0.02365
G1 X107.653 Y114.843 E0.21117
G1 X108.407 Y114.843 E0.02365
G1 X108.407 Y108.109 E0.21117
G1 X109.162 Y108.109 E0.02365
G1 X109.162 Y114.843 E0.21117
G1 X109.916 Y114.843 E0.02365
G1 X109.916 Y108.109 E0.21117
G1 X110.670 Y108.109 E0.02365
G1 X110.670 Y114.843 E0.21117
G1 X111.424 Y114.843 E0.02365
G1 X111.424 Y108.109 E0.21117
G1 X112.178 Y108.109 E0.02365
G1 X112.178 Y114.843 E0.21117
G1 X112.861 Y114.843 E0.02139
G1 X112.861 Y117.138 E0.07195
G1 X112.932 Y117.138 E0.00225
G1 X112.932 Y108.109 E0.28312
G1 X113.687 Y108.109 E0.02365
G1 X113.687 Y117.138 E0.28312
G1 X114.441 Y117.138 E0.02365
G1 X114.441 Y108.109 E0.28312
G1 X115.195 Y108.109 E0.02365
G1 X115.195 Y117.138 E0.28312
G1 X115.949 Y117.138 E0.02365
G1 X115.949 Y108.109 E0.28312
G1 X116.703 Y108.109 E0.02365
G1 X116.703 Y117.138 E0.28311
G1 X117.450 Y117.138 E0.02343
G1 X117.450 Y119.433 E0.07195
G1 X117.457 Y108.109 E0.35507
G1 X118.212 Y108.109 E0.02365
G1 X118.212 Y119.433 E0.35507
G1 X118.966 Y119.433 E0.02365
G1 X118.966 Y108.109 E0.35507
G1 X119.720 Y108.109 E0.02365
G1 X119.720 Y119.433 E0.35507
M73 P1 R98
G1 X120.474 Y119.433 E0.02365
G1 X120.474 Y108.109 E0.35506
G1 X121.228 Y108.109 E0.02365
G1 X121.228 Y119.433 E0.35506
G1 X121.982 Y119.433 E0.02365
G1 X121.982 Y108.109 E0.35506
G1 X122.736 Y108.109 E0.02365
G1 X122.736 Y119.433 E0.35506
G1 X123.491 Y119.433 E0.02365
G1 X123.491 Y108.109 E0.35506
G1 X124.149 Y108.109 E0.02064
G1 X124.245 Y108.013 E0.00425
G1 X124.245 Y119.433 E0.35806
G1 X124.335 Y119.433 E0.00283
G1 X124.335 Y121.728 E0.07195
G1 X124.999 Y121.728 E0.02082
G1 X124.999 Y104.336 E0.54532
G1 X125.753 Y104.336 E0.02365
G1 X125.753 Y121.728 E0.54532
G1 X126.507 Y121.728 E0.02365
G1 X126.507 Y104.336 E0.54532
G1 X127.261 Y104.336 E0.02365
G1 X127.261 Y121.728 E0.54532
G1 X128.016 Y121.728 E0.02365
G1 X128.016 Y104.336 E0.54532
G1 X128.770 Y104.336 E0.02365
G1 X128.770 Y121.728 E0.54532
G1 X129.524 Y121.728 E0.02365
G1 X129.524 Y104.336 E0.54532
G1 X130.278 Y104.336 E0.02365
G1 X130.278 Y121.728 E0.54532
G1 X131.032 Y121.728 E0.02365
G1 X131.032 Y104.336 E0.54532
G1 X131.786 Y104.336 E0.02365
G1 X131.786 Y124.023 E0.61727
G1 X132.541 Y124.023 E0.02365
G1 X132.548 Y104.336 E0.61727
G1 X132.548 Y106.631 E0.07195
G1 X133.295 Y106.631 E0.02343
G1 X133.295 Y124.023 E0.54532
G1 X134.049 Y124.023 E0.02365
G1 X134.049 Y106.631 E0.54532
G1 X134.803 Y106.631 E0.02365
G1 X134.803 Y124.023 E0.54532
G1 X135.557 Y124.023 E0.02365
G1 X135.557 Y106.631 E0.54532
G1 X136.311 Y106.631 E0.02365
G1 X136.311 Y126.318 E0.61727
G1 X137.066 Y126.318 E0.02365
G1 X137.066 Y106.631 E0.61727
G1 X137.820 Y106.631 E0.02365
G1 X137.820 Y126.318 E0.61727
G1 X138.574 Y126.318 E0.02365
G1 X138.574 Y106.631 E0.61727
G1 X139.328 Y106.631 E0.02365
G1 X139.328 Y126.318 E0.61727
G1 X140.082 Y126.318 E0.02365
G1 X140.082 Y108.926 E0.54532
G1 X140.836 Y108.926 E0.02365
G1 X140.836 Y126.318 E0.54532
G1 X141.590 Y126.318 E0.02365
G1 X141.590 Y108.926 E0.54532
G1 X142.345 Y108.926 E0.02365
G1 X142.345 Y126.318 E0.54532
G1 X142.694 Y126.318 E0.01096
G1 X142.694 Y128.613 E0.07195
G1 X143.099 Y128.613 E0.01269
G1 X143.099 Y108.926 E0.61727
G1 X143.853 Y108.926 E0.02365
G1 X143.853 Y128.613 E0.61727
G1 X144.607 Y128.613 E0.02365
G1 X144.607 Y111.221 E0.54532
G1 X145.361 Y111.221 E0.02365
G1 X145.361 Y128.613 E0.54532
G1 X146.115 Y128.613 E0.02365
G1 X146.115 Y111.221 E0.54532
G1 X146.870 Y111.221 E0.02365
G1 X146.870 Y128.613 E0.54532
G1 X147.284 Y128.613 E0.01299
G1 X147.284 Y130.908 E0.07195
G1 X147.624 Y130.908 E0.01066
G1 X147.624 Y111.221 E0.61727
G1 X148.378 Y111.221 E0.02365
G1 X148.378 Y130.908 E0.61727
G1 X149.132 Y130.908 E0.02365
G1 X149.132 Y111.221 E0.61727
G1 X149.886 Y111.221 E0.02365
G1 X149.886 Y130.908 E0.61727
G1 X150.640 Y130.908 E0.02365
G1 X150.640 Y111.221 E0.61727
G1 X150.907 Y111.221 E0.00835
G1 X150.907 Y113.516 E0.07195
G1 X151.395 Y113.516 E0.01530
G1 X151.395 Y130.908 E0.54532
G1 X152.149 Y130.908 E0.02365
G1 X152.149 Y113.516 E0.54532
G1 X152.903 Y113.516 E0.02365
G1 X152.903 Y130.908 E0.54532
G1 X153.657 Y130.908 E0.02365
G1 X153.657 Y113.516 E0.54532
G1 X154.411 Y113.516 E0.02365
G1 X154.411 Y137.792 E0.76118
G1 X155.165 Y137.792 E0.02365
G1 X155.165 Y113.516 E0.76118
G1 X155.496 Y113.516 E0.01038
G1 X155.496 Y115.810 E0.07195
G1 X155.919 Y115.810 E0.01326
G1 X155.919 Y137.792 E0.68923
G1 X156.674 Y137.792 E0.02365
G1 X156.674 Y115.810 E0.68923
G1 X157.428 Y115.810 E0.02365
G1 X157.428 Y137.792 E0.68923
G1 X158.182 Y137.792 E0.02365
G1 X158.182 Y115.810 E0.68923
G1 X158.936 Y115.810 E0.02365
G1 X158.936 Y137.792 E0.68923
G1 X159.690 Y137.792 E0.02365
G1 X159.690 Y115.810 E0.68923
G1 X160.444 Y115.810 E0.02365
G1 X160.444 Y137.792 E0.68923
G1 X161.199 Y137.792 E0.02365
G1 X161.199 Y115.810 E0.68923
G1 X161.953 Y115.810 E0.02365
G1 X161.953 Y137.792 E0.68923
G1 X162.707 Y137.792 E0.02365
G1 X162.707 Y118.105 E0.61727
G1 X163.461 Y118.105 E0.02365
G1 X163.461 Y137.792 E0.61727
G1 X164.215 Y137.792 E0.02365
G1 X164.215 Y118.105 E0.61727
G1 X164.969 Y118.105 E0.02365
G1 X164.969 Y137.792 E0.61727
G1 X165.724 Y137.792 E0.02365
G1 X165.724 Y118.105 E0.61727
G1 X166.478 Y118.105 E0.02365
G1 X166.478 Y137.792 E0.61727
M73 P2 R97
G1 X166.971 Y137.792 E0.01546
G1 X166.971 Y130.908 E0.21586
G1 X167.232 Y130.908 E0.00818
G1 X167.232 Y118.105 E0.40141
G1 X167.986 Y118.105 E0.02365
G1 X167.986 Y130.908 E0.40141
G1 X168.740 Y130.908 E0.02365
G1 X168.740 Y118.105 E0.40141
G1 X169.266 Y118.105 E0.01648
G1 X169.266 Y120.400 E0.07195
G1 X169.494 Y120.400 E0.00717
G1 X169.494 Y130.908 E0.32945
G1 X170.249 Y130.908 E0.02365
G1 X170.249 Y120.400 E0.32945
G1 X171.003 Y120.400 E0.02365
G1 X171.003 Y131.077 E0.33477
G1 E-0.80000 F2100.00000
G1 Z0.800 F10800.000
G1 X123.160 Y106.833
G1 Z0.200
G1 E0.80000 F2100.00000
G1 F1200.000
G1 X83.031 Y106.833 E1.25821
G1 X83.031 Y88.411 E0.57760
G1 X123.160 Y88.412 E1.25821
G1 X123.160 Y106.773 E0.57572
G1 X123.537 Y107.211 F10800.000
G1 F1200.000
G1 X82.654 Y107.210 E1.28185
G1 X82.654 Y88.034 E0.60124
G1 X123.537 Y88.035 E1.28185
G1 X123.537 Y107.151 E0.59936
G1 X123.141 Y107.152 F10800.000
G1 E-0.80000 F2100.00000
G1 Z0.800 F10800.000
G1 X83.144 Y105.957
G1 Z0.200
G1 E0.80000 F2100.00000
G1 F1200.000
G1 X83.737 Y106.550 E0.02632
G1 X84.271 Y106.550 E0.01675
G1 X83.314 Y105.593 E0.04247
G1 X83.314 Y105.059 E0.01675
G1 X84.805 Y106.550 E0.06616
G1 X85.338 Y106.550 E0.01675
G1 X83.314 Y104.525 E0.08984
G1 X83.314 Y103.992 E0.01675
G1 X85.872 Y106.550 E0.11353
G1 X86.406 Y106.550 E0.01675
G1 X83.314 Y103.458 E0.13721
G1 X83.314 Y102.924 E0.01675
G1 X86.939 Y106.550 E0.16089
G1 X87.473 Y106.550 E0.01675
G1 X83.314 Y102.391 E0.18458
G1 X83.314 Y101.857 E0.01675
G1 X88.007 Y106.550 E0.20826
G1 X88.541 Y106.550 E0.01675
G1 X83.314 Y101.323 E0.23195
G1 X83.314 Y100.790 E0.01675
G1 X89.074 Y106.550 E0.25563
G1 X89.608 Y106.550 E0.01675
G1 X83.314 Y100.256 E0.27931
G1 X83.314 Y99.722 E0.01675
G1 X90.142 Y106.550 E0.30300
G1 X90.675 Y106.550 E0.01675
G1 X83.314 Y99.189 E0.32668
G1 X83.314 Y98.655 E0.01675
G1 X91.209 Y106.550 E0.35037
G1 X91.743 Y106.550 E0.01675
G1 X83.314 Y98.121 E0.37405
G1 X83.314 Y97.587 E0.01675
G1 X92.276 Y106.550 E0.39773
G1 X92.810 Y106.550 E0.01675
G1 X83.314 Y97.054 E0.42142
G1 X83.314 Y96.520 E0.01675
G1 X93.344 Y106.550 E0.44510
G1 X93.878 Y106.550 E0.01675
G1 X83.314 Y95.986 E0.46879
G1 X83.314 Y95.453 E0.01675
G1 X94.411 Y106.550 E0.49247
G1 X94.945 Y106.550 E0.01675
G1 X83.314 Y94.919 E0.51615
G1 X83.314 Y94.385 E0.01675
G1 X95.479 Y106.550 E0.53984
G1 X96.012 Y106.550 E0.01675
G1 X83.314 Y93.852 E0.56352
G1 X83.314 Y93.318 E0.01675
G1 X96.546 Y106.550 E0.58721
G1 X97.080 Y106.550 E0.01675
G1 X83.314 Y92.784 E0.61089
G1 X83.314 Y92.251 E0.01675
G1 X97.613 Y106.550 E0.63457
G1 X98.147 Y106.550 E0.01675
G1 X83.314 Y91.717 E0.65826
G1 X83.314 Y91.183 E0.01675
G1 X98.681 Y106.550 E0.68194
G1 X99.215 Y106.550 E0.01675
G1 X83.314 Y90.649 E0.70563
G1 X83.314 Y90.116 E0.01675
G1 X99.748 Y106.550 E0.72931
G1 X100.282 Y106.550 E0.01675
G1 X83.314 Y89.582 E0.75299
G1 X83.314 Y89.048 E0.01675
G1 X100.816 Y106.550 E0.77668
G1 X101.349 Y106.550 E0.01675
G1 X83.493 Y88.694 E0.79241
G1 X84.027 Y88.694 E0.01675
G1 X101.883 Y106.550 E0.79241
G1 X102.417 Y106.550 E0.01675
G1 X84.560 Y88.694 E0.79241
G1 X85.094 Y88.694 E0.01675
G1 X102.950 Y106.550 E0.79241
G1 X103.484 Y106.550 E0.01675
G1 X85.628 Y88.694 E0.79241
G1 X86.162 Y88.694 E0.01675
G1 X104.018 Y106.550 E0.79241
G1 X104.552 Y106.550 E0.01675
G1 X86.695 Y88.694 E0.79241
G1 X87.229 Y88.694 E0.01675
G1 X105.085 Y106.550 E0.79241
G1 X105.619 Y106.550 E0.01675
G1 X87.763 Y88.694 E0.79241
G1 X88.296 Y88.694 E0.01675
G1 X106.153 Y106.550 E0.79241
G1 X106.686 Y106.550 E0.01675
G1 X88.830 Y88.694 E0.79241
G1 X89.364 Y88.694 E0.01675
G1 X107.220 Y106.550 E0.79241
G1 X107.754 Y106.550 E0.01675
G1 X89.897 Y88.694 E0.79241
G1 X90.431 Y88.694 E0.01675
G1 X108.288 Y106.550 E0.79241
G1 X108.821 Y106.550 E0.01675
G1 X90.965 Y88.694 E0.79241
G1 X91.499 Y88.694 E0.01675
G1 X109.355 Y106.550 E0.79241
M73 P3 R96
G1 X109.889 Y106.550 E0.01675
G1 X92.032 Y88.694 E0.79241
G1 X92.566 Y88.694 E0.01675
G1 X110.422 Y106.550 E0.79241
G1 X110.956 Y106.550 E0.01675
G1 X93.100 Y88.694 E0.79241
G1 X93.633 Y88.694 E0.01675
G1 X111.490 Y106.550 E0.79241
G1 X112.023 Y106.550 E0.01675
G1 X94.167 Y88.694 E0.79241
G1 X94.701 Y88.694 E0.01675
G1 X112.557 Y106.551 E0.79241
G1 X113.091 Y106.551 E0.01675
G1 X95.234 Y88.694 E0.79241
G1 X95.768 Y88.694 E0.01675
G1 X113.625 Y106.551 E0.79241
G1 X114.158 Y106.551 E0.01675
G1 X96.302 Y88.694 E0.79241
G1 X96.836 Y88.694 E0.01675
G1 X114.692 Y106.551 E0.79241
G1 X115.226 Y106.551 E0.01675
G1 X97.369 Y88.694 E0.79241
G1 X97.903 Y88.694 E0.01675
