; generated by PrusaSlicer 2.1.1+win64 on 2020-02-03 at 19:03:16 UTC

; 

; external perimeters extrusion width = 0.45mm
; perimeters extrusion width = 0.45mm
; infill extrusion width = 0.45mm
; solid infill extrusion width = 0.45mm
; top infill extrusion width = 0.40mm
; support material extrusion width = 0.35mm
; first layer extrusion width = 0.42mm

M73 P0 R180
M201 X9000 Y9000 Z500 E10000 ; sets maximum accelerations, mm/sec^2
M203 X500 Y500 Z12 E120 ; sets maximum feedrates, mm/sec
M204 P2000 R1500 T2000 ; sets acceleration (P, T) and retract acceleration (R), mm/sec^2
M205 X10.00 Y10.00 Z0.20 E4.50 ; sets the jerk limits, mm/sec
M205 S0 T0 ; sets the minimum extruding and travel feed rate, mm/sec
M107
M862.3 P "MK2.5SMMU2S" ; printer model check
M862.1 P0.4 ; nozzle diameter check
M115 U3.8.1 ; tell printer latest fw version
G90 ; use absolute coordinates
M83 ; extruder relative mode
M104 S215 ; set extruder temp
M140 S60 ; set bed temp
Tx
M190 S60 ; wait for bed temp
M109 S215 ; wait for extruder temp
G28 W ; home all without mesh bed level
G80 ; mesh bed leveling

;go outside print area
G1 Y-3.0 F1000.0
G1 Z0.4 F1000.0
; select extruder
Tc
; purge line
G1 X55.0 F2000.0
G1 Z0.3 F1000.0
G92 E0.0
G1 X240.0 E25.0 F2200.0
M73 P0 R179
G1 Y-2.0 F1000.0
G1 X55.0 E25 F1400.0
G1 Z0.20 F1000.0
G1 X5.0 E4.0 F1000.0
G92 E0.0
G21 ; set units to millimeters
G90 ; use absolute coordinates
M83 ; use relative distances for extrusion
M900 K30 ; Filament gcode
;BEFORE_LAYER_CHANGE
G92 E0.0
;0.2


G1 E-0.80000 F2100.00000
G1 Z0.600 F10800.000
;AFTER_LAYER_CHANGE
;0.2
G1 X141.217 Y71.455
G1 Z0.200
G1 E0.80000 F2100.00000
M204 S1000
G1 F1200
G1 X141.908 Y71.892 E0.02563
G1 X150.395 Y80.622 E0.38175
G1 X163.527 Y97.033 E0.65902
G1 X163.846 Y97.585 E0.01998
G1 X164.000 Y98.380 E0.02541
G1 X163.999 Y124.548 E0.82047
G1 X163.442 Y127.745 E0.10177
G1 X163.076 Y128.544 E0.02754
G1 X155.265 Y136.392 E0.34716
G1 X154.622 Y136.829 E0.02439
G1 X154.026 Y136.998 E0.01942
G1 X140.019 Y138.800 E0.44281
G1 X96.928 Y132.481 E1.36552
G1 X96.422 Y132.340 E0.01646
G1 X95.968 Y132.085 E0.01635
G1 X86.568 Y122.699 E0.41648
G1 X86.227 Y122.081 E0.02213
G1 X86.102 Y121.386 E0.02213
G1 X86.203 Y120.688 E0.02213
G1 X86.522 Y120.058 E0.02213
G1 X120.913 Y77.192 E1.72311
G1 X121.303 Y76.911 E0.01510
G1 X121.746 Y76.721 E0.01510
G1 X139.804 Y71.389 E0.59038
G1 X140.418 Y71.302 E0.01942
G1 X141.158 Y71.444 E0.02364
G1 F8640
G1 X141.908 Y71.892 E-0.20172
G1 X143.593 Y73.625 E-0.55828
G1 E-0.04000 F2100.00000
G1 Z0.800 F10800.000
G1 X140.414 Y73.491
G1 Z0.200
G1 E0.80000 F2100.00000
G1 F1200
G1 X139.902 Y74.002 E0.02268
G1 X139.902 Y75.069 E0.03344
G1 X140.827 Y74.144 E0.04101
G1 X141.360 Y74.677 E0.02365
G1 X139.902 Y76.135 E0.06466
G1 X139.902 Y77.202 E0.03344
G1 X141.894 Y75.211 E0.08830
G1 X142.427 Y75.744 E0.02365
G1 X139.902 Y78.268 E0.11195
G1 X139.902 Y78.290 E0.00068
G1 X140.947 Y78.290 E0.03276
G1 X142.960 Y76.277 E0.08926
G1 X143.493 Y76.810 E0.02365
G1 X142.014 Y78.290 E0.06562
G1 X142.594 Y78.290 E0.01819
G1 X142.837 Y78.533 E0.01078
G1 X144.027 Y77.344 E0.05275
G1 X144.560 Y77.877 E0.02365
G1 X142.902 Y79.535 E0.07351
G1 X142.902 Y80.601 E0.03344
G1 X145.093 Y78.410 E0.09716
G1 X145.626 Y78.943 E0.02365
G1 X136.539 Y88.031 E0.40294
G1 X137.073 Y88.564 E0.02365
G1 X146.160 Y79.477 E0.40294
G1 X146.693 Y80.010 E0.02365
G1 X135.975 Y90.728 E0.47527
G1 X136.508 Y91.262 E0.02365
G1 X147.226 Y80.543 E0.47527
G1 X147.759 Y81.076 E0.02365
G1 X137.041 Y91.795 E0.47527
G1 X137.112 Y91.866 E0.00315
G1 X135.481 Y93.497 E0.07234
G1 X135.943 Y93.960 E0.02050
G1 X148.293 Y81.610 E0.54761
G1 X148.761 Y82.078 E0.02075
G1 X147.129 Y83.709 E0.07234
G1 X147.195 Y83.774 E0.00289
G1 X136.476 Y94.493 E0.47527
G1 X137.010 Y95.026 E0.02365
G1 X147.728 Y84.308 E0.47527
G1 X148.261 Y84.841 E0.02365
G1 X135.911 Y97.191 E0.54761
G1 X136.445 Y97.724 E0.02365
G1 X147.163 Y87.006 E0.47527
G1 X147.696 Y87.539 E0.02365
G1 X136.978 Y98.257 E0.47527
G1 X137.112 Y98.391 E0.00594
G1 X135.481 Y100.023 E0.07234
G1 X135.880 Y100.422 E0.01770
G1 X148.230 Y88.072 E0.54761
G1 X148.761 Y88.603 E0.02355
G1 X136.413 Y100.955 E0.54761
G1 X136.946 Y101.488 E0.02365
G1 X147.665 Y90.770 E0.47527
G1 X148.198 Y91.303 E0.02365
G1 X137.480 Y102.022 E0.47527
G1 X138.013 Y102.555 E0.02365
G1 X148.731 Y91.837 E0.47527
G1 X149.265 Y92.370 E0.02365
G1 X138.546 Y103.088 E0.47527
G1 X139.080 Y103.622 E0.02365
G1 X151.429 Y91.272 E0.54761
G1 X151.963 Y91.805 E0.02365
G1 X139.613 Y104.155 E0.54761
G1 X140.146 Y104.688 E0.02365
G1 X152.496 Y92.338 E0.54761
G1 X152.725 Y92.567 E0.01014
G1 X154.356 Y90.936 E0.07234
G1 X154.660 Y91.240 E0.01351
G1 X139.048 Y106.853 E0.69228
G1 X139.581 Y107.386 E0.02365
G1 X155.194 Y91.773 E0.69228
G1 X155.727 Y92.307 E0.02365
G1 X140.115 Y107.919 E0.69228
G1 X140.375 Y108.179 E0.01154
G1 X138.743 Y109.811 E0.07234
G1 X139.016 Y110.084 E0.01211
G1 X156.260 Y92.840 E0.76462
G1 X156.794 Y93.373 E0.02365
G1 X139.550 Y110.617 E0.76462
G1 X140.083 Y111.150 E0.02365
G1 X157.327 Y93.907 E0.76462
G1 X157.860 Y94.440 E0.02365
G1 X138.985 Y113.315 E0.83696
G1 X139.518 Y113.848 E0.02365
G1 X158.393 Y94.973 E0.83696
G1 X158.927 Y95.506 E0.02365
G1 X140.051 Y114.382 E0.83696
G1 X140.585 Y114.915 E0.02365
G1 X159.460 Y96.040 E0.83696
G1 X159.993 Y96.573 E0.02365
G1 X141.118 Y115.448 E0.83696
G1 X141.651 Y115.981 E0.02365
G1 X160.526 Y97.106 E0.83696
G1 X161.060 Y97.639 E0.02365
G1 X142.185 Y116.515 E0.83696
G1 X142.718 Y117.048 E0.02365
G1 X161.593 Y98.173 E0.83696
M73 P0 R178
G1 X161.812 Y98.391 E0.00969
G1 X160.180 Y100.023 E0.07234
G1 X160.495 Y100.337 E0.01395
G1 X143.251 Y117.581 E0.76462
G1 X143.784 Y118.114 E0.02365
G1 X161.028 Y100.871 E0.76462
G1 X161.561 Y101.404 E0.02365
G1 X144.318 Y118.648 E0.76462
G1 X144.568 Y118.898 E0.01109
G1 X146.199 Y117.267 E0.07234
G1 X146.482 Y117.550 E0.01255
G1 X160.463 Y103.568 E0.61995
G1 X160.997 Y104.102 E0.02365
G1 X147.016 Y118.083 E0.61995
G1 X147.549 Y118.616 E0.02365
G1 X161.530 Y104.635 E0.61995
G1 X161.812 Y104.917 E0.01249
G1 X158.549 Y108.179 E0.14467
G1 X158.800 Y108.431 E0.01116
G1 X147.962 Y119.269 E0.48059
G1 F8640
G1 X150.289 Y116.942 E-0.76000
G1 E-0.04000 F2100.00000
G1 Z0.800 F10800.000
G1 X142.732 Y130.898
G1 Z0.200
G1 E0.80000 F2100.00000
G1 F1200
G1 X160.369 Y113.262 E0.78203
G1 X160.180 Y113.073 E0.00836
G1 X161.812 Y111.442 E0.07234
G1 X161.467 Y111.097 E0.01529
G1 X142.902 Y129.662 E0.82320
G1 X142.902 Y128.967 E0.02180
G1 X142.716 Y128.781 E0.00823
G1 X160.934 Y110.564 E0.80778
G1 X160.400 Y110.031 E0.02365
G1 X141.772 Y128.659 E0.82599
G1 X140.706 Y128.659 E0.03344
G1 X159.867 Y109.498 E0.84964
G1 X159.334 Y108.964 E0.02365
G1 X139.639 Y128.659 E0.87329
G1 X138.573 Y128.659 E0.03344
G1 X145.750 Y121.482 E0.31824
G1 X145.216 Y120.949 E0.02365
G1 X137.506 Y128.659 E0.34188
G1 X136.440 Y128.659 E0.03344
G1 X144.683 Y120.415 E0.36553
G1 X144.568 Y120.300 E0.00512
G1 X142.936 Y121.931 E0.07234
G1 X142.519 Y121.513 E0.01853
G1 X136.694 Y127.338 E0.25826
G1 X136.161 Y126.804 E0.02365
G1 X141.985 Y120.980 E0.25826
G1 X141.452 Y120.447 E0.02365
G1 X135.508 Y126.391 E0.26358
G1 F8640
G1 X137.835 Y124.064 E-0.76000
G1 E-0.04000 F2100.00000
G1 Z0.800 F10800.000
G1 X139.732 Y132.832
G1 Z0.200
G1 E0.80000 F2100.00000
G1 F1200
G1 X140.853 Y131.711 E0.04970
G1 X141.920 Y131.711 E0.03344
G1 X139.902 Y133.729 E0.08947
G1 X139.902 Y134.795 E0.03344
G1 X160.902 Y113.795 E0.93117
G1 X161.435 Y114.329 E0.02365
G1 X139.902 Y135.862 E0.95482
G1 X139.902 Y136.614 E0.02360
G1 X142.936 Y133.580 E0.13455
G1 X143.093 Y133.737 E0.00696
G1 X160.337 Y116.493 E0.76462
G1 X160.870 Y117.026 E0.02365
G1 X143.627 Y134.270 E0.76462
G1 X144.160 Y134.804 E0.02365
G1 X161.404 Y117.560 E0.76462
G1 X161.812 Y117.968 E0.01808
G1 X160.180 Y119.599 E0.07234
G1 X160.306 Y119.724 E0.00556
G1 X146.325 Y133.705 E0.61995
G1 X146.858 Y134.239 E0.02365
G1 X160.839 Y120.258 E0.61995
G1 X161.372 Y120.791 E0.02365
G1 X147.391 Y134.772 E0.61995
G1 X147.830 Y135.211 E0.01948
G1 X149.462 Y133.580 E0.07234
G1 X149.556 Y133.674 E0.00416
G1 X160.274 Y122.955 E0.47527
G1 X160.807 Y123.489 E0.02365
G1 X150.089 Y134.207 E0.47527
G1 X150.622 Y134.740 E0.02365
G1 X161.341 Y124.022 E0.47527
G1 X161.812 Y124.493 E0.02088
G1 X160.180 Y126.124 E0.07234
G1 X160.243 Y126.187 E0.00276
G1 X152.787 Y133.642 E0.33060
G1 X153.320 Y134.176 E0.02365
G1 X160.776 Y126.720 E0.33060
G1 X161.309 Y127.253 E0.02365
G1 X153.733 Y134.829 E0.33592
G1 F8640
G1 X156.061 Y132.502 E-0.76000
G1 E-0.04000 F2100.00000
G1 Z0.800 F10800.000
G1 X135.886 Y87.617
G1 Z0.200
G1 E0.80000 F2100.00000
G1 F1200
G1 X142.160 Y81.343 E0.27820
G1 X141.093 Y81.343 E0.03344
G1 X137.104 Y85.333 E0.17689
G1 X136.571 Y84.799 E0.02365
G1 X140.027 Y81.343 E0.15325
G1 X138.960 Y81.343 E0.03344
G1 X136.038 Y84.266 E0.12960
G1 X135.504 Y83.733 E0.02365
G1 X137.894 Y81.343 E0.10596
G1 X136.827 Y81.343 E0.03344
G1 X136.482 Y81.688 E0.01529
G1 F8640
G1 X136.827 Y81.343 E-0.11263
G1 X137.894 Y81.343 E-0.24627
G1 X136.666 Y82.572 E-0.40111
G1 E-0.04000 F2100.00000
G1 Z0.800 F10800.000
G1 X95.865 Y113.773
G1 Z0.200
G1 E0.80000 F2100.00000
G1 F1200
G1 X88.290 Y121.348 E0.33592
G1 X88.823 Y121.882 E0.02365
G1 X96.279 Y114.426 E0.33060
G1 X96.812 Y114.959 E0.02365
G1 X89.356 Y122.415 E0.33060
G1 X89.890 Y122.948 E0.02365
G1 X98.977 Y113.861 E0.40294
G1 X99.510 Y114.394 E0.02365
G1 X90.423 Y123.482 E0.40294
G1 X90.956 Y124.015 E0.02365
G1 X100.043 Y114.928 E0.40294
G1 X100.521 Y115.406 E0.02120
G1 X102.153 Y113.774 E0.07234
G1 X102.208 Y113.830 E0.00245
G1 X91.489 Y124.548 E0.47527
G1 X92.023 Y125.081 E0.02365
G1 X102.741 Y114.363 E0.47527
G1 X103.274 Y114.896 E0.02365
G1 X92.556 Y125.615 E0.47527
G1 X93.089 Y126.148 E0.02365
G1 X103.808 Y115.429 E0.47527
G1 X104.341 Y115.963 E0.02365
G1 X93.622 Y126.681 E0.47527
G1 X94.156 Y127.214 E0.02365
G1 X104.874 Y116.496 E0.47527
G1 X105.407 Y117.029 E0.02365
G1 X94.689 Y127.748 E0.47527
G1 X95.222 Y128.281 E0.02365
G1 X105.941 Y117.563 E0.47527
G1 X106.474 Y118.096 E0.02365
G1 X95.756 Y128.814 E0.47527
G1 X96.289 Y129.348 E0.02365
G1 X107.007 Y118.629 E0.47527
G1 X107.541 Y119.162 E0.02365
G1 X96.822 Y129.881 E0.47527
G1 X97.259 Y130.317 E0.01936
G1 X98.890 Y128.686 E0.07234
G1 X98.987 Y128.783 E0.00429
G1 X108.074 Y119.696 E0.40294
G1 X108.607 Y120.229 E0.02365
G1 X99.520 Y129.316 E0.40294
G1 X100.053 Y129.849 E0.02365
G1 X109.140 Y120.762 E0.40294
G1 X109.608 Y121.230 E0.02075
G1 X107.977 Y122.862 E0.07234
G1 X108.042 Y122.927 E0.00289
G1 X102.218 Y128.751 E0.25826
G1 X102.751 Y129.284 E0.02365
G1 X108.576 Y123.460 E0.25826
G1 X109.109 Y123.993 E0.02365
G1 X103.164 Y129.938 E0.26358
G1 F8640
G1 X105.492 Y127.610 E-0.76000
G1 E-0.04000 F2100.00000
G1 Z0.800 F10800.000
G1 X123.793 Y80.230
G1 Z0.200
G1 E0.80000 F2100.00000
G1 F1200
G1 X123.793 Y129.772 E1.55335
G1 X141.789 Y129.772 E0.56424
G1 X141.789 Y130.598 E0.02590
G1 X122.967 Y130.598 E0.59014
M73 P1 R177
G1 X122.967 Y79.403 E1.60517
G1 X141.789 Y79.403 E0.59014
G1 X141.789 Y80.230 E0.02593
G1 X123.853 Y80.230 E0.56236
G1 X124.170 Y80.607 F10800.000
G1 F1200
G1 X124.170 Y129.395 E1.52970
G1 X142.166 Y129.395 E0.56424
G1 X142.166 Y130.975 E0.04954
G1 X122.590 Y130.975 E0.61379
G1 X122.590 Y79.026 E1.62882
G1 X142.166 Y79.026 E0.61379
G1 X142.166 Y80.607 E0.04957
G1 X124.230 Y80.607 E0.56236
G1 X123.771 Y80.619 F10800.000
G1 F8640
G1 X124.226 Y83.899 E-0.76000
G1 E-0.04000 F2100.00000
G1 Z0.800 F10800.000
G1 X141.511 Y80.117
G1 Z0.200
G1 E0.80000 F2100.00000
G1 F1200
G1 X141.080 Y79.686 E0.01920
G1 X140.544 Y79.686 E0.01687
G1 X140.805 Y79.947 E0.01164
G1 X140.270 Y79.947 E0.01687
G1 X140.008 Y79.686 E0.01164
G1 X139.473 Y79.686 E0.01687
G1 X139.734 Y79.947 E0.01164
G1 X139.198 Y79.947 E0.01687
G1 X138.937 Y79.686 E0.01164
G1 X138.401 Y79.686 E0.01687
G1 X138.663 Y79.947 E0.01164
G1 X138.127 Y79.947 E0.01687
G1 X137.865 Y79.686 E0.01164
G1 X137.330 Y79.686 E0.01687
G1 X137.591 Y79.947 E0.01164
G1 X137.055 Y79.947 E0.01687
G1 X136.794 Y79.686 E0.01164
G1 X136.258 Y79.686 E0.01687
G1 X136.520 Y79.947 E0.01164
G1 X135.984 Y79.947 E0.01687
G1 X135.723 Y79.686 E0.01164
G1 X135.187 Y79.686 E0.01687
G1 X135.448 Y79.947 E0.01164
G1 X134.913 Y79.947 E0.01687
G1 X134.651 Y79.686 E0.01164
G1 X134.116 Y79.686 E0.01687
G1 X134.377 Y79.947 E0.01164
G1 X133.841 Y79.947 E0.01687
G1 X133.580 Y79.686 E0.01164
G1 X133.044 Y79.686 E0.01687
G1 X133.306 Y79.947 E0.01164
G1 X132.770 Y79.947 E0.01687
G1 X132.509 Y79.686 E0.01164
G1 X131.973 Y79.686 E0.01687
G1 X132.234 Y79.947 E0.01164
G1 X131.699 Y79.947 E0.01687
G1 X131.437 Y79.686 E0.01164
G1 X130.901 Y79.686 E0.01687
G1 X131.163 Y79.947 E0.01164
G1 X130.627 Y79.947 E0.01687
G1 X130.366 Y79.686 E0.01164
G1 X129.830 Y79.686 E0.01687
G1 X130.092 Y79.947 E0.01164
G1 X129.556 Y79.947 E0.01687
G1 X129.294 Y79.686 E0.01164
G1 X128.759 Y79.686 E0.01687
G1 X129.020 Y79.947 E0.01164
G1 X128.484 Y79.947 E0.01687
G1 X128.223 Y79.686 E0.01164
G1 X127.687 Y79.686 E0.01687
G1 X127.949 Y79.947 E0.01164
G1 X127.413 Y79.947 E0.01687
G1 X127.152 Y79.686 E0.01164
G1 X126.616 Y79.686 E0.01687
G1 X126.877 Y79.947 E0.01164
G1 X126.342 Y79.947 E0.01687
G1 X126.080 Y79.686 E0.01164
G1 X125.545 Y79.686 E0.01687
G1 X125.806 Y79.947 E0.01164
G1 X125.270 Y79.947 E0.01687
G1 X125.009 Y79.686 E0.01164
G1 X124.473 Y79.686 E0.01687
G1 X124.735 Y79.947 E0.01164
G1 X124.199 Y79.947 E0.01687
G1 X123.938 Y79.686 E0.01164
G1 X123.402 Y79.686 E0.01687
G1 X123.663 Y79.947 E0.01164
G1 X123.511 Y79.947 E0.00481
G1 X123.511 Y80.330 E0.01206
G1 X123.250 Y80.070 E0.01161
G1 X123.250 Y80.605 E0.01687
G1 X123.511 Y80.866 E0.01161
G1 X123.511 Y81.402 E0.01687
G1 X123.250 Y81.141 E0.01161
G1 X123.250 Y81.677 E0.01687
G1 X123.511 Y81.937 E0.01161
G1 X123.511 Y82.473 E0.01687
G1 X123.250 Y82.212 E0.01161
G1 X123.250 Y82.748 E0.01687
G1 X123.511 Y83.009 E0.01161
G1 X123.511 Y83.544 E0.01687
G1 X123.250 Y83.284 E0.01161
G1 X123.250 Y83.820 E0.01687
G1 X123.511 Y84.080 E0.01161
G1 X123.511 Y84.616 E0.01687
G1 X123.250 Y84.355 E0.01161
G1 X123.250 Y84.891 E0.01687
G1 X123.511 Y85.151 E0.01161
G1 X123.511 Y85.687 E0.01687
G1 X123.250 Y85.427 E0.01161
G1 X123.250 Y85.962 E0.01687
G1 X123.511 Y86.223 E0.01161
G1 X123.511 Y86.759 E0.01687
G1 X123.250 Y86.498 E0.01161
G1 X123.250 Y87.034 E0.01687
G1 X123.511 Y87.294 E0.01161
G1 X123.511 Y87.830 E0.01687
G1 X123.250 Y87.569 E0.01161
G1 X123.250 Y88.105 E0.01687
G1 X123.511 Y88.366 E0.01161
G1 X123.511 Y88.901 E0.01687
G1 X123.250 Y88.641 E0.01161
G1 X123.250 Y89.176 E0.01687
G1 X123.511 Y89.437 E0.01161
G1 X123.511 Y89.973 E0.01687
G1 X123.250 Y89.712 E0.01161
G1 X123.250 Y90.248 E0.01687
G1 X123.511 Y90.508 E0.01161
G1 X123.511 Y91.044 E0.01687
G1 X123.250 Y90.783 E0.01161
G1 X123.250 Y91.319 E0.01687
G1 X123.511 Y91.580 E0.01161
G1 X123.511 Y92.115 E0.01687
G1 X123.250 Y91.855 E0.01161
G1 X123.250 Y92.391 E0.01687
G1 X123.511 Y92.651 E0.01161
G1 X123.511 Y93.187 E0.01687
G1 X123.250 Y92.926 E0.01161
G1 X123.250 Y93.462 E0.01687
G1 X123.511 Y93.722 E0.01161
G1 X123.511 Y94.258 E0.01687
G1 X123.250 Y93.998 E0.01161
G1 X123.250 Y94.533 E0.01687
G1 X123.511 Y94.794 E0.01161
G1 X123.511 Y95.329 E0.01687
G1 X123.250 Y95.069 E0.01161
G1 X123.250 Y95.605 E0.01687
G1 X123.511 Y95.865 E0.01161
G1 X123.511 Y96.401 E0.01687
G1 X123.250 Y96.140 E0.01161
G1 X123.250 Y96.676 E0.01687
G1 X123.511 Y96.937 E0.01161
G1 X123.511 Y97.472 E0.01687
G1 X123.250 Y97.212 E0.01161
G1 X123.250 Y97.747 E0.01687
G1 X123.511 Y98.008 E0.01161
G1 X123.511 Y98.544 E0.01687
G1 X123.250 Y98.283 E0.01161
G1 X123.250 Y98.819 E0.01687
G1 X123.511 Y99.079 E0.01161
G1 X123.511 Y99.615 E0.01687
G1 X123.250 Y99.354 E0.01161
G1 X123.250 Y99.890 E0.01687
G1 X123.511 Y100.151 E0.01161
G1 X123.511 Y100.686 E0.01687
G1 X123.250 Y100.426 E0.01161
G1 X123.250 Y100.961 E0.01687
G1 X123.511 Y101.222 E0.01161
G1 X123.511 Y101.758 E0.01687
G1 X123.250 Y101.497 E0.01161
G1 X123.250 Y102.033 E0.01687
G1 X123.511 Y102.293 E0.01161
G1 X123.511 Y102.829 E0.01687
G1 X123.250 Y102.569 E0.01161
G1 X123.250 Y103.104 E0.01687
G1 X123.511 Y103.365 E0.01161
