; generated by PrusaSlicer 2.1.0+win64 on 2019-12-12 at 19:49:18 UTC

; 

; external perimeters extrusion width = 0.45mm
; perimeters extrusion width = 0.45mm
; infill extrusion width = 0.45mm
; solid infill extrusion width = 0.45mm
; top infill extrusion width = 0.40mm
; support material extrusion width = 0.35mm
; first layer extrusion width = 0.42mm

M73 P0 R69
M201 X9000 Y9000 Z500 E10000 ; sets maximum accelerations, mm/sec^2
M203 X500 Y500 Z12 E120 ; sets maximum feedrates, mm/sec
M204 P2000 R1500 T2000 ; sets acceleration (P, T) and retract acceleration (R), mm/sec^2
M205 X10.00 Y10.00 Z0.20 E2.50 ; sets the jerk limits, mm/sec
M205 S0 T0 ; sets the minimum extruding and travel feed rate, mm/sec
M107
M862.3 P "MK2.5SMMU2S" ; printer model check
M862.1 P0.4 ; nozzle diameter check
M115 U3.8.0 ; tell printer latest fw version
G90 ; use absolute coordinates
M83 ; extruder relative mode
M104 S215 ; set extruder temp
M140 S60 ; set bed temp
Tx
M190 S60 ; wait for bed temp
M109 S215 ; wait for extruder temp
G28 W ; home all without mesh bed level
G80 ; mesh bed leveling

G21 ; set units to millimeters

;go outside print area
G1 Y-3.0 F1000.0
G1 Z0.4 F1000.0
; select extruder
Tc
; purge line
G1 X55.0 F2000.0
G1 Z0.3 F1000.0
G92 E0.0
G1 X240.0 E25.0 F2200.0
M73 P0 R69
G1 Y-2.0 F1000.0
G1 X55.0 E25 F1400.0
G1 Z0.20 F1000.0
G1 X5.0 E4.0 F1000.0
G92 E0.0
G21 ; set units to millimeters
G90 ; use absolute coordinates
M83 ; use relative distances for extrusion
M900 K30 ; Filament gcode
;BEFORE_LAYER_CHANGE
G92 E0.0
;0.2


G1 E-0.80000 F2100.00000
G1 Z0.600 F10800.000
;AFTER_LAYER_CHANGE
;0.2
G1 X117.444 Y87.724
G1 Z0.200
G1 E0.80000 F2100.00000
M204 S1000
G1 F1200
G1 X122.118 Y85.646 E0.16037
G1 X125.826 Y85.191 E0.11715
G1 X127.885 Y85.183 E0.06455
G1 X128.618 Y85.291 E0.02324
G1 X129.287 Y85.602 E0.02312
G1 X131.641 Y87.642 E0.09768
G1 X135.454 Y91.454 E0.16903
G1 X141.321 Y97.561 E0.26554
G1 X141.794 Y98.254 E0.02631
G1 X141.971 Y98.773 E0.01721
G1 X142.034 Y99.319 E0.01721
G1 X142.034 Y114.504 E0.47612
G1 X141.896 Y115.312 E0.02570
G1 X137.641 Y124.908 E0.32913
G1 X137.321 Y125.373 E0.01771
G1 X136.684 Y126.017 E0.02840
G1 X135.903 Y126.512 E0.02900
G1 X134.961 Y126.698 E0.03010
G1 X114.565 Y126.811 E0.63951
G1 X113.737 Y126.673 E0.02631
G1 X113.270 Y126.460 E0.01610
G1 X112.855 Y126.157 E0.01610
G1 X112.509 Y125.778 E0.01610
G1 X112.245 Y125.337 E0.01610
G1 X108.229 Y114.967 E0.34869
G1 X108.183 Y99.324 E0.49049
G1 X108.320 Y98.508 E0.02594
G1 X109.480 Y95.837 E0.09128
G1 X109.843 Y95.273 E0.02103
G1 X117.401 Y87.766 E0.33403
G1 X117.657 Y88.035 F10800.000
G1 F1200
G1 X122.210 Y86.012 E0.15622
G1 X125.860 Y85.567 E0.11527
G1 X127.885 Y85.560 E0.06349
G1 X128.522 Y85.656 E0.02021
G1 X129.104 Y85.933 E0.02021
G1 X131.390 Y87.924 E0.09504
G1 X135.183 Y91.716 E0.16817
G1 X141.049 Y97.822 E0.26548
G1 X141.456 Y98.421 E0.02270
G1 X141.656 Y99.324 E0.02900
G1 X141.656 Y114.499 E0.47581
G1 X141.538 Y115.195 E0.02213
G1 X137.316 Y124.716 E0.32656
G1 X137.035 Y125.129 E0.01567
G1 X136.434 Y125.735 E0.02677
G1 X135.759 Y126.163 E0.02507
G1 X134.960 Y126.320 E0.02552
G1 X114.568 Y126.434 E0.63940
G1 X113.854 Y126.315 E0.02270
G1 X113.097 Y125.868 E0.02754
G1 X112.578 Y125.159 E0.02754
G1 X108.597 Y114.885 E0.34548
G1 X108.560 Y99.325 E0.48789
G1 X108.679 Y98.625 E0.02225
G1 X109.818 Y96.003 E0.08963
G1 X110.131 Y95.516 E0.01817
G1 X117.614 Y88.077 E0.33083
G1 E-0.80000 F2100.00000
G1 Z0.800 F10800.000
G1 X122.109 Y94.089
G1 Z0.200
G1 E0.80000 F2100.00000
G1 F1200
G1 X128.165 Y88.032 E0.26854
G1 X127.881 Y87.748 E0.01259
G1 X126.957 Y88.673 E0.04098
G1 X126.707 Y88.423 E0.01105
G1 X121.926 Y93.205 E0.21201
G1 X121.901 Y93.144 E0.00205
G1 X121.462 Y92.987 E0.01462
G1 X120.635 Y93.429 E0.02941
G1 X126.174 Y87.890 E0.24562
G1 X126.032 Y87.748 E0.00628
G1 X125.108 Y88.673 E0.04098
G1 X124.717 Y88.281 E0.01736
G1 X112.205 Y100.792 E0.55477
G1 X112.739 Y101.326 E0.02365
G1 X118.280 Y95.784 E0.24572
G1 X111.801 Y96.931 F10800.000
G1 F1200
G1 X118.887 Y89.845 E0.31419
G1 X119.420 Y90.378 E0.02365
G1 X112.454 Y97.344 E0.30887
G1 X112.597 Y97.487 E0.00634
G1 X110.749 Y99.335 E0.08197
G1 X111.139 Y99.726 E0.01731
G1 X122.726 Y88.139 E0.51379
G1 X123.259 Y88.672 E0.02365
G1 X111.552 Y100.379 E0.51911
G1 E-0.80000 F2100.00000
G1 Z0.800 F10800.000
G1 X114.843 Y104.554
G1 Z0.200
G1 E0.80000 F2100.00000
G1 F1200
G1 X116.871 Y102.526 E0.08991
G1 X115.804 Y102.526 E0.03344
G1 X114.872 Y103.459 E0.04136
G1 X114.338 Y102.925 E0.02365
G1 X115.345 Y101.919 E0.04464
G1 X115.462 Y100.736 E0.03727
G1 X113.805 Y102.392 E0.07345
G1 X113.272 Y101.859 E0.02365
G1 X118.693 Y96.437 E0.24040
G1 X119.227 Y96.971 E0.02365
G1 X116.437 Y99.760 E0.12370
G1 X117.327 Y99.937 E0.02844
G1 X119.863 Y97.401 E0.11248
G1 X120.051 Y97.410 E0.00590
G1 X121.267 Y96.412 E0.04932
G1 X122.653 Y95.671 E0.04926
G1 X122.790 Y95.289 E0.01272
G1 X122.551 Y94.713 E0.01955
G1 X128.698 Y88.566 E0.27258
G1 X129.231 Y89.099 E0.02365
G1 X118.205 Y100.126 E0.48894
G1 X118.435 Y100.437 E0.01213
G1 X118.376 Y101.021 E0.01840
G1 X129.885 Y89.512 E0.51031
G1 X133.618 Y93.245 F10800.000
G1 F1200
G1 X131.757 Y95.106 E0.08249
G1 X131.171 Y94.625 E0.02376
G1 X132.964 Y92.832 E0.07950
G1 X132.431 Y92.299 E0.02365
G1 X130.586 Y94.144 E0.08183
G1 X130.345 Y93.953 E0.00962
G1 X129.931 Y93.732 E0.01473
G1 X131.898 Y91.765 E0.08721
G1 X131.365 Y91.232 E0.02365
G1 X129.236 Y93.361 E0.09438
G1 X128.541 Y92.989 E0.02471
G1 X130.831 Y90.699 E0.10155
G1 X130.298 Y90.166 E0.02365
G1 X114.916 Y105.548 E0.68207
G1 X114.799 Y106.731 E0.03727
G1 X127.896 Y93.634 E0.58071
G1 X127.210 Y95.289 E0.05616
G1 X127.236 Y95.361 E0.00238
G1 X114.683 Y107.914 E0.55662
G1 X114.566 Y109.097 E0.03727
G1 X127.767 Y95.896 E0.58535
G1 X128.462 Y96.267 E0.02471
G1 X118.996 Y105.734 E0.41977
G1 X119.529 Y106.267 E0.02365
G1 X129.091 Y96.706 E0.42399
G1 X129.677 Y97.186 E0.02376
G1 X120.062 Y106.801 E0.42632
G1 X120.487 Y107.226 E0.01884
G1 X121.411 Y106.301 E0.04098
G1 X121.520 Y106.410 E0.00481
G1 X134.031 Y93.898 E0.55477
G1 X134.564 Y94.432 E0.02365
G1 X122.053 Y106.943 E0.55477
G1 X122.336 Y107.226 E0.01253
G1 X123.260 Y106.301 E0.04098
G1 X123.510 Y106.552 E0.01112
G1 X135.097 Y94.965 E0.51379
G1 X135.631 Y95.498 E0.02365
G1 X124.044 Y107.085 E0.51379
G1 X124.577 Y107.619 E0.02365
G1 X131.584 Y100.612 E0.31068
G1 X131.566 Y100.435 E0.00556
G1 X131.808 Y100.109 E0.01272
G1 X132.155 Y100.040 E0.01110
G1 X136.164 Y96.032 E0.17776
G1 X136.697 Y96.565 E0.02365
G1 X133.486 Y99.776 E0.14237
G1 X134.085 Y99.657 E0.01913
G1 X134.422 Y99.907 E0.01316
G1 X137.231 Y97.098 E0.12454
G1 X137.764 Y97.631 E0.02365
G1 X134.549 Y100.846 E0.14255
G1 X134.645 Y101.817 E0.03059
G1 X138.297 Y98.165 E0.16195
G1 X138.830 Y98.698 E0.02365
G1 X131.865 Y105.664 E0.30887
G1 X132.025 Y105.824 E0.00711
G1 X132.092 Y106.503 E0.02139
G1 X139.364 Y99.231 E0.32244
G1 X139.468 Y99.335 E0.00463
G1 X134.920 Y103.883 E0.20166
G1 X134.997 Y104.664 E0.02460
G1 X132.931 Y106.730 E0.09160
G1 X133.464 Y107.263 E0.02365
G1 X135.093 Y105.635 E0.07220
G1 X135.188 Y106.606 E0.03059
G1 X133.998 Y107.797 E0.05279
G1 X134.531 Y108.330 E0.02365
G1 X135.284 Y107.577 E0.03339
G1 X135.380 Y108.548 E0.03059
G1 X134.944 Y108.983 E0.01930
G1 E-0.80000 F2100.00000
G1 Z0.800 F10800.000
G1 X129.363 Y107.099
G1 Z0.200
G1 E0.80000 F2100.00000
G1 F1200
G1 X133.936 Y102.526 E0.20277
G1 X132.869 Y102.526 E0.03344
G1 X128.950 Y106.446 E0.17380
G1 X128.805 Y106.301 E0.00640
G1 X127.881 Y107.226 E0.04098
G1 X127.492 Y106.837 E0.01725
G1 X131.918 Y102.410 E0.19626
G1 X131.745 Y102.253 E0.00732
G1 X131.679 Y101.583 E0.02113
G1 X124.990 Y108.272 E0.29659
G1 E-0.80000 F2100.00000
G1 Z0.800 F10800.000
G1 X132.439 Y101.790
G1 Z0.200
G1 E0.80000 F2100.00000
G1 F1200
G1 X132.337 Y100.755 E0.03262
G1 X133.772 Y100.469 E0.04588
G1 X133.902 Y101.790 E0.04161
G1 X132.499 Y101.790 E0.04400
G1 X132.518 Y101.398 F10800.000
G1 X132.781 Y101.413
G1 F1200
G1 X132.746 Y101.058 E0.01119
G1 X133.438 Y100.920 E0.02212
G1 X133.486 Y101.413 E0.01552
G1 X132.841 Y101.413 E0.02024
G1 X133.106 Y101.202 F10800.000
G1 F1200
G1 X133.275 Y101.185 E0.00101
G1 E-0.80000 F2100.00000
G1 Z0.800 F10800.000
G1 X130.112 Y96.591
G1 Z0.200
G1 E0.80000 F2100.00000
G1 F1200
G1 X129.144 Y95.797 E0.03924
G1 X128.041 Y95.208 E0.03924
G1 X128.601 Y93.856 E0.04588
G1 X129.957 Y94.581 E0.04823
G1 X131.147 Y95.556 E0.04823
G1 X130.154 Y96.549 E0.04400
G1 X129.881 Y96.264 F10800.000
G1 X130.087 Y96.083
G1 F1200
G1 X129.355 Y95.482 E0.02968
G1 X128.520 Y95.036 E0.02968
G1 X128.790 Y94.384 E0.02212
G1 X129.747 Y94.896 E0.03402
G1 X130.586 Y95.584 E0.03402
G1 X130.129 Y96.041 E0.02024
G1 X130.190 Y95.713 F10800.000
G1 F1200
G1 X129.551 Y95.189 E0.02234
G1 X128.822 Y94.799 E0.02234
G1 E-0.80000 F2100.00000
G1 Z0.800 F10800.000
G1 X119.888 Y96.591
G1 Z0.200
G1 E0.80000 F2100.00000
G1 F1200
G1 X118.853 Y95.556 E0.04589
G1 X120.043 Y94.581 E0.04823
G1 X121.399 Y93.856 E0.04823
G1 X121.959 Y95.208 E0.04588
G1 X120.856 Y95.797 E0.03924
G1 X119.935 Y96.553 E0.03735
G1 X119.810 Y96.199 F10800.000
G1 X119.913 Y96.083
G1 F1200
G1 X119.414 Y95.584 E0.02213
G1 X120.253 Y94.896 E0.03402
G1 X121.210 Y94.384 E0.03402
G1 X121.480 Y95.036 E0.02212
G1 X120.645 Y95.482 E0.02969
G1 X119.960 Y96.045 E0.02780
G1 X119.810 Y95.713 F10800.000
G1 F1200
G1 X120.449 Y95.189 E0.02234
G1 X121.178 Y94.799 E0.02234
G1 E-0.80000 F2100.00000
G1 Z0.800 F10800.000
G1 X117.561 Y101.790
G1 Z0.200
G1 E0.80000 F2100.00000
G1 F1200
G1 X116.098 Y101.790 E0.04588
G1 X116.228 Y100.469 E0.04161
G1 X117.663 Y100.755 E0.04589
G1 X117.567 Y101.730 E0.03074
G1 X117.174 Y101.687 F10800.000
G1 X117.219 Y101.413
G1 F1200
G1 X116.514 Y101.413 E0.02213
G1 X116.562 Y100.920 E0.01552
G1 X117.254 Y101.058 E0.02213
G1 X117.225 Y101.353 E0.00931
G1 X116.894 Y101.202 F10800.000
G1 F1200
G1 X116.725 Y101.185 E0.00101
G1 E-0.80000 F2100.00000
G1 Z0.800 F10800.000
G1 X122.109 Y109.237
G1 Z0.200
G1 E0.80000 F2100.00000
G1 F1200
G1 X128.165 Y103.181 E0.26854
G1 X127.881 Y102.897 E0.01259
G1 X126.957 Y103.821 E0.04098
G1 X126.707 Y103.572 E0.01105
G1 X121.926 Y108.353 E0.21201
G1 X121.901 Y108.293 E0.00205
G1 X121.462 Y108.136 E0.01462
G1 X120.635 Y108.578 E0.02941
G1 X126.174 Y103.039 E0.24562
G1 X126.032 Y102.897 E0.00628
G1 X125.108 Y103.821 E0.04098
G1 X124.717 Y103.430 E0.01736
G1 X112.205 Y115.941 E0.55477
G1 X112.739 Y116.474 E0.02365
G1 X118.280 Y110.933 E0.24572
G1 X111.801 Y112.079 F10800.000
G1 F1200
G1 X118.887 Y104.994 E0.31419
M73 P1 R68
G1 X119.420 Y105.527 E0.02365
G1 X112.454 Y112.493 E0.30887
G1 X112.597 Y112.636 E0.00634
G1 X110.749 Y114.484 E0.08197
G1 X111.139 Y114.875 E0.01731
G1 X122.726 Y103.288 E0.51379
G1 X123.259 Y103.821 E0.02365
G1 X111.552 Y115.528 E0.51911
G1 E-0.80000 F2100.00000
G1 Z0.800 F10800.000
G1 X114.843 Y119.702
G1 Z0.200
G1 E0.80000 F2100.00000
G1 F1200
G1 X116.871 Y117.675 E0.08991
G1 X115.804 Y117.675 E0.03344
G1 X114.872 Y118.607 E0.04136
G1 X114.338 Y118.074 E0.02365
G1 X115.345 Y117.067 E0.04464
G1 X115.462 Y115.884 E0.03727
G1 X113.805 Y117.541 E0.07345
G1 X113.272 Y117.008 E0.02365
G1 X118.693 Y111.586 E0.24040
G1 X119.227 Y112.119 E0.02365
G1 X116.437 Y114.909 E0.12370
G1 X117.327 Y115.086 E0.02844
G1 X119.863 Y112.549 E0.11248
G1 X120.051 Y112.559 E0.00590
G1 X121.267 Y111.561 E0.04932
G1 X122.653 Y110.820 E0.04926
G1 X122.790 Y110.438 E0.01272
G1 X122.551 Y109.862 E0.01955
G1 X128.698 Y103.714 E0.27258
G1 X129.231 Y104.248 E0.02365
G1 X118.205 Y115.274 E0.48894
G1 X118.435 Y115.586 E0.01213
G1 X118.376 Y116.169 E0.01840
G1 X129.885 Y104.661 E0.51031
G1 X133.618 Y108.394 F10800.000
G1 F1200
G1 X131.757 Y110.254 E0.08249
G1 X131.171 Y109.774 E0.02376
G1 X132.964 Y107.981 E0.07950
G1 X132.431 Y107.447 E0.02365
G1 X130.586 Y109.293 E0.08183
G1 X130.345 Y109.102 E0.00962
G1 X129.931 Y108.881 E0.01473
G1 X131.898 Y106.914 E0.08721
G1 X131.365 Y106.381 E0.02365
G1 X129.236 Y108.509 E0.09438
G1 X128.541 Y108.138 E0.02471
G1 X130.831 Y105.848 E0.10155
G1 X130.298 Y105.314 E0.02365
G1 X114.916 Y120.696 E0.68207
G1 X114.799 Y121.879 E0.03727
G1 X127.896 Y108.783 E0.58071
G1 X127.210 Y110.438 E0.05616
G1 X127.236 Y110.509 E0.00238
G1 X114.683 Y123.062 E0.55662
G1 X114.566 Y124.245 E0.03727
G1 X127.767 Y111.045 E0.58535
G1 X128.462 Y111.416 E0.02471
G1 X118.996 Y120.883 E0.41977
G1 X119.529 Y121.416 E0.02365
G1 X129.091 Y111.854 E0.42399
G1 X129.677 Y112.335 E0.02376
G1 X120.062 Y121.949 E0.42632
G1 X120.487 Y122.374 E0.01884
G1 X121.411 Y121.450 E0.04098
G1 X121.520 Y121.558 E0.00481
G1 X134.031 Y109.047 E0.55477
G1 X134.564 Y109.580 E0.02365
G1 X122.053 Y122.092 E0.55477
G1 X122.336 Y122.374 E0.01253
G1 X123.260 Y121.450 E0.04098
G1 X123.510 Y121.701 E0.01112
G1 X135.097 Y110.114 E0.51379
G1 X135.631 Y110.647 E0.02365
G1 X124.044 Y122.234 E0.51379
G1 X124.577 Y122.767 E0.02365
G1 X131.584 Y115.761 E0.31068
G1 X131.566 Y115.584 E0.00556
G1 X131.808 Y115.258 E0.01272
G1 X132.155 Y115.189 E0.01110
G1 X136.164 Y111.180 E0.17776
G1 X136.697 Y111.714 E0.02365
G1 X133.486 Y114.924 E0.14237
G1 X134.085 Y114.805 E0.01913
G1 X134.422 Y115.055 E0.01316
G1 X137.231 Y112.247 E0.12454
G1 X137.764 Y112.780 E0.02365
G1 X134.549 Y115.995 E0.14255
G1 X134.645 Y116.966 E0.03059
G1 X138.297 Y113.313 E0.16195
G1 X138.830 Y113.847 E0.02365
G1 X131.865 Y120.812 E0.30887
G1 X132.025 Y120.973 E0.00711
G1 X132.092 Y121.652 E0.02139
G1 X139.364 Y114.380 E0.32244
G1 X139.468 Y114.484 E0.00463
G1 X134.920 Y119.032 E0.20166
G1 X134.997 Y119.813 E0.02460
G1 X132.931 Y121.879 E0.09160
G1 X133.464 Y122.412 E0.02365
G1 X135.093 Y120.784 E0.07220
G1 X135.188 Y121.755 E0.03059
G1 X133.998 Y122.945 E0.05279
G1 X134.531 Y123.479 E0.02365
G1 X135.284 Y122.726 E0.03339
G1 X135.380 Y123.697 E0.03059
G1 X134.944 Y124.132 E0.01930
G1 E-0.80000 F2100.00000
G1 Z0.800 F10800.000
G1 X129.363 Y122.248
G1 Z0.200
G1 E0.80000 F2100.00000
G1 F1200
G1 X133.936 Y117.675 E0.20277
G1 X132.869 Y117.675 E0.03344
G1 X128.950 Y121.594 E0.17380
G1 X128.805 Y121.450 E0.00640
G1 X127.881 Y122.374 E0.04098
G1 X127.492 Y121.985 E0.01725
G1 X131.918 Y117.559 E0.19626
G1 X131.745 Y117.402 E0.00732
G1 X131.679 Y116.732 E0.02113
G1 X124.990 Y123.420 E0.29659
G1 E-0.80000 F2100.00000
G1 Z0.800 F10800.000
G1 X132.439 Y116.939
G1 Z0.200
G1 E0.80000 F2100.00000
G1 F1200
G1 X132.337 Y115.903 E0.03262
G1 X133.772 Y115.618 E0.04588
G1 X133.902 Y116.939 E0.04161
G1 X132.499 Y116.939 E0.04400
G1 X132.518 Y116.547 F10800.000
G1 X132.781 Y116.562
G1 F1200
G1 X132.746 Y116.207 E0.01119
G1 X133.438 Y116.069 E0.02212
G1 X133.486 Y116.562 E0.01552
G1 X132.841 Y116.562 E0.02024
G1 X133.106 Y116.350 F10800.000
G1 F1200
G1 X133.275 Y116.334 E0.00101
G1 E-0.80000 F2100.00000
G1 Z0.800 F10800.000
G1 X130.112 Y111.740
G1 Z0.200
G1 E0.80000 F2100.00000
G1 F1200
G1 X129.144 Y110.946 E0.03924
G1 X128.041 Y110.356 E0.03924
G1 X128.601 Y109.004 E0.04588
G1 X129.957 Y109.729 E0.04823
G1 X131.147 Y110.705 E0.04823
G1 X130.154 Y111.698 E0.04400
G1 X129.881 Y111.413 F10800.000
G1 X130.087 Y111.232
G1 F1200
G1 X129.355 Y110.631 E0.02968
G1 X128.520 Y110.185 E0.02968
G1 X128.790 Y109.533 E0.02212
G1 X129.747 Y110.044 E0.03402
G1 X130.586 Y110.733 E0.03402
G1 X130.129 Y111.189 E0.02024
G1 X130.190 Y110.862 F10800.000
G1 F1200
G1 X129.551 Y110.338 E0.02234
G1 X128.822 Y109.948 E0.02234
G1 E-0.80000 F2100.00000
G1 Z0.800 F10800.000
G1 X119.888 Y111.740
G1 Z0.200
G1 E0.80000 F2100.00000
G1 F1200
G1 X118.853 Y110.705 E0.04589
G1 X120.043 Y109.729 E0.04823
G1 X121.399 Y109.004 E0.04823
G1 X121.959 Y110.356 E0.04588
G1 X120.856 Y110.946 E0.03924
G1 X119.935 Y111.702 E0.03735
G1 X119.810 Y111.348 F10800.000
G1 X119.913 Y111.232
G1 F1200
G1 X119.414 Y110.733 E0.02213
G1 X120.253 Y110.044 E0.03402
G1 X121.210 Y109.533 E0.03402
G1 X121.480 Y110.185 E0.02212
G1 X120.645 Y110.631 E0.02969
G1 X119.960 Y111.194 E0.02780
G1 X119.810 Y110.862 F10800.000
G1 F1200
G1 X120.449 Y110.338 E0.02234
G1 X121.178 Y109.948 E0.02234
G1 E-0.80000 F2100.00000
G1 Z0.800 F10800.000
G1 X117.561 Y116.939
G1 Z0.200
G1 E0.80000 F2100.00000
G1 F1200
G1 X116.098 Y116.939 E0.04588
