; generated by PrusaSlicer 2.2.0+win64 on 2020-11-17 at 17:52:25 UTC

; 

; external perimeters extrusion width = 0.45mm
; perimeters extrusion width = 0.45mm
; infill extrusion width = 0.45mm
; solid infill extrusion width = 0.45mm
; top infill extrusion width = 0.40mm
; support material extrusion width = 0.35mm
; first layer extrusion width = 0.42mm

M73 P0 R30
M201 X9000 Y9000 Z500 E10000 ; sets maximum accelerations, mm/sec^2
M203 X500 Y500 Z12 E120 ; sets maximum feedrates, mm/sec
M204 P2000 R1500 T2000 ; sets acceleration (P, T) and retract acceleration (R), mm/sec^2
M205 X10.00 Y10.00 Z0.20 E2.50 ; sets the jerk limits, mm/sec
M205 S0 T0 ; sets the minimum extruding and travel feed rate, mm/sec
M107
M862.3 P "MK2.5SMMU2S" ; printer model check
M862.1 P0.4 ; nozzle diameter check
M115 U3.8.0 ; tell printer latest fw version
G90 ; use absolute coordinates
M83 ; extruder relative mode
M104 S215 ; set extruder temp
M140 S60 ; set bed temp
Tx
M190 S60 ; wait for bed temp
M109 S215 ; wait for extruder temp
G28 W ; home all without mesh bed level
G80 ; mesh bed leveling

G21 ; set units to millimeters

;go outside print area
G1 Y-3.0 F1000.0
G1 Z0.4 F1000.0
; select extruder
Tc
; purge line
G1 X55.0 F2000.0
G1 Z0.3 F1000.0
G92 E0.0
G1 X240.0 E25.0 F2200.0
M73 P0 R30
G1 Y-2.0 F1000.0
G1 X55.0 E25 F1400.0
G1 Z0.20 F1000.0
G1 X5.0 E4.0 F1000.0
G92 E0.0
G21 ; set units to millimeters
G90 ; use absolute coordinates
M83 ; use relative distances for extrusion
M900 K0.06 ; Filament gcode LA 1.5
M900 K30 ; Filament gcode LA 1.0
;BEFORE_LAYER_CHANGE
G92 E0.0
;0.2


G1 E-0.80000 F2100.00000
G1 Z0.600 F10800.000
;AFTER_LAYER_CHANGE
;0.2
G1 X98.960 Y93.794
G1 Z0.200
G1 E0.80000 F2100.00000
M204 S1000
G1 F1200.000
G1 X99.354 Y93.259 E0.02083
G1 X105.360 Y87.255 E0.26627
G1 X105.877 Y86.881 E0.02000
G1 X106.479 Y86.658 E0.02012
G1 X114.786 Y85.792 E0.26190
G1 X135.104 Y85.745 E0.63704
G1 X136.856 Y85.911 E0.05519
G1 X144.205 Y87.086 E0.23336
G1 X144.811 Y87.275 E0.01989
G1 X145.471 Y87.734 E0.02520
G1 X150.300 Y92.564 E0.21415
G1 X150.636 Y92.996 E0.01716
G1 X150.947 Y93.830 E0.02790
G1 X151.476 Y97.934 E0.12977
G1 X151.476 Y107.844 E0.31072
G1 X151.345 Y111.146 E0.10359
G1 X151.070 Y112.047 E0.02954
G1 X150.668 Y112.590 E0.02119
G1 X134.922 Y128.336 E0.69821
G1 X134.181 Y128.835 E0.02802
G1 X133.274 Y129.027 E0.02907
G1 X113.002 Y129.072 E0.63560
G1 X112.422 Y128.998 E0.01835
G1 X111.880 Y128.787 E0.01823
G1 X111.321 Y128.369 E0.02190
G1 X100.821 Y117.628 E0.47096
G1 X100.518 Y117.242 E0.01538
G1 X100.302 Y116.802 E0.01538
G1 X99.096 Y112.075 E0.15295
G1 X98.553 Y107.987 E0.12931
G1 X98.524 Y97.964 E0.31426
G1 X98.688 Y94.673 E0.10331
G1 X98.942 Y93.852 E0.02696
G1 E-0.80000 F2100.00000
G1 Z0.800 F10800.000
G1 X127.235 Y88.933
G1 Z0.200
G1 E0.80000 F2100.00000
G1 F1200.000
G1 X121.290 Y94.877 E0.26358
G1 X121.824 Y95.411 E0.02365
G1 X127.648 Y89.586 E0.25826
G1 X128.181 Y90.120 E0.02365
G1 X122.357 Y95.944 E0.25826
G1 X122.769 Y96.356 E0.01827
G1 X121.138 Y97.988 E0.07234
G1 X121.259 Y98.109 E0.00537
G1 X128.715 Y90.653 E0.33060
G1 X128.887 Y90.826 E0.00766
G1 X128.744 Y91.008 E0.00729
G1 X128.063 Y92.282 E0.04528
G1 X128.017 Y92.417 E0.00449
G1 X121.792 Y98.642 E0.27601
G1 X122.325 Y99.175 E0.02365
G1 X127.600 Y93.900 E0.23390
G1 X127.484 Y95.083 E0.03727
G1 X121.227 Y101.340 E0.27743
G1 X121.761 Y101.873 E0.02365
G1 X127.882 Y95.751 E0.27144
G1 X128.949 Y95.751 E0.03344
G1 X122.294 Y102.406 E0.29509
G1 X122.769 Y102.882 E0.02107
G1 X121.138 Y104.513 E0.07234
G1 X121.196 Y104.571 E0.00257
G1 X132.131 Y93.636 E0.48487
G1 X132.650 Y93.390 E0.01803
G1 X133.248 Y93.177 E0.01988
G1 X133.793 Y93.040 E0.01765
G1 X121.729 Y105.104 E0.53496
G1 X122.262 Y105.638 E0.02365
G1 X134.995 Y92.905 E0.56460
G1 X135.757 Y92.929 E0.02389
G1 X136.001 Y92.966 E0.00773
G1 X121.164 Y107.802 E0.65788
G1 X121.698 Y108.335 E0.02365
G1 X136.885 Y93.148 E0.67344
G1 X137.673 Y93.426 E0.02621
G1 X122.231 Y108.869 E0.68473
G1 X122.764 Y109.402 E0.02365
G1 X138.379 Y93.787 E0.69240
G1 X138.714 Y93.987 E0.01223
G1 X139.019 Y94.214 E0.01191
G1 X121.666 Y111.567 E0.76945
G1 X122.199 Y112.100 E0.02365
G1 X139.596 Y94.703 E0.77140
G1 X139.921 Y95.043 E0.01473
G1 X140.042 Y95.119 E0.00448
G1 X140.199 Y95.167 E0.00516
G1 X122.733 Y112.633 E0.77449
G1 X123.266 Y113.166 E0.02365
G1 X141.017 Y95.415 E0.78713
G1 X141.836 Y95.663 E0.02681
G1 X123.679 Y113.820 E0.80509
G1 E-0.80000 F2100.00000
G1 Z0.800 F10800.000
G1 X133.246 Y126.650
G1 Z0.200
G1 E0.80000 F2100.00000
G1 F1200.000
G1 X148.979 Y110.917 E0.69760
G1 X148.446 Y110.384 E0.02365
G1 X132.833 Y125.996 E0.69228
G1 X132.300 Y125.463 E0.02365
G1 X147.912 Y109.851 E0.69228
G1 X147.469 Y109.407 E0.01967
G1 X149.100 Y107.776 E0.07234
G1 X149.010 Y107.686 E0.00397
G1 X131.767 Y124.930 E0.76462
G1 X131.233 Y124.397 E0.02365
G1 X148.477 Y107.153 E0.76462
G1 X147.944 Y106.619 E0.02365
G1 X130.700 Y123.863 E0.76462
G1 X130.167 Y123.330 E0.02365
G1 X149.042 Y104.455 E0.83696
G1 X148.509 Y103.922 E0.02365
G1 X129.633 Y122.797 E0.83696
G1 X129.100 Y122.264 E0.02365
G1 X147.975 Y103.388 E0.83696
G1 X147.469 Y102.882 E0.02247
G1 X149.100 Y101.250 E0.07234
G1 X149.074 Y101.224 E0.00118
G1 X128.567 Y121.730 E0.90929
G1 X128.034 Y121.197 E0.02365
G1 X148.540 Y100.690 E0.90929
G1 X148.007 Y100.157 E0.02365
G1 X127.500 Y120.664 E0.90929
G1 X126.967 Y120.130 E0.02365
G1 X149.100 Y97.988 E0.98163
G1 X148.572 Y97.459 E0.02342
G1 X126.434 Y119.597 E0.98163
G1 X125.901 Y119.064 E0.02365
G1 X148.038 Y96.926 E0.98163
M73 P3 R29
G1 X147.505 Y96.393 E0.02365
G1 X125.367 Y118.531 E0.98163
G1 X124.834 Y117.997 E0.02365
G1 X148.603 Y94.228 E1.05397
G1 X148.070 Y93.695 E0.02365
G1 X124.301 Y117.464 E1.05397
G1 X123.768 Y116.931 E0.02365
G1 X147.537 Y93.162 E1.05397
G1 X147.003 Y92.628 E0.02365
G1 X123.234 Y116.398 E1.05397
G1 X122.769 Y115.932 E0.02063
G1 X124.400 Y114.301 E0.07234
G1 X124.332 Y114.233 E0.00302
G1 X146.470 Y92.095 E0.98163
G1 X145.937 Y91.562 E0.02365
G1 X142.692 Y94.807 E0.14389
G1 X142.596 Y93.836 E0.03059
G1 X145.404 Y91.028 E0.12449
G1 X144.870 Y90.495 E0.02365
G1 X142.364 Y93.002 E0.11116
G1 X142.160 Y92.330 E0.02203
G1 X142.097 Y92.202 E0.00446
G1 X144.337 Y89.962 E0.09933
G1 X143.804 Y89.429 E0.02365
G1 X141.600 Y91.632 E0.09771
G1 E-0.80000 F2100.00000
G1 Z0.800 F10800.000
G1 X129.204 Y94.638
G1 Z0.200
G1 E0.80000 F2100.00000
G1 F1200.000
G1 X128.646 Y94.638 E0.01749
G1 X128.714 Y93.955 E0.02154
G1 X129.084 Y92.733 E0.04003
G1 X129.686 Y91.607 E0.04003
G1 X130.496 Y90.620 E0.04003
G1 X131.483 Y89.810 E0.04003
G1 X132.609 Y89.208 E0.04003
G1 X133.829 Y88.838 E0.03996
G1 X135.155 Y88.718 E0.04175
G1 X136.372 Y88.837 E0.03836
G1 X137.594 Y89.208 E0.04003
G1 X138.720 Y89.810 E0.04003
G1 X139.707 Y90.620 E0.04003
G1 X140.517 Y91.607 E0.04003
G1 X141.119 Y92.733 E0.04003
G1 X141.489 Y93.955 E0.04003
G1 X141.534 Y94.409 E0.01430
G1 X140.589 Y94.122 E0.03098
G1 X140.481 Y94.003 E0.00503
G1 X139.930 Y93.504 E0.02331
G1 X139.333 Y93.061 E0.02331
G1 X138.695 Y92.678 E0.02331
G1 X138.023 Y92.361 E0.02331
G1 X137.323 Y92.110 E0.02331
G1 X136.602 Y91.929 E0.02331
G1 X135.866 Y91.820 E0.02331
G1 X135.123 Y91.784 E0.02331
G1 X134.381 Y91.820 E0.02331
G1 X133.645 Y91.929 E0.02331
G1 X133.332 Y92.008 E0.01012
G1 X132.924 Y92.110 E0.01319
G1 X132.224 Y92.361 E0.02331
G1 X131.552 Y92.678 E0.02331
G1 X130.914 Y93.061 E0.02331
G1 X130.317 Y93.504 E0.02331
G1 X129.766 Y94.003 E0.02331
G1 X129.240 Y94.590 E0.02472
G1 X129.394 Y95.015 F10800.000
G1 F1200.000
G1 X128.230 Y95.015 E0.03649
G1 X128.342 Y93.881 E0.03575
G1 X128.734 Y92.588 E0.04236
G1 X129.371 Y91.396 E0.04236
G1 X130.228 Y90.352 E0.04236
G1 X131.272 Y89.495 E0.04236
G1 X132.464 Y88.858 E0.04236
G1 X133.756 Y88.466 E0.04234
G1 X135.156 Y88.339 E0.04408
G1 X136.446 Y88.466 E0.04064
G1 X137.739 Y88.858 E0.04236
G1 X138.930 Y89.495 E0.04236
G1 X139.975 Y90.352 E0.04236
G1 X140.832 Y91.396 E0.04236
G1 X141.469 Y92.588 E0.04236
G1 X141.861 Y93.881 E0.04236
G1 X141.965 Y94.933 E0.03316
G1 X140.379 Y94.452 E0.05195
G1 X140.214 Y94.270 E0.00772
G1 X139.690 Y93.795 E0.02215
G1 X139.123 Y93.375 E0.02215
G1 X138.517 Y93.011 E0.02215
G1 X137.878 Y92.709 E0.02215
G1 X137.213 Y92.471 E0.02215
G1 X136.528 Y92.300 E0.02215
G1 X135.829 Y92.196 E0.02215
G1 X135.123 Y92.161 E0.02215
G1 X134.418 Y92.196 E0.02215
G1 X133.719 Y92.300 E0.02215
G1 X133.424 Y92.374 E0.00954
G1 X133.034 Y92.471 E0.01261
G1 X132.368 Y92.709 E0.02215
G1 X131.730 Y93.011 E0.02215
G1 X131.124 Y93.375 E0.02215
G1 X130.556 Y93.795 E0.02215
G1 X130.033 Y94.270 E0.02215
G1 X129.558 Y94.793 E0.02215
G1 X129.430 Y94.967 E0.00678
G1 X129.104 Y94.740 F10800.000
G1 E-0.80000 F2100.00000
G1 Z0.800 F10800.000
G1 X140.506 Y91.826
G1 Z0.200
G1 E0.80000 F2100.00000
G1 F1200.000
G1 X139.477 Y90.797 E0.04672
G1 X138.562 Y90.046 E0.03800
G1 X137.741 Y89.607 E0.02989
G1 X140.719 Y92.586 E0.13526
G1 X140.856 Y92.842 E0.00932
G1 X141.042 Y93.455 E0.02057
G1 X136.872 Y89.285 E0.18938
G1 X136.317 Y89.116 E0.01864
G1 X136.140 Y89.099 E0.00570
G1 X140.989 Y93.948 E0.22021
G1 X140.745 Y93.874 E0.00817
G1 X140.110 Y93.285 E0.02784
G1 X139.490 Y92.825 E0.02477
G1 X139.067 Y92.572 E0.01585
G1 X135.534 Y89.039 E0.16042
G1 X135.154 Y89.002 E0.01228
G1 X134.967 Y89.019 E0.00600
G1 X138.002 Y92.053 E0.13779
G1 X137.405 Y91.839 E0.02035
G1 X137.187 Y91.785 E0.00720
G1 X134.467 Y89.064 E0.12355
G1 X133.966 Y89.110 E0.01614
G1 X136.482 Y91.626 E0.11428
G1 X135.847 Y91.536 E0.02062
G1 X133.534 Y89.223 E0.10505
G1 X133.114 Y89.350 E0.01406
G1 X135.272 Y91.508 E0.09799
G1 X134.738 Y91.520 E0.01717
G1 X132.699 Y89.481 E0.09260
G1 X132.343 Y89.671 E0.01296
G1 X134.229 Y91.557 E0.08565
G1 X133.753 Y91.628 E0.01544
G1 X131.987 Y89.861 E0.08021
G1 X131.641 Y90.046 E0.01260
G1 X133.303 Y91.724 E0.07583
G1 X132.866 Y91.833 E0.01446
G1 X131.333 Y90.299 E0.06966
G1 X131.033 Y90.545 E0.01246
G1 X132.462 Y91.975 E0.06492
G1 X132.064 Y92.123 E0.01364
G1 X130.733 Y90.792 E0.06048
G1 X130.480 Y91.085 E0.01244
G1 X131.693 Y92.299 E0.05511
G1 X131.330 Y92.482 E0.01306
G1 X130.234 Y91.385 E0.04979
G1 X129.988 Y91.685 E0.01246
G1 X130.989 Y92.686 E0.04546
G1 X130.656 Y92.900 E0.01269
G1 X129.783 Y92.026 E0.03968
G1 X129.592 Y92.382 E0.01296
G1 X130.343 Y93.133 E0.03407
G1 X130.038 Y93.374 E0.01248
G1 X129.402 Y92.738 E0.02890
G1 X129.347 Y92.842 E0.00377
G1 X129.257 Y93.139 E0.00997
G1 X129.752 Y93.634 E0.02249
G1 X129.476 Y93.904 E0.01240
G1 X129.129 Y93.558 E0.01573
G1 X129.002 Y93.977 E0.01406
G1 X129.340 Y94.314 E0.01532
G1 E-0.80000 F2100.00000
G1 Z0.800 F10800.000
G1 X121.362 Y91.677
G1 Z0.200
G1 E0.80000 F2100.00000
G1 F1200.000
G1 X123.566 Y89.474 E0.09771
G1 X124.099 Y90.007 E0.02365
G1 X121.859 Y92.247 E0.09933
G1 X121.922 Y92.375 E0.00446
G1 X122.126 Y93.047 E0.02203
G1 X124.632 Y90.540 E0.11116
G1 X125.166 Y91.073 E0.02365
G1 X122.358 Y93.881 E0.12449
G1 X122.454 Y94.852 E0.03059
G1 X125.699 Y91.607 E0.14389
G1 X126.232 Y92.140 E0.02365
G1 X104.094 Y114.278 E0.98163
G1 X104.162 Y114.346 E0.00302
G1 X102.531 Y115.977 E0.07234
G1 X102.996 Y116.443 E0.02063
G1 X126.765 Y92.673 E1.05397
G1 X127.299 Y93.207 E0.02365
G1 X103.529 Y116.976 E1.05397
G1 X104.063 Y117.509 E0.02365
G1 X127.832 Y93.740 E1.05397
G1 X128.365 Y94.273 E0.02365
G1 X104.596 Y118.042 E1.05397
G1 X105.129 Y118.576 E0.02365
G1 X127.267 Y96.438 E0.98163
G1 X127.800 Y96.971 E0.02365
G1 X105.663 Y119.109 E0.98163
G1 X106.196 Y119.642 E0.02365
G1 X128.334 Y97.504 E0.98163
G1 X128.862 Y98.032 E0.02342
G1 X106.729 Y120.175 E0.98163
G1 X107.262 Y120.709 E0.02365
G1 X127.769 Y100.202 E0.90929
G1 X128.302 Y100.735 E0.02365
G1 X107.796 Y121.242 E0.90929
G1 X108.329 Y121.775 E0.02365
G1 X128.835 Y101.269 E0.90929
G1 X128.862 Y101.295 E0.00118
G1 X127.231 Y102.927 E0.07234
G1 X127.737 Y103.433 E0.02247
G1 X108.862 Y122.309 E0.83696
G1 X109.395 Y122.842 E0.02365
G1 X128.271 Y103.967 E0.83696
G1 X128.804 Y104.500 E0.02365
G1 X109.929 Y123.375 E0.83696
G1 X110.462 Y123.908 E0.02365
G1 X127.706 Y106.664 E0.76462
G1 X128.239 Y107.198 E0.02365
G1 X110.995 Y124.442 E0.76462
G1 X111.529 Y124.975 E0.02365
G1 X128.772 Y107.731 E0.76462
G1 X128.862 Y107.821 E0.00397
G1 X127.231 Y109.452 E0.07234
G1 X127.674 Y109.896 E0.01967
G1 X112.062 Y125.508 E0.69228
G1 X112.595 Y126.041 E0.02365
G1 X128.208 Y110.429 E0.69228
G1 X128.741 Y110.962 E0.02365
G1 X113.008 Y126.695 E0.69760
G1 E-0.80000 F2100.00000
G1 Z0.800 F10800.000
G1 X103.441 Y113.865
G1 Z0.200
G1 E0.80000 F2100.00000
G1 F1200.000
G1 X121.597 Y95.708 E0.80509
G1 X120.779 Y95.460 E0.02681
G1 X103.028 Y113.211 E0.78713
G1 X102.494 Y112.678 E0.02365
G1 X119.961 Y95.212 E0.77449
G1 X119.803 Y95.164 E0.00516
G1 X119.683 Y95.088 E0.00448
G1 X119.358 Y94.748 E0.01473
G1 X101.961 Y112.145 E0.77140
G1 X101.428 Y111.612 E0.02365
G1 X118.781 Y94.259 E0.76945
G1 X118.476 Y94.032 E0.01191
G1 X118.141 Y93.832 E0.01223
G1 X102.526 Y109.447 E0.69240
M73 P7 R28
G1 X101.993 Y108.914 E0.02365
G1 X117.435 Y93.471 E0.68473
G1 X116.647 Y93.193 E0.02621
G1 X101.459 Y108.380 E0.67344
G1 X100.926 Y107.847 E0.02365
G1 X115.763 Y93.011 E0.65788
G1 X115.519 Y92.974 E0.00773
G1 X114.757 Y92.950 E0.02389
G1 X102.024 Y105.682 E0.56460
G1 X101.491 Y105.149 E0.02365
G1 X113.555 Y93.085 E0.53496
G1 X113.010 Y93.222 E0.01765
G1 X112.412 Y93.435 E0.01988
G1 X111.893 Y93.681 E0.01803
G1 X100.958 Y104.616 E0.48487
G1 X100.900 Y104.558 E0.00257
G1 X102.531 Y102.927 E0.07234
G1 X102.056 Y102.451 E0.02107
G1 X108.711 Y95.796 E0.29509
G1 X107.644 Y95.796 E0.03344
G1 X101.523 Y101.918 E0.27144
G1 X100.989 Y101.385 E0.02365
G1 X107.246 Y95.128 E0.27743
G1 X107.362 Y93.945 E0.03727
G1 X102.087 Y99.220 E0.23390
G1 X101.554 Y98.687 E0.02365
G1 X107.779 Y92.462 E0.27601
G1 X107.825 Y92.327 E0.00449
G1 X108.506 Y91.053 E0.04528
G1 X108.649 Y90.871 E0.00729
G1 X108.477 Y90.698 E0.00766
G1 X101.021 Y98.154 E0.33060
G1 X100.900 Y98.032 E0.00537
G1 X102.531 Y96.401 E0.07234
G1 X102.119 Y95.989 E0.01827
G1 X107.943 Y90.165 E0.25826
G1 X107.410 Y89.631 E0.02365
G1 X101.586 Y95.456 E0.25826
G1 X101.052 Y94.922 E0.02365
G1 X106.997 Y88.978 E0.26358
G1 E-0.80000 F2100.00000
G1 Z0.800 F10800.000
G1 X108.966 Y94.683
G1 Z0.200
G1 E0.80000 F2100.00000
G1 F1200.000
G1 X108.408 Y94.683 E0.01749
G1 X108.475 Y94.000 E0.02154
G1 X108.846 Y92.778 E0.04003
G1 X109.448 Y91.652 E0.04003
G1 X110.258 Y90.665 E0.04003
G1 X111.245 Y89.855 E0.04003
G1 X112.371 Y89.253 E0.04003
G1 X113.591 Y88.883 E0.03996
G1 X114.917 Y88.763 E0.04175
G1 X116.134 Y88.882 E0.03836
G1 X117.356 Y89.253 E0.04003
G1 X118.482 Y89.855 E0.04003
G1 X119.469 Y90.665 E0.04003
G1 X120.279 Y91.652 E0.04003
G1 X120.881 Y92.778 E0.04003
G1 X121.251 Y94.000 E0.04003
G1 X121.296 Y94.454 E0.01430
G1 X120.350 Y94.167 E0.03098
G1 X120.243 Y94.048 E0.00503
G1 X119.692 Y93.549 E0.02331
G1 X119.095 Y93.106 E0.02331
G1 X118.457 Y92.723 E0.02331
G1 X117.785 Y92.406 E0.02331
G1 X117.085 Y92.155 E0.02331
G1 X116.363 Y91.974 E0.02331
G1 X115.628 Y91.865 E0.02331
G1 X114.885 Y91.829 E0.02331
G1 X114.143 Y91.865 E0.02331
G1 X113.407 Y91.974 E0.02331
G1 X113.094 Y92.053 E0.01012
G1 X112.686 Y92.155 E0.01319
G1 X111.986 Y92.406 E0.02331
G1 X111.314 Y92.723 E0.02331
G1 X110.676 Y93.106 E0.02331
G1 X110.079 Y93.549 E0.02331
G1 X109.528 Y94.048 E0.02331
G1 X109.002 Y94.635 E0.02472
G1 X109.156 Y95.060 F10800.000
G1 F1200.000
G1 X107.992 Y95.060 E0.03649
G1 X108.104 Y93.926 E0.03575
G1 X108.496 Y92.633 E0.04236
G1 X109.133 Y91.441 E0.04236
G1 X109.990 Y90.397 E0.04236
G1 X111.034 Y89.540 E0.04236
G1 X112.226 Y88.903 E0.04236
G1 X113.518 Y88.511 E0.04234
G1 X114.918 Y88.384 E0.04408
G1 X116.208 Y88.511 E0.04064
G1 X117.501 Y88.903 E0.04236
G1 X118.692 Y89.540 E0.04236
G1 X119.737 Y90.397 E0.04236
G1 X120.594 Y91.441 E0.04236
G1 X121.231 Y92.633 E0.04236
G1 X121.623 Y93.926 E0.04236
G1 X121.727 Y94.978 E0.03316
G1 X120.141 Y94.497 E0.05195
G1 X119.976 Y94.315 E0.00772
G1 X119.452 Y93.840 E0.02215
G1 X118.885 Y93.420 E0.02215
G1 X118.279 Y93.056 E0.02215
G1 X117.640 Y92.754 E0.02215
G1 X116.975 Y92.516 E0.02215
G1 X116.290 Y92.345 E0.02215
G1 X115.591 Y92.241 E0.02215
