; generated by PrusaSlicer 2.2.0+win64 on 2020-11-17 at 17:47:15 UTC

; 

; external perimeters extrusion width = 0.45mm
; perimeters extrusion width = 0.45mm
; infill extrusion width = 0.45mm
; solid infill extrusion width = 0.45mm
; top infill extrusion width = 0.40mm
; support material extrusion width = 0.35mm
; first layer extrusion width = 0.42mm

M73 P0 R35
M201 X9000 Y9000 Z500 E10000 ; sets maximum accelerations, mm/sec^2
M203 X500 Y500 Z12 E120 ; sets maximum feedrates, mm/sec
M204 P2000 R1500 T2000 ; sets acceleration (P, T) and retract acceleration (R), mm/sec^2
M205 X10.00 Y10.00 Z0.20 E2.50 ; sets the jerk limits, mm/sec
M205 S0 T0 ; sets the minimum extruding and travel feed rate, mm/sec
M107
M862.3 P "MK2.5SMMU2S" ; printer model check
M862.1 P0.4 ; nozzle diameter check
M115 U3.8.0 ; tell printer latest fw version
G90 ; use absolute coordinates
M83 ; extruder relative mode
M104 S215 ; set extruder temp
M140 S60 ; set bed temp
Tx
M190 S60 ; wait for bed temp
M109 S215 ; wait for extruder temp
G28 W ; home all without mesh bed level
G80 ; mesh bed leveling

G21 ; set units to millimeters

;go outside print area
G1 Y-3.0 F1000.0
G1 Z0.4 F1000.0
; select extruder
Tc
; purge line
G1 X55.0 F2000.0
G1 Z0.3 F1000.0
G92 E0.0
G1 X240.0 E25.0 F2200.0
M73 P0 R35
G1 Y-2.0 F1000.0
G1 X55.0 E25 F1400.0
G1 Z0.20 F1000.0
G1 X5.0 E4.0 F1000.0
G92 E0.0
G21 ; set units to millimeters
G90 ; use absolute coordinates
M83 ; use relative distances for extrusion
M900 K0.06 ; Filament gcode LA 1.5
M900 K30 ; Filament gcode LA 1.0
;BEFORE_LAYER_CHANGE
G92 E0.0
;0.2


G1 E-0.80000 F2100.00000
G1 Z0.600 F10800.000
;AFTER_LAYER_CHANGE
;0.2
G1 X111.419 Y82.677
G1 Z0.200
G1 E0.80000 F2100.00000
M204 S1000
G1 F1200.000
G1 X112.471 Y82.459 E0.03371
G1 X137.138 Y82.434 E0.77340
G1 X138.462 Y82.635 E0.04200
G1 X139.733 Y83.285 E0.04476
G1 X140.723 Y84.165 E0.04155
G1 X141.406 Y85.005 E0.03392
G1 X142.091 Y86.107 E0.04068
G1 X148.703 Y103.616 E0.58684
G1 X148.971 Y104.640 E0.03319
G1 X149.138 Y105.688 E0.03327
G1 X149.204 Y107.038 E0.04239
G1 X149.204 Y125.229 E0.57035
G1 X149.122 Y125.812 E0.01846
G1 X148.901 Y126.354 E0.01835
G1 X148.522 Y126.858 E0.01977
G1 X141.693 Y133.686 E0.30278
G1 X141.141 Y134.075 E0.02119
G1 X140.501 Y134.293 E0.02119
G1 X115.793 Y134.334 E0.77471
G1 X109.429 Y134.277 E0.19954
G1 X108.842 Y134.198 E0.01858
G1 X108.289 Y133.974 E0.01870
G1 X107.823 Y133.633 E0.01811
G1 X102.231 Y128.277 E0.24279
G1 X101.085 Y126.760 E0.05961
G1 X100.872 Y126.219 E0.01823
G1 X100.796 Y125.643 E0.01823
G1 X100.789 Y106.885 E0.58813
G1 X100.846 Y105.862 E0.03213
G1 X101.086 Y104.442 E0.04517
G1 X101.366 Y103.400 E0.03381
G1 X107.921 Y86.084 E0.58053
G1 X108.594 Y85.006 E0.03987
G1 X109.273 Y84.170 E0.03375
G1 X110.201 Y83.335 E0.03915
G1 X111.366 Y82.706 E0.04151
G1 E-0.80000 F2100.00000
G1 Z0.800 F10800.000
G1 X110.229 Y96.992
G1 Z0.200
G1 E0.80000 F2100.00000
G1 F1200.000
G1 X112.827 Y94.394 E0.11519
G1 X113.108 Y94.404 E0.00883
G1 X113.348 Y94.440 E0.00761
G1 X113.735 Y94.553 E0.01262
G1 X110.553 Y97.735 E0.14108
G1 X110.685 Y98.032 E0.01019
G1 X110.939 Y98.415 E0.01443
G1 X114.415 Y94.939 E0.15412
G1 X114.435 Y94.954 E0.00078
G1 X114.778 Y95.297 E0.01520
G1 X114.925 Y95.496 E0.00776
G1 X111.496 Y98.925 E0.15204
G1 X111.919 Y99.151 E0.01505
G1 X112.233 Y99.254 E0.01036
G1 X115.254 Y96.233 E0.13395
G1 X115.327 Y96.623 E0.01245
G1 X115.339 Y96.866 E0.00761
G1 X115.307 Y97.247 E0.01200
G1 X113.054 Y99.500 E0.09988
G1 X112.366 Y100.501 F10800.000
G1 F1200.000
G1 X111.987 Y100.880 E0.01367
G1 X112.346 Y101.238 E0.01295
G1 X112.956 Y100.628 E0.02202
G1 X113.337 Y100.637 E0.00973
G1 X113.631 Y100.670 E0.00756
G1 X112.607 Y101.694 E0.03699
G1 E-0.80000 F2100.00000
G1 Z0.800 F10800.000
G1 X107.280 Y97.808
G1 Z0.200
G1 E0.80000 F2100.00000
G1 F1200.000
G1 X107.678 Y97.410 E0.01766
G1 X107.903 Y96.119 E0.04107
G1 X107.057 Y96.964 E0.03749
G1 E-0.80000 F2100.00000
G1 Z0.800 F10800.000
G1 X117.790 Y96.897
G1 Z0.200
G1 E0.80000 F2100.00000
G1 F1200.000
G1 X118.257 Y96.430 E0.02071
G1 X118.543 Y96.716 E0.01268
G1 X118.377 Y97.376 E0.02133
G1 X117.947 Y97.806 E0.01906
G1 E-0.80000 F2100.00000
G1 Z0.800 F10800.000
G1 X121.677 Y103.675
G1 Z0.200
G1 E0.80000 F2100.00000
G1 F1200.000
G1 X121.860 Y103.493 E0.00808
G1 X122.138 Y104.230 E0.02471
G1 X122.149 Y104.270 E0.00130
G1 X122.101 Y104.318 E0.00214
G1 X122.324 Y105.161 E0.02735
G1 X122.372 Y105.113 E0.00213
G1 X122.377 Y105.130 E0.00054
G1 X122.518 Y106.034 E0.02868
G1 X122.470 Y106.082 E0.00214
G1 X122.516 Y107.102 E0.03202
G1 X122.559 Y107.060 E0.00189
G1 X122.558 Y108.127 E0.03347
G1 X122.516 Y108.169 E0.00185
G1 X122.516 Y109.235 E0.03344
G1 X122.558 Y109.194 E0.00185
G1 X122.558 Y110.260 E0.03344
G1 X122.516 Y110.302 E0.00185
G1 X122.516 Y111.369 E0.03344
G1 X122.558 Y111.327 E0.00185
G1 X122.558 Y112.393 E0.03344
G1 X122.516 Y112.435 E0.00185
G1 X122.516 Y113.502 E0.03344
G1 X122.558 Y113.460 E0.00185
G1 X122.558 Y114.526 E0.03344
G1 X122.516 Y114.568 E0.00185
G1 X122.516 Y115.635 E0.03344
G1 X122.558 Y115.593 E0.00185
G1 X122.558 Y116.660 E0.03344
G1 X122.516 Y116.701 E0.00185
G1 X122.516 Y117.768 E0.03344
G1 X122.558 Y117.726 E0.00185
G1 X122.558 Y118.793 E0.03344
G1 X122.516 Y118.834 E0.00185
G1 X122.516 Y119.901 E0.03344
G1 X122.558 Y119.859 E0.00185
G1 X122.558 Y120.926 E0.03344
G1 X122.516 Y120.967 E0.00185
G1 X122.516 Y122.034 E0.03344
G1 X122.558 Y121.992 E0.00185
G1 X122.558 Y123.059 E0.03344
G1 X122.516 Y123.100 E0.00185
G1 X122.516 Y124.167 E0.03344
G1 X122.559 Y124.124 E0.00189
G1 X122.559 Y125.191 E0.03344
G1 X115.793 Y131.957 E0.30002
G1 X115.260 Y131.424 F10800.000
G1 F1200.000
G1 X120.910 Y125.773 E0.25055
G1 X119.887 Y125.773 E0.03208
G1 X119.865 Y125.752 E0.00096
G1 X114.846 Y130.770 E0.22255
G1 X114.313 Y130.237 E0.02365
G1 X119.579 Y124.971 E0.23349
G1 X119.579 Y123.905 E0.03344
G1 X113.780 Y129.704 E0.25714
G1 X113.246 Y129.171 E0.02365
G1 X119.578 Y122.839 E0.28077
G1 X119.578 Y121.772 E0.03344
G1 X109.450 Y131.900 E0.44909
G1 X108.917 Y131.367 E0.02365
G1 X119.578 Y120.706 E0.47273
G1 X119.578 Y119.639 E0.03344
G1 X108.384 Y130.833 E0.49638
G1 X107.851 Y130.300 E0.02365
G1 X119.578 Y118.573 E0.52003
G1 X119.578 Y117.506 E0.03344
G1 X107.317 Y129.767 E0.54367
G1 X106.784 Y129.234 E0.02365
G1 X119.578 Y116.439 E0.56732
G1 X119.578 Y115.373 E0.03344
G1 X106.251 Y128.700 E0.59097
G1 X105.718 Y128.167 E0.02365
G1 X119.578 Y114.306 E0.61461
G1 X119.578 Y113.240 E0.03344
G1 X105.184 Y127.634 E0.63826
G1 X104.651 Y127.101 E0.02365
G1 X119.578 Y112.173 E0.66190
G1 X119.578 Y111.107 E0.03344
G1 X106.153 Y124.532 E0.59531
G1 X106.153 Y123.466 E0.03344
G1 X119.578 Y110.040 E0.59531
G1 X119.578 Y108.974 E0.03344
G1 X106.153 Y122.399 E0.59531
G1 X106.153 Y121.333 E0.03344
G1 X119.578 Y107.907 E0.59531
G1 X119.573 Y106.846 E0.03326
G1 X106.153 Y120.266 E0.59506
G1 X106.153 Y119.199 E0.03344
G1 X119.477 Y105.876 E0.59080
G1 X119.297 Y105.147 E0.02354
G1 X119.254 Y105.032 E0.00385
G1 X106.153 Y118.133 E0.58093
G1 X106.153 Y117.066 E0.03344
G1 X118.937 Y104.283 E0.56685
G1 X118.796 Y104.001 E0.00985
G1 X118.546 Y103.607 E0.01465
G1 X106.153 Y116.000 E0.54953
G1 X106.153 Y114.933 E0.03344
G1 X118.089 Y102.997 E0.52927
G1 X117.564 Y102.455 E0.02365
G1 X106.153 Y113.867 E0.50600
G1 X106.153 Y112.800 E0.03344
G1 X116.977 Y101.976 E0.47995
G1 X116.605 Y101.716 E0.01423
G1 X116.328 Y101.558 E0.00999
G1 X106.153 Y111.734 E0.45119
G1 X106.153 Y110.667 E0.03344
G1 X115.615 Y101.205 E0.41958
G1 X115.440 Y101.126 E0.00601
G1 X114.833 Y100.921 E0.02011
G1 X106.153 Y109.601 E0.38488
G1 X106.151 Y108.536 E0.03339
G1 X112.655 Y102.031 E0.28841
G1 X112.122 Y101.498 E0.02365
G1 X106.148 Y107.473 E0.26492
G1 X106.146 Y106.992 E0.01508
G1 X106.178 Y106.376 E0.01934
G1 X111.589 Y100.965 E0.23992
G1 X111.420 Y100.796 E0.00751
G1 X110.915 Y100.915 E0.01627
G1 X110.397 Y101.091 E0.01715
G1 X106.229 Y105.258 E0.18480
G1 E-0.80000 F2100.00000
G1 Z0.800 F10800.000
G1 X104.539 Y102.682
G1 Z0.200
G1 E0.80000 F2100.00000
G1 F1200.000
G1 X103.959 Y103.262 E0.02571
G1 X103.593 Y104.230 E0.03245
G1 X103.426 Y104.862 E0.02049
G1 X103.509 Y104.779 E0.00367
G1 X103.399 Y105.198 E0.01357
G1 X103.261 Y106.094 E0.02842
G1 X103.206 Y106.148 E0.00244
G1 X103.166 Y106.919 E0.02418
G1 X103.167 Y107.254 E0.01051
G1 X103.215 Y107.205 E0.00215
G1 X103.215 Y108.272 E0.03344
G1 X103.170 Y108.317 E0.00200
G1 X103.173 Y109.381 E0.03336
G1 X103.215 Y109.338 E0.00189
G1 X103.215 Y110.405 E0.03344
G1 X103.173 Y110.448 E0.00189
G1 X103.173 Y111.514 E0.03344
G1 X103.215 Y111.472 E0.00189
G1 X103.215 Y112.538 E0.03344
G1 X103.173 Y112.581 E0.00189
G1 X103.173 Y113.647 E0.03344
G1 X103.215 Y113.605 E0.00189
G1 X103.215 Y114.671 E0.03344
G1 X103.173 Y114.714 E0.00189
G1 X103.173 Y115.780 E0.03344
G1 X103.215 Y115.738 E0.00189
G1 X103.215 Y116.804 E0.03344
G1 X103.173 Y116.847 E0.00189
G1 X103.173 Y117.913 E0.03344
G1 X103.215 Y117.871 E0.00189
G1 X103.215 Y118.937 E0.03344
G1 X103.173 Y118.980 E0.00189
G1 X103.173 Y120.047 E0.03344
G1 X103.215 Y120.004 E0.00189
G1 X103.215 Y121.070 E0.03344
G1 X103.173 Y121.113 E0.00189
G1 X103.173 Y122.180 E0.03344
G1 X103.215 Y122.137 E0.00189
G1 X103.215 Y123.203 E0.03344
G1 X103.173 Y123.246 E0.00189
G1 X103.173 Y124.313 E0.03344
G1 X103.215 Y124.270 E0.00189
G1 X103.215 Y125.337 E0.03344
G1 X103.173 Y125.379 E0.00189
G1 X103.173 Y125.622 E0.00762
G1 X103.584 Y126.034 E0.01826
G1 X103.845 Y125.773 E0.01157
G1 X104.912 Y125.773 E0.03344
G1 X103.998 Y126.687 E0.04053
G1 E-0.80000 F2100.00000
G1 Z0.800 F10800.000
G1 X120.692 Y124.660
G1 Z0.200
G1 E0.80000 F2100.00000
G1 F1200.000
G1 X120.692 Y106.966 E0.55477
G1 X120.662 Y106.248 E0.02255
G1 X120.547 Y105.519 E0.02315
G1 X120.359 Y104.806 E0.02310
G1 X120.098 Y104.116 E0.02315
G1 X119.767 Y103.453 E0.02322
G1 X119.369 Y102.826 E0.02330
G1 X118.909 Y102.238 E0.02339
G1 X118.436 Y101.745 E0.02143
G1 X117.821 Y101.209 E0.02556
G1 X117.201 Y100.774 E0.02376
G1 X116.542 Y100.400 E0.02377
G1 X115.847 Y100.089 E0.02386
G1 X115.124 Y99.844 E0.02392
G1 X114.928 Y99.798 E0.00632
G1 X115.142 Y99.639 E0.00834
G1 X115.403 Y99.403 E0.01104
G1 X115.639 Y99.142 E0.01104
G1 X115.849 Y98.859 E0.01104
G1 X116.030 Y98.557 E0.01104
G1 X116.180 Y98.239 E0.01104
G1 X116.299 Y97.907 E0.01104
G1 X116.385 Y97.566 E0.01104
G1 X116.436 Y97.218 E0.01104
G1 X116.454 Y96.866 E0.01104
G1 X116.436 Y96.514 E0.01104
G1 X116.385 Y96.166 E0.01104
G1 X116.299 Y95.824 E0.01104
G1 X116.180 Y95.493 E0.01104
G1 X116.030 Y95.175 E0.01104
G1 X115.849 Y94.873 E0.01104
G1 X115.639 Y94.590 E0.01104
G1 X115.403 Y94.329 E0.01104
G1 X115.142 Y94.092 E0.01104
G1 X114.859 Y93.883 E0.01104
G1 X114.557 Y93.702 E0.01104
G1 X114.239 Y93.551 E0.01104
G1 X113.907 Y93.433 E0.01104
G1 X113.566 Y93.347 E0.01104
G1 X113.215 Y93.295 E0.01111
G1 X112.837 Y93.280 E0.01186
G1 X112.514 Y93.295 E0.01014
G1 X112.166 Y93.347 E0.01104
G1 X111.824 Y93.433 E0.01104
G1 X111.493 Y93.551 E0.01104
G1 X111.175 Y93.702 E0.01104
G1 X110.873 Y93.883 E0.01104
G1 X110.590 Y94.092 E0.01104
G1 X110.329 Y94.329 E0.01104
G1 X110.092 Y94.590 E0.01104
G1 X109.883 Y94.873 E0.01104
G1 X109.702 Y95.175 E0.01104
G1 X109.551 Y95.493 E0.01104
G1 X109.433 Y95.824 E0.01104
G1 X109.347 Y96.166 E0.01104
G1 X109.295 Y96.514 E0.01104
G1 X109.278 Y96.866 E0.01104
G1 X109.295 Y97.218 E0.01104
G1 X109.347 Y97.566 E0.01104
G1 X109.433 Y97.907 E0.01104
G1 X109.551 Y98.239 E0.01104
G1 X109.702 Y98.557 E0.01104
G1 X109.883 Y98.859 E0.01104
G1 X110.092 Y99.142 E0.01104
G1 X110.329 Y99.403 E0.01104
G1 X110.590 Y99.639 E0.01104
G1 X110.803 Y99.798 E0.00834
G1 X110.607 Y99.844 E0.00632
G1 X109.885 Y100.089 E0.02392
G1 X109.190 Y100.400 E0.02386
G1 X108.531 Y100.774 E0.02377
G1 X107.912 Y101.208 E0.02368
G1 X107.341 Y101.697 E0.02359
G1 X106.823 Y102.238 E0.02349
G1 X106.363 Y102.826 E0.02339
G1 X105.965 Y103.453 E0.02330
G1 X105.634 Y104.116 E0.02322
G1 X105.373 Y104.806 E0.02315
G1 X105.184 Y105.519 E0.02310
G1 X105.070 Y106.245 E0.02306
G1 X105.033 Y106.964 E0.02256
G1 X105.040 Y124.660 E0.55486
G1 X104.329 Y124.660 E0.02229
G1 X104.329 Y106.994 E0.55391
M73 P3 R34
G1 X104.370 Y106.192 E0.02517
G1 X104.492 Y105.414 E0.02472
G1 X104.695 Y104.649 E0.02479
G1 X104.975 Y103.907 E0.02488
G1 X105.332 Y103.194 E0.02501
G1 X105.761 Y102.516 E0.02515
G1 X106.259 Y101.881 E0.02530
G1 X106.821 Y101.294 E0.02547
G1 X107.442 Y100.762 E0.02564
G1 X108.338 Y100.133 E0.03433
G1 X110.373 Y88.400 E0.37336
G1 X110.551 Y87.464 E0.02987
G1 X111.015 Y86.719 E0.02754
G1 X111.522 Y86.102 E0.02503
G1 X112.010 Y85.686 E0.02012
G1 X112.453 Y85.463 E0.01555
G1 X112.883 Y85.404 E0.01360
G1 X113.276 Y85.462 E0.01245
G1 X113.721 Y85.686 E0.01564
G1 X114.210 Y86.102 E0.02012
G1 X114.717 Y86.719 E0.02503
G1 X115.181 Y87.464 E0.02754
G1 X115.359 Y88.400 E0.02987
G1 X117.394 Y100.133 E0.37336
G1 X118.290 Y100.762 E0.03433
G1 X118.911 Y101.294 E0.02564
G1 X119.473 Y101.881 E0.02547
G1 X119.971 Y102.516 E0.02530
G1 X120.400 Y103.194 E0.02515
G1 X120.756 Y103.907 E0.02501
G1 X121.037 Y104.649 E0.02488
G1 X121.239 Y105.414 E0.02479
G1 X121.361 Y106.192 E0.02472
G1 X121.403 Y106.994 E0.02517
G1 X121.403 Y124.660 E0.55391
G1 X120.752 Y124.660 E0.02042
G1 X120.315 Y125.037 F10800.000
G1 F1200.000
G1 X120.315 Y106.974 E0.56635
G1 X120.286 Y106.285 E0.02163
G1 X120.178 Y105.596 E0.02187
G1 X119.999 Y104.922 E0.02188
G1 X119.752 Y104.267 E0.02194
G1 X119.438 Y103.639 E0.02202
G1 X119.060 Y103.043 E0.02211
G1 X118.623 Y102.486 E0.02221
G1 X118.175 Y102.018 E0.02032
G1 X117.588 Y101.506 E0.02441
G1 X116.999 Y101.093 E0.02257
G1 X116.371 Y100.737 E0.02264
G1 X115.709 Y100.440 E0.02273
G1 X115.020 Y100.207 E0.02281
G1 X114.310 Y100.039 E0.02287
G1 X113.724 Y99.956 E0.01857
G1 X114.094 Y99.832 E0.01226
G1 X114.379 Y99.697 E0.00988
G1 X114.649 Y99.535 E0.00988
G1 X114.902 Y99.347 E0.00988
G1 X115.136 Y99.136 E0.00988
G1 X115.347 Y98.902 E0.00988
G1 X115.535 Y98.649 E0.00988
G1 X115.697 Y98.379 E0.00988
G1 X115.832 Y98.094 E0.00988
G1 X115.938 Y97.798 E0.00988
G1 X116.014 Y97.492 E0.00988
G1 X116.061 Y97.181 E0.00988
G1 X116.076 Y96.866 E0.00988
G1 X116.061 Y96.551 E0.00988
G1 X116.014 Y96.240 E0.00988
G1 X115.938 Y95.934 E0.00988
G1 X115.832 Y95.637 E0.00988
G1 X115.697 Y95.353 E0.00988
G1 X115.535 Y95.082 E0.00988
G1 X115.347 Y94.829 E0.00988
G1 X115.136 Y94.596 E0.00988
G1 X114.902 Y94.384 E0.00988
G1 X114.649 Y94.197 E0.00988
G1 X114.379 Y94.035 E0.00988
G1 X114.094 Y93.900 E0.00988
G1 X113.798 Y93.794 E0.00988
G1 X113.492 Y93.717 E0.00988
G1 X113.180 Y93.671 E0.00990
G1 X112.839 Y93.657 E0.01070
G1 X112.551 Y93.671 E0.00902
G1 X112.240 Y93.717 E0.00988
G1 X111.934 Y93.794 E0.00988
G1 X111.637 Y93.900 E0.00988
G1 X111.353 Y94.035 E0.00988
G1 X111.082 Y94.197 E0.00988
G1 X110.829 Y94.384 E0.00988
G1 X110.596 Y94.596 E0.00988
G1 X110.384 Y94.829 E0.00988
G1 X110.197 Y95.082 E0.00988
G1 X110.035 Y95.353 E0.00988
G1 X109.900 Y95.637 E0.00988
G1 X109.794 Y95.934 E0.00988
G1 X109.717 Y96.240 E0.00988
G1 X109.671 Y96.551 E0.00988
G1 X109.656 Y96.866 E0.00988
G1 X109.671 Y97.181 E0.00988
G1 X109.717 Y97.492 E0.00988
G1 X109.794 Y97.798 E0.00988
G1 X109.900 Y98.094 E0.00988
G1 X110.035 Y98.379 E0.00988
G1 X110.197 Y98.649 E0.00988
G1 X110.384 Y98.902 E0.00988
G1 X110.596 Y99.136 E0.00988
G1 X110.829 Y99.347 E0.00988
G1 X111.082 Y99.535 E0.00988
G1 X111.352 Y99.697 E0.00988
G1 X111.637 Y99.832 E0.00988
G1 X112.008 Y99.956 E0.01226
G1 X111.421 Y100.039 E0.01857
G1 X110.711 Y100.207 E0.02287
G1 X110.022 Y100.440 E0.02281
G1 X109.361 Y100.737 E0.02273
G1 X108.732 Y101.093 E0.02264
G1 X108.144 Y101.506 E0.02254
G1 X107.601 Y101.972 E0.02243
G1 X107.108 Y102.486 E0.02232
G1 X106.671 Y103.043 E0.02221
G1 X106.294 Y103.639 E0.02211
G1 X105.980 Y104.267 E0.02202
G1 X105.732 Y104.922 E0.02194
G1 X105.554 Y105.596 E0.02188
G1 X105.446 Y106.284 E0.02183
G1 X105.410 Y106.973 E0.02164
G1 X105.417 Y125.037 E0.56638
G1 X103.951 Y125.037 E0.04594
G1 X103.951 Y106.984 E0.56604
G1 X103.995 Y106.153 E0.02609
G1 X104.123 Y105.336 E0.02595
G1 X104.335 Y104.534 E0.02601
G1 X104.629 Y103.756 E0.02610
