; generated by PrusaSlicer 2.1.1+win64 on 2020-05-14 at 17:49:46 UTC

; 

; external perimeters extrusion width = 0.45mm
; perimeters extrusion width = 0.45mm
; infill extrusion width = 0.45mm
; solid infill extrusion width = 0.45mm
; top infill extrusion width = 0.40mm
; first layer extrusion width = 0.42mm

M73 P0 R32
M201 X9000 Y9000 Z500 E10000 ; sets maximum accelerations, mm/sec^2
M203 X500 Y500 Z12 E120 ; sets maximum feedrates, mm/sec
M204 P2000 R1500 T2000 ; sets acceleration (P, T) and retract acceleration (R), mm/sec^2
M205 X10.00 Y10.00 Z0.20 E4.50 ; sets the jerk limits, mm/sec
M205 S0 T0 ; sets the minimum extruding and travel feed rate, mm/sec
M107
M862.3 P "MK2.5SMMU2S" ; printer model check
M862.1 P0.4 ; nozzle diameter check
M115 U3.8.1 ; tell printer latest fw version
G90 ; use absolute coordinates
M83 ; extruder relative mode
M104 S215 ; set extruder temp
M140 S60 ; set bed temp
Tx
M190 S60 ; wait for bed temp
M109 S215 ; wait for extruder temp
G28 W ; home all without mesh bed level
G80 ; mesh bed leveling

;go outside print area
G1 Y-3.0 F1000.0
G1 Z0.4 F1000.0
; select extruder
Tc
; purge line
G1 X55.0 F2000.0
G1 Z0.3 F1000.0
G92 E0.0
G1 X240.0 E25.0 F2200.0
M73 P0 R32
G1 Y-2.0 F1000.0
G1 X55.0 E25 F1400.0
G1 Z0.20 F1000.0
G1 X5.0 E4.0 F1000.0
G92 E0.0
G21 ; set units to millimeters
G90 ; use absolute coordinates
M83 ; use relative distances for extrusion
M900 K30 ; Filament gcode
;BEFORE_LAYER_CHANGE
G92 E0.0
;0.2


G1 E-0.80000 F2100.00000
G1 Z0.600 F10800.000
;AFTER_LAYER_CHANGE
;0.2
G1 X99.730 Y89.704
G1 Z0.200
G1 E0.80000 F2100.00000
M204 S1000
G1 F1200
G1 X100.468 Y89.573 E0.02349
G1 X152.549 Y89.573 E1.63297
G1 X153.352 Y89.727 E0.02563
G1 X154.042 Y90.165 E0.02563
G1 X166.805 Y102.961 E0.56664
G1 X167.082 Y103.461 E0.01794
G1 X167.220 Y104.013 E0.01783
G1 X167.226 Y106.634 E0.08218
G1 X166.954 Y107.514 E0.02889
G1 X166.348 Y108.203 E0.02878
G1 X165.657 Y108.545 E0.02417
G1 X115.760 Y122.963 E1.62849
G1 X115.183 Y123.048 E0.01828
G1 X112.671 Y123.027 E0.07875
G1 X112.090 Y122.862 E0.01896
G1 X111.576 Y122.543 E0.01896
G1 X98.911 Y109.891 E0.56129
G1 X98.619 Y109.522 E0.01475
G1 X98.415 Y109.102 E0.01464
G1 X98.285 Y108.375 E0.02315
G1 X98.290 Y91.612 E0.52560
G1 X98.424 Y90.996 E0.01976
G1 X98.727 Y90.444 E0.01976
G1 X99.175 Y90.001 E0.01976
G1 X99.677 Y89.732 E0.01787
G1 F8640
G1 X100.468 Y89.573 E-0.18621
G1 X102.953 Y89.573 E-0.57379
G1 E-0.04000 F2100.00000
G1 Z0.800 F10800.000
G1 X102.069 Y107.772
G1 Z0.200
G1 E0.80000 F2100.00000
G1 F1200
G1 X101.061 Y107.772 E0.03160
G1 X101.061 Y92.349 E0.48359
G1 X151.958 Y92.349 E1.59585
G1 X151.958 Y93.357 E0.03160
G1 X138.866 Y93.357 E0.41049
G1 X138.867 Y95.464 E0.06606
G1 X138.726 Y95.464 E0.00442
G1 X138.725 Y93.357 E0.06606
G1 X102.069 Y93.357 E1.14934
G1 X102.069 Y107.712 E0.45011
G1 X102.446 Y108.150 F10800.000
G1 F1200
G1 X100.684 Y108.150 E0.05525
G1 X100.684 Y91.972 E0.50724
G1 X152.335 Y91.972 E1.61950
G1 X152.335 Y93.734 E0.05525
G1 X139.243 Y93.734 E0.41049
G1 X139.244 Y95.841 E0.06606
G1 X138.349 Y95.841 E0.02807
G1 X138.348 Y93.734 E0.06607
G1 X102.446 Y93.734 E1.12569
G1 X102.446 Y108.090 E0.45011
G1 X102.204 Y107.831 F10800.000
G1 F8640
G1 X100.684 Y108.150 E-0.40712
G1 X100.684 Y106.621 E-0.35288
G1 E-0.04000 F2100.00000
G1 Z0.800 F10800.000
G1 X101.174 Y106.893
G1 Z0.200
G1 E0.80000 F2100.00000
G1 F1200
G1 X101.786 Y107.490 E0.02695
G1 X101.786 Y106.969 E0.01642
G1 X101.344 Y106.526 E0.01972
G1 X101.344 Y105.990 E0.01690
G1 X101.786 Y106.433 E0.01972
G1 X101.786 Y105.897 E0.01690
G1 X101.344 Y105.454 E0.01972
G1 X101.344 Y104.918 E0.01690
G1 X101.786 Y105.360 E0.01972
G1 X101.786 Y104.824 E0.01690
G1 X101.344 Y104.382 E0.01972
G1 X101.344 Y103.846 E0.01690
G1 X101.786 Y104.288 E0.01972
G1 X101.786 Y103.752 E0.01690
G1 X101.344 Y103.310 E0.01972
G1 X101.344 Y102.774 E0.01690
G1 X101.786 Y103.216 E0.01972
G1 X101.786 Y102.680 E0.01690
G1 X101.344 Y102.237 E0.01972
G1 X101.344 Y101.701 E0.01690
G1 X101.786 Y102.144 E0.01972
G1 X101.786 Y101.608 E0.01690
G1 X101.344 Y101.165 E0.01972
G1 X101.344 Y100.629 E0.01690
G1 X101.786 Y101.071 E0.01972
G1 X101.786 Y100.535 E0.01690
G1 X101.344 Y100.093 E0.01972
G1 X101.344 Y99.557 E0.01690
G1 X101.786 Y99.999 E0.01972
G1 X101.786 Y99.463 E0.01690
G1 X101.344 Y99.021 E0.01972
G1 X101.344 Y98.485 E0.01690
G1 X101.786 Y98.927 E0.01972
G1 X101.786 Y98.391 E0.01690
G1 X101.344 Y97.948 E0.01972
G1 X101.344 Y97.412 E0.01690
G1 X101.786 Y97.855 E0.01972
G1 X101.786 Y97.319 E0.01690
G1 X101.344 Y96.876 E0.01972
G1 X101.344 Y96.340 E0.01690
G1 X101.786 Y96.782 E0.01972
G1 X101.786 Y96.246 E0.01690
G1 X101.344 Y95.804 E0.01972
G1 X101.344 Y95.268 E0.01690
G1 X101.786 Y95.710 E0.01972
G1 X101.786 Y95.174 E0.01690
G1 X101.344 Y94.732 E0.01972
G1 X101.344 Y94.195 E0.01690
G1 X101.786 Y94.638 E0.01972
G1 X101.786 Y94.102 E0.01690
G1 X101.344 Y93.659 E0.01972
G1 X101.344 Y93.123 E0.01690
G1 X101.786 Y93.566 E0.01972
G1 X101.786 Y93.074 E0.01549
G1 X101.831 Y93.074 E0.00141
G1 X101.388 Y92.632 E0.01972
G1 X101.924 Y92.632 E0.01690
G1 X102.367 Y93.074 E0.01972
G1 X102.903 Y93.074 E0.01690
G1 X102.461 Y92.632 E0.01972
G1 X102.997 Y92.632 E0.01690
G1 X103.439 Y93.074 E0.01972
G1 X103.975 Y93.074 E0.01690
G1 X103.533 Y92.632 E0.01972
G1 X104.069 Y92.632 E0.01690
G1 X104.511 Y93.074 E0.01972
G1 X105.047 Y93.074 E0.01690
G1 X104.605 Y92.632 E0.01972
G1 X105.141 Y92.632 E0.01690
G1 X105.584 Y93.074 E0.01972
G1 X106.120 Y93.074 E0.01690
G1 X105.677 Y92.632 E0.01972
G1 X106.213 Y92.632 E0.01690
G1 X106.656 Y93.074 E0.01972
G1 X107.192 Y93.074 E0.01690
G1 X106.750 Y92.632 E0.01972
G1 X107.286 Y92.632 E0.01690
G1 X107.728 Y93.074 E0.01972
G1 X108.264 Y93.074 E0.01690
G1 X107.822 Y92.632 E0.01972
G1 X108.358 Y92.632 E0.01690
G1 X108.800 Y93.074 E0.01972
G1 X109.336 Y93.074 E0.01690
G1 X108.894 Y92.632 E0.01972
G1 X109.430 Y92.632 E0.01690
G1 X109.873 Y93.074 E0.01972
G1 X110.409 Y93.074 E0.01690
G1 X109.966 Y92.632 E0.01972
G1 X110.502 Y92.632 E0.01690
G1 X110.945 Y93.074 E0.01972
G1 X111.481 Y93.074 E0.01690
G1 X111.039 Y92.632 E0.01972
G1 X111.575 Y92.632 E0.01690
G1 X112.017 Y93.074 E0.01972
G1 X112.553 Y93.074 E0.01690
G1 X112.111 Y92.632 E0.01972
G1 X112.647 Y92.632 E0.01690
G1 X113.089 Y93.074 E0.01972
G1 X113.626 Y93.074 E0.01690
G1 X113.183 Y92.632 E0.01972
G1 X113.719 Y92.632 E0.01690
G1 X114.162 Y93.074 E0.01972
G1 X114.698 Y93.074 E0.01690
G1 X114.255 Y92.632 E0.01972
G1 X114.792 Y92.632 E0.01690
G1 X115.234 Y93.074 E0.01972
G1 X115.770 Y93.074 E0.01690
G1 X115.328 Y92.632 E0.01972
G1 X115.864 Y92.632 E0.01690
G1 X116.306 Y93.074 E0.01972
G1 X116.842 Y93.074 E0.01690
G1 X116.400 Y92.632 E0.01972
G1 X116.936 Y92.632 E0.01690
G1 X117.378 Y93.074 E0.01972
G1 X117.915 Y93.074 E0.01690
G1 X117.472 Y92.632 E0.01972
G1 X118.008 Y92.632 E0.01690
G1 X118.451 Y93.074 E0.01972
G1 X118.987 Y93.074 E0.01690
G1 X118.544 Y92.632 E0.01972
G1 X119.081 Y92.632 E0.01690
G1 X119.523 Y93.074 E0.01972
G1 X120.059 Y93.074 E0.01690
G1 X119.617 Y92.632 E0.01972
G1 X120.153 Y92.632 E0.01690
G1 X120.595 Y93.074 E0.01972
G1 X121.131 Y93.074 E0.01690
G1 X120.689 Y92.632 E0.01972
G1 X121.225 Y92.632 E0.01690
G1 X121.667 Y93.074 E0.01972
G1 X122.204 Y93.074 E0.01690
G1 X121.761 Y92.632 E0.01972
G1 X122.297 Y92.632 E0.01690
G1 X122.740 Y93.074 E0.01972
G1 X123.276 Y93.074 E0.01690
G1 X122.833 Y92.632 E0.01972
G1 X123.370 Y92.632 E0.01690
G1 X123.812 Y93.074 E0.01972
G1 X124.348 Y93.074 E0.01690
G1 X123.906 Y92.632 E0.01972
G1 X124.442 Y92.632 E0.01690
G1 X124.884 Y93.074 E0.01972
G1 X125.420 Y93.074 E0.01690
G1 X124.978 Y92.632 E0.01972
G1 X125.514 Y92.632 E0.01690
G1 X125.957 Y93.074 E0.01972
G1 X126.493 Y93.074 E0.01690
G1 X126.050 Y92.632 E0.01972
G1 X126.586 Y92.632 E0.01690
G1 X127.029 Y93.074 E0.01972
G1 X127.565 Y93.074 E0.01690
G1 X127.123 Y92.632 E0.01972
G1 X127.659 Y92.632 E0.01690
G1 X128.101 Y93.074 E0.01972
G1 X128.637 Y93.074 E0.01690
G1 X128.195 Y92.632 E0.01972
G1 X128.731 Y92.632 E0.01690
G1 X129.173 Y93.074 E0.01972
G1 X129.709 Y93.074 E0.01690
G1 X129.267 Y92.632 E0.01972
G1 X129.803 Y92.632 E0.01690
G1 X130.246 Y93.074 E0.01972
G1 X130.782 Y93.074 E0.01690
G1 X130.339 Y92.632 E0.01972
G1 X130.875 Y92.632 E0.01690
G1 X131.318 Y93.074 E0.01972
G1 X131.854 Y93.074 E0.01690
G1 X131.412 Y92.632 E0.01972
G1 X131.948 Y92.632 E0.01690
G1 X132.390 Y93.074 E0.01972
G1 X132.926 Y93.074 E0.01690
G1 X132.484 Y92.632 E0.01972
G1 X133.020 Y92.632 E0.01690
G1 X133.462 Y93.074 E0.01972
G1 X133.998 Y93.074 E0.01690
G1 X133.556 Y92.632 E0.01972
G1 X134.092 Y92.632 E0.01690
G1 X134.535 Y93.074 E0.01972
G1 X135.071 Y93.074 E0.01690
G1 X134.628 Y92.632 E0.01972
G1 X135.164 Y92.632 E0.01690
G1 X135.607 Y93.074 E0.01972
G1 X136.143 Y93.074 E0.01690
G1 X135.701 Y92.632 E0.01972
G1 X136.237 Y92.632 E0.01690
G1 X136.679 Y93.074 E0.01972
G1 X137.215 Y93.074 E0.01690
G1 X136.773 Y92.632 E0.01972
G1 X137.309 Y92.632 E0.01690
G1 X137.751 Y93.074 E0.01972
G1 X138.287 Y93.074 E0.01690
G1 X137.845 Y92.632 E0.01972
G1 X138.381 Y92.632 E0.01690
G1 X138.824 Y93.074 E0.01972
G1 X139.360 Y93.074 E0.01690
G1 X138.917 Y92.632 E0.01972
G1 X139.453 Y92.632 E0.01690
G1 X139.896 Y93.074 E0.01972
G1 X140.432 Y93.074 E0.01690
G1 X139.990 Y92.632 E0.01972
G1 X140.526 Y92.632 E0.01690
G1 X140.968 Y93.074 E0.01972
G1 X141.504 Y93.074 E0.01690
G1 X141.062 Y92.632 E0.01972
G1 X141.598 Y92.632 E0.01690
G1 X142.040 Y93.074 E0.01972
G1 X142.577 Y93.074 E0.01690
G1 X142.134 Y92.632 E0.01972
G1 X142.670 Y92.632 E0.01690
G1 X143.113 Y93.074 E0.01972
G1 X143.649 Y93.074 E0.01690
G1 X143.206 Y92.632 E0.01972
G1 X143.743 Y92.632 E0.01690
G1 X144.185 Y93.074 E0.01972
G1 X144.721 Y93.074 E0.01690
G1 X144.279 Y92.632 E0.01972
G1 X144.815 Y92.632 E0.01690
G1 X145.257 Y93.074 E0.01972
G1 X145.793 Y93.074 E0.01690
G1 X145.351 Y92.632 E0.01972
G1 X145.887 Y92.632 E0.01690
G1 X146.329 Y93.074 E0.01972
G1 X146.866 Y93.074 E0.01690
G1 X146.423 Y92.632 E0.01972
G1 X146.959 Y92.632 E0.01690
G1 X147.402 Y93.074 E0.01972
G1 X147.938 Y93.074 E0.01690
G1 X147.495 Y92.632 E0.01972
G1 X148.032 Y92.632 E0.01690
G1 X148.474 Y93.074 E0.01972
G1 X149.010 Y93.074 E0.01690
G1 X148.568 Y92.632 E0.01972
G1 X149.104 Y92.632 E0.01690
G1 X149.546 Y93.074 E0.01972
G1 X150.082 Y93.074 E0.01690
G1 X149.640 Y92.632 E0.01972
G1 X150.176 Y92.632 E0.01690
G1 X150.618 Y93.074 E0.01972
G1 X151.155 Y93.074 E0.01690
G1 X150.712 Y92.632 E0.01972
G1 X151.248 Y92.632 E0.01690
G1 X151.845 Y93.229 E0.02661
G1 F8640
G1 X151.248 Y92.632 E-0.19491
G1 X150.712 Y92.632 E-0.12379
G1 X151.155 Y93.074 E-0.14446
G1 X150.618 Y93.074 E-0.12379
G1 X150.176 Y92.632 E-0.14446
G1 X150.052 Y92.632 E-0.02859
G1 E-0.04000 F2100.00000
G1 Z0.800 F10800.000
G1 X114.569 Y120.272
G1 Z0.200
G1 E0.80000 F2100.00000
G1 F1200
G1 X113.561 Y120.272 E0.03160
G1 X113.561 Y104.849 E0.48359
G1 X164.458 Y104.849 E1.59585
G1 X164.458 Y105.857 E0.03160
G1 X151.366 Y105.857 E0.41049
G1 X151.367 Y107.964 E0.06606
G1 X151.226 Y107.964 E0.00442
G1 X151.225 Y105.857 E0.06606
G1 X114.569 Y105.857 E1.14934
G1 X114.569 Y120.212 E0.45011
G1 X114.946 Y120.650 F10800.000
G1 F1200
G1 X113.184 Y120.650 E0.05525
G1 X113.184 Y104.472 E0.50724
G1 X164.835 Y104.472 E1.61950
G1 X164.835 Y106.234 E0.05525
G1 X151.743 Y106.234 E0.41049
G1 X151.744 Y108.341 E0.06606
G1 X150.849 Y108.341 E0.02807
G1 X150.848 Y106.234 E0.06607
G1 X114.946 Y106.234 E1.12569
G1 X114.946 Y120.590 E0.45011
G1 X114.704 Y120.331 F10800.000
G1 F8640
G1 X113.184 Y120.650 E-0.40712
G1 X113.184 Y119.121 E-0.35288
G1 E-0.04000 F2100.00000
G1 Z0.800 F10800.000
G1 X113.674 Y119.393
G1 Z0.200
G1 E0.80000 F2100.00000
G1 F1200
G1 X114.286 Y119.990 E0.02695
G1 X114.286 Y119.469 E0.01642
G1 X113.844 Y119.026 E0.01972
G1 X113.844 Y118.490 E0.01690
G1 X114.286 Y118.933 E0.01972
G1 X114.286 Y118.397 E0.01690
G1 X113.844 Y117.954 E0.01972
G1 X113.844 Y117.418 E0.01690
G1 X114.286 Y117.860 E0.01972
G1 X114.286 Y117.324 E0.01690
G1 X113.844 Y116.882 E0.01972
G1 X113.844 Y116.346 E0.01690
G1 X114.286 Y116.788 E0.01972
G1 X114.286 Y116.252 E0.01690
G1 X113.844 Y115.810 E0.01972
G1 X113.844 Y115.274 E0.01690
G1 X114.286 Y115.716 E0.01972
G1 X114.286 Y115.180 E0.01690
G1 X113.844 Y114.737 E0.01972
G1 X113.844 Y114.201 E0.01690
G1 X114.286 Y114.644 E0.01972
G1 X114.286 Y114.108 E0.01690
G1 X113.844 Y113.665 E0.01972
G1 X113.844 Y113.129 E0.01690
G1 X114.286 Y113.571 E0.01972
G1 X114.286 Y113.035 E0.01690
G1 X113.844 Y112.593 E0.01972
G1 X113.844 Y112.057 E0.01690
G1 X114.286 Y112.499 E0.01972
G1 X114.286 Y111.963 E0.01690
G1 X113.844 Y111.521 E0.01972
G1 X113.844 Y110.985 E0.01690
G1 X114.286 Y111.427 E0.01972
G1 X114.286 Y110.891 E0.01690
G1 X113.844 Y110.448 E0.01972
G1 X113.844 Y109.912 E0.01690
G1 X114.286 Y110.355 E0.01972
G1 X114.286 Y109.819 E0.01690
G1 X113.844 Y109.376 E0.01972
G1 X113.844 Y108.840 E0.01690
G1 X114.286 Y109.282 E0.01972
G1 X114.286 Y108.746 E0.01690
G1 X113.844 Y108.304 E0.01972
M73 P3 R31
G1 X113.844 Y107.768 E0.01690
G1 X114.286 Y108.210 E0.01972
G1 X114.286 Y107.674 E0.01690
G1 X113.844 Y107.232 E0.01972
G1 X113.844 Y106.695 E0.01690
G1 X114.286 Y107.138 E0.01972
G1 X114.286 Y106.602 E0.01690
G1 X113.844 Y106.159 E0.01972
G1 X113.844 Y105.623 E0.01690
G1 X114.286 Y106.066 E0.01972
G1 X114.286 Y105.574 E0.01549
G1 X114.331 Y105.574 E0.00141
G1 X113.888 Y105.132 E0.01972
G1 X114.424 Y105.132 E0.01690
G1 X114.867 Y105.574 E0.01972
G1 X115.403 Y105.574 E0.01690
G1 X114.961 Y105.132 E0.01972
G1 X115.497 Y105.132 E0.01690
G1 X115.939 Y105.574 E0.01972
G1 X116.475 Y105.574 E0.01690
G1 X116.033 Y105.132 E0.01972
G1 X116.569 Y105.132 E0.01690
G1 X117.011 Y105.574 E0.01972
G1 X117.547 Y105.574 E0.01690
G1 X117.105 Y105.132 E0.01972
G1 X117.641 Y105.132 E0.01690
G1 X118.084 Y105.574 E0.01972
G1 X118.620 Y105.574 E0.01690
G1 X118.177 Y105.132 E0.01972
G1 X118.713 Y105.132 E0.01690
G1 X119.156 Y105.574 E0.01972
G1 X119.692 Y105.574 E0.01690
G1 X119.250 Y105.132 E0.01972
G1 X119.786 Y105.132 E0.01690
G1 X120.228 Y105.574 E0.01972
G1 X120.764 Y105.574 E0.01690
G1 X120.322 Y105.132 E0.01972
G1 X120.858 Y105.132 E0.01690
G1 X121.300 Y105.574 E0.01972
G1 X121.836 Y105.574 E0.01690
G1 X121.394 Y105.132 E0.01972
G1 X121.930 Y105.132 E0.01690
G1 X122.373 Y105.574 E0.01972
G1 X122.909 Y105.574 E0.01690
G1 X122.466 Y105.132 E0.01972
G1 X123.002 Y105.132 E0.01690
G1 X123.445 Y105.574 E0.01972
G1 X123.981 Y105.574 E0.01690
G1 X123.539 Y105.132 E0.01972
G1 X124.075 Y105.132 E0.01690
G1 X124.517 Y105.574 E0.01972
G1 X125.053 Y105.574 E0.01690
G1 X124.611 Y105.132 E0.01972
G1 X125.147 Y105.132 E0.01690
G1 X125.589 Y105.574 E0.01972
G1 X126.126 Y105.574 E0.01690
G1 X125.683 Y105.132 E0.01972
G1 X126.219 Y105.132 E0.01690
G1 X126.662 Y105.574 E0.01972
G1 X127.198 Y105.574 E0.01690
G1 X126.755 Y105.132 E0.01972
G1 X127.292 Y105.132 E0.01690
G1 X127.734 Y105.574 E0.01972
G1 X128.270 Y105.574 E0.01690
G1 X127.828 Y105.132 E0.01972
G1 X128.364 Y105.132 E0.01690
G1 X128.806 Y105.574 E0.01972
G1 X129.342 Y105.574 E0.01690
G1 X128.900 Y105.132 E0.01972
G1 X129.436 Y105.132 E0.01690
G1 X129.878 Y105.574 E0.01972
G1 X130.415 Y105.574 E0.01690
G1 X129.972 Y105.132 E0.01972
G1 X130.508 Y105.132 E0.01690
G1 X130.951 Y105.574 E0.01972
G1 X131.487 Y105.574 E0.01690
G1 X131.044 Y105.132 E0.01972
G1 X131.581 Y105.132 E0.01690
G1 X132.023 Y105.574 E0.01972
G1 X132.559 Y105.574 E0.01690
G1 X132.117 Y105.132 E0.01972
G1 X132.653 Y105.132 E0.01690
G1 X133.095 Y105.574 E0.01972
G1 X133.631 Y105.574 E0.01690
G1 X133.189 Y105.132 E0.01972
G1 X133.725 Y105.132 E0.01690
G1 X134.167 Y105.574 E0.01972
G1 X134.704 Y105.574 E0.01690
G1 X134.261 Y105.132 E0.01972
G1 X134.797 Y105.132 E0.01690
G1 X135.240 Y105.574 E0.01972
G1 X135.776 Y105.574 E0.01690
G1 X135.333 Y105.132 E0.01972
G1 X135.870 Y105.132 E0.01690
G1 X136.312 Y105.574 E0.01972
G1 X136.848 Y105.574 E0.01690
G1 X136.406 Y105.132 E0.01972
G1 X136.942 Y105.132 E0.01690
G1 X137.384 Y105.574 E0.01972
G1 X137.920 Y105.574 E0.01690
G1 X137.478 Y105.132 E0.01972
G1 X138.014 Y105.132 E0.01690
G1 X138.457 Y105.574 E0.01972
G1 X138.993 Y105.574 E0.01690
