; generated by PrusaSlicer 2.1.1+win64 on 2020-05-14 at 17:42:48 UTC

; 

; external perimeters extrusion width = 0.45mm
; perimeters extrusion width = 0.45mm
; infill extrusion width = 0.45mm
; solid infill extrusion width = 0.45mm
; top infill extrusion width = 0.40mm
; first layer extrusion width = 0.42mm

M73 P0 R112
M201 X9000 Y9000 Z500 E10000 ; sets maximum accelerations, mm/sec^2
M203 X500 Y500 Z12 E120 ; sets maximum feedrates, mm/sec
M204 P2000 R1500 T2000 ; sets acceleration (P, T) and retract acceleration (R), mm/sec^2
M205 X10.00 Y10.00 Z0.20 E4.50 ; sets the jerk limits, mm/sec
M205 S0 T0 ; sets the minimum extruding and travel feed rate, mm/sec
M107
M862.3 P "MK2.5SMMU2S" ; printer model check
M862.1 P0.4 ; nozzle diameter check
M115 U3.8.1 ; tell printer latest fw version
G90 ; use absolute coordinates
M83 ; extruder relative mode
M104 S215 ; set extruder temp
M140 S60 ; set bed temp
Tx
M190 S60 ; wait for bed temp
M109 S215 ; wait for extruder temp
G28 W ; home all without mesh bed level
G80 ; mesh bed leveling

;go outside print area
G1 Y-3.0 F1000.0
G1 Z0.4 F1000.0
; select extruder
Tc
; purge line
G1 X55.0 F2000.0
G1 Z0.3 F1000.0
G92 E0.0
G1 X240.0 E25.0 F2200.0
M73 P0 R112
G1 Y-2.0 F1000.0
G1 X55.0 E25 F1400.0
G1 Z0.20 F1000.0
G1 X5.0 E4.0 F1000.0
G92 E0.0
G21 ; set units to millimeters
G90 ; use absolute coordinates
M83 ; use relative distances for extrusion
M900 K30 ; Filament gcode
;BEFORE_LAYER_CHANGE
G92 E0.0
;0.2


G1 E-0.80000 F2100.00000
G1 Z0.600 F10800.000
;AFTER_LAYER_CHANGE
;0.2
G1 X105.721 Y39.806
G1 Z0.200
G1 E0.80000 F2100.00000
M204 S1000
G1 F1200
G1 X106.051 Y39.291 E0.01919
G1 X106.508 Y38.890 E0.01908
G1 X107.058 Y38.629 E0.01908
G1 X107.659 Y38.530 E0.01908
G1 X158.540 Y38.530 E1.59535
G1 X159.329 Y38.678 E0.02518
G1 X160.009 Y39.099 E0.02507
G1 X160.492 Y39.736 E0.02507
G1 X160.715 Y40.508 E0.02518
G1 X164.629 Y98.520 E1.82306
G1 X164.597 Y99.055 E0.01680
G1 X164.434 Y99.569 E0.01692
G1 X127.582 Y164.563 E2.34263
G1 X127.265 Y164.991 E0.01669
G1 X126.521 Y165.504 E0.02833
G1 X119.510 Y168.306 E0.23674
G1 X119.001 Y168.437 E0.01646
G1 X99.688 Y168.976 E0.60579
G1 X99.201 Y168.930 E0.01532
G1 X98.737 Y168.777 E0.01532
G1 X98.321 Y168.527 E0.01521
G1 X97.969 Y168.189 E0.01532
G1 X97.701 Y167.784 E0.01521
G1 X97.530 Y167.330 E0.01521
G1 X91.904 Y142.533 E0.79726
G1 X91.855 Y141.937 E0.01873
G1 X105.542 Y40.422 E3.21174
G1 X105.704 Y39.864 E0.01821
G1 F8640
G1 X106.051 Y39.291 E-0.15465
G1 X106.508 Y38.890 E-0.14048
G1 X107.058 Y38.629 E-0.14048
G1 X107.659 Y38.530 E-0.14048
G1 X108.455 Y38.530 E-0.18392
G1 E-0.04000 F2100.00000
G1 Z0.800 F10800.000
G1 X110.570 Y165.902
G1 Z0.200
G1 E0.80000 F2100.00000
G1 F1200
G1 X100.395 Y166.180 E0.31913
G1 X106.175 Y141.469 E0.79572
G1 X95.048 Y141.469 E0.34887
G1 X129.391 Y80.915 E2.18270
G1 X119.954 Y123.611 E1.37100
G1 X131.885 Y123.611 E0.37410
G1 X118.283 Y165.692 E1.38663
G1 X110.630 Y165.901 E0.24007
G1 X110.580 Y166.279 F10800.000
G1 F1200
G1 X99.917 Y166.570 E0.33447
G1 X105.699 Y141.846 E0.79614
G1 X94.401 Y141.846 E0.35426
G1 X130.300 Y78.547 E2.28166
G1 X120.423 Y123.234 E1.43494
G1 X132.403 Y123.234 E0.37562
G1 X118.560 Y166.061 E1.41123
G1 X110.640 Y166.278 E0.24843
G1 X110.264 Y166.033 F10800.000
G1 F8640
G1 X107.350 Y166.367 E-0.76000
G1 E-0.04000 F2100.00000
G1 Z0.800 F10800.000
G1 X101.276 Y166.043
G1 Z0.200
G1 E0.80000 F2100.00000
G1 F1200
G1 X100.823 Y165.590 E0.02008
G1 X100.925 Y165.158 E0.01395
G1 X101.630 Y165.863 E0.03132
G1 X102.150 Y165.849 E0.01632
G1 X101.026 Y164.725 E0.04990
G1 X101.127 Y164.292 E0.01395
G1 X102.670 Y165.835 E0.06848
G1 X103.189 Y165.821 E0.01632
G1 X101.228 Y163.860 E0.08705
G1 X101.329 Y163.427 E0.01395
G1 X103.709 Y165.807 E0.10563
G1 X104.229 Y165.792 E0.01632
G1 X101.431 Y162.994 E0.12421
G1 X101.532 Y162.562 E0.01395
G1 X104.748 Y165.778 E0.14278
G1 X105.268 Y165.764 E0.01632
G1 X101.633 Y162.129 E0.16136
G1 X101.734 Y161.696 E0.01395
G1 X105.788 Y165.750 E0.17994
G1 X106.307 Y165.736 E0.01632
G1 X101.835 Y161.264 E0.19851
G1 X101.937 Y160.831 E0.01395
G1 X106.827 Y165.722 E0.21709
G1 X107.347 Y165.707 E0.01632
G1 X102.038 Y160.398 E0.23567
G1 X102.139 Y159.966 E0.01395
G1 X107.866 Y165.693 E0.25424
G1 X108.386 Y165.679 E0.01632
G1 X102.240 Y159.533 E0.27282
G1 X102.341 Y159.100 E0.01395
G1 X108.906 Y165.665 E0.29140
G1 X109.425 Y165.651 E0.01632
G1 X102.443 Y158.668 E0.30997
G1 X102.544 Y158.235 E0.01395
G1 X109.945 Y165.636 E0.32855
G1 X110.465 Y165.622 E0.01632
G1 X102.645 Y157.802 E0.34713
G1 X102.746 Y157.370 E0.01395
G1 X110.984 Y165.608 E0.36570
M73 P1 R111
G1 X111.504 Y165.594 E0.01632
G1 X102.847 Y156.937 E0.38428
G1 X102.949 Y156.504 E0.01395
G1 X112.024 Y165.580 E0.40286
G1 X112.543 Y165.565 E0.01632
G1 X103.050 Y156.072 E0.42143
G1 X103.151 Y155.639 E0.01395
G1 X113.063 Y165.551 E0.44001
G1 X113.583 Y165.537 E0.01632
G1 X103.252 Y155.206 E0.45859
G1 X103.353 Y154.774 E0.01395
G1 X114.102 Y165.523 E0.47716
G1 X114.622 Y165.509 E0.01632
G1 X103.455 Y154.341 E0.49574
G1 X103.556 Y153.908 E0.01395
G1 X115.142 Y165.494 E0.51432
G1 X115.661 Y165.480 E0.01632
G1 X103.657 Y153.476 E0.53289
G1 X103.758 Y153.043 E0.01395
G1 X116.181 Y165.466 E0.55147
G1 X116.701 Y165.452 E0.01632
G1 X103.859 Y152.610 E0.57005
G1 X103.960 Y152.178 E0.01395
G1 X117.221 Y165.438 E0.58862
G1 X117.740 Y165.424 E0.01632
G1 X104.062 Y151.745 E0.60720
G1 X104.163 Y151.312 E0.01395
G1 X118.122 Y165.272 E0.61966
G1 X118.252 Y164.868 E0.01331
G1 X104.264 Y150.880 E0.62096
G1 X104.365 Y150.447 E0.01395
G1 X118.383 Y164.465 E0.62225
G1 X118.513 Y164.061 E0.01331
G1 X104.466 Y150.014 E0.62355
G1 X104.568 Y149.582 E0.01395
G1 X118.644 Y163.658 E0.62485
G1 X118.774 Y163.254 E0.01331
G1 X104.669 Y149.149 E0.62614
G1 X104.770 Y148.716 E0.01395
G1 X118.904 Y162.851 E0.62744
G1 X119.035 Y162.447 E0.01331
G1 X104.871 Y148.284 E0.62874
G1 X104.972 Y147.851 E0.01395
G1 X119.165 Y162.044 E0.63003
G1 X119.296 Y161.640 E0.01331
G1 X105.074 Y147.418 E0.63133
G1 X105.175 Y146.986 E0.01395
G1 X119.426 Y161.237 E0.63263
G1 X119.557 Y160.834 E0.01331
G1 X105.276 Y146.553 E0.63392
G1 X105.377 Y146.120 E0.01395
G1 X119.687 Y160.430 E0.63522
G1 X119.817 Y160.027 E0.01331
G1 X105.478 Y145.688 E0.63652
G1 X105.580 Y145.255 E0.01395
G1 X119.948 Y159.623 E0.63781
G1 X120.078 Y159.220 E0.01331
G1 X105.681 Y144.822 E0.63911
G1 X105.782 Y144.390 E0.01395
G1 X120.209 Y158.816 E0.64041
G1 X120.339 Y158.413 E0.01331
G1 X105.883 Y143.957 E0.64170
G1 X105.984 Y143.524 E0.01395
G1 X120.469 Y158.009 E0.64300
G1 X120.600 Y157.606 E0.01331
G1 X106.086 Y143.092 E0.64430
G1 X106.187 Y142.659 E0.01395
G1 X120.730 Y157.202 E0.64560
G1 X120.861 Y156.799 E0.01331
G1 X106.288 Y142.226 E0.64689
G1 X106.389 Y141.794 E0.01395
G1 X120.991 Y156.396 E0.64819
G1 X121.121 Y155.992 E0.01331
G1 X99.435 Y134.306 E0.96266
G1 X99.629 Y133.965 E0.01229
G1 X121.252 Y155.589 E0.95987
G1 X121.382 Y155.185 E0.01331
G1 X99.822 Y133.625 E0.95709
G1 X100.015 Y133.284 E0.01229
G1 X121.513 Y154.782 E0.95430
G1 X121.643 Y154.378 E0.01331
G1 X100.208 Y132.943 E0.95151
G1 X100.401 Y132.603 E0.01229
G1 X121.773 Y153.975 E0.94872
G1 X121.904 Y153.571 E0.01331
G1 X100.595 Y132.262 E0.94594
G1 X100.788 Y131.921 E0.01229
G1 X122.034 Y153.168 E0.94315
G1 X122.165 Y152.764 E0.01331
G1 X100.981 Y131.581 E0.94036
G1 X101.174 Y131.240 E0.01229
G1 X122.295 Y152.361 E0.93757
G1 X122.426 Y151.958 E0.01331
G1 X101.367 Y130.899 E0.93479
G1 X101.561 Y130.559 E0.01229
G1 X122.556 Y151.554 E0.93200
G1 X122.686 Y151.151 E0.01331
G1 X101.754 Y130.218 E0.92921
G1 X101.947 Y129.877 E0.01229
G1 X122.817 Y150.747 E0.92642
G1 X122.947 Y150.344 E0.01331
G1 X102.140 Y129.537 E0.92364
G1 X102.333 Y129.196 E0.01229
G1 X123.078 Y149.940 E0.92085
G1 X123.208 Y149.537 E0.01331
G1 X102.527 Y128.856 E0.91806
M73 P1 R110
G1 X102.720 Y128.515 E0.01229
G1 X123.338 Y149.133 E0.91527
G1 X123.469 Y148.730 E0.01331
G1 X102.913 Y128.174 E0.91249
G1 X103.106 Y127.834 E0.01229
G1 X123.599 Y148.326 E0.90970
G1 X123.730 Y147.923 E0.01331
G1 X103.299 Y127.493 E0.90691
G1 X103.493 Y127.152 E0.01229
G1 X123.860 Y147.520 E0.90412
G1 X123.990 Y147.116 E0.01331
G1 X103.686 Y126.812 E0.90134
G1 X103.879 Y126.471 E0.01229
G1 X124.121 Y146.713 E0.89855
G1 X124.251 Y146.309 E0.01331
G1 X104.072 Y126.130 E0.89576
G1 X104.265 Y125.790 E0.01229
G1 X124.382 Y145.906 E0.89297
G1 X124.512 Y145.502 E0.01331
G1 X104.459 Y125.449 E0.89019
G1 X104.652 Y125.108 E0.01229
G1 X124.642 Y145.099 E0.88740
G1 X124.773 Y144.695 E0.01331
G1 X104.845 Y124.768 E0.88461
G1 X105.038 Y124.427 E0.01229
G1 X124.903 Y144.292 E0.88182
G1 X125.034 Y143.888 E0.01331
G1 X105.231 Y124.086 E0.87904
G1 X105.425 Y123.746 E0.01229
G1 X125.164 Y143.485 E0.87625
G1 X125.295 Y143.082 E0.01331
G1 X105.618 Y123.405 E0.87346
G1 X105.811 Y123.064 E0.01229
G1 X125.425 Y142.678 E0.87067
G1 X125.555 Y142.275 E0.01331
G1 X106.004 Y122.724 E0.86789
G1 X106.198 Y122.383 E0.01229
G1 X125.686 Y141.871 E0.86510
G1 X125.816 Y141.468 E0.01331
G1 X106.391 Y122.042 E0.86231
G1 X106.584 Y121.702 E0.01229
G1 X125.947 Y141.064 E0.85952
G1 X126.077 Y140.661 E0.01331
G1 X106.777 Y121.361 E0.85674
G1 X106.970 Y121.020 E0.01229
G1 X126.207 Y140.257 E0.85395
G1 X126.338 Y139.854 E0.01331
G1 X107.164 Y120.680 E0.85116
G1 X107.357 Y120.339 E0.01229
G1 X126.468 Y139.450 E0.84837
G1 X126.599 Y139.047 E0.01331
G1 X107.550 Y119.998 E0.84559
G1 X107.743 Y119.658 E0.01229
G1 X126.729 Y138.644 E0.84280
G1 X126.859 Y138.240 E0.01331
G1 X107.936 Y119.317 E0.84001
G1 X108.130 Y118.976 E0.01229
G1 X126.990 Y137.837 E0.83722
G1 X127.120 Y137.433 E0.01331
G1 X108.323 Y118.636 E0.83444
G1 X108.516 Y118.295 E0.01229
G1 X127.251 Y137.030 E0.83165
G1 X127.381 Y136.626 E0.01331
G1 X108.709 Y117.954 E0.82886
G1 X108.902 Y117.614 E0.01229
G1 X127.511 Y136.223 E0.82607
G1 X127.642 Y135.819 E0.01331
G1 X109.096 Y117.273 E0.82329
G1 X109.289 Y116.932 E0.01229
G1 X127.772 Y135.416 E0.82050
G1 X127.903 Y135.012 E0.01331
G1 X109.482 Y116.592 E0.81771
G1 X109.675 Y116.251 E0.01229
G1 X128.033 Y134.609 E0.81492
G1 X128.163 Y134.206 E0.01331
G1 X109.868 Y115.910 E0.81214
G1 X110.062 Y115.570 E0.01229
G1 X128.294 Y133.802 E0.80935
G1 X128.424 Y133.399 E0.01331
G1 X110.255 Y115.229 E0.80656
G1 X110.448 Y114.888 E0.01229
G1 X128.689 Y133.130 E0.80976
G1 F8640
G1 X126.362 Y130.803 E-0.76000
G1 E-0.04000 F2100.00000
G1 Z0.800 F10800.000
G1 X131.028 Y123.724
G1 Z0.200
G1 E0.80000 F2100.00000
G1 F1200
G1 X131.424 Y124.119 E0.01755
G1 X131.293 Y124.523 E0.01331
G1 X130.664 Y123.894 E0.02792
G1 X130.130 Y123.894 E0.01676
G1 X131.163 Y124.926 E0.04583
G1 X131.032 Y125.330 E0.01331
G1 X129.597 Y123.894 E0.06374
G1 X129.063 Y123.894 E0.01676
G1 X130.902 Y125.733 E0.08165
G1 X130.772 Y126.136 E0.01331
G1 X128.529 Y123.894 E0.09956
G1 X127.995 Y123.894 E0.01676
G1 X130.641 Y126.540 E0.11747
G1 X130.511 Y126.943 E0.01331
G1 X127.461 Y123.894 E0.13538
G1 X126.927 Y123.894 E0.01676
G1 X130.380 Y127.347 E0.15329
G1 X130.250 Y127.750 E0.01331
G1 X126.393 Y123.894 E0.17120
G1 X125.859 Y123.894 E0.01676
G1 X130.120 Y128.154 E0.18911
G1 X129.989 Y128.557 E0.01331
G1 X125.326 Y123.894 E0.20702
M73 P2 R109
G1 X124.792 Y123.894 E0.01676
G1 X129.859 Y128.961 E0.22493
G1 X129.728 Y129.364 E0.01331
G1 X124.258 Y123.894 E0.24284
G1 X123.724 Y123.894 E0.01676
G1 X129.598 Y129.768 E0.26075
G1 X129.468 Y130.171 E0.01331
G1 X123.190 Y123.894 E0.27866
G1 X122.656 Y123.894 E0.01676
G1 X129.337 Y130.574 E0.29657
G1 X129.207 Y130.978 E0.01331
G1 X122.122 Y123.894 E0.31448
G1 X121.589 Y123.894 E0.01676
G1 X129.076 Y131.381 E0.33239
G1 X128.946 Y131.785 E0.01331
G1 X121.055 Y123.894 E0.35030
G1 X120.521 Y123.894 E0.01676
G1 X128.816 Y132.188 E0.36821
G1 X128.685 Y132.592 E0.01331
G1 X119.987 Y123.894 E0.38612
G1 X119.602 Y123.894 E0.01209
G1 X119.672 Y123.578 E0.01014
G1 X110.641 Y114.548 E0.40086
G1 X110.834 Y114.207 E0.01229
G1 X119.768 Y123.141 E0.39658
G1 X119.865 Y122.704 E0.01406
G1 X111.028 Y113.866 E0.39229
G1 X111.221 Y113.526 E0.01229
G1 X119.961 Y122.266 E0.38800
G1 X120.058 Y121.829 E0.01406
G1 X111.414 Y113.185 E0.38372
G1 X111.607 Y112.845 E0.01229
G1 X120.155 Y121.392 E0.37943
G1 X120.251 Y120.955 E0.01406
G1 X111.800 Y112.504 E0.37514
G1 X111.994 Y112.163 E0.01229
G1 X120.348 Y120.518 E0.37086
G1 X120.445 Y120.080 E0.01406
G1 X112.187 Y111.823 E0.36657
G1 X112.380 Y111.482 E0.01229
G1 X120.541 Y119.643 E0.36228
G1 X120.638 Y119.206 E0.01406
G1 X112.573 Y111.141 E0.35800
G1 X112.766 Y110.801 E0.01229
G1 X120.735 Y118.769 E0.35371
G1 X120.831 Y118.331 E0.01406
G1 X112.960 Y110.460 E0.34942
G1 X113.153 Y110.119 E0.01229
G1 X120.928 Y117.894 E0.34514
G1 X121.024 Y117.457 E0.01406
G1 X113.346 Y109.779 E0.34085
G1 X113.539 Y109.438 E0.01229
G1 X121.121 Y117.020 E0.33656
G1 X121.218 Y116.583 E0.01406
G1 X113.732 Y109.097 E0.33228
G1 X113.926 Y108.757 E0.01229
G1 X121.314 Y116.145 E0.32799
G1 X121.411 Y115.708 E0.01406
G1 X114.119 Y108.416 E0.32370
G1 X114.312 Y108.075 E0.01229
G1 X121.508 Y115.271 E0.31942
G1 X121.604 Y114.834 E0.01406
G1 X114.505 Y107.735 E0.31513
G1 X114.698 Y107.394 E0.01229
G1 X121.701 Y114.396 E0.31084
G1 X121.798 Y113.959 E0.01406
G1 X114.892 Y107.053 E0.30656
G1 X115.085 Y106.713 E0.01229
G1 X121.894 Y113.522 E0.30227
G1 X121.991 Y113.085 E0.01406
G1 X115.278 Y106.372 E0.29798
G1 X115.471 Y106.031 E0.01229
G1 X122.087 Y112.647 E0.29370
G1 X122.184 Y112.210 E0.01406
G1 X115.664 Y105.691 E0.28941
G1 X115.858 Y105.350 E0.01229
G1 X122.281 Y111.773 E0.28512
G1 X122.377 Y111.336 E0.01406
G1 X116.051 Y105.009 E0.28084
G1 X116.244 Y104.669 E0.01229
G1 X122.474 Y110.899 E0.27655
G1 X122.571 Y110.461 E0.01406
G1 X116.437 Y104.328 E0.27226
G1 X116.630 Y103.987 E0.01229
G1 X122.667 Y110.024 E0.26798
G1 X122.764 Y109.587 E0.01406
G1 X116.824 Y103.647 E0.26369
G1 X117.017 Y103.306 E0.01229
G1 X122.861 Y109.150 E0.25940
G1 X122.957 Y108.712 E0.01406
G1 X117.210 Y102.965 E0.25512
G1 X117.403 Y102.625 E0.01229
G1 X123.054 Y108.275 E0.25083
G1 X123.150 Y107.838 E0.01406
G1 X117.597 Y102.284 E0.24654
G1 X117.790 Y101.943 E0.01229
G1 X123.247 Y107.401 E0.24226
G1 X123.344 Y106.964 E0.01406
G1 X117.983 Y101.603 E0.23797
G1 X118.176 Y101.262 E0.01229
G1 X123.440 Y106.526 E0.23368
G1 X123.537 Y106.089 E0.01406
G1 X118.369 Y100.921 E0.22940
G1 X118.563 Y100.581 E0.01229
G1 X123.634 Y105.652 E0.22511
G1 X123.730 Y105.215 E0.01406
G1 X118.756 Y100.240 E0.22082
G1 X118.949 Y99.899 E0.01229
G1 X123.827 Y104.777 E0.21654
G1 X123.924 Y104.340 E0.01406
G1 X119.142 Y99.559 E0.21225
G1 X119.335 Y99.218 E0.01229
G1 X124.020 Y103.903 E0.20796
G1 X124.117 Y103.466 E0.01406
G1 X119.529 Y98.877 E0.20368
G1 X119.722 Y98.537 E0.01229
G1 X124.213 Y103.029 E0.19939
G1 X124.310 Y102.591 E0.01406
G1 X119.915 Y98.196 E0.19510
G1 X120.108 Y97.855 E0.01229
G1 X124.407 Y102.154 E0.19082
G1 X124.503 Y101.717 E0.01406
G1 X120.301 Y97.515 E0.18653
G1 X120.495 Y97.174 E0.01229
G1 X124.600 Y101.280 E0.18224
G1 X124.697 Y100.842 E0.01406
G1 X120.688 Y96.834 E0.17796
G1 X120.881 Y96.493 E0.01229
G1 X124.793 Y100.405 E0.17367
G1 X124.890 Y99.968 E0.01406
G1 X121.074 Y96.152 E0.16938
G1 X121.267 Y95.812 E0.01229
G1 X124.987 Y99.531 E0.16510
G1 X125.083 Y99.094 E0.01406
G1 X121.461 Y95.471 E0.16081
G1 X121.654 Y95.130 E0.01229
G1 X125.180 Y98.656 E0.15652
G1 X125.276 Y98.219 E0.01406
G1 X121.847 Y94.790 E0.15224
G1 X122.040 Y94.449 E0.01229
G1 X125.373 Y97.782 E0.14795
G1 X125.470 Y97.345 E0.01406
G1 X122.233 Y94.108 E0.14366
G1 X122.427 Y93.768 E0.01229
G1 X125.566 Y96.907 E0.13938
G1 X125.663 Y96.470 E0.01406
G1 X122.620 Y93.427 E0.13509
G1 X122.813 Y93.086 E0.01229
G1 X125.760 Y96.033 E0.13080
G1 X125.856 Y95.596 E0.01406
G1 X123.006 Y92.746 E0.12652
G1 X123.199 Y92.405 E0.01229
G1 X125.953 Y95.158 E0.12223
G1 X126.050 Y94.721 E0.01406
G1 X123.393 Y92.064 E0.11794
G1 X123.586 Y91.724 E0.01229
G1 X126.146 Y94.284 E0.11366
G1 X126.243 Y93.847 E0.01406
G1 X123.779 Y91.383 E0.10937
G1 X123.972 Y91.042 E0.01229
G1 X126.339 Y93.410 E0.10508
G1 X126.436 Y92.972 E0.01406
G1 X124.165 Y90.702 E0.10080
G1 X124.359 Y90.361 E0.01229
G1 X126.533 Y92.535 E0.09651
