; generated by PrusaSlicer 2.1.1+win64 on 2019-12-13 at 18:19:38 UTC

; 

; external perimeters extrusion width = 0.60mm
; perimeters extrusion width = 0.43mm
; infill extrusion width = 0.45mm
; solid infill extrusion width = 0.70mm
; top infill extrusion width = 0.43mm
; first layer extrusion width = 0.42mm

M73 P0 R18
M201 X9000 Y9000 Z500 E10000 ; sets maximum accelerations, mm/sec^2
M203 X500 Y500 Z12 E120 ; sets maximum feedrates, mm/sec
M204 P2000 R1500 T2000 ; sets acceleration (P, T) and retract acceleration (R), mm/sec^2
M205 X10.00 Y10.00 Z0.20 E2.50 ; sets the jerk limits, mm/sec
M205 S0 T0 ; sets the minimum extruding and travel feed rate, mm/sec
M107
M862.3 P "MK2.5SMMU2S" ; printer model check
M862.1 P0.4 ; nozzle diameter check
M115 U3.8.0 ; tell printer latest fw version
G90 ; use absolute coordinates
M83 ; extruder relative mode
M104 S215 ; set extruder temp
M140 S60 ; set bed temp
Tx
M190 S60 ; wait for bed temp
M109 S215 ; wait for extruder temp
G28 W ; home all without mesh bed level
G80 ; mesh bed leveling

G21 ; set units to millimeters

;go outside print area
G1 Y-3.0 F1000.0
G1 Z0.4 F1000.0
; select extruder
Tc
; purge line
G1 X55.0 F2000.0
G1 Z0.3 F1000.0
G92 E0.0
G1 X240.0 E25.0 F2200.0
M73 P0 R18
G1 Y-2.0 F1000.0
G1 X55.0 E25 F1400.0
G1 Z0.20 F1000.0
G1 X5.0 E4.0 F1000.0
G92 E0.0
G21 ; set units to millimeters
G90 ; use absolute coordinates
M83 ; use relative distances for extrusion
M900 K30 ; Filament gcode
;BEFORE_LAYER_CHANGE
G92 E0.0
;0.2


G1 E-0.80000 F2100.00000
G1 Z0.600 F10800.000
;AFTER_LAYER_CHANGE
;0.2
G1 X110.534 Y101.882
G1 Z0.200
G1 E0.80000 F2100.00000
M204 S1000
G1 F1200
G1 X111.083 Y101.518 E0.02066
G1 X111.622 Y101.324 E0.01795
G1 X112.190 Y101.254 E0.01795
G1 X137.788 Y101.254 E0.80259
G1 X138.723 Y101.432 E0.02985
G1 X139.529 Y101.939 E0.02985
G1 X140.095 Y102.705 E0.02985
G1 X140.342 Y103.625 E0.02985
G1 X140.333 Y114.114 E0.32890
G1 X140.182 Y114.736 E0.02005
G1 X139.881 Y115.300 E0.02005
G1 X139.451 Y115.773 E0.02005
G1 X138.917 Y116.124 E0.02005
G1 X138.378 Y116.318 E0.01795
G1 X137.810 Y116.388 E0.01795
G1 X112.113 Y116.386 E0.80570
G1 X111.437 Y116.267 E0.02152
G1 X110.817 Y115.973 E0.02152
G1 X110.296 Y115.525 E0.02152
G1 X109.914 Y114.955 E0.02152
G1 X109.724 Y114.431 E0.01746
G1 X109.651 Y113.879 E0.01746
G1 X109.660 Y103.599 E0.32234
G1 X109.801 Y102.955 E0.02066
G1 X110.098 Y102.371 E0.02054
G1 X110.494 Y101.927 E0.01866
G1 X110.774 Y102.179 F10800.000
G1 F1200
G1 X111.273 Y101.845 E0.01884
G1 X111.724 Y101.687 E0.01498
G1 X112.199 Y101.631 E0.01498
G1 X137.788 Y101.631 E0.80232
G1 X138.591 Y101.785 E0.02563
G1 X139.281 Y102.223 E0.02563
G1 X139.762 Y102.884 E0.02563
G1 X139.968 Y103.675 E0.02563
G1 X139.961 Y114.045 E0.32513
G1 X139.834 Y114.588 E0.01749
G1 X139.574 Y115.081 E0.01749
G1 X139.195 Y115.495 E0.01760
G1 X138.727 Y115.797 E0.01749
G1 X138.276 Y115.955 E0.01498
G1 X137.801 Y116.011 E0.01498
G1 X112.135 Y116.009 E0.80472
G1 X111.550 Y115.907 E0.01862
G1 X111.014 Y115.651 E0.01862
G1 X110.567 Y115.261 E0.01862
G1 X110.241 Y114.765 E0.01862
G1 X110.028 Y113.861 E0.02911
G1 X110.034 Y103.645 E0.32032
G1 X110.153 Y103.089 E0.01783
G1 X110.413 Y102.579 E0.01794
G1 X110.734 Y102.223 E0.01501
G1 E-0.80000 F2100.00000
G1 Z0.800 F10800.000
G1 X115.807 Y106.864
G1 Z0.200
G1 E0.80000 F2100.00000
G1 F1200
G1 X116.238 Y106.511 E0.01746
G1 X116.729 Y106.249 E0.01746
G1 X117.262 Y106.087 E0.01745
G1 X117.810 Y106.032 E0.01729
G1 X118.370 Y106.087 E0.01762
G1 X118.903 Y106.249 E0.01747
G1 X119.394 Y106.511 E0.01746
G1 X119.824 Y106.864 E0.01746
G1 X120.178 Y107.295 E0.01746
G1 X120.440 Y107.786 E0.01746
G1 X120.602 Y108.319 E0.01746
G1 X120.656 Y108.873 E0.01746
G1 X120.602 Y109.427 E0.01746
G1 X120.440 Y109.960 E0.01746
G1 X120.178 Y110.451 E0.01746
G1 X119.824 Y110.881 E0.01746
G1 X119.394 Y111.234 E0.01746
G1 X118.903 Y111.497 E0.01746
G1 X118.370 Y111.659 E0.01747
G1 X117.816 Y111.713 E0.01745
G1 X117.262 Y111.659 E0.01746
G1 X116.729 Y111.497 E0.01746
G1 X116.238 Y111.234 E0.01746
G1 X115.807 Y110.881 E0.01746
G1 X115.454 Y110.451 E0.01746
G1 X115.192 Y109.960 E0.01746
G1 X115.030 Y109.427 E0.01746
G1 X114.975 Y108.873 E0.01746
G1 X115.030 Y108.319 E0.01746
G1 X115.192 Y107.786 E0.01746
G1 X115.454 Y107.295 E0.01746
G1 X115.769 Y106.911 E0.01558
G1 X116.061 Y107.150 F10800.000
G1 F1200
G1 X116.448 Y106.826 E0.01583
G1 X116.874 Y106.599 E0.01513
G1 X117.336 Y106.459 E0.01513
G1 X117.811 Y106.411 E0.01497
G1 X118.296 Y106.458 E0.01528
G1 X118.758 Y106.599 E0.01513
G1 X119.183 Y106.826 E0.01513
G1 X119.556 Y107.132 E0.01513
G1 X119.863 Y107.505 E0.01513
G1 X120.090 Y107.931 E0.01513
G1 X120.230 Y108.393 E0.01513
G1 X120.277 Y108.873 E0.01513
G1 X120.230 Y109.353 E0.01513
G1 X120.090 Y109.815 E0.01513
G1 X119.863 Y110.240 E0.01513
G1 X119.556 Y110.613 E0.01513
G1 X119.183 Y110.919 E0.01513
G1 X118.758 Y111.147 E0.01513
G1 X118.296 Y111.287 E0.01514
G1 X117.816 Y111.334 E0.01512
G1 X117.336 Y111.287 E0.01513
G1 X116.874 Y111.147 E0.01513
G1 X116.448 Y110.919 E0.01513
G1 X116.075 Y110.613 E0.01513
G1 X115.769 Y110.240 E0.01513
G1 X115.542 Y109.815 E0.01513
G1 X115.402 Y109.353 E0.01513
G1 X115.354 Y108.873 E0.01513
G1 X115.402 Y108.393 E0.01513
G1 X115.542 Y107.931 E0.01513
G1 X115.769 Y107.505 E0.01513
G1 X116.023 Y107.196 E0.01253
G1 X115.955 Y106.764 F10800.000
G1 E-0.80000 F2100.00000
G1 Z0.800 F10800.000
G1 X112.803 Y104.407
G1 Z0.200
G1 E0.80000 F2100.00000
G1 F1200
G1 X137.197 Y104.407 E0.76486
G1 X137.197 Y113.235 E0.27680
G1 X112.803 Y113.235 E0.76486
G1 X112.803 Y104.467 E0.27492
G1 X112.426 Y104.030 F10800.000
G1 F1200
G1 X137.574 Y104.030 E0.78851
G1 X137.574 Y113.612 E0.30044
G1 X112.426 Y113.612 E0.78851
G1 X112.426 Y104.090 E0.29856
G1 X112.823 Y104.078 F10800.000
G1 E-0.80000 F2100.00000
G1 Z0.800 F10800.000
G1 X112.916 Y112.352
G1 Z0.200
G1 E0.80000 F2100.00000
G1 F1200
G1 X113.516 Y112.952 E0.02687
G1 X114.055 Y112.952 E0.01705
G1 X113.086 Y111.983 E0.04338
G1 X113.086 Y111.445 E0.01705
G1 X114.593 Y112.952 E0.06749
G1 X115.132 Y112.952 E0.01705
G1 X113.086 Y110.906 E0.09160
G1 X113.086 Y110.368 E0.01705
G1 X115.670 Y112.952 E0.11571
G1 X116.209 Y112.952 E0.01705
G1 X113.086 Y109.829 E0.13981
G1 X113.086 Y109.291 E0.01705
G1 X116.917 Y113.122 E0.17152
G1 E-0.80000 F2100.00000
G1 Z0.800 F10800.000
G1 X126.070 Y113.122
G1 Z0.200
G1 E0.80000 F2100.00000
G1 F1200
G1 X120.736 Y107.788 E0.23881
G1 X120.880 Y108.263 E0.01572
G1 X120.903 Y108.493 E0.00732
G1 X125.362 Y112.952 E0.19964
G1 X124.824 Y112.952 E0.01705
G1 X120.923 Y109.051 E0.17465
G1 X120.865 Y109.532 E0.01533
G1 X124.285 Y112.952 E0.15312
G1 X123.747 Y112.952 E0.01705
G1 X120.740 Y109.945 E0.13462
G1 X120.703 Y110.068 E0.00407
G1 X120.571 Y110.315 E0.00885
G1 X123.208 Y112.952 E0.11808
G1 X122.670 Y112.952 E0.01705
G1 X120.374 Y110.657 E0.10277
G1 X120.132 Y110.953 E0.01211
G1 X122.131 Y112.952 E0.08953
G1 X121.593 Y112.952 E0.01705
G1 X119.859 Y111.218 E0.07763
G1 X119.563 Y111.461 E0.01211
G1 X121.055 Y112.952 E0.06676
G1 X120.516 Y112.952 E0.01705
G1 X119.215 Y111.651 E0.05827
G1 X119.012 Y111.759 E0.00729
G1 X118.838 Y111.812 E0.00576
G1 X119.978 Y112.952 E0.05104
G1 X119.439 Y112.952 E0.01705
G1 X118.424 Y111.937 E0.04544
G1 X117.934 Y111.986 E0.01559
G1 X118.901 Y112.952 E0.04328
G1 X118.362 Y112.952 E0.01705
G1 X117.363 Y111.953 E0.04475
G1 X117.206 Y111.937 E0.00498
G1 X116.636 Y111.764 E0.01887
G1 X117.824 Y112.952 E0.05319
G1 X117.285 Y112.952 E0.01705
G1 X113.086 Y108.753 E0.18803
G1 X113.086 Y108.214 E0.01705
G1 X114.924 Y110.053 E0.08232
G1 X114.751 Y109.482 E0.01887
G1 X114.736 Y109.326 E0.00498
G1 X113.086 Y107.676 E0.07388
G1 X113.086 Y107.137 E0.01705
G1 X114.703 Y108.754 E0.07240
G1 X114.751 Y108.264 E0.01559
G1 X113.086 Y106.599 E0.07457
G1 X113.086 Y106.060 E0.01705
G1 X114.876 Y107.851 E0.08017
G1 X114.929 Y107.677 E0.00576
G1 X115.038 Y107.474 E0.00729
G1 X113.086 Y105.522 E0.08739
G1 X113.086 Y104.983 E0.01705
G1 X115.227 Y107.125 E0.09589
G1 X115.470 Y106.829 E0.01211
G1 X113.330 Y104.690 E0.09580
G1 X113.869 Y104.690 E0.01705
G1 X115.736 Y106.557 E0.08360
G1 X116.032 Y106.314 E0.01211
G1 X114.407 Y104.690 E0.07273
G1 X114.946 Y104.690 E0.01705
G1 X116.374 Y106.118 E0.06393
G1 X116.620 Y105.986 E0.00885
G1 X116.743 Y105.949 E0.00407
G1 X115.484 Y104.690 E0.05636
G1 X116.023 Y104.690 E0.01705
G1 X117.156 Y105.823 E0.05075
G1 X117.637 Y105.766 E0.01533
G1 X116.561 Y104.690 E0.04816
G1 X117.100 Y104.690 E0.01705
G1 X118.196 Y105.786 E0.04907
G1 X118.425 Y105.808 E0.00729
G1 X118.901 Y105.952 E0.01574
G1 X117.638 Y104.690 E0.05653
G1 X118.176 Y104.690 E0.01705
G1 X126.439 Y112.952 E0.36993
G1 X126.977 Y112.952 E0.01705
G1 X118.715 Y104.690 E0.36993
G1 X119.253 Y104.690 E0.01705
G1 X127.516 Y112.952 E0.36993
G1 X128.054 Y112.952 E0.01705
G1 X119.792 Y104.690 E0.36993
G1 X120.330 Y104.690 E0.01705
G1 X128.593 Y112.952 E0.36993
G1 X129.131 Y112.952 E0.01705
G1 X120.869 Y104.690 E0.36993
G1 X121.407 Y104.690 E0.01705
G1 X129.670 Y112.952 E0.36993
G1 X130.208 Y112.952 E0.01705
G1 X121.946 Y104.690 E0.36993
G1 X122.484 Y104.690 E0.01705
G1 X130.747 Y112.952 E0.36993
G1 X131.285 Y112.952 E0.01705
G1 X123.022 Y104.690 E0.36993
G1 X123.561 Y104.690 E0.01705
G1 X131.823 Y112.952 E0.36993
G1 X132.362 Y112.952 E0.01705
G1 X124.099 Y104.690 E0.36993
G1 X124.638 Y104.690 E0.01705
G1 X132.900 Y112.952 E0.36993
G1 X133.439 Y112.952 E0.01705
G1 X125.176 Y104.690 E0.36993
G1 X125.715 Y104.690 E0.01705
G1 X133.977 Y112.952 E0.36993
G1 X134.516 Y112.952 E0.01705
G1 X126.253 Y104.690 E0.36993
G1 X126.792 Y104.690 E0.01705
G1 X135.054 Y112.952 E0.36993
G1 X135.593 Y112.952 E0.01705
G1 X127.330 Y104.690 E0.36993
G1 X127.868 Y104.690 E0.01705
G1 X136.131 Y112.952 E0.36993
G1 X136.669 Y112.952 E0.01705
G1 X128.407 Y104.690 E0.36993
G1 X128.945 Y104.690 E0.01705
G1 X136.914 Y112.659 E0.35678
G1 X136.914 Y112.120 E0.01705
G1 X129.484 Y104.690 E0.33267
G1 X130.022 Y104.690 E0.01705
G1 X136.914 Y111.582 E0.30857
G1 X136.914 Y111.043 E0.01705
G1 X130.561 Y104.690 E0.28446
G1 X131.099 Y104.690 E0.01705
G1 X136.914 Y110.505 E0.26035
G1 X136.914 Y109.966 E0.01705
G1 X131.638 Y104.690 E0.23625
G1 X132.176 Y104.690 E0.01705
G1 X136.914 Y109.428 E0.21214
G1 X136.914 Y108.890 E0.01705
G1 X132.714 Y104.690 E0.18803
G1 X133.253 Y104.690 E0.01705
G1 X136.914 Y108.351 E0.16392
G1 X136.914 Y107.813 E0.01705
G1 X133.791 Y104.690 E0.13982
G1 X134.330 Y104.690 E0.01705
G1 X136.914 Y107.274 E0.11571
G1 X136.914 Y106.736 E0.01705
G1 X134.868 Y104.690 E0.09160
G1 X135.407 Y104.690 E0.01705
G1 X136.914 Y106.197 E0.06750
G1 X136.914 Y105.659 E0.01705
G1 X135.945 Y104.690 E0.04339
G1 X136.484 Y104.690 E0.01705
G1 X137.084 Y105.290 E0.02688
M106 S255
;BEFORE_LAYER_CHANGE
G92 E0.0
;0.55


G1 E-0.80000 F2100.00000
G1 Z0.800 F10800.000
;AFTER_LAYER_CHANGE
;0.55
M104 S210 ; set temperature
G1 X140.095 Y102.705
G1 Z0.550
G1 E0.80000 F2100.00000
G1 F1636
G1 X140.342 Y103.625 E0.04778
G1 X140.333 Y114.114 E0.52644
G1 X140.182 Y114.736 E0.03209
G1 X139.881 Y115.300 E0.03209
G1 X139.451 Y115.773 E0.03209
G1 X138.917 Y116.124 E0.03209
G1 X138.378 Y116.318 E0.02874
G1 X137.810 Y116.388 E0.02874
G1 X112.113 Y116.386 E1.28960
G1 X111.437 Y116.267 E0.03445
G1 X110.817 Y115.973 E0.03445
G1 X110.296 Y115.525 E0.03445
G1 X109.914 Y114.955 E0.03445
G1 X109.724 Y114.431 E0.02795
G1 X109.651 Y113.879 E0.02795
G1 X109.660 Y103.599 E0.51594
G1 X109.801 Y102.955 E0.03307
G1 X110.098 Y102.371 E0.03288
G1 X110.534 Y101.882 E0.03288
G1 X111.083 Y101.518 E0.03307
G1 X111.622 Y101.324 E0.02874
G1 X112.190 Y101.254 E0.02874
G1 X137.788 Y101.254 E1.28464
G1 X138.723 Y101.432 E0.04778
G1 X139.529 Y101.939 E0.04778
G1 X140.059 Y102.657 E0.04477
G1 E-0.80000 F2100.00000
G1 Z1.150 F10800.000
G1 X120.752 Y108.289
G1 Z0.550
G1 E0.80000 F2100.00000
M204 S800
G1 F1500
G1 X120.810 Y108.873 E0.03031
G1 X120.752 Y109.457 E0.03031
G1 X120.582 Y110.018 E0.03031
G1 X120.305 Y110.536 E0.03031
G1 X119.933 Y110.990 E0.03031
G1 X119.479 Y111.362 E0.03031
G1 X118.962 Y111.639 E0.03031
G1 X118.400 Y111.809 E0.03031
G1 X117.816 Y111.867 E0.03031
G1 X117.232 Y111.809 E0.03031
G1 X116.670 Y111.639 E0.03031
G1 X116.153 Y111.362 E0.03031
G1 X115.699 Y110.990 E0.03031
G1 X115.326 Y110.536 E0.03031
G1 X115.050 Y110.018 E0.03031
G1 X114.879 Y109.457 E0.03031
G1 X114.822 Y108.873 E0.03031
G1 X114.879 Y108.289 E0.03031
G1 X115.050 Y107.727 E0.03031
G1 X115.326 Y107.209 E0.03031
G1 X115.699 Y106.756 E0.03031
G1 X116.153 Y106.383 E0.03031
G1 X116.670 Y106.107 E0.03031
G1 X117.231 Y105.937 E0.03025
G1 X117.795 Y105.879 E0.02926
G1 X118.398 Y105.936 E0.03130
G1 X118.962 Y106.107 E0.03041
G1 X119.479 Y106.383 E0.03031
G1 X119.933 Y106.756 E0.03031
M73 P6 R17
G1 X120.305 Y107.209 E0.03031
G1 X120.582 Y107.727 E0.03031
G1 X120.735 Y108.231 E0.02721
M204 S1000
G1 X120.314 Y108.359 F10800.000
M204 S800
G1 F1500
G1 X120.368 Y108.873 E0.03946
G1 X120.319 Y109.371 E0.03821
G1 X120.174 Y109.849 E0.03821
G1 X119.938 Y110.291 E0.03821
G1 X119.620 Y110.677 E0.03821
G1 X119.234 Y110.995 E0.03821
G1 X118.792 Y111.230 E0.03821
G1 X118.314 Y111.376 E0.03821
G1 X117.816 Y111.425 E0.03821
G1 X117.318 Y111.376 E0.03821
G1 X116.839 Y111.230 E0.03821
G1 X116.398 Y110.995 E0.03821
G1 X116.011 Y110.677 E0.03821
G1 X115.694 Y110.291 E0.03821
G1 X115.458 Y109.849 E0.03821
G1 X115.313 Y109.371 E0.03821
G1 X115.264 Y108.873 E0.03821
G1 X115.313 Y108.375 E0.03821
G1 X115.458 Y107.896 E0.03821
G1 X115.694 Y107.455 E0.03821
G1 X116.011 Y107.068 E0.03821
G1 X116.398 Y106.751 E0.03821
G1 X116.839 Y106.515 E0.03821
G1 X117.318 Y106.370 E0.03818
G1 X117.796 Y106.321 E0.03675
G1 X118.313 Y106.370 E0.03963
G1 X118.792 Y106.515 E0.03827
G1 X119.234 Y106.751 E0.03821
G1 X119.620 Y107.068 E0.03821
G1 X119.938 Y107.455 E0.03821
G1 X120.174 Y107.896 E0.03821
G1 X120.297 Y108.301 E0.03235
M204 S1000
G1 X120.693 Y108.486 F10800.000
G1 E-0.80000 F2100.00000
G1 Z1.150 F10800.000
G1 X112.956 Y104.560
G1 Z0.550
G1 E0.80000 F2100.00000
M204 S800
G1 F1636
G1 X137.044 Y104.560 E1.24395
G1 X137.044 Y113.082 E0.44011
G1 X112.956 Y113.082 E1.24395
G1 X112.956 Y104.620 E0.43701
M204 S1000
G1 X112.516 Y104.120 F10800.000
M204 S800
G1 F1636
G1 X137.484 Y104.120 E1.90703
G1 X137.484 Y113.522 E0.71813
G1 X112.516 Y113.522 E1.90703
G1 X112.516 Y104.180 E0.71355
M204 S1000
G1 X112.913 Y104.168 F10800.000
G1 X114.329 Y104.646
M204 S2000
G1 F1636
G1 X113.323 Y105.652 E0.13169
G1 X113.323 Y106.552 E0.08330
G1 X114.948 Y104.927 E0.21268
G1 X115.847 Y104.927 E0.08330
G1 X113.042 Y107.733 E0.36730
M204 S1000
G1 E-0.80000 F2100.00000
G1 Z1.150 F10800.000
G1 X126.026 Y104.646
G1 Z0.550
G1 E0.80000 F2100.00000
M204 S2000
G1 F1636
G1 X121.102 Y109.570 E0.64466
G1 X121.179 Y108.873 E0.06493
G1 X121.154 Y108.618 E0.02369
G1 X124.845 Y104.927 E0.48324
G1 X123.945 Y104.927 E0.08330
G1 X121.008 Y107.865 E0.38459
G1 X120.923 Y107.586 E0.02699
G1 X120.736 Y107.236 E0.03668
G1 X123.045 Y104.927 E0.30232
G1 X122.146 Y104.927 E0.08330
G1 X120.367 Y106.706 E0.23284
G1 X120.194 Y106.495 E0.02527
G1 X119.911 Y106.262 E0.03391
G1 X121.246 Y104.927 E0.17479
G1 X120.346 Y104.927 E0.08330
G1 X119.367 Y105.907 E0.12823
G1 X119.103 Y105.766 E0.02769
G1 X118.723 Y105.650 E0.03674
G1 X119.446 Y104.927 E0.09468
G1 X118.547 Y104.927 E0.08330
G1 X117.949 Y105.525 E0.07825
G1 X117.793 Y105.510 E0.01450
G1 X117.158 Y105.575 E0.05907
G1 X116.930 Y105.644 E0.02206
G1 X117.647 Y104.927 E0.09382
G1 X116.747 Y104.927 E0.08330
G1 X113.323 Y108.351 E0.44828
G1 X113.323 Y109.251 E0.08330
G1 X114.587 Y107.987 E0.16546
G1 X114.517 Y108.217 E0.02220
G1 X114.453 Y108.873 E0.06104
G1 X114.466 Y109.008 E0.01256
G1 X113.323 Y110.151 E0.14963
G1 X113.323 Y111.050 E0.08330
G1 X114.594 Y109.780 E0.16632
G1 X114.709 Y110.160 E0.03674
G1 X114.850 Y110.424 E0.02769
G1 X113.323 Y111.950 E0.19987
G1 X113.323 Y112.715 E0.07080
G1 X113.458 Y112.715 E0.01250
G1 X115.205 Y110.968 E0.22875
G1 X115.438 Y111.251 E0.03391
G1 X115.649 Y111.424 E0.02527
G1 X114.358 Y112.715 E0.16900
G1 X115.258 Y112.715 E0.08330
G1 X116.179 Y111.793 E0.12068
G1 X116.529 Y111.980 E0.03668
