; generated by PrusaSlicer 2.1.1+win64 on 2020-05-13 at 15:57:21 UTC

; 

; external perimeters extrusion width = 0.45mm
; perimeters extrusion width = 0.45mm
; infill extrusion width = 0.45mm
; solid infill extrusion width = 0.45mm
; top infill extrusion width = 0.40mm
; first layer extrusion width = 0.42mm

M73 P0 R220
M201 X9000 Y9000 Z500 E10000 ; sets maximum accelerations, mm/sec^2
M203 X500 Y500 Z12 E120 ; sets maximum feedrates, mm/sec
M204 P2000 R1500 T2000 ; sets acceleration (P, T) and retract acceleration (R), mm/sec^2
M205 X10.00 Y10.00 Z0.20 E2.50 ; sets the jerk limits, mm/sec
M205 S0 T0 ; sets the minimum extruding and travel feed rate, mm/sec
M107
M862.3 P "MK2.5SMMU2S" ; printer model check
M862.1 P0.4 ; nozzle diameter check
M115 U3.8.0 ; tell printer latest fw version
G90 ; use absolute coordinates
M83 ; extruder relative mode
M104 S215 ; set extruder temp
M140 S60 ; set bed temp
Tx
M190 S60 ; wait for bed temp
M109 S215 ; wait for extruder temp
G28 W ; home all without mesh bed level
G80 ; mesh bed leveling

G21 ; set units to millimeters

;go outside print area
G1 Y-3.0 F1000.0
G1 Z0.4 F1000.0
; select extruder
Tc
; purge line
G1 X55.0 F2000.0
G1 Z0.3 F1000.0
G92 E0.0
G1 X240.0 E25.0 F2200.0
M73 P0 R220
G1 Y-2.0 F1000.0
G1 X55.0 E25 F1400.0
G1 Z0.20 F1000.0
G1 X5.0 E4.0 F1000.0
G92 E0.0
G21 ; set units to millimeters
G90 ; use absolute coordinates
M83 ; use relative distances for extrusion
M900 K30 ; Filament gcode
;BEFORE_LAYER_CHANGE
G92 E0.0
;0.2


G1 E-0.80000 F2100.00000
G1 Z0.600 F10800.000
;AFTER_LAYER_CHANGE
;0.2
G1 X62.690 Y68.020
G1 Z0.200
G1 E0.80000 F2100.00000
M204 S1000
G1 F1200
G1 X63.275 Y67.898 E0.01873
G1 X127.555 Y63.793 E2.01956
G1 X167.988 Y62.717 E1.26818
G1 X179.452 Y62.717 E0.35947
G1 X180.245 Y62.867 E0.02529
G1 X180.927 Y63.291 E0.02518
G1 X181.411 Y63.936 E0.02529
G1 X181.628 Y64.710 E0.02518
G1 X187.780 Y144.321 E2.50361
G1 X187.745 Y144.878 E0.01749
G1 X187.571 Y145.404 E0.01737
G1 X187.271 Y145.870 E0.01737
G1 X186.864 Y146.245 E0.01737
G1 X185.043 Y147.129 E0.06346
G1 X184.240 Y147.283 E0.02563
G1 X63.412 Y147.283 E3.78846
G1 X62.899 Y147.218 E0.01623
G1 X62.418 Y147.037 E0.01612
G1 X61.990 Y146.745 E0.01623
G1 X61.642 Y146.361 E0.01623
G1 X61.344 Y145.766 E0.02089
G1 X61.238 Y145.108 E0.02089
G1 X61.238 Y70.066 E2.35287
G1 X61.303 Y69.553 E0.01623
G1 X61.485 Y69.072 E0.01612
G1 X61.776 Y68.644 E0.01623
G1 X62.160 Y68.296 E0.01623
G1 X62.637 Y68.048 E0.01685
G1 E-0.80000 F2100.00000
G1 Z0.800 F10800.000
G1 X144.845 Y103.393
G1 Z0.200
G1 E0.80000 F2100.00000
G1 F1200
G1 X128.245 Y103.393 E0.52046
G1 X128.245 Y66.567 E1.15467
G1 X161.444 Y66.567 E1.04093
G1 X161.444 Y103.393 E1.15467
G1 X144.905 Y103.393 E0.51858
G1 X144.845 Y103.770 F10800.000
G1 F1200
G1 X127.868 Y103.770 E0.53229
G1 X127.868 Y66.189 E1.17831
G1 X161.821 Y66.189 E1.06457
G1 X161.821 Y103.770 E1.17831
G1 X144.905 Y103.770 E0.53041
G1 X144.530 Y103.523 F10800.000
G1 E-0.80000 F2100.00000
G1 Z0.800 F10800.000
G1 X129.124 Y103.280
G1 Z0.200
G1 E0.80000 F2100.00000
G1 F1200
G1 X128.528 Y102.684 E0.02656
G1 X128.528 Y102.148 E0.01688
G1 X129.490 Y103.110 E0.04287
G1 X130.026 Y103.110 E0.01688
G1 X128.528 Y101.612 E0.06674
G1 X128.528 Y101.076 E0.01688
G1 X130.562 Y103.110 E0.09060
G1 X131.098 Y103.110 E0.01688
G1 X128.528 Y100.541 E0.11447
G1 X128.528 Y100.005 E0.01688
G1 X131.633 Y103.110 E0.13834
G1 X132.169 Y103.110 E0.01688
G1 X128.528 Y99.469 E0.16221
G1 X128.528 Y98.933 E0.01688
G1 X132.705 Y103.110 E0.18607
G1 X133.241 Y103.110 E0.01688
G1 X128.528 Y98.398 E0.20994
G1 X128.528 Y97.862 E0.01688
G1 X133.776 Y103.110 E0.23381
G1 X134.312 Y103.110 E0.01688
G1 X128.528 Y97.326 E0.25767
G1 X128.528 Y96.790 E0.01688
G1 X134.848 Y103.110 E0.28154
G1 X135.384 Y103.110 E0.01688
G1 X128.528 Y96.255 E0.30541
G1 X128.528 Y95.719 E0.01688
G1 X135.919 Y103.110 E0.32927
G1 X136.455 Y103.110 E0.01688
G1 X128.528 Y95.183 E0.35314
G1 X128.528 Y94.647 E0.01688
G1 X136.991 Y103.110 E0.37701
G1 X137.527 Y103.110 E0.01688
G1 X128.528 Y94.111 E0.40087
G1 X128.528 Y93.576 E0.01688
G1 X138.062 Y103.110 E0.42474
G1 X138.598 Y103.110 E0.01688
G1 X128.528 Y93.040 E0.44861
G1 X128.528 Y92.504 E0.01688
G1 X139.134 Y103.110 E0.47248
G1 X139.670 Y103.110 E0.01688
G1 X128.528 Y91.968 E0.49634
G1 X128.528 Y91.433 E0.01688
G1 X140.205 Y103.110 E0.52021
G1 X140.741 Y103.110 E0.01688
G1 X128.528 Y90.897 E0.54408
G1 X128.528 Y90.361 E0.01688
G1 X141.277 Y103.110 E0.56794
G1 X141.813 Y103.110 E0.01688
G1 X128.528 Y89.825 E0.59181
M73 P0 R219
G1 X128.528 Y89.290 E0.01688
G1 X142.348 Y103.110 E0.61568
G1 X142.884 Y103.110 E0.01688
G1 X128.528 Y88.754 E0.63954
G1 X128.528 Y88.218 E0.01688
G1 X143.420 Y103.110 E0.66341
G1 X143.956 Y103.110 E0.01688
G1 X128.528 Y87.682 E0.68728
G1 X128.528 Y87.147 E0.01688
G1 X144.491 Y103.110 E0.71114
G1 X145.027 Y103.110 E0.01688
G1 X128.528 Y86.611 E0.73501
G1 X128.528 Y86.075 E0.01688
G1 X145.563 Y103.110 E0.75888
G1 X146.099 Y103.110 E0.01688
G1 X128.528 Y85.539 E0.78275
G1 X128.528 Y85.004 E0.01688
G1 X146.635 Y103.110 E0.80661
G1 X147.170 Y103.110 E0.01688
G1 X128.528 Y84.468 E0.83048
G1 X128.528 Y83.932 E0.01688
G1 X147.706 Y103.110 E0.85435
G1 X148.242 Y103.110 E0.01688
G1 X128.528 Y83.396 E0.87821
G1 X128.528 Y82.861 E0.01688
G1 X148.778 Y103.110 E0.90208
G1 X149.313 Y103.110 E0.01688
G1 X128.528 Y82.325 E0.92595
G1 X128.528 Y81.789 E0.01688
G1 X149.849 Y103.110 E0.94981
G1 X150.385 Y103.110 E0.01688
G1 X128.528 Y81.253 E0.97368
G1 X128.528 Y80.718 E0.01688
G1 X150.921 Y103.110 E0.99755
G1 X151.456 Y103.110 E0.01688
G1 X128.528 Y80.182 E1.02141
G1 X128.528 Y79.646 E0.01688
G1 X151.992 Y103.110 E1.04528
G1 X152.528 Y103.110 E0.01688
G1 X128.528 Y79.110 E1.06915
G1 X128.528 Y78.575 E0.01688
G1 X153.064 Y103.110 E1.09302
G1 X153.599 Y103.110 E0.01688
G1 X128.528 Y78.039 E1.11688
G1 X128.528 Y77.503 E0.01688
G1 X154.135 Y103.110 E1.14075
G1 X154.671 Y103.110 E0.01688
G1 X128.528 Y76.967 E1.16462
G1 X128.528 Y76.432 E0.01688
G1 X155.207 Y103.110 E1.18848
G1 X155.742 Y103.110 E0.01688
G1 X128.528 Y75.896 E1.21235
G1 X128.528 Y75.360 E0.01688
G1 X156.278 Y103.110 E1.23622
G1 X156.814 Y103.110 E0.01688
G1 X128.528 Y74.824 E1.26008
G1 X128.528 Y74.289 E0.01688
G1 X157.350 Y103.110 E1.28395
G1 X157.885 Y103.110 E0.01688
G1 X128.528 Y73.753 E1.30782
G1 X128.528 Y73.217 E0.01688
G1 X158.421 Y103.110 E1.33168
G1 X158.957 Y103.110 E0.01688
G1 X128.528 Y72.681 E1.35555
G1 X128.528 Y72.146 E0.01688
G1 X159.493 Y103.110 E1.37942
G1 X160.028 Y103.110 E0.01688
G1 X128.528 Y71.610 E1.40329
G1 X128.528 Y71.074 E0.01688
G1 X160.564 Y103.110 E1.42715
G1 X161.100 Y103.110 E0.01688
G1 X128.528 Y70.538 E1.45102
M73 P0 R218
G1 X128.528 Y70.003 E0.01688
G1 X161.161 Y102.636 E1.45376
G1 X161.161 Y102.100 E0.01688
G1 X128.528 Y69.467 E1.45376
G1 X128.528 Y68.931 E0.01688
G1 X161.161 Y101.564 E1.45376
G1 X161.161 Y101.029 E0.01688
G1 X128.528 Y68.395 E1.45376
G1 X128.528 Y67.859 E0.01688
G1 X161.161 Y100.493 E1.45376
G1 X161.161 Y99.957 E0.01688
G1 X128.528 Y67.324 E1.45376
G1 X128.528 Y66.849 E0.01494
G1 X128.589 Y66.849 E0.00193
G1 X161.161 Y99.421 E1.45102
G1 X161.161 Y98.886 E0.01688
G1 X129.125 Y66.849 E1.42715
G1 X129.661 Y66.849 E0.01688
G1 X161.161 Y98.350 E1.40329
G1 X161.161 Y97.814 E0.01688
G1 X130.197 Y66.849 E1.37942
G1 X130.732 Y66.849 E0.01688
G1 X161.161 Y97.278 E1.35555
G1 X161.161 Y96.743 E0.01688
G1 X131.268 Y66.849 E1.33169
G1 X131.804 Y66.849 E0.01688
G1 X161.161 Y96.207 E1.30782
G1 X161.161 Y95.671 E0.01688
G1 X132.340 Y66.849 E1.28395
G1 X132.875 Y66.849 E0.01688
G1 X161.161 Y95.135 E1.26009
G1 X161.161 Y94.599 E0.01688
G1 X133.411 Y66.849 E1.23622
G1 X133.947 Y66.849 E0.01688
G1 X161.161 Y94.064 E1.21235
G1 X161.161 Y93.528 E0.01688
G1 X134.483 Y66.849 E1.18848
G1 X135.018 Y66.849 E0.01688
G1 X161.161 Y92.992 E1.16462
G1 X161.161 Y92.456 E0.01688
G1 X135.554 Y66.849 E1.14075
G1 X136.090 Y66.849 E0.01688
G1 X161.161 Y91.921 E1.11688
G1 X161.161 Y91.385 E0.01688
G1 X136.626 Y66.849 E1.09302
G1 X137.161 Y66.849 E0.01688
G1 X161.161 Y90.849 E1.06915
G1 X161.161 Y90.313 E0.01688
G1 X137.697 Y66.849 E1.04528
G1 X138.233 Y66.849 E0.01688
G1 X161.161 Y89.778 E1.02142
G1 X161.161 Y89.242 E0.01688
G1 X138.769 Y66.849 E0.99755
G1 X139.304 Y66.849 E0.01688
G1 X161.161 Y88.706 E0.97368
G1 X161.161 Y88.170 E0.01688
G1 X139.840 Y66.849 E0.94982
G1 X140.376 Y66.849 E0.01688
G1 X161.161 Y87.635 E0.92595
G1 X161.161 Y87.099 E0.01688
G1 X140.912 Y66.849 E0.90208
G1 X141.447 Y66.849 E0.01688
G1 X161.161 Y86.563 E0.87821
M73 P1 R217
G1 X161.161 Y86.027 E0.01688
G1 X141.983 Y66.849 E0.85435
G1 X142.519 Y66.849 E0.01688
G1 X161.161 Y85.492 E0.83048
G1 X161.161 Y84.956 E0.01688
G1 X143.055 Y66.849 E0.80661
G1 X143.591 Y66.849 E0.01688
G1 X161.161 Y84.420 E0.78275
G1 X161.161 Y83.884 E0.01688
G1 X144.126 Y66.849 E0.75888
G1 X144.662 Y66.849 E0.01688
G1 X161.161 Y83.349 E0.73501
G1 X161.161 Y82.813 E0.01688
G1 X145.198 Y66.849 E0.71115
G1 X145.734 Y66.849 E0.01688
G1 X161.161 Y82.277 E0.68728
G1 X161.161 Y81.741 E0.01688
G1 X146.269 Y66.849 E0.66341
G1 X146.805 Y66.849 E0.01688
G1 X161.161 Y81.206 E0.63955
G1 X161.161 Y80.670 E0.01688
G1 X147.341 Y66.849 E0.61568
G1 X147.877 Y66.849 E0.01688
G1 X161.161 Y80.134 E0.59181
G1 X161.161 Y79.598 E0.01688
G1 X148.412 Y66.849 E0.56794
G1 X148.948 Y66.849 E0.01688
G1 X161.161 Y79.063 E0.54408
G1 X161.161 Y78.527 E0.01688
G1 X149.484 Y66.849 E0.52021
G1 X150.020 Y66.849 E0.01688
G1 X161.161 Y77.991 E0.49634
G1 X161.161 Y77.455 E0.01688
G1 X150.555 Y66.849 E0.47248
G1 X151.091 Y66.849 E0.01688
G1 X161.161 Y76.920 E0.44861
G1 X161.161 Y76.384 E0.01688
G1 X151.627 Y66.849 E0.42474
G1 X152.163 Y66.849 E0.01688
G1 X161.161 Y75.848 E0.40088
G1 X161.161 Y75.312 E0.01688
G1 X152.698 Y66.849 E0.37701
G1 X153.234 Y66.849 E0.01688
G1 X161.161 Y74.777 E0.35314
G1 X161.161 Y74.241 E0.01688
G1 X153.770 Y66.849 E0.32928
G1 X154.306 Y66.849 E0.01688
G1 X161.161 Y73.705 E0.30541
G1 X161.161 Y73.169 E0.01688
G1 X154.841 Y66.849 E0.28154
G1 X155.377 Y66.849 E0.01688
G1 X161.161 Y72.634 E0.25767
G1 X161.161 Y72.098 E0.01688
G1 X155.913 Y66.849 E0.23381
G1 X156.449 Y66.849 E0.01688
G1 X161.161 Y71.562 E0.20994
G1 X161.161 Y71.026 E0.01688
G1 X156.984 Y66.849 E0.18607
G1 X157.520 Y66.849 E0.01688
G1 X161.161 Y70.491 E0.16221
G1 X161.161 Y69.955 E0.01688
G1 X158.056 Y66.849 E0.13834
G1 X158.592 Y66.849 E0.01688
G1 X161.161 Y69.419 E0.11447
G1 X161.161 Y68.883 E0.01688
G1 X159.127 Y66.849 E0.09061
G1 X159.663 Y66.849 E0.01688
G1 X161.161 Y68.347 E0.06674
G1 X161.161 Y67.812 E0.01688
G1 X160.199 Y66.849 E0.04287
G1 X160.735 Y66.849 E0.01688
G1 X161.331 Y67.446 E0.02656
G1 E-0.80000 F2100.00000
G1 Z0.800 F10800.000
G1 X173.740 Y108.818
G1 Z0.200
G1 E0.80000 F2100.00000
G1 F1200
G1 X168.618 Y108.818 E0.16058
G1 X168.618 Y65.492 E1.35846
G1 X178.861 Y65.492 E0.32117
G1 X178.861 Y108.818 E1.35846
G1 X173.800 Y108.818 E0.15870
G1 X173.740 Y109.196 F10800.000
G1 F1200
G1 X168.241 Y109.196 E0.17241
G1 X168.241 Y65.115 E1.38210
G1 X179.239 Y65.115 E0.34482
G1 X179.239 Y109.196 E1.38210
G1 X173.800 Y109.196 E0.17053
G1 X173.402 Y108.981 F10800.000
G1 E-0.80000 F2100.00000
G1 Z0.800 F10800.000
G1 X168.731 Y107.937
G1 Z0.200
G1 E0.80000 F2100.00000
G1 F1200
G1 X169.330 Y108.536 E0.02674
G1 X169.867 Y108.536 E0.01697
G1 X168.901 Y107.569 E0.04316
G1 X168.901 Y107.032 E0.01697
G1 X170.404 Y108.536 E0.06717
G1 X170.942 Y108.536 E0.01697
G1 X168.901 Y106.495 E0.09117
G1 X168.901 Y105.958 E0.01697
G1 X171.479 Y108.536 E0.11518
G1 X172.016 Y108.536 E0.01697
G1 X168.901 Y105.420 E0.13918
G1 X168.901 Y104.883 E0.01697
G1 X172.554 Y108.536 E0.16319
G1 X173.091 Y108.536 E0.01697
G1 X168.901 Y104.346 E0.18719
G1 X168.901 Y103.808 E0.01697
G1 X173.628 Y108.536 E0.21120
G1 X174.166 Y108.536 E0.01697
G1 X168.901 Y103.271 E0.23520
G1 X168.901 Y102.734 E0.01697
G1 X174.703 Y108.536 E0.25920
G1 X175.240 Y108.536 E0.01697
G1 X168.901 Y102.197 E0.28321
G1 X168.901 Y101.659 E0.01697
G1 X175.777 Y108.536 E0.30721
G1 X176.315 Y108.536 E0.01697
G1 X168.901 Y101.122 E0.33122
G1 X168.901 Y100.585 E0.01697
G1 X176.852 Y108.536 E0.35522
G1 X177.389 Y108.536 E0.01697
G1 X168.901 Y100.047 E0.37923
G1 X168.901 Y99.510 E0.01697
G1 X177.927 Y108.536 E0.40323
G1 X178.464 Y108.536 E0.01697
G1 X168.901 Y98.973 E0.42723
G1 X168.901 Y98.435 E0.01697
G1 X178.579 Y108.113 E0.43236
G1 X178.579 Y107.576 E0.01697
G1 X168.901 Y97.898 E0.43236
G1 X168.901 Y97.361 E0.01697
G1 X178.579 Y107.039 E0.43236
G1 X178.579 Y106.501 E0.01697
G1 X168.901 Y96.824 E0.43236
G1 X168.901 Y96.286 E0.01697
G1 X178.579 Y105.964 E0.43236
G1 X178.579 Y105.427 E0.01697
G1 X168.901 Y95.749 E0.43236
G1 X168.901 Y95.212 E0.01697
G1 X178.579 Y104.889 E0.43236
G1 X178.579 Y104.352 E0.01697
G1 X168.901 Y94.674 E0.43236
G1 X168.901 Y94.137 E0.01697
G1 X178.579 Y103.815 E0.43236
G1 X178.579 Y103.277 E0.01697
G1 X168.901 Y93.600 E0.43236
G1 X168.901 Y93.063 E0.01697
G1 X178.579 Y102.740 E0.43236
G1 X178.579 Y102.203 E0.01697
G1 X168.901 Y92.525 E0.43236
G1 X168.901 Y91.988 E0.01697
G1 X178.579 Y101.666 E0.43236
G1 X178.579 Y101.128 E0.01697
G1 X168.901 Y91.451 E0.43236
G1 X168.901 Y90.913 E0.01697
G1 X178.579 Y100.591 E0.43236
G1 X178.579 Y100.054 E0.01697
G1 X168.901 Y90.376 E0.43236
G1 X168.901 Y89.839 E0.01697
G1 X178.579 Y99.516 E0.43236
G1 X178.579 Y98.979 E0.01697
G1 X168.901 Y89.301 E0.43236
G1 X168.901 Y88.764 E0.01697
G1 X178.579 Y98.442 E0.43236
G1 X178.579 Y97.905 E0.01697
G1 X168.901 Y88.227 E0.43236
G1 X168.901 Y87.690 E0.01697
G1 X178.579 Y97.367 E0.43236
M73 P1 R215
G1 X178.579 Y96.830 E0.01697
G1 X168.901 Y87.152 E0.43236
G1 X168.901 Y86.615 E0.01697
G1 X178.579 Y96.293 E0.43236
G1 X178.579 Y95.755 E0.01697
G1 X168.901 Y86.078 E0.43236
G1 X168.901 Y85.540 E0.01697
G1 X178.579 Y95.218 E0.43236
G1 X178.579 Y94.681 E0.01697
G1 X168.901 Y85.003 E0.43236
G1 X168.901 Y84.466 E0.01697
G1 X178.579 Y94.143 E0.43236
G1 X178.579 Y93.606 E0.01697
G1 X168.901 Y83.929 E0.43236
G1 X168.901 Y83.391 E0.01697
G1 X178.579 Y93.069 E0.43236
G1 X178.579 Y92.532 E0.01697
G1 X168.901 Y82.854 E0.43236
G1 X168.901 Y82.317 E0.01697
G1 X178.579 Y91.994 E0.43236
G1 X178.579 Y91.457 E0.01697
G1 X168.901 Y81.779 E0.43236
G1 X168.901 Y81.242 E0.01697
G1 X178.579 Y90.920 E0.43236
G1 X178.579 Y90.382 E0.01697
G1 X168.901 Y80.705 E0.43236
G1 X168.901 Y80.167 E0.01697
G1 X178.579 Y89.845 E0.43236
G1 X178.579 Y89.308 E0.01697
G1 X168.901 Y79.630 E0.43236
G1 X168.901 Y79.093 E0.01697
G1 X178.579 Y88.771 E0.43236
G1 X178.579 Y88.233 E0.01697
G1 X168.901 Y78.556 E0.43236
G1 X168.901 Y78.018 E0.01697
G1 X178.579 Y87.696 E0.43236
G1 X178.579 Y87.159 E0.01697
G1 X168.901 Y77.481 E0.43236
G1 X168.901 Y76.944 E0.01697
G1 X178.579 Y86.621 E0.43236
G1 X178.579 Y86.084 E0.01697
G1 X168.901 Y76.406 E0.43236
G1 X168.901 Y75.869 E0.01697
G1 X178.579 Y85.547 E0.43236
G1 X178.579 Y85.009 E0.01697
G1 X168.901 Y75.332 E0.43236
G1 X168.901 Y74.794 E0.01697
G1 X178.579 Y84.472 E0.43236
G1 X178.579 Y83.935 E0.01697
G1 X168.901 Y74.257 E0.43236
G1 X168.901 Y73.720 E0.01697
G1 X178.579 Y83.398 E0.43236
G1 X178.579 Y82.860 E0.01697
G1 X168.901 Y73.183 E0.43236
G1 X168.901 Y72.645 E0.01697
G1 X178.579 Y82.323 E0.43236
G1 X178.579 Y81.786 E0.01697
G1 X168.901 Y72.108 E0.43236
G1 X168.901 Y71.571 E0.01697
G1 X178.579 Y81.248 E0.43236
G1 X178.579 Y80.711 E0.01697
G1 X168.901 Y71.033 E0.43236
G1 X168.901 Y70.496 E0.01697
G1 X178.579 Y80.174 E0.43236
G1 X178.579 Y79.637 E0.01697
G1 X168.901 Y69.959 E0.43236
G1 X168.901 Y69.422 E0.01697
G1 X178.579 Y79.099 E0.43236
G1 X178.579 Y78.562 E0.01697
G1 X168.901 Y68.884 E0.43236
G1 X168.901 Y68.347 E0.01697
G1 X178.579 Y78.025 E0.43236
G1 X178.579 Y77.487 E0.01697
G1 X168.901 Y67.810 E0.43236
G1 X168.901 Y67.272 E0.01697
G1 X178.579 Y76.950 E0.43236
G1 X178.579 Y76.413 E0.01697
G1 X168.901 Y66.735 E0.43236
G1 X168.901 Y66.198 E0.01697
G1 X178.579 Y75.875 E0.43236
G1 X178.579 Y75.338 E0.01697
G1 X169.016 Y65.775 E0.42724
G1 X169.553 Y65.775 E0.01697
G1 X178.579 Y74.801 E0.40323
G1 X178.579 Y74.264 E0.01697
G1 X170.090 Y65.775 E0.37923
G1 X170.628 Y65.775 E0.01697
