; generated by PrusaSlicer 2.1.1+win64 on 2020-04-23 at 18:54:43 UTC

; 

; external perimeters extrusion width = 0.45mm
; perimeters extrusion width = 0.45mm
; infill extrusion width = 0.45mm
; solid infill extrusion width = 0.45mm
; top infill extrusion width = 0.40mm
; support material extrusion width = 0.35mm
; first layer extrusion width = 0.42mm

M73 P0 R25
M201 X9000 Y9000 Z500 E10000 ; sets maximum accelerations, mm/sec^2
M203 X500 Y500 Z12 E120 ; sets maximum feedrates, mm/sec
M204 P2000 R1500 T2000 ; sets acceleration (P, T) and retract acceleration (R), mm/sec^2
M205 X10.00 Y10.00 Z0.20 E2.50 ; sets the jerk limits, mm/sec
M205 S0 T0 ; sets the minimum extruding and travel feed rate, mm/sec
M107
M862.3 P "MK2.5SMMU2S" ; printer model check
M862.1 P0.4 ; nozzle diameter check
M115 U3.8.0 ; tell printer latest fw version
G90 ; use absolute coordinates
M83 ; extruder relative mode
M104 S215 ; set extruder temp
M140 S60 ; set bed temp
Tx
M190 S60 ; wait for bed temp
M109 S215 ; wait for extruder temp
G28 W ; home all without mesh bed level
G80 ; mesh bed leveling

G21 ; set units to millimeters

;go outside print area
G1 Y-3.0 F1000.0
G1 Z0.4 F1000.0
; select extruder
Tc
; purge line
G1 X55.0 F2000.0
G1 Z0.3 F1000.0
G92 E0.0
G1 X240.0 E25.0 F2200.0
M73 P0 R25
G1 Y-2.0 F1000.0
G1 X55.0 E25 F1400.0
G1 Z0.20 F1000.0
G1 X5.0 E4.0 F1000.0
G92 E0.0
G21 ; set units to millimeters
G90 ; use absolute coordinates
M83 ; use relative distances for extrusion
M900 K30 ; Filament gcode
;BEFORE_LAYER_CHANGE
G92 E0.0
;0.2


G1 E-0.80000 F2100.00000
G1 Z0.600 F10800.000
;AFTER_LAYER_CHANGE
;0.2
G1 X116.253 Y79.344
G1 Z0.200
G1 E0.80000 F2100.00000
M204 S1000
G1 F1200
G1 X122.243 Y73.321 E0.26635
G1 X122.712 Y72.975 E0.01828
G1 X123.256 Y72.764 E0.01828
G1 X126.600 Y72.270 E0.10599
G1 X127.376 Y72.413 E0.02473
G1 X128.047 Y72.820 E0.02462
G1 X136.654 Y81.180 E0.37621
G1 X143.839 Y88.611 E0.32410
G1 X144.202 Y89.166 E0.02078
G1 X144.381 Y89.804 E0.02078
G1 X144.398 Y125.968 E1.13391
G1 X144.233 Y129.519 E0.11147
G1 X144.033 Y130.098 E0.01919
G1 X143.680 Y130.598 E0.01919
G1 X136.047 Y138.233 E0.33852
G1 X135.461 Y138.646 E0.02247
G1 X134.777 Y138.847 E0.02236
G1 X134.270 Y138.850 E0.01589
G1 X133.779 Y138.738 E0.01578
G1 X114.426 Y131.741 E0.64525
G1 X113.913 Y131.472 E0.01817
G1 X113.560 Y131.160 E0.01475
G1 X113.284 Y130.783 E0.01464
G1 X106.895 Y119.721 E0.40056
G1 X106.633 Y118.920 E0.02642
G1 X106.659 Y118.218 E0.02202
G1 X113.215 Y86.245 E1.02334
G1 X113.664 Y84.822 E0.04679
G1 X116.227 Y79.398 E0.18809
G1 E-0.80000 F2100.00000
G1 Z0.800 F10800.000
G1 X118.007 Y80.653
G1 Z0.200
G1 E0.80000 F2100.00000
G1 F1200
G1 X123.768 Y74.892 E0.25544
G1 X124.301 Y75.425 E0.02365
G1 X118.534 Y81.192 E0.25571
G1 X118.674 Y81.422 E0.00843
G1 X119.103 Y81.162 E0.01572
G1 X119.639 Y80.880 E0.01901
G1 X120.140 Y80.653 E0.01725
G1 X124.834 Y75.959 E0.20814
G1 X124.965 Y76.090 E0.00582
G1 X126.597 Y74.458 E0.07234
G1 X126.999 Y74.861 E0.01783
G1 X121.746 Y80.113 E0.23291
G1 X122.663 Y79.916 E0.02941
G1 X122.974 Y79.872 E0.00984
G1 X123.016 Y79.909 E0.00177
G1 X127.532 Y75.394 E0.20023
G1 X128.065 Y75.927 E0.02365
G1 X123.335 Y80.657 E0.20973
G1 X123.335 Y81.723 E0.03344
G1 X128.599 Y76.460 E0.23338
G1 X129.132 Y76.994 E0.02365
G1 X123.335 Y82.790 E0.25702
G1 X123.335 Y83.857 E0.03344
G1 X125.819 Y81.373 E0.11012
G1 X125.819 Y82.440 E0.03344
G1 X123.335 Y84.923 E0.11012
G1 X123.335 Y85.990 E0.03344
G1 X125.819 Y83.506 E0.11012
G1 X125.819 Y84.573 E0.03344
G1 X123.335 Y87.056 E0.11012
G1 X123.335 Y88.123 E0.03344
G1 X125.819 Y85.639 E0.11012
G1 X125.819 Y86.706 E0.03344
G1 X123.335 Y89.189 E0.11012
G1 X123.335 Y90.256 E0.03344
G1 X125.819 Y87.772 E0.11012
G1 X125.819 Y88.839 E0.03344
G1 X123.335 Y91.322 E0.11012
G1 X123.335 Y92.389 E0.03344
G1 X125.819 Y89.905 E0.11012
G1 X125.819 Y90.972 E0.03344
G1 X123.333 Y93.458 E0.11025
G1 X123.309 Y93.560 E0.00327
G1 X122.777 Y94.676 E0.03877
G1 X122.710 Y95.147 E0.01494
G1 X125.819 Y92.039 E0.13786
G1 X125.819 Y93.105 E0.03344
G1 X122.665 Y96.259 E0.13985
G1 X122.777 Y97.047 E0.02496
G1 X122.831 Y97.160 E0.00392
G1 X126.034 Y93.956 E0.14204
G1 X126.378 Y94.679 E0.02509
G1 X123.175 Y97.882 E0.14201
G1 X123.241 Y98.020 E0.00480
G1 X123.687 Y98.437 E0.01913
G1 X126.511 Y95.613 E0.12521
G1 X126.546 Y95.861 E0.00787
G1 X126.416 Y96.774 E0.02890
G1 X125.194 Y97.996 E0.05418
G1 E-0.80000 F2100.00000
G1 Z0.800 F10800.000
G1 X114.523 Y106.534
G1 Z0.200
G1 E0.80000 F2100.00000
G1 F1200
G1 X111.197 Y109.860 E0.14747
G1 X111.730 Y110.393 E0.02365
G1 X114.651 Y107.472 E0.12952
G1 X114.651 Y108.539 E0.03344
G1 X112.264 Y110.927 E0.10587
G1 X112.616 Y111.278 E0.01561
G1 X110.984 Y112.910 E0.07234
G1 X111.165 Y113.091 E0.00804
G1 X114.756 Y109.501 E0.15921
G1 X114.959 Y109.704 E0.00901
G1 X115.619 Y109.704 E0.02070
G1 X111.699 Y113.624 E0.17385
G1 X112.232 Y114.158 E0.02365
G1 X116.686 Y109.704 E0.19749
G1 X117.752 Y109.704 E0.03344
G1 X108.805 Y118.652 E0.39676
G1 X109.871 Y118.652 E0.03344
G1 X118.819 Y109.704 E0.39676
G1 X119.886 Y109.704 E0.03344
G1 X110.768 Y118.821 E0.40429
G1 X113.968 Y118.821 F10800.000
G1 F1200
G1 X114.651 Y118.138 E0.03031
G1 X114.651 Y117.071 E0.03344
G1 X113.071 Y118.652 E0.07007
G1 X112.004 Y118.652 E0.03344
G1 X120.952 Y109.704 E0.39676
G1 X122.019 Y109.704 E0.03344
G1 X116.071 Y115.652 E0.26374
G1 X117.137 Y115.652 E0.03344
G1 X122.887 Y109.902 E0.25497
G1 X123.421 Y110.435 E0.02365
G1 X118.204 Y115.652 E0.23132
G1 X119.270 Y115.652 E0.03344
G1 X123.954 Y110.968 E0.20768
G1 X124.264 Y111.278 E0.01376
G1 X122.633 Y112.910 E0.07234
G1 X122.856 Y113.133 E0.00988
G1 X120.337 Y115.652 E0.11170
G1 X121.403 Y115.652 E0.03344
G1 X123.389 Y113.666 E0.08805
G1 X123.922 Y114.199 E0.02365
G1 X122.300 Y115.821 E0.07193
G1 E-0.80000 F2100.00000
G1 Z0.800 F10800.000
G1 X129.379 Y130.074
G1 Z0.200
G1 E0.80000 F2100.00000
G1 F1200
G1 X128.763 Y130.689 E0.02730
G1 X129.297 Y131.222 E0.02365
G1 X130.276 Y130.243 E0.04342
G1 X131.342 Y130.243 E0.03344
G1 X129.830 Y131.756 E0.06707
G1 X130.363 Y132.289 E0.02365
G1 X132.409 Y130.243 E0.09071
G1 X133.476 Y130.243 E0.03344
G1 X130.777 Y132.942 E0.11968
G1 X134.509 Y136.675 F10800.000
G1 F1200
G1 X142.085 Y129.099 E0.33592
G1 X141.552 Y128.566 E0.02365
G1 X134.096 Y136.022 E0.33060
G1 X133.563 Y135.489 E0.02365
G1 X141.019 Y128.033 E0.33060
G1 X140.578 Y127.592 E0.01955
G1 X142.209 Y125.961 E0.07234
G1 X142.117 Y125.868 E0.00410
G1 X133.030 Y134.955 E0.40294
G1 X132.496 Y134.422 E0.02365
G1 X141.583 Y125.335 E0.40294
G1 X141.050 Y124.802 E0.02365
G1 X131.963 Y133.889 E0.40294
G1 X131.430 Y133.355 E0.02365
G1 X142.148 Y122.637 E0.47527
G1 X141.615 Y122.104 E0.02365
G1 X134.503 Y129.215 E0.31535
G1 X134.503 Y128.149 E0.03344
G1 X141.082 Y121.570 E0.29170
G1 X140.578 Y121.067 E0.02234
G1 X142.209 Y119.435 E0.07234
G1 X142.180 Y119.406 E0.00130
G1 X134.503 Y127.082 E0.34039
G1 X134.503 Y126.016 E0.03344
G1 X141.647 Y118.873 E0.31674
G1 X141.113 Y118.339 E0.02365
G1 X134.503 Y124.949 E0.29310
G1 X134.503 Y123.883 E0.03344
G1 X142.209 Y116.173 E0.34179
G1 X141.678 Y115.641 E0.02355
G1 X134.503 Y122.816 E0.31814
G1 X134.503 Y121.750 E0.03344
G1 X141.145 Y115.108 E0.29450
G1 X140.611 Y114.575 E0.02365
G1 X134.503 Y120.683 E0.27085
G1 X134.503 Y119.617 E0.03344
G1 X141.710 Y112.410 E0.31954
G1 X141.176 Y111.877 E0.02365
G1 X134.503 Y118.550 E0.29590
G1 X134.503 Y117.484 E0.03344
G1 X140.643 Y111.344 E0.27225
G1 X140.578 Y111.278 E0.00289
G1 X142.209 Y109.647 E0.07234
G1 X141.741 Y109.179 E0.02075
G1 X134.503 Y116.417 E0.32094
G1 X134.503 Y115.350 E0.03344
G1 X141.208 Y108.646 E0.29729
G1 X140.675 Y108.113 E0.02365
G1 X134.503 Y114.284 E0.27365
G1 X134.503 Y113.217 E0.03344
G1 X141.773 Y105.948 E0.32234
G1 X141.239 Y105.415 E0.02365
G1 X134.503 Y112.151 E0.29869
G1 X134.503 Y111.084 E0.03344
G1 X140.706 Y104.881 E0.27505
G1 X140.578 Y104.753 E0.00569
G1 X142.209 Y103.122 E0.07234
G1 X141.804 Y102.717 E0.01796
G1 X134.503 Y110.018 E0.32374
G1 X134.503 Y108.951 E0.03344
G1 X141.271 Y102.184 E0.30009
G1 X140.738 Y101.650 E0.02365
G1 X134.503 Y107.885 E0.27644
G1 X134.503 Y106.818 E0.03344
G1 X141.836 Y99.486 E0.32514
G1 X141.302 Y98.952 E0.02365
G1 X134.503 Y105.752 E0.30149
G1 X134.503 Y104.685 E0.03344
G1 X140.769 Y98.419 E0.27784
G1 X140.578 Y98.228 E0.00849
G1 X142.209 Y96.596 E0.07234
G1 X141.867 Y96.254 E0.01516
G1 X134.503 Y103.618 E0.32653
G1 X134.503 Y102.552 E0.03344
G1 X141.334 Y95.721 E0.30289
G1 X140.801 Y95.188 E0.02365
G1 X134.503 Y101.485 E0.27924
G1 X134.503 Y100.419 E0.03344
G1 X141.899 Y93.023 E0.32793
G1 X141.366 Y92.490 E0.02365
G1 X134.503 Y99.352 E0.30429
G1 X134.503 Y98.286 E0.03344
G1 X140.832 Y91.957 E0.28064
G1 X140.578 Y91.702 E0.01128
G1 X142.209 Y90.071 E0.07234
G1 X141.930 Y89.792 E0.01236
G1 X134.503 Y97.219 E0.32933
G1 X134.503 Y96.153 E0.03344
G1 X141.397 Y89.259 E0.30569
G1 X140.864 Y88.726 E0.02365
G1 X134.503 Y95.086 E0.28204
M73 P4 R24
G1 X134.503 Y94.020 E0.03344
G1 X140.331 Y88.192 E0.25839
G1 X139.797 Y87.659 E0.02365
G1 X134.503 Y92.953 E0.23475
G1 X134.503 Y91.887 E0.03344
G1 X139.264 Y87.126 E0.21110
G1 X138.731 Y86.592 E0.02365
G1 X134.503 Y90.820 E0.18745
G1 X134.503 Y89.753 E0.03344
G1 X138.197 Y86.059 E0.16381
G1 X137.664 Y85.526 E0.02365
G1 X134.503 Y88.687 E0.14016
G1 X134.478 Y87.646 E0.03266
G1 X137.131 Y84.993 E0.11764
G1 X136.598 Y84.459 E0.02365
G1 X134.338 Y86.719 E0.10018
G1 X134.108 Y85.882 E0.02720
G1 X136.064 Y83.926 E0.08673
G1 X135.531 Y83.393 E0.02365
G1 X133.804 Y85.120 E0.07659
G1 X133.439 Y84.419 E0.02480
G1 X135.118 Y82.740 E0.07445
G1 E-0.80000 F2100.00000
G1 Z0.800 F10800.000
G1 X130.731 Y81.793
G1 Z0.200
G1 E0.80000 F2100.00000
G1 F1200
G1 X132.331 Y80.193 E0.07095
G1 X131.798 Y79.660 E0.02365
G1 X130.204 Y81.254 E0.07069
G1 X129.513 Y80.879 E0.02466
G1 X131.265 Y79.127 E0.07769
G1 X130.732 Y78.593 E0.02365
G1 X128.771 Y80.554 E0.08694
G1 X127.983 Y80.276 E0.02621
G1 X130.198 Y78.060 E0.09823
G1 X129.665 Y77.527 E0.02365
G1 X127.003 Y80.189 E0.11806
G1 E-0.80000 F2100.00000
G1 Z0.800 F10800.000
G1 X125.095 Y129.115
G1 Z0.200
G1 E0.80000 F2100.00000
G1 F1200
G1 X115.764 Y129.099 E0.29256
G1 X115.764 Y116.765 E0.38673
G1 X131.491 Y116.765 E0.49309
G1 X131.491 Y108.591 E0.25630
G1 X115.764 Y108.591 E0.49308
G1 X115.766 Y88.201 E0.63932
G1 X115.783 Y87.766 E0.01365
G1 X115.838 Y87.292 E0.01494
G1 X115.930 Y86.823 E0.01501
G1 X116.058 Y86.358 E0.01510
G1 X116.221 Y85.901 E0.01522
G1 X116.420 Y85.454 E0.01537
G1 X116.654 Y85.017 E0.01554
G1 X116.922 Y84.593 E0.01572
G1 X117.223 Y84.184 E0.01592
G1 X117.555 Y83.791 E0.01613
G1 X117.918 Y83.416 E0.01635
G1 X118.310 Y83.062 E0.01657
G1 X118.730 Y82.729 E0.01679
G1 X119.175 Y82.420 E0.01700
G1 X119.644 Y82.135 E0.01721
G1 X120.135 Y81.877 E0.01740
G1 X120.646 Y81.646 E0.01758
G1 X121.174 Y81.443 E0.01774
G1 X121.718 Y81.270 E0.01789
G1 X122.222 Y81.140 E0.01633
G1 X122.222 Y93.254 E0.37981
G1 X121.699 Y94.350 E0.03810
G1 X121.484 Y95.861 E0.04785
G1 X121.699 Y97.372 E0.04785
G1 X122.327 Y98.689 E0.04575
G1 X123.324 Y99.622 E0.04281
G1 X124.577 Y99.971 E0.04077
G1 X125.830 Y99.622 E0.04077
G1 X126.827 Y98.689 E0.04281
G1 X127.455 Y97.372 E0.04575
G1 X127.670 Y95.861 E0.04785
G1 X127.455 Y94.350 E0.04785
G1 X126.932 Y93.254 E0.03810
G1 X126.932 Y81.140 E0.37981
G1 X127.436 Y81.270 E0.01633
G1 X127.980 Y81.443 E0.01789
G1 X128.508 Y81.645 E0.01774
G1 X129.019 Y81.877 E0.01758
G1 X129.510 Y82.135 E0.01740
G1 X129.979 Y82.420 E0.01721
G1 X130.425 Y82.729 E0.01700
G1 X130.844 Y83.062 E0.01679
G1 X131.236 Y83.416 E0.01657
G1 X131.599 Y83.791 E0.01635
G1 X131.932 Y84.183 E0.01613
G1 X132.232 Y84.593 E0.01592
G1 X132.500 Y85.017 E0.01572
G1 X132.734 Y85.454 E0.01553
G1 X132.933 Y85.901 E0.01537
G1 X133.097 Y86.358 E0.01522
G1 X133.225 Y86.823 E0.01510
G1 X133.316 Y87.292 E0.01501
G1 X133.371 Y87.767 E0.01498
G1 X133.390 Y88.202 E0.01365
G1 X133.390 Y129.129 E1.28325
G1 X125.155 Y129.115 E0.25821
G1 X125.094 Y129.492 F10800.000
G1 F1200
G1 X115.387 Y129.475 E0.30436
G1 X115.387 Y116.388 E0.41035
G1 X131.113 Y116.388 E0.49309
G1 X131.113 Y108.968 E0.23265
G1 X115.387 Y108.968 E0.49309
G1 X115.389 Y88.193 E0.65137
G1 X115.407 Y87.737 E0.01433
G1 X115.465 Y87.234 E0.01585
G1 X115.562 Y86.736 E0.01591
G1 X115.698 Y86.245 E0.01599
G1 X115.871 Y85.761 E0.01611
G1 X116.081 Y85.288 E0.01624
G1 X116.328 Y84.827 E0.01639
G1 X116.610 Y84.380 E0.01656
G1 X116.926 Y83.950 E0.01675
G1 X117.275 Y83.537 E0.01694
G1 X117.656 Y83.145 E0.01714
G1 X118.066 Y82.774 E0.01734
G1 X118.505 Y82.426 E0.01754
G1 X118.969 Y82.104 E0.01774
G1 X119.458 Y81.807 E0.01793
G1 X119.969 Y81.538 E0.01811
G1 X120.501 Y81.297 E0.01828
G1 X121.049 Y81.087 E0.01843
G1 X121.614 Y80.907 E0.01857
G1 X122.190 Y80.759 E0.01866
G1 X122.599 Y80.681 E0.01306
G1 X122.599 Y93.339 E0.39689
G1 X122.064 Y94.461 E0.03897
G1 X121.865 Y95.861 E0.04436
G1 X122.064 Y97.262 E0.04436
G1 X122.637 Y98.463 E0.04170
G1 X123.515 Y99.283 E0.03768
G1 X124.577 Y99.579 E0.03458
G1 X125.640 Y99.283 E0.03458
G1 X126.517 Y98.463 E0.03768
G1 X127.090 Y97.262 E0.04170
G1 X127.289 Y95.861 E0.04436
G1 X127.090 Y94.461 E0.04436
G1 X126.555 Y93.339 E0.03897
G1 X126.555 Y80.678 E0.39696
G1 X126.964 Y80.759 E0.01306
G1 X127.541 Y80.907 E0.01868
G1 X128.105 Y81.087 E0.01857
G1 X128.654 Y81.297 E0.01843
G1 X129.185 Y81.538 E0.01828
G1 X129.696 Y81.807 E0.01811
G1 X130.185 Y82.104 E0.01793
G1 X130.650 Y82.426 E0.01774
G1 X131.088 Y82.774 E0.01754
G1 X131.499 Y83.145 E0.01734
G1 X131.879 Y83.537 E0.01714
G1 X132.228 Y83.950 E0.01694
G1 X132.544 Y84.380 E0.01675
G1 X132.826 Y84.827 E0.01656
G1 X133.073 Y85.288 E0.01639
G1 X133.283 Y85.761 E0.01624
G1 X133.457 Y86.245 E0.01611
G1 X133.592 Y86.736 E0.01599
G1 X133.689 Y87.234 E0.01591
G1 X133.748 Y87.737 E0.01587
G1 X133.767 Y88.194 E0.01433
G1 X133.767 Y129.507 E1.29534
G1 X125.154 Y129.492 E0.27005
G1 X124.763 Y129.268 F10800.000
G1 E-0.80000 F2100.00000
G1 Z0.800 F10800.000
G1 X115.877 Y128.223
G1 Z0.200
G1 E0.80000 F2100.00000
G1 F1200
G1 X116.471 Y128.817 E0.02636
G1 X117.006 Y128.818 E0.01677
G1 X116.047 Y127.859 E0.04255
G1 X116.047 Y127.326 E0.01674
G1 X117.541 Y128.819 E0.06627
G1 X118.075 Y128.820 E0.01677
G1 X116.047 Y126.792 E0.08998
G1 X116.047 Y126.259 E0.01674
G1 X118.610 Y128.821 E0.11370
G1 X119.144 Y128.822 E0.01677
G1 X116.047 Y125.725 E0.13742
G1 X116.047 Y125.191 E0.01674
G1 X119.679 Y128.823 E0.16114
G1 X120.213 Y128.824 E0.01677
G1 X116.047 Y124.658 E0.18485
G1 X116.047 Y124.124 E0.01674
G1 X120.748 Y128.825 E0.20857
G1 X121.282 Y128.826 E0.01677
G1 X116.047 Y123.590 E0.23229
G1 X116.047 Y123.057 E0.01674
G1 X121.817 Y128.827 E0.25601
G1 X122.351 Y128.827 E0.01677
G1 X116.047 Y122.523 E0.27973
G1 X116.047 Y121.990 E0.01674
G1 X122.886 Y128.828 E0.30344
G1 X123.420 Y128.829 E0.01677
G1 X116.047 Y121.456 E0.32716
G1 X116.047 Y120.922 E0.01674
G1 X123.955 Y128.830 E0.35088
G1 X124.489 Y128.831 E0.01677
G1 X116.047 Y120.389 E0.37460
G1 X116.047 Y119.855 E0.01674
G1 X125.024 Y128.832 E0.39832
G1 X125.559 Y128.833 E0.01677
G1 X116.047 Y119.321 E0.42203
G1 X116.047 Y118.788 E0.01674
G1 X126.093 Y128.834 E0.44575
G1 X126.628 Y128.835 E0.01677
G1 X116.047 Y118.254 E0.46947
G1 X116.047 Y117.721 E0.01674
G1 X127.162 Y128.836 E0.49319
G1 X127.697 Y128.837 E0.01677
G1 X116.047 Y117.187 E0.51691
G1 X116.047 Y117.048 E0.00437
G1 X116.441 Y117.048 E0.01237
G1 X128.231 Y128.837 E0.52313
G1 X128.766 Y128.838 E0.01677
G1 X116.975 Y117.048 E0.52317
G1 X117.509 Y117.048 E0.01674
G1 X129.300 Y128.839 E0.52321
G1 X129.835 Y128.840 E0.01677
G1 X118.042 Y117.048 E0.52325
G1 X118.576 Y117.048 E0.01674
G1 X130.369 Y128.841 E0.52329
G1 X130.904 Y128.842 E0.01677
G1 X119.110 Y117.048 E0.52333
G1 X119.643 Y117.048 E0.01674
G1 X131.438 Y128.843 E0.52337
G1 X131.973 Y128.844 E0.01677
G1 X120.177 Y117.048 E0.52341
G1 X120.710 Y117.048 E0.01674
G1 X132.508 Y128.845 E0.52345
G1 X133.042 Y128.846 E0.01677
G1 X121.244 Y117.048 E0.52349
G1 X121.778 Y117.048 E0.01674
G1 X133.107 Y128.377 E0.50271
G1 X133.107 Y127.844 E0.01674
G1 X122.311 Y117.048 E0.47903
G1 X122.845 Y117.048 E0.01674
