; generated by PrusaSlicer 2.1.1+win64 on 2020-04-23 at 18:53:10 UTC

; 

; external perimeters extrusion width = 0.45mm
; perimeters extrusion width = 0.45mm
; infill extrusion width = 0.45mm
; solid infill extrusion width = 0.45mm
; top infill extrusion width = 0.40mm
; support material extrusion width = 0.35mm
; first layer extrusion width = 0.42mm

M73 P0 R77
M201 X9000 Y9000 Z500 E10000 ; sets maximum accelerations, mm/sec^2
M203 X500 Y500 Z12 E120 ; sets maximum feedrates, mm/sec
M204 P2000 R1500 T2000 ; sets acceleration (P, T) and retract acceleration (R), mm/sec^2
M205 X10.00 Y10.00 Z0.20 E2.50 ; sets the jerk limits, mm/sec
M205 S0 T0 ; sets the minimum extruding and travel feed rate, mm/sec
M107
M862.3 P "MK2.5SMMU2S" ; printer model check
M862.1 P0.4 ; nozzle diameter check
M115 U3.8.0 ; tell printer latest fw version
G90 ; use absolute coordinates
M83 ; extruder relative mode
M104 S215 ; set extruder temp
M140 S60 ; set bed temp
Tx
M190 S60 ; wait for bed temp
M109 S215 ; wait for extruder temp
G28 W ; home all without mesh bed level
G80 ; mesh bed leveling

G21 ; set units to millimeters

;go outside print area
G1 Y-3.0 F1000.0
G1 Z0.4 F1000.0
; select extruder
Tc
; purge line
G1 X55.0 F2000.0
G1 Z0.3 F1000.0
G92 E0.0
G1 X240.0 E25.0 F2200.0
M73 P0 R76
G1 Y-2.0 F1000.0
G1 X55.0 E25 F1400.0
G1 Z0.20 F1000.0
G1 X5.0 E4.0 F1000.0
G92 E0.0
G21 ; set units to millimeters
G90 ; use absolute coordinates
M83 ; use relative distances for extrusion
M900 K30 ; Filament gcode
;BEFORE_LAYER_CHANGE
G92 E0.0
;0.2


G1 E-0.80000 F2100.00000
G1 Z0.600 F10800.000
;AFTER_LAYER_CHANGE
;0.2
G1 X128.146 Y183.786
G1 Z0.200
G1 E0.80000 F2100.00000
M204 S1000
G1 F1200
G1 X127.467 Y183.398 E0.02451
G1 X120.540 Y177.100 E0.29354
G1 X120.086 Y176.500 E0.02360
G1 X62.340 Y56.023 E4.18897
G1 X61.980 Y55.166 E0.02914
G1 X61.636 Y53.962 E0.03924
G1 X61.433 Y52.137 E0.05758
G1 X61.521 Y50.761 E0.04325
G1 X61.820 Y49.396 E0.04381
G1 X62.459 Y47.814 E0.05348
G1 X63.192 Y46.625 E0.04382
G1 X64.075 Y45.584 E0.04279
G1 X65.128 Y44.666 E0.04382
G1 X66.583 Y43.776 E0.05347
G1 X67.867 Y43.262 E0.04337
G1 X101.027 Y34.113 E1.07855
G1 X106.916 Y32.860 E0.18877
G1 X113.013 Y32.104 E0.19264
G1 X126.013 Y31.251 E0.40850
G1 X137.007 Y32.106 E0.34575
G1 X142.911 Y32.832 E0.18652
G1 X148.867 Y34.088 E0.19084
G1 X182.142 Y43.265 E1.08227
G1 X183.383 Y43.759 E0.04188
G1 X184.588 Y44.462 E0.04375
G1 X185.890 Y45.550 E0.05320
G1 X186.778 Y46.586 E0.04279
G1 X187.516 Y47.764 E0.04359
G1 X188.057 Y49.013 E0.04268
G1 X188.407 Y50.324 E0.04255
G1 X188.562 Y51.714 E0.04382
G1 X188.456 Y53.470 E0.05518
G1 X188.003 Y55.213 E0.05644
G1 X142.774 Y176.353 E4.05438
G1 X142.336 Y176.992 E0.02428
G1 X136.367 Y182.960 E0.26466
G1 X135.884 Y183.318 E0.01885
G1 X135.022 Y183.578 E0.02822
G1 X128.917 Y183.910 E0.19170
G1 X128.205 Y183.795 E0.02262
G1 E-0.80000 F2100.00000
G1 Z0.800 F10800.000
G1 X134.835 Y181.397
G1 Z0.200
G1 E0.80000 F2100.00000
G1 F1200
G1 X140.779 Y175.453 E0.26358
G1 X140.246 Y174.919 E0.02365
G1 X134.422 Y180.744 E0.25826
G1 X133.889 Y180.211 E0.02365
G1 X139.713 Y174.386 E0.25826
G1 X139.180 Y173.853 E0.02365
G1 X131.724 Y181.309 E0.33060
G1 X131.191 Y180.775 E0.02365
G1 X138.646 Y173.320 E0.33060
G1 X138.113 Y172.786 E0.02365
G1 X130.657 Y180.242 E0.33060
G1 X130.506 Y180.091 E0.00670
G1 X128.875 Y181.722 E0.07234
G1 X128.493 Y181.340 E0.01694
G1 X137.580 Y172.253 E0.40294
G1 X137.047 Y171.720 E0.02365
G1 X127.959 Y180.807 E0.40294
G1 X127.426 Y180.274 E0.02365
G1 X136.513 Y171.187 E0.40294
G1 X135.980 Y170.653 E0.02365
G1 X126.893 Y179.740 E0.40294
G1 X126.360 Y179.207 E0.02365
G1 X135.447 Y170.120 E0.40294
G1 X134.913 Y169.587 E0.02365
G1 X125.826 Y178.674 E0.40294
G1 X125.293 Y178.141 E0.02365
G1 X127.435 Y175.998 E0.09499
G1 X126.369 Y175.998 E0.03344
G1 X124.760 Y177.607 E0.07134
G1 X124.227 Y177.074 E0.02365
G1 X125.302 Y175.998 E0.04769
G1 X124.236 Y175.998 E0.03344
G1 X123.693 Y176.541 E0.02405
G1 X123.160 Y176.007 E0.02365
G1 X123.339 Y175.829 E0.00792
G1 E-0.80000 F2100.00000
G1 Z0.800 F10800.000
G1 X128.267 Y175.167
G1 Z0.200
G1 E0.80000 F2100.00000
G1 F1200
G1 X134.380 Y169.053 E0.27107
G1 X133.847 Y168.520 E0.02365
G1 X128.430 Y173.937 E0.24018
G1 X128.425 Y172.876 E0.03327
G1 X131.682 Y169.618 E0.14445
G1 X131.149 Y169.085 E0.02365
G1 X128.419 Y171.815 E0.12105
G1 X128.414 Y170.754 E0.03327
G1 X130.736 Y168.432 E0.10297
G1 E-0.80000 F2100.00000
G1 Z0.800 F10800.000
G1 X124.204 Y45.912
G1 Z0.200
G1 E0.80000 F2100.00000
G1 F1200
G1 X125.620 Y44.496 E0.06277
G1 X125.620 Y43.430 E0.03344
G1 X124.374 Y44.676 E0.05524
G1 X124.374 Y43.609 E0.03344
G1 X125.620 Y42.363 E0.05524
G1 X125.620 Y41.297 E0.03344
G1 X124.374 Y42.543 E0.05524
G1 X124.374 Y41.476 E0.03344
G1 X125.620 Y40.230 E0.05524
G1 X125.620 Y39.164 E0.03344
G1 X124.374 Y40.409 E0.05524
G1 X124.374 Y39.343 E0.03344
G1 X128.144 Y35.572 E0.16720
G1 X128.678 Y36.106 E0.02365
G1 X126.222 Y38.561 E0.10889
G1 X127.288 Y38.561 E0.03344
G1 X129.211 Y36.639 E0.08525
G1 X129.744 Y37.172 E0.02365
G1 X128.355 Y38.561 E0.06160
G1 X129.422 Y38.561 E0.03344
G1 X130.278 Y37.705 E0.03795
G1 X130.592 Y38.020 E0.01395
G1 X130.590 Y38.460 E0.01378
G1 X130.319 Y38.731 E0.01203
G1 X123.919 Y38.731 F10800.000
G1 F1200
G1 X127.611 Y35.039 E0.16371
G1 X127.078 Y34.506 E0.02365
G1 X123.022 Y38.561 E0.17983
G1 X121.956 Y38.561 E0.03344
G1 X126.545 Y33.972 E0.20348
G1 X126.011 Y33.439 E0.02365
G1 X120.720 Y38.731 E0.23464
G1 E-0.80000 F2100.00000
G1 Z0.800 F10800.000
G1 X122.149 Y117.933
G1 Z0.200
G1 E0.80000 F2100.00000
G1 F1200
G1 X79.302 Y61.353 E2.22530
G1 X76.202 Y57.141 E0.16398
G1 X123.058 Y54.097 E1.47224
G1 X123.016 Y58.238 E0.12984
G1 X123.016 Y117.642 E1.86257
G1 X122.205 Y117.914 E0.02680
G1 X122.285 Y117.489 F10800.000
G1 F1200
G1 X79.604 Y61.127 E2.21672
M73 P1 R75
G1 X76.914 Y57.473 E0.14228
G1 X122.676 Y54.502 E1.43787
G1 X122.638 Y58.236 E0.11708
G1 X122.639 Y117.371 E1.85413
G1 X122.342 Y117.470 E0.00980
G1 X122.054 Y117.816 F10800.000
G1 E-0.80000 F2100.00000
G1 Z0.800 F10800.000
G1 X127.847 Y117.932
G1 Z0.200
G1 E0.80000 F2100.00000
G1 F1200
G1 X126.978 Y117.642 E0.02873
G1 X126.978 Y58.281 E1.86121
G1 X126.945 Y54.102 E0.13103
G1 X173.576 Y57.000 E1.46492
G1 X170.451 Y61.263 E0.16573
G1 X127.883 Y117.884 E2.22107
G1 X127.709 Y117.488 F10800.000
G1 F1200
G1 X127.355 Y117.370 E0.01170
G1 X127.355 Y58.280 E1.85274
G1 X127.325 Y54.504 E0.11839
G1 X172.864 Y57.334 E1.43061
G1 X170.149 Y61.038 E0.14402
G1 X127.745 Y117.440 E2.21248
G1 X127.554 Y117.828 F10800.000
G1 E-0.80000 F2100.00000
G1 Z0.800 F10800.000
G1 X152.318 Y54.710
G1 Z0.200
G1 E0.80000 F2100.00000
G1 F1200
G1 X135.510 Y53.327 E0.52878
G1 X135.505 Y52.160 E0.03658
G1 X173.761 Y48.680 E1.20442
G1 X173.232 Y50.126 E0.04828
G1 X173.150 Y50.416 E0.00946
G1 X173.018 Y51.048 E0.02022
G1 X172.979 Y51.346 E0.00944
G1 X172.942 Y51.983 E0.02000
G1 X172.968 Y52.620 E0.02000
G1 X173.002 Y52.919 E0.00944
G1 X173.121 Y53.545 E0.02000
G1 X173.299 Y54.150 E0.01977
G1 X173.538 Y54.741 E0.02000
G1 X173.671 Y55.012 E0.00944
G1 X174.569 Y56.542 E0.05561
G1 X152.378 Y54.715 E0.69813
G1 X152.349 Y54.334 F10800.000
G1 F1200
G1 X135.886 Y52.979 E0.51794
G1 X135.884 Y52.504 E0.01490
G1 X173.202 Y49.109 E1.17493
G1 X172.874 Y50.010 E0.03006
G1 X172.783 Y50.326 E0.01031
G1 X172.646 Y50.984 E0.02109
G1 X172.603 Y51.310 E0.01031
G1 X172.565 Y51.979 E0.02101
G1 X172.592 Y52.649 E0.02101
G1 X172.629 Y52.976 E0.01031
G1 X172.754 Y53.634 E0.02101
G1 X172.943 Y54.274 E0.02093
G1 X173.194 Y54.896 E0.02101
G1 X173.339 Y55.191 E0.01031
G1 X173.876 Y56.106 E0.03328
G1 X152.409 Y54.339 E0.67536
G1 X152.126 Y54.666 F10800.000
G1 E-0.80000 F2100.00000
G1 Z0.800 F10800.000
G1 X141.136 Y44.175
G1 Z0.200
G1 E0.80000 F2100.00000
G1 F1200
G1 X140.496 Y44.063 E0.02038
G1 X139.965 Y43.793 E0.01867
G1 X139.523 Y43.350 E0.01962
G1 X139.239 Y42.792 E0.01962
G1 X139.141 Y42.174 E0.01962
G1 X139.239 Y41.556 E0.01962
G1 X139.523 Y40.998 E0.01962
G1 X139.969 Y40.552 E0.01978
G1 X140.553 Y40.267 E0.02038
G1 X141.141 Y40.174 E0.01867
G1 X141.759 Y40.272 E0.01962
G1 X142.317 Y40.556 E0.01962
G1 X142.760 Y40.998 E0.01962
G1 X143.044 Y41.556 E0.01962
G1 X143.142 Y42.174 E0.01962
G1 X143.044 Y42.792 E0.01962
G1 X142.760 Y43.350 E0.01962
G1 X142.317 Y43.793 E0.01962
G1 X141.759 Y44.077 E0.01962
G1 X141.195 Y44.166 E0.01790
G1 X141.139 Y43.793 F10800.000
G1 F1200
G1 X140.617 Y43.701 E0.01664
G1 X140.190 Y43.484 E0.01502
G1 X139.832 Y43.126 E0.01588
G1 X139.602 Y42.674 E0.01588
G1 X139.523 Y42.174 E0.01588
G1 X139.602 Y41.674 E0.01588
G1 X139.832 Y41.223 E0.01588
G1 X140.191 Y40.863 E0.01594
G1 X140.668 Y40.631 E0.01664
G1 X141.141 Y40.556 E0.01502
G1 X141.641 Y40.635 E0.01588
G1 X142.093 Y40.865 E0.01588
G1 X142.451 Y41.223 E0.01588
G1 X142.681 Y41.674 E0.01588
G1 X142.760 Y42.174 E0.01588
G1 X142.681 Y42.674 E0.01588
G1 X142.451 Y43.126 E0.01588
G1 X142.093 Y43.484 E0.01588
G1 X141.641 Y43.714 E0.01588
G1 X141.199 Y43.784 E0.01405
G1 X140.935 Y44.137 F10800.000
G1 E-0.80000 F2100.00000
G1 Z0.800 F10800.000
G1 X144.972 Y43.337
G1 Z0.200
G1 E0.80000 F2100.00000
G1 F1200
G1 X144.508 Y43.255 E0.01478
G1 X144.120 Y43.057 E0.01367
G1 X143.797 Y42.735 E0.01431
G1 X143.590 Y42.328 E0.01432
G1 X143.518 Y41.877 E0.01431
G1 X143.590 Y41.426 E0.01432
G1 X143.797 Y41.019 E0.01431
G1 X144.120 Y40.696 E0.01432
G1 X144.526 Y40.489 E0.01431
G1 X144.957 Y40.421 E0.01367
G1 X145.424 Y40.487 E0.01478
G1 X145.835 Y40.696 E0.01447
G1 X146.158 Y41.019 E0.01432
G1 X146.365 Y41.426 E0.01431
G1 X146.437 Y41.877 E0.01431
G1 X146.365 Y42.328 E0.01431
G1 X146.158 Y42.735 E0.01432
G1 X145.835 Y43.057 E0.01431
G1 X145.428 Y43.265 E0.01432
G1 X145.032 Y43.328 E0.01259
G1 X144.976 Y42.955 F10800.000
G1 F1200
G1 X144.629 Y42.894 E0.01104
G1 X144.344 Y42.749 E0.01002
G1 X144.106 Y42.510 E0.01057
G1 X143.953 Y42.210 E0.01057
G1 X143.900 Y41.877 E0.01057
G1 X143.953 Y41.544 E0.01057
G1 X144.106 Y41.244 E0.01057
G1 X144.344 Y41.005 E0.01057
G1 X144.644 Y40.852 E0.01057
G1 X144.960 Y40.802 E0.01002
G1 X145.309 Y40.851 E0.01104
G1 X145.611 Y41.005 E0.01063
G1 X145.849 Y41.244 E0.01057
G1 X146.002 Y41.544 E0.01057
G1 X146.055 Y41.877 E0.01057
G1 X146.002 Y42.210 E0.01057
G1 X145.849 Y42.510 E0.01057
G1 X145.611 Y42.749 E0.01057
G1 X145.310 Y42.902 E0.01057
G1 X145.035 Y42.945 E0.00875
G1 X144.796 Y43.257 F10800.000
G1 E-0.80000 F2100.00000
G1 Z0.800 F10800.000
G1 X129.148 Y51.540
G1 Z0.200
G1 E0.80000 F2100.00000
G1 F1200
G1 X128.834 Y50.601 E0.03104
G1 X129.927 Y49.899 E0.04071
G1 X133.234 Y48.119 E0.11777
G1 X136.537 Y46.649 E0.11333
G1 X139.835 Y45.388 E0.11071
G1 X143.135 Y44.342 E0.10855
G1 X146.438 Y43.507 E0.10683
G1 X150.602 Y42.738 E0.13276
G1 X151.243 Y42.310 E0.02417
G1 X151.652 Y41.698 E0.02308
G1 X151.716 Y40.796 E0.02834
G1 X158.662 Y42.672 E0.22559
G1 X163.773 Y44.450 E0.16968
G1 X168.784 Y46.544 E0.17027
G1 X170.726 Y47.515 E0.06807
G1 X170.538 Y48.465 E0.03038
G1 X129.208 Y51.535 E1.29945
G1 X129.413 Y51.142 F10800.000
G1 F1200
G1 X129.285 Y50.760 E0.01264
G1 X130.119 Y50.224 E0.03106
G1 X133.401 Y48.457 E0.11687
G1 X136.681 Y46.997 E0.11257
G1 X139.959 Y45.744 E0.11005
G1 X143.238 Y44.705 E0.10786
G1 X146.519 Y43.875 E0.10609
G1 X150.747 Y43.095 E0.13481
G1 X151.515 Y42.582 E0.02896
G1 X152.022 Y41.824 E0.02857
G1 X152.060 Y41.280 E0.01712
G1 X158.551 Y43.032 E0.21081
G1 X163.638 Y44.803 E0.16890
G1 X168.627 Y46.887 E0.16950
G1 X170.300 Y47.724 E0.05866
G1 X170.224 Y48.111 E0.01237
G1 X129.473 Y51.137 E1.28124
G1 X129.025 Y51.238 F10800.000
G1 E-0.80000 F2100.00000
G1 Z0.800 F10800.000
G1 X136.093 Y45.777
G1 Z0.200
G1 E0.80000 F2100.00000
G1 F1200
G1 X135.146 Y45.627 E0.03009
G1 X135.023 Y45.565 E0.00432
G1 X134.291 Y45.191 E0.02577
G1 X133.612 Y44.513 E0.03009
G1 X133.176 Y43.658 E0.03009
G1 X133.026 Y42.710 E0.03009
G1 X133.176 Y41.762 E0.03009
G1 X133.612 Y40.907 E0.03009
G1 X134.291 Y40.229 E0.03009
G1 X135.146 Y39.793 E0.03009
G1 X136.093 Y39.643 E0.03009
G1 X137.041 Y39.793 E0.03009
G1 X137.896 Y40.229 E0.03009
G1 X138.575 Y40.907 E0.03009
G1 X138.637 Y41.030 E0.00432
G1 X139.011 Y41.762 E0.02577
G1 X139.161 Y42.710 E0.03009
G1 X139.011 Y43.658 E0.03009
G1 X138.575 Y44.513 E0.03009
G1 X137.890 Y45.198 E0.03036
G1 X136.954 Y45.641 E0.03249
G1 X136.153 Y45.768 E0.02542
G1 X136.093 Y45.395 F10800.000
G1 F1200
G1 X135.264 Y45.264 E0.02634
G1 X135.194 Y45.229 E0.00244
G1 X134.515 Y44.883 E0.02390
G1 X133.921 Y44.288 E0.02634
G1 X133.539 Y43.540 E0.02634
G1 X133.408 Y42.710 E0.02634
G1 X133.539 Y41.880 E0.02634
G1 X133.921 Y41.132 E0.02634
G1 X134.515 Y40.537 E0.02634
G1 X135.264 Y40.156 E0.02634
G1 X136.093 Y40.025 E0.02634
G1 X136.923 Y40.156 E0.02634
G1 X137.672 Y40.537 E0.02634
G1 X138.266 Y41.132 E0.02634
G1 X138.301 Y41.201 E0.00244
G1 X138.648 Y41.880 E0.02390
G1 X138.779 Y42.710 E0.02634
G1 X138.648 Y43.540 E0.02634
G1 X138.266 Y44.288 E0.02634
G1 X137.670 Y44.885 E0.02644
G1 X136.841 Y45.277 E0.02874
G1 X136.153 Y45.386 E0.02185
G1 X135.893 Y45.742 F10800.000
G1 E-0.80000 F2100.00000
G1 Z0.800 F10800.000
G1 X113.907 Y45.778
G1 Z0.200
G1 E0.80000 F2100.00000
G1 F1200
G1 X112.959 Y45.628 E0.03009
G1 X112.104 Y45.192 E0.03009
G1 X111.425 Y44.514 E0.03009
G1 X110.989 Y43.659 E0.03009
G1 X110.839 Y42.711 E0.03009
G1 X110.989 Y41.763 E0.03009
G1 X111.425 Y40.908 E0.03009
G1 X112.110 Y40.223 E0.03036
G1 X113.046 Y39.780 E0.03249
G1 X113.862 Y39.650 E0.02590
G1 X114.850 Y39.792 E0.03129
G1 X115.709 Y40.229 E0.03023
G1 X116.388 Y40.908 E0.03009
G1 X116.824 Y41.763 E0.03009
G1 X116.974 Y42.711 E0.03009
G1 X116.824 Y43.659 E0.03009
G1 X116.388 Y44.514 E0.03009
G1 X115.709 Y45.192 E0.03009
G1 X114.854 Y45.628 E0.03009
G1 X113.966 Y45.769 E0.02821
G1 X113.907 Y45.396 F10800.000
G1 F1200
G1 X113.077 Y45.265 E0.02634
G1 X112.328 Y44.883 E0.02634
G1 X111.734 Y44.289 E0.02634
G1 X111.352 Y43.541 E0.02634
G1 X111.221 Y42.711 E0.02634
G1 X111.352 Y41.881 E0.02634
G1 X111.734 Y41.132 E0.02634
G1 X112.330 Y40.536 E0.02644
G1 X113.159 Y40.144 E0.02874
G1 X113.865 Y40.032 E0.02243
G1 X114.735 Y40.156 E0.02754
G1 X115.485 Y40.538 E0.02640
G1 X116.079 Y41.132 E0.02634
G1 X116.461 Y41.881 E0.02634
G1 X116.592 Y42.711 E0.02634
G1 X116.461 Y43.541 E0.02634
G1 X116.079 Y44.289 E0.02634
G1 X115.485 Y44.883 E0.02634
G1 X114.736 Y45.265 E0.02634
G1 X113.966 Y45.387 E0.02446
G1 X113.707 Y45.743 F10800.000
G1 E-0.80000 F2100.00000
G1 Z0.800 F10800.000
G1 X108.864 Y44.175
G1 Z0.200
G1 E0.80000 F2100.00000
G1 F1200
G1 X108.241 Y44.077 E0.01978
G1 X107.683 Y43.793 E0.01962
G1 X107.240 Y43.350 E0.01962
G1 X106.956 Y42.792 E0.01962
G1 X106.858 Y42.174 E0.01962
G1 X106.956 Y41.556 E0.01962
G1 X107.240 Y40.998 E0.01962
G1 X107.683 Y40.556 E0.01962
G1 X108.241 Y40.272 E0.01962
G1 X108.829 Y40.179 E0.01867
G1 X109.472 Y40.269 E0.02038
G1 X110.035 Y40.556 E0.01978
G1 X110.430 Y40.951 E0.01753
G1 X110.760 Y41.546 E0.02131
G1 X110.859 Y42.174 E0.01996
G1 X110.761 Y42.792 E0.01962
G1 X110.477 Y43.350 E0.01962
G1 X110.035 Y43.793 E0.01962
G1 X109.504 Y44.063 E0.01867
G1 X108.923 Y44.165 E0.01850
G1 X108.861 Y43.793 F10800.000
G1 F1200
G1 X108.359 Y43.714 E0.01594
G1 X107.907 Y43.484 E0.01588
G1 X107.549 Y43.126 E0.01588
G1 X107.319 Y42.674 E0.01588
G1 X107.240 Y42.174 E0.01588
G1 X107.319 Y41.674 E0.01588
G1 X107.549 Y41.223 E0.01588
G1 X107.907 Y40.865 E0.01588
G1 X108.359 Y40.635 E0.01588
G1 X108.832 Y40.560 E0.01502
G1 X109.357 Y40.634 E0.01664
G1 X109.810 Y40.865 E0.01594
G1 X110.126 Y41.180 E0.01400
G1 X110.398 Y41.670 E0.01756
G1 X110.477 Y42.174 E0.01600
G1 X110.398 Y42.674 E0.01588
G1 X110.168 Y43.126 E0.01588
G1 X109.810 Y43.484 E0.01588
G1 X109.383 Y43.701 E0.01502
G1 X108.920 Y43.783 E0.01476
G1 X108.661 Y44.140 F10800.000
G1 E-0.80000 F2100.00000
G1 Z0.800 F10800.000
G1 X105.023 Y43.336
G1 Z0.200
G1 E0.80000 F2100.00000
G1 F1200
G1 X104.572 Y43.265 E0.01431
G1 X104.165 Y43.057 E0.01432
G1 X103.842 Y42.735 E0.01431
G1 X103.635 Y42.328 E0.01432
G1 X103.563 Y41.877 E0.01431
G1 X103.635 Y41.426 E0.01432
G1 X103.842 Y41.019 E0.01431
G1 X104.169 Y40.693 E0.01448
G1 X104.592 Y40.486 E0.01478
G1 X105.023 Y40.418 E0.01367
