; generated by PrusaSlicer 2.0.0+ on 2019-09-18 at 11:06:59

; 

; external perimeters extrusion width = 0.45mm
; perimeters extrusion width = 0.45mm
; infill extrusion width = 0.45mm
; solid infill extrusion width = 0.45mm
; top infill extrusion width = 0.40mm
; support material extrusion width = 0.35mm
; first layer extrusion width = 0.42mm

M73 P0 R73
M201 X9000 Y9000 Z500 E10000 ; sets maximum accelerations, mm/sec^2
M203 X500 Y500 Z12 E120 ; sets maximum feedrates, mm/sec
M204 P2000 R1500 T2000 ; sets acceleration (P, T) and retract acceleration (R), mm/sec^2
M205 X10.00 Y10.00 Z0.20 E2.50 ; sets the jerk limits, mm/sec
M205 S0 T0 ; sets the minimum extruding and travel feed rate, mm/sec
M107
M115 U3.7.2 ; tell printer latest fw version
G90 ; use absolute coordinates
M83 ; extruder relative mode
M104 S230 ; set extruder temp
M140 S60 ; set bed temp
Tx
M190 S60 ; wait for bed temp
M109 S230 ; wait for extruder temp
G28 W ; home all without mesh bed level
G80 ; mesh bed leveling

G21 ; set units to millimeters

;go outside print area
G1 Y-3.0 F1000.0
G1 Z0.4 F1000.0
; select extruder
Tc
; purge line
G1 X55.0 F2000.0
G1 Z0.3 F1000.0
G92 E0.0
G1 X240.0 E25.0 F2200.0
M73 P0 R73
G1 Y-2.0 F1000.0
G1 X55.0 E25 F1400.0
G1 Z0.20 F1000.0
G1 X5.0 E4.0 F1000.0
G92 E0.0
M900 K30 ; Filament gcode
G21 ; set units to millimeters
G90 ; use absolute coordinates
M83 ; use relative distances for extrusion
;BEFORE_LAYER_CHANGE
G92 E0.0
;0.2


G1 E-0.80000 F2100.00000
G1 Z0.600 F10800.000
;AFTER_LAYER_CHANGE
;0.2
G1 X108.290 Y99.164
G1 Z0.200
G1 E0.80000 F2100.00000
M204 S1000
G1 F1200
G1 X108.715 Y98.455 E0.02594
G1 X113.596 Y94.152 E0.20400
G1 X114.130 Y93.823 E0.01968
G1 X114.728 Y93.633 E0.01968
G1 X134.800 Y93.589 E0.62935
G1 X135.765 Y93.777 E0.03083
G1 X136.589 Y94.315 E0.03083
G1 X140.547 Y98.466 E0.17985
G1 X140.918 Y99.058 E0.02189
G1 X141.116 Y99.731 E0.02202
G1 X141.110 Y111.242 E0.36092
G1 X140.874 Y111.970 E0.02398
G1 X138.588 Y116.461 E0.15802
G1 X138.277 Y116.923 E0.01746
G1 X135.995 Y119.515 E0.10828
G1 X135.334 Y119.930 E0.02447
G1 X134.575 Y120.129 E0.02459
G1 X114.471 Y120.141 E0.63036
G1 X113.628 Y119.974 E0.02692
G1 X112.885 Y119.536 E0.02704
G1 X112.492 Y119.119 E0.01795
G1 X112.201 Y118.626 E0.01795
G1 X108.310 Y109.514 E0.31066
G1 X108.158 Y109.015 E0.01635
G1 X108.113 Y99.976 E0.28341
G1 X108.277 Y99.223 E0.02418
G1 X108.640 Y99.304 F10800.000
G1 F1200
G1 X109.015 Y98.685 E0.02270
G1 X113.823 Y94.453 E0.20085
G1 X114.285 Y94.166 E0.01703
G1 X114.806 Y94.002 E0.01714
G1 X134.800 Y93.966 E0.62690
G1 X135.631 Y94.130 E0.02653
G1 X136.334 Y94.594 E0.02642
G1 X140.249 Y98.697 E0.17784
G1 X140.575 Y99.215 E0.01919
G1 X140.746 Y99.807 E0.01930
G1 X140.738 Y111.178 E0.35653
G1 X140.535 Y111.805 E0.02066
G1 X138.255 Y116.285 E0.15763
G1 X137.976 Y116.695 E0.01555
G1 X135.767 Y119.213 E0.10504
G1 X135.194 Y119.580 E0.02134
G1 X134.535 Y119.754 E0.02134
G1 X114.491 Y119.764 E0.62849
G1 X113.756 Y119.619 E0.02349
G1 X113.116 Y119.236 E0.02338
G1 X112.785 Y118.881 E0.01521
G1 X112.542 Y118.466 E0.01510
G1 X108.528 Y108.945 E0.32397
G1 X108.489 Y100.009 E0.28018
G1 X108.628 Y99.363 E0.02071
G1 F8640
G1 X109.015 Y98.685 E-0.18032
G1 X110.899 Y97.026 E-0.57968
G1 E-0.04000 F2100.00000
G1 Z0.800 F10800.000
G1 X110.675 Y108.518
G1 Z0.200
G1 E0.80000 F2100.00000
G1 F1200
G1 X110.675 Y100.111 E0.26358
G1 X111.429 Y100.111 E0.02365
G1 X111.429 Y108.348 E0.25826
G1 X112.183 Y108.348 E0.02365
G1 X112.183 Y100.111 E0.25826
G1 X112.937 Y100.111 E0.02365
G1 X112.937 Y112.962 E0.40294
G1 X113.691 Y112.962 E0.02365
G1 X113.691 Y100.111 E0.40294
G1 X114.445 Y100.111 E0.02365
G1 X114.445 Y112.962 E0.40294
G1 X114.542 Y112.962 E0.00302
G1 X114.542 Y117.576 E0.14467
G1 X115.200 Y117.576 E0.02063
G1 X115.200 Y104.133 E0.42149
G1 X115.954 Y104.133 E0.02365
G1 X115.954 Y117.576 E0.42149
G1 X116.708 Y117.576 E0.02365
G1 X116.708 Y104.133 E0.42149
G1 X117.462 Y104.133 E0.02365
G1 X117.462 Y117.576 E0.42149
G1 X118.216 Y117.576 E0.02365
G1 X118.216 Y104.133 E0.42149
G1 X118.970 Y104.133 E0.02365
G1 X118.970 Y117.576 E0.42149
G1 X119.725 Y117.576 E0.02365
G1 X119.725 Y104.133 E0.42149
G1 X120.479 Y104.133 E0.02365
G1 X120.479 Y117.576 E0.42149
G1 X121.233 Y117.576 E0.02365
G1 X121.233 Y104.133 E0.42149
G1 X121.987 Y104.133 E0.02365
G1 X121.987 Y117.576 E0.42149
G1 X122.741 Y117.576 E0.02365
G1 X122.741 Y104.133 E0.42149
G1 X123.495 Y104.133 E0.02365
G1 X123.495 Y117.576 E0.42149
G1 X124.250 Y117.576 E0.02365
G1 X124.250 Y104.133 E0.42149
G1 X125.004 Y104.133 E0.02365
G1 X125.004 Y117.576 E0.42149
G1 X125.758 Y117.576 E0.02365
G1 X125.758 Y104.133 E0.42149
G1 X126.512 Y104.133 E0.02365
G1 X126.512 Y117.576 E0.42149
G1 X127.266 Y117.576 E0.02365
G1 X127.266 Y104.133 E0.42149
G1 X128.020 Y104.133 E0.02365
G1 X128.020 Y117.576 E0.42149
G1 X128.775 Y117.576 E0.02365
G1 X128.775 Y104.133 E0.42149
G1 X129.529 Y104.133 E0.02365
G1 X129.529 Y117.576 E0.42149
G1 X130.283 Y117.576 E0.02365
G1 X130.283 Y104.133 E0.42149
G1 X131.037 Y104.133 E0.02365
G1 X131.037 Y117.576 E0.42149
G1 X131.791 Y117.576 E0.02365
G1 X131.791 Y104.133 E0.42149
G1 X132.545 Y104.133 E0.02365
G1 X132.545 Y117.576 E0.42149
G1 X133.299 Y117.576 E0.02365
G1 X133.299 Y104.133 E0.42149
G1 X134.054 Y104.133 E0.02365
G1 X134.054 Y117.576 E0.42149
G1 X134.314 Y117.576 E0.00817
G1 X134.314 Y115.269 E0.07234
G1 X134.808 Y115.269 E0.01548
G1 X134.808 Y104.133 E0.34915
G1 X134.972 Y104.133 E0.00514
G1 X135.214 Y103.891 E0.01074
G1 X135.214 Y100.111 E0.11853
G1 X135.562 Y100.111 E0.01091
G1 X135.562 Y115.269 E0.47527
G1 X136.316 Y115.269 E0.02365
G1 X136.316 Y100.111 E0.47527
G1 X137.070 Y100.111 E0.02365
G1 X137.070 Y110.655 E0.33060
G1 X137.824 Y110.655 E0.02365
G1 X137.824 Y100.111 E0.33060
G1 X138.579 Y100.111 E0.02365
G1 X138.579 Y110.825 E0.33592
G1 F8640
G1 X138.579 Y107.533 E-0.76000
G1 E-0.04000 F2100.00000
G1 Z0.800 F10800.000
G1 X129.529 Y101.947
G1 Z0.200
G1 E0.80000 F2100.00000
G1 F1200
G1 X129.529 Y101.134 E0.02550
G1 X128.775 Y101.134 E0.02365
G1 X128.775 Y101.947 E0.02550
G1 F8640
G1 X128.775 Y101.134 E-0.18781
G1 X129.529 Y101.134 E-0.17414
G1 X129.529 Y101.947 E-0.18781
G1 E-0.25025 F2100.00000
G1 Z0.800 F10800.000
G1 X122.741 Y101.947
G1 Z0.200
G1 E0.80000 F2100.00000
G1 F1200
G1 X122.741 Y101.134 E0.02550
G1 X121.987 Y101.134 E0.02365
G1 X121.987 Y101.777 E0.02018
G1 X121.233 Y101.777 E0.02365
G1 X121.233 Y101.134 E0.02018
G1 X120.479 Y101.134 E0.02365
G1 X120.479 Y101.947 E0.02550
G1 F8640
G1 X120.479 Y101.134 E-0.18781
G1 X121.233 Y101.134 E-0.17414
G1 X121.233 Y101.777 E-0.14863
G1 X121.987 Y101.777 E-0.17414
G1 X121.987 Y101.451 E-0.07529
G1 E-0.04000 F2100.00000
G1 Z0.800 F10800.000
G1 X118.913 Y102.778
G1 Z0.200
G1 E0.80000 F2100.00000
G1 F1200
G1 X118.913 Y97.097 E0.17813
G1 X131.087 Y97.097 E0.38172
G1 X131.087 Y102.778 E0.17813
G1 X118.973 Y102.778 E0.37984
G1 X119.290 Y102.401 F10800.000
G1 F1200
G1 X119.290 Y97.474 E0.15448
G1 X130.710 Y97.474 E0.35808
G1 X130.710 Y102.401 E0.15448
G1 X119.350 Y102.401 E0.35620
G1 X118.893 Y102.455 F10800.000
G1 F8640
G1 X119.310 Y99.110 E-0.76000
G1 E-0.04000 F2100.00000
G1 Z0.800 F10800.000
G1 X115.787 Y103.133
G1 Z0.200
G1 E0.80000 F2100.00000
G1 F1200
G1 X115.787 Y96.742 E0.20039
G1 X134.213 Y96.742 E0.57775
G1 X134.213 Y103.133 E0.20039
G1 X115.847 Y103.133 E0.57587
G1 X115.410 Y103.510 F10800.000
G1 F1200
G1 X115.410 Y96.365 E0.22403
G1 X134.590 Y96.365 E0.60140
G1 X134.590 Y103.510 E0.22403
G1 X115.470 Y103.510 E0.59952
M73 P1 R72
G1 X115.567 Y103.142 F10800.000
G1 F8640
G1 X115.442 Y100.219 E-0.76000
G1 E-0.04000 F2100.00000
G1 Z0.800 F10800.000
G1 X115.900 Y102.251
G1 Z0.200
G1 E0.80000 F2100.00000
G1 F1200
G1 X116.499 Y102.850 E0.02678
G1 X117.036 Y102.850 E0.01700
G1 X116.070 Y101.883 E0.04323
G1 X116.070 Y101.345 E0.01700
G1 X117.574 Y102.850 E0.06727
G1 X118.112 Y102.850 E0.01700
G1 X116.070 Y100.808 E0.09130
G1 X116.070 Y100.270 E0.01700
G1 X118.630 Y102.831 E0.11447
G1 X118.630 Y102.293 E0.01700
G1 X116.070 Y99.732 E0.11447
G1 X116.070 Y99.195 E0.01700
G1 X118.630 Y101.755 E0.11447
G1 X118.630 Y101.218 E0.01700
G1 X116.070 Y98.657 E0.11447
G1 X116.070 Y98.119 E0.01700
G1 X118.630 Y100.680 E0.11447
G1 X118.630 Y100.142 E0.01700
G1 X116.070 Y97.582 E0.11447
G1 X116.070 Y97.044 E0.01700
G1 X118.630 Y99.605 E0.11447
G1 X118.630 Y99.067 E0.01700
G1 X116.588 Y97.025 E0.09131
G1 X117.125 Y97.025 E0.01700
G1 X118.630 Y98.529 E0.06727
G1 X118.630 Y97.992 E0.01700
G1 X117.663 Y97.025 E0.04324
G1 X118.200 Y97.025 E0.01700
G1 X118.800 Y97.624 E0.02679
G1 F8640
G1 X118.200 Y97.025 E-0.19565
G1 X117.663 Y97.025 E-0.12414
G1 X118.630 Y97.992 E-0.31581
G1 X118.630 Y98.529 E-0.12414
G1 X118.629 Y98.529 E-0.00025
G1 E-0.04000 F2100.00000
G1 Z0.800 F10800.000
G1 X131.200 Y102.251
G1 Z0.200
G1 E0.80000 F2100.00000
G1 F1200
G1 X131.799 Y102.850 E0.02678
G1 X132.337 Y102.850 E0.01700
G1 X131.370 Y101.883 E0.04323
G1 X131.370 Y101.345 E0.01700
G1 X132.875 Y102.850 E0.06727
G1 X133.412 Y102.850 E0.01700
G1 X131.370 Y100.808 E0.09130
G1 X131.370 Y100.270 E0.01700
G1 X133.930 Y102.831 E0.11447
G1 X133.930 Y102.293 E0.01700
G1 X131.370 Y99.732 E0.11447
G1 X131.370 Y99.195 E0.01700
G1 X133.930 Y101.755 E0.11447
G1 X133.930 Y101.218 E0.01700
G1 X131.370 Y98.657 E0.11447
G1 X131.370 Y98.119 E0.01700
G1 X133.930 Y100.680 E0.11447
G1 X133.930 Y100.142 E0.01700
G1 X131.370 Y97.582 E0.11447
G1 X131.370 Y97.044 E0.01700
G1 X133.930 Y99.605 E0.11447
G1 X133.930 Y99.067 E0.01700
G1 X131.888 Y97.025 E0.09131
G1 X132.426 Y97.025 E0.01700
G1 X133.930 Y98.529 E0.06727
G1 X133.930 Y97.992 E0.01700
G1 X132.963 Y97.025 E0.04324
G1 X133.501 Y97.025 E0.01700
G1 X134.100 Y97.624 E0.02679
M106 S255
;BEFORE_LAYER_CHANGE
G92 E0.0
;0.4


G1 F8640
G1 X133.501 Y97.025 E-0.19565
G1 X132.963 Y97.025 E-0.12414
G1 X133.930 Y97.992 E-0.31581
G1 X133.930 Y98.529 E-0.12414
G1 X133.930 Y98.529 E-0.00025
G1 E-0.04000 F2100.00000
G1 Z0.800 F10800.000
;AFTER_LAYER_CHANGE
;0.4
G1 X135.765 Y93.777
G1 Z0.400
G1 E0.80000 F2100.00000
G1 F1107
G1 X136.589 Y94.315 E0.03083
G1 X140.547 Y98.466 E0.17985
G1 X140.918 Y99.058 E0.02189
G1 X141.116 Y99.731 E0.02202
G1 X141.110 Y111.242 E0.36092
G1 X140.874 Y111.970 E0.02398
G1 X138.588 Y116.461 E0.15802
G1 X138.277 Y116.923 E0.01746
G1 X135.995 Y119.515 E0.10828
G1 X135.334 Y119.930 E0.02447
G1 X134.575 Y120.129 E0.02459
G1 X114.471 Y120.141 E0.63036
G1 X113.628 Y119.974 E0.02692
G1 X112.885 Y119.536 E0.02704
G1 X112.492 Y119.119 E0.01795
G1 X112.201 Y118.626 E0.01795
G1 X108.310 Y109.514 E0.31066
G1 X108.158 Y109.015 E0.01635
G1 X108.113 Y99.976 E0.28341
G1 X108.290 Y99.164 E0.02606
G1 X108.715 Y98.455 E0.02594
G1 X113.596 Y94.152 E0.20400
G1 X114.130 Y93.823 E0.01968
G1 X114.728 Y93.633 E0.01968
G1 X134.800 Y93.589 E0.62935
G1 X135.706 Y93.766 E0.02895
G1 F8640
G1 X136.589 Y94.315 E-0.23991
G1 X138.143 Y95.945 E-0.52009
G1 E-0.04000 F2100.00000
G1 Z1.000 F10800.000
G1 X131.132 Y97.052
G1 Z0.400
G1 E0.80000 F2100.00000
M204 S800
G1 F1107
G1 X131.132 Y102.823 E0.19534
G1 X118.868 Y102.823 E0.41514
G1 X118.868 Y97.052 E0.19534
G1 X131.072 Y97.052 E0.41311
M204 S1000
G1 X130.725 Y97.459 F10800.000
M204 S800
G1 F1107
G1 X130.725 Y102.416 E0.16779
G1 X119.275 Y102.416 E0.38758
G1 X119.275 Y97.459 E0.16779
G1 X130.665 Y97.459 E0.38555
M204 S1000
G1 X131.121 Y97.405 F10800.000
G1 F8640
G1 X130.705 Y100.750 E-0.76000
G1 E-0.04000 F2100.00000
G1 Z1.000 F10800.000
G1 X134.168 Y96.787
G1 Z0.400
G1 E0.80000 F2100.00000
M204 S800
G1 F1107
G1 X134.168 Y103.088 E0.21328
G1 X115.832 Y103.088 E0.62067
G1 X115.832 Y96.787 E0.21328
G1 X134.108 Y96.787 E0.61864
M204 S1000
G1 X134.575 Y96.380 F10800.000
M204 S800
G1 F1107
G1 X134.575 Y103.495 E0.24084
G1 X115.425 Y103.495 E0.64823
G1 X115.425 Y96.380 E0.24084
G1 X134.515 Y96.380 E0.64620
M204 S1000
G1 X134.418 Y96.747 F10800.000
G1 F8640
G1 X134.543 Y99.671 E-0.76000
G1 E-0.04000 F2100.00000
G1 Z1.000 F10800.000
G1 X132.107 Y96.909
G1 Z0.400
G1 E0.80000 F2100.00000
M204 S2000
G1 F1107
G1 X131.438 Y97.578 E0.03312
G1 X131.438 Y98.173 E0.02084
G1 X132.519 Y97.092 E0.05352
G1 X133.114 Y97.092 E0.02084
G1 X131.438 Y98.769 E0.08299
G1 X131.438 Y99.364 E0.02084
G1 X133.709 Y97.092 E0.11246
G1 X133.863 Y97.092 E0.00537
G1 X133.863 Y97.534 E0.01546
G1 X131.438 Y99.959 E0.12006
G1 X131.438 Y100.555 E0.02084
G1 X133.863 Y98.129 E0.12006
G1 X133.863 Y98.725 E0.02084
G1 X131.438 Y101.150 E0.12006
G1 X131.438 Y101.745 E0.02084
G1 X133.863 Y99.320 E0.12006
G1 X133.863 Y99.915 E0.02084
G1 X131.438 Y102.341 E0.12006
G1 X131.438 Y102.783 E0.01547
G1 X131.591 Y102.783 E0.00537
G1 X133.863 Y100.511 E0.11247
G1 X133.863 Y101.106 E0.02084
G1 X132.186 Y102.783 E0.08300
G1 X132.782 Y102.783 E0.02084
G1 X133.863 Y101.701 E0.05353
G1 X133.863 Y102.297 E0.02084
G1 X133.194 Y102.966 E0.03313
M204 S1000
G1 F8640
G1 X133.863 Y102.297 E-0.21852
G1 X133.863 Y101.701 E-0.13746
G1 X132.782 Y102.783 E-0.35310
G1 X132.561 Y102.783 E-0.05092
G1 E-0.04000 F2100.00000
G1 Z1.000 F10800.000
G1 X117.893 Y102.966
G1 Z0.400
G1 E0.80000 F2100.00000
M204 S2000
G1 F1107
G1 X118.562 Y102.297 E0.03313
G1 X118.562 Y101.701 E0.02084
G1 X117.481 Y102.782 E0.05353
G1 X116.886 Y102.782 E0.02084
G1 X118.562 Y101.106 E0.08300
G1 X118.562 Y100.511 E0.02084
G1 X116.290 Y102.782 E0.11247
G1 X116.137 Y102.782 E0.00537
G1 X116.137 Y102.341 E0.01547
G1 X118.562 Y99.915 E0.12006
G1 X118.562 Y99.320 E0.02084
G1 X116.137 Y101.745 E0.12006
G1 X116.137 Y101.150 E0.02084
G1 X118.562 Y98.725 E0.12006
G1 X118.562 Y98.129 E0.02084
G1 X116.137 Y100.555 E0.12006
G1 X116.137 Y99.959 E0.02084
G1 X118.562 Y97.534 E0.12006
G1 X118.562 Y97.092 E0.01546
G1 X118.409 Y97.092 E0.00537
G1 X116.137 Y99.364 E0.11246
G1 X116.137 Y98.769 E0.02084
G1 X117.814 Y97.092 E0.08299
G1 X117.218 Y97.092 E0.02084
G1 X116.137 Y98.173 E0.05352
G1 X116.137 Y97.578 E0.02084
G1 X116.806 Y96.909 E0.03312
M204 S1000
;BEFORE_LAYER_CHANGE
G92 E0.0
;0.445003


G1 F8640
G1 X116.137 Y97.578 E-0.21848
G1 X116.137 Y98.173 E-0.13746
G1 X117.218 Y97.092 E-0.35306
G1 X117.439 Y97.092 E-0.05100
G1 E-0.04000 F2100.00000
G1 Z1.000 F10800.000
;AFTER_LAYER_CHANGE
;0.445003
G1 X136.102 Y103.076
G1 Z0.445
G1 E0.80000 F2100.00000
G1 F900
G1 X135.179 Y103.076 E0.02795
G1 X135.179 Y103.877 E0.02426
G1 X134.957 Y104.098 E0.00950
G1 X131.349 Y104.098 E0.10931
G1 X131.349 Y105.383 E0.03892
G1 X119.814 Y105.383 E0.34947
G1 X119.814 Y104.098 E0.03892
G1 X115.043 Y104.098 E0.14454
G1 X114.821 Y103.877 E0.00950
G1 X114.821 Y103.076 E0.02426
G1 X112.893 Y103.076 E0.05843
G1 X112.893 Y105.383 E0.06989
G1 X135.963 Y105.383 E0.69894
G1 X135.963 Y107.690 E0.06989
G1 X115.200 Y107.690 E0.62905
G1 X115.200 Y109.997 E0.06989
G1 X122.121 Y109.997 E0.20968
G1 X122.121 Y107.690 E0.06989
G1 X126.735 Y107.690 E0.13979
G1 X126.735 Y109.997 E0.06989
G1 X133.656 Y109.997 E0.20968
G1 X133.656 Y112.304 E0.06989
G1 X117.507 Y112.304 E0.48926
G1 X117.507 Y114.611 E0.06989
G1 X131.487 Y114.611 E0.42355
;BEFORE_LAYER_CHANGE
G92 E0.0
;0.6


G1 F8640
G1 X128.196 Y114.611 E-0.76000
G1 E-0.04000 F2100.00000
G1 Z1.045 F10800.000
;AFTER_LAYER_CHANGE
;0.6
G1 X135.765 Y93.777
G1 Z0.600
G1 E0.80000 F2100.00000
G1 F1111
G1 X136.589 Y94.315 E0.03083
G1 X140.547 Y98.466 E0.17985
G1 X140.918 Y99.058 E0.02189
G1 X141.116 Y99.731 E0.02202
G1 X141.110 Y111.242 E0.36092
G1 X140.874 Y111.970 E0.02398
G1 X138.588 Y116.461 E0.15802
G1 X138.277 Y116.923 E0.01746
G1 X135.995 Y119.515 E0.10828
G1 X135.334 Y119.930 E0.02447
G1 X134.575 Y120.129 E0.02459
G1 X114.471 Y120.141 E0.63036
G1 X113.628 Y119.974 E0.02692
G1 X112.885 Y119.536 E0.02704
G1 X112.492 Y119.119 E0.01795
G1 X112.201 Y118.626 E0.01795
G1 X108.310 Y109.514 E0.31066
G1 X108.158 Y109.015 E0.01635
G1 X108.113 Y99.976 E0.28341
G1 X108.290 Y99.164 E0.02606
G1 X108.715 Y98.455 E0.02594
G1 X113.596 Y94.152 E0.20400
G1 X114.130 Y93.823 E0.01968
G1 X114.728 Y93.633 E0.01968
G1 X134.800 Y93.589 E0.62935
G1 X135.706 Y93.766 E0.02895
G1 F8640
G1 X136.589 Y94.315 E-0.23991
G1 X138.143 Y95.945 E-0.52009
G1 E-0.04000 F2100.00000
G1 Z1.200 F10800.000
G1 X131.132 Y97.052
G1 Z0.600
G1 E0.80000 F2100.00000
