; generated by PrusaSlicer 2.2.0+win64 on 2020-11-04 at 22:45:26 UTC

; 

; external perimeters extrusion width = 0.60mm
; perimeters extrusion width = 0.43mm
; infill extrusion width = 0.45mm
; solid infill extrusion width = 0.70mm
; top infill extrusion width = 0.43mm
; first layer extrusion width = 0.42mm

M73 P0 R18
M201 X9000 Y9000 Z500 E10000 ; sets maximum accelerations, mm/sec^2
M203 X500 Y500 Z12 E120 ; sets maximum feedrates, mm/sec
M204 P2000 R1500 T2000 ; sets acceleration (P, T) and retract acceleration (R), mm/sec^2
M205 X10.00 Y10.00 Z0.20 E2.50 ; sets the jerk limits, mm/sec
M205 S0 T0 ; sets the minimum extruding and travel feed rate, mm/sec
M107
M862.3 P "MK2.5SMMU2S" ; printer model check
M862.1 P0.4 ; nozzle diameter check
M115 U3.8.0 ; tell printer latest fw version
G90 ; use absolute coordinates
M83 ; extruder relative mode
M104 S215 ; set extruder temp
M140 S60 ; set bed temp
Tx
M190 S60 ; wait for bed temp
M109 S215 ; wait for extruder temp
G28 W ; home all without mesh bed level
G80 ; mesh bed leveling

G21 ; set units to millimeters

;go outside print area
G1 Y-3.0 F1000.0
G1 Z0.4 F1000.0
; select extruder
Tc
; purge line
G1 X55.0 F2000.0
G1 Z0.3 F1000.0
G92 E0.0
G1 X240.0 E25.0 F2200.0
M73 P0 R18
G1 Y-2.0 F1000.0
G1 X55.0 E25 F1400.0
G1 Z0.20 F1000.0
G1 X5.0 E4.0 F1000.0
G92 E0.0
G21 ; set units to millimeters
G90 ; use absolute coordinates
M83 ; use relative distances for extrusion
M900 K30 ; Filament gcode
;BEFORE_LAYER_CHANGE
G92 E0.0
;0.2


G1 E-0.80000 F2100.00000
G1 Z0.600 F10800.000
;AFTER_LAYER_CHANGE
;0.2
G1 X69.530 Y93.657
G1 Z0.200
G1 E0.80000 F2100.00000
M204 S1000
G1 F1200.000
G1 X180.041 Y93.617 E3.46499
G1 X180.939 Y93.795 E0.02872
G1 X181.704 Y94.299 E0.02872
G1 X182.221 Y95.055 E0.02872
G1 X182.414 Y95.951 E0.02872
G1 X182.404 Y114.230 E0.57314
G1 X182.209 Y114.971 E0.02402
G1 X181.792 Y115.609 E0.02390
G1 X181.191 Y116.084 E0.02402
G1 X180.470 Y116.343 E0.02402
G1 X69.921 Y116.383 E3.46618
G1 X69.128 Y116.232 E0.02532
G1 X68.428 Y115.821 E0.02543
G1 X67.907 Y115.200 E0.02543
G1 X67.626 Y114.439 E0.02543
G1 X67.596 Y95.777 E0.58513
G1 X67.788 Y95.035 E0.02402
G1 X68.208 Y94.391 E0.02414
G1 X68.809 Y93.916 E0.02402
G1 X69.474 Y93.677 E0.02214
G1 E-0.80000 F2100.00000
G1 Z0.800 F10800.000
G1 X87.343 Y101.738
G1 Z0.200
G1 E0.80000 F2100.00000
G1 F1200.000
G1 X118.628 Y101.738 E0.98091
G1 X118.722 Y101.426 E0.01023
G1 X119.350 Y100.251 E0.04177
G1 X120.195 Y99.221 E0.04177
G1 X121.225 Y98.376 E0.04177
G1 X122.400 Y97.748 E0.04177
G1 X123.674 Y97.362 E0.04177
G1 X125.000 Y97.231 E0.04177
G1 X126.326 Y97.362 E0.04177
G1 X127.600 Y97.748 E0.04177
G1 X128.775 Y98.376 E0.04177
G1 X129.805 Y99.221 E0.04177
G1 X130.650 Y100.251 E0.04177
G1 X131.278 Y101.426 E0.04177
G1 X131.372 Y101.738 E0.01023
G1 X139.990 Y101.738 E0.27021
G1 X140.532 Y100.710 E0.03642
G1 X141.503 Y99.527 E0.04797
G1 X142.684 Y98.558 E0.04792
G1 X144.032 Y97.837 E0.04792
G1 X145.494 Y97.394 E0.04792
G1 X147.015 Y97.244 E0.04792
G1 X148.536 Y97.394 E0.04792
G1 X149.939 Y97.820 E0.04600
G1 X151.344 Y98.556 E0.04973
G1 X152.527 Y99.527 E0.04799
G1 X153.498 Y100.710 E0.04797
G1 X154.039 Y101.738 E0.03642
G1 X162.657 Y101.738 E0.27021
G1 X162.752 Y101.426 E0.01023
G1 X163.380 Y100.251 E0.04177
G1 X164.225 Y99.221 E0.04177
G1 X165.255 Y98.376 E0.04177
G1 X166.429 Y97.748 E0.04177
G1 X167.704 Y97.362 E0.04176
G1 X169.030 Y97.231 E0.04177
G1 X170.355 Y97.362 E0.04176
G1 X171.630 Y97.748 E0.04177
G1 X172.805 Y98.376 E0.04177
G1 X173.834 Y99.221 E0.04177
G1 X174.679 Y100.251 E0.04177
G1 X175.307 Y101.426 E0.04177
G1 X175.694 Y102.700 E0.04176
G1 X175.825 Y104.026 E0.04177
G1 X175.694 Y105.352 E0.04177
G1 X175.307 Y106.626 E0.04177
G1 X174.679 Y107.801 E0.04177
G1 X173.834 Y108.831 E0.04177
G1 X172.805 Y109.676 E0.04177
G1 X171.630 Y110.304 E0.04177
G1 X170.355 Y110.690 E0.04177
G1 X169.030 Y110.821 E0.04176
G1 X167.704 Y110.690 E0.04177
G1 X166.429 Y110.304 E0.04177
G1 X165.255 Y109.676 E0.04177
G1 X164.225 Y108.831 E0.04177
G1 X163.380 Y107.801 E0.04177
G1 X162.752 Y106.626 E0.04177
G1 X162.657 Y106.314 E0.01023
G1 X154.685 Y106.314 E0.24997
G1 X154.661 Y106.561 E0.00777
G1 X154.217 Y108.023 E0.04792
G1 X153.497 Y109.371 E0.04792
G1 X152.527 Y110.552 E0.04792
G1 X151.346 Y111.522 E0.04792
G1 X149.998 Y112.242 E0.04792
G1 X148.536 Y112.686 E0.04792
G1 X147.015 Y112.835 E0.04792
G1 X145.494 Y112.686 E0.04792
G1 X144.032 Y112.242 E0.04792
G1 X142.684 Y111.522 E0.04792
G1 X141.503 Y110.552 E0.04792
G1 X140.533 Y109.371 E0.04792
G1 X139.813 Y108.023 E0.04792
G1 X139.369 Y106.561 E0.04792
G1 X139.345 Y106.314 E0.00777
G1 X131.372 Y106.314 E0.24997
G1 X131.278 Y106.626 E0.01023
G1 X130.650 Y107.801 E0.04177
G1 X129.805 Y108.831 E0.04177
G1 X128.775 Y109.676 E0.04177
G1 X127.600 Y110.304 E0.04177
G1 X126.326 Y110.690 E0.04177
G1 X125.000 Y110.821 E0.04177
G1 X123.674 Y110.690 E0.04176
G1 X122.400 Y110.304 E0.04177
G1 X121.225 Y109.676 E0.04177
G1 X120.195 Y108.831 E0.04177
G1 X119.350 Y107.801 E0.04177
G1 X118.722 Y106.626 E0.04177
G1 X118.628 Y106.314 E0.01023
G1 X87.343 Y106.314 E0.98091
G1 X87.248 Y106.626 E0.01023
G1 X86.620 Y107.801 E0.04177
G1 X85.775 Y108.831 E0.04177
G1 X84.745 Y109.676 E0.04177
G1 X83.571 Y110.304 E0.04177
G1 X83.121 Y110.440 E0.01473
G1 X82.296 Y110.690 E0.02703
G1 X80.970 Y110.821 E0.04177
G1 X79.645 Y110.690 E0.04176
G1 X78.370 Y110.304 E0.04176
G1 X77.195 Y109.676 E0.04177
G1 X76.166 Y108.831 E0.04177
G1 X75.321 Y107.801 E0.04177
G1 X74.693 Y106.626 E0.04177
G1 X74.306 Y105.352 E0.04177
G1 X74.175 Y104.026 E0.04177
G1 X74.306 Y102.700 E0.04177
G1 X74.693 Y101.426 E0.04177
G1 X75.321 Y100.251 E0.04177
G1 X76.166 Y99.221 E0.04176
G1 X77.195 Y98.376 E0.04177
G1 X78.370 Y97.748 E0.04177
G1 X79.645 Y97.362 E0.04177
G1 X80.970 Y97.231 E0.04176
G1 X82.296 Y97.362 E0.04177
G1 X83.571 Y97.748 E0.04177
G1 X84.745 Y98.376 E0.04177
G1 X85.775 Y99.221 E0.04177
G1 X86.620 Y100.251 E0.04177
G1 X87.248 Y101.426 E0.04177
G1 X87.325 Y101.680 E0.00835
G1 X87.063 Y102.115 F10800.000
G1 F1200.000
G1 X118.907 Y102.115 E0.99845
G1 X119.072 Y101.571 E0.01783
G1 X119.665 Y100.461 E0.03944
G1 X120.463 Y99.489 E0.03944
G1 X121.435 Y98.691 E0.03944
G1 X122.545 Y98.098 E0.03944
G1 X123.748 Y97.733 E0.03944
G1 X125.000 Y97.610 E0.03944
G1 X126.252 Y97.733 E0.03944
G1 X127.455 Y98.098 E0.03944
G1 X128.565 Y98.691 E0.03944
G1 X129.537 Y99.489 E0.03944
G1 X130.335 Y100.461 E0.03944
G1 X130.928 Y101.571 E0.03944
G1 X131.093 Y102.115 E0.01783
G1 X140.218 Y102.115 E0.28611
G1 X140.848 Y100.920 E0.04236
G1 X141.770 Y99.795 E0.04561
G1 X142.894 Y98.873 E0.04559
G1 X144.177 Y98.188 E0.04559
G1 X145.568 Y97.766 E0.04559
G1 X147.015 Y97.623 E0.04559
G1 X148.462 Y97.766 E0.04559
G1 X149.796 Y98.170 E0.04371
G1 X151.135 Y98.872 E0.04740
G1 X152.259 Y99.795 E0.04561
G1 X153.182 Y100.920 E0.04561
G1 X153.812 Y102.115 E0.04236
G1 X162.937 Y102.115 E0.28611
G1 X163.102 Y101.571 E0.01783
G1 X163.695 Y100.461 E0.03944
G1 X164.493 Y99.489 E0.03944
G1 X165.465 Y98.691 E0.03944
G1 X166.574 Y98.098 E0.03944
G1 X167.778 Y97.733 E0.03944
G1 X169.030 Y97.610 E0.03944
G1 X170.281 Y97.733 E0.03944
G1 X171.485 Y98.098 E0.03944
G1 X172.594 Y98.691 E0.03944
G1 X173.566 Y99.489 E0.03944
G1 X174.364 Y100.461 E0.03944
G1 X174.957 Y101.571 E0.03944
G1 X175.322 Y102.774 E0.03944
G1 X175.446 Y104.026 E0.03944
G1 X175.322 Y105.278 E0.03944
G1 X174.957 Y106.481 E0.03944
G1 X174.364 Y107.590 E0.03944
G1 X173.566 Y108.563 E0.03944
G1 X172.594 Y109.361 E0.03944
G1 X171.485 Y109.954 E0.03944
G1 X170.281 Y110.319 E0.03944
G1 X169.030 Y110.442 E0.03944
G1 X167.778 Y110.319 E0.03944
G1 X166.574 Y109.954 E0.03944
G1 X165.465 Y109.361 E0.03944
G1 X164.493 Y108.563 E0.03944
G1 X163.695 Y107.590 E0.03944
G1 X163.102 Y106.481 E0.03944
G1 X162.937 Y105.937 E0.01783
G1 X154.343 Y105.937 E0.26945
G1 X154.289 Y106.487 E0.01732
G1 X153.867 Y107.878 E0.04559
G1 X153.182 Y109.160 E0.04559
G1 X152.259 Y110.284 E0.04559
G1 X151.135 Y111.206 E0.04559
G1 X149.853 Y111.892 E0.04559
G1 X148.462 Y112.314 E0.04559
G1 X147.015 Y112.456 E0.04559
G1 X145.568 Y112.314 E0.04559
G1 X144.177 Y111.892 E0.04559
G1 X142.894 Y111.206 E0.04559
G1 X141.770 Y110.284 E0.04559
G1 X140.848 Y109.160 E0.04559
G1 X140.163 Y107.878 E0.04559
G1 X139.741 Y106.487 E0.04559
G1 X139.686 Y105.937 E0.01732
G1 X131.093 Y105.937 E0.26945
G1 X130.928 Y106.481 E0.01783
G1 X130.335 Y107.590 E0.03944
G1 X129.537 Y108.563 E0.03944
G1 X128.565 Y109.361 E0.03944
G1 X127.455 Y109.954 E0.03944
G1 X126.252 Y110.319 E0.03944
G1 X125.000 Y110.442 E0.03944
G1 X123.748 Y110.319 E0.03944
G1 X122.545 Y109.954 E0.03944
G1 X121.435 Y109.361 E0.03944
G1 X120.463 Y108.563 E0.03944
G1 X119.665 Y107.590 E0.03944
G1 X119.072 Y106.481 E0.03944
G1 X118.907 Y105.937 E0.01783
G1 X87.063 Y105.937 E0.99845
G1 X86.898 Y106.481 E0.01783
G1 X86.305 Y107.590 E0.03944
G1 X85.507 Y108.563 E0.03944
G1 X84.535 Y109.361 E0.03944
G1 X83.426 Y109.954 E0.03944
G1 X83.012 Y110.079 E0.01357
G1 X82.222 Y110.319 E0.02587
G1 X80.970 Y110.442 E0.03944
G1 X79.719 Y110.319 E0.03944
G1 X78.515 Y109.954 E0.03944
G1 X77.406 Y109.361 E0.03944
G1 X76.434 Y108.563 E0.03944
G1 X75.636 Y107.590 E0.03944
G1 X75.043 Y106.481 E0.03944
G1 X74.678 Y105.278 E0.03944
G1 X74.554 Y104.026 E0.03944
G1 X74.678 Y102.774 E0.03944
G1 X75.043 Y101.571 E0.03944
G1 X75.636 Y100.461 E0.03944
G1 X76.434 Y99.489 E0.03944
G1 X77.406 Y98.691 E0.03944
G1 X78.515 Y98.098 E0.03944
G1 X79.719 Y97.733 E0.03944
G1 X80.970 Y97.610 E0.03944
G1 X82.222 Y97.733 E0.03944
G1 X83.426 Y98.098 E0.03944
G1 X84.535 Y98.691 E0.03944
G1 X85.507 Y99.489 E0.03944
G1 X86.305 Y100.461 E0.03944
G1 X86.898 Y101.571 E0.03944
G1 X87.046 Y102.057 E0.01595
G1 X87.377 Y101.867 F10800.000
G1 E-0.80000 F2100.00000
G1 Z0.800 F10800.000
G1 X70.750 Y96.781
G1 Z0.200
G1 E0.80000 F2100.00000
G1 F1200.000
G1 X179.250 Y96.781 E3.40194
G1 X179.250 Y113.219 E0.51540
G1 X70.750 Y113.219 E3.40194
M73 P6 R17
G1 X70.750 Y96.841 E0.51352
G1 X70.373 Y96.404 F10800.000
G1 F1200.000
G1 X179.627 Y96.404 E3.42559
G1 X179.627 Y113.596 E0.53905
G1 X70.373 Y113.596 E3.42558
G1 X70.373 Y96.464 E0.53717
G1 X70.772 Y96.425 F10800.000
G1 E-0.80000 F2100.00000
G1 Z0.800 F10800.000
G1 X79.030 Y97.430
G1 Z0.200
G1 E0.80000 F2100.00000
G1 F1200.000
G1 X78.664 Y97.064 E0.01633
G1 X78.128 Y97.064 E0.01693
G1 X78.483 Y97.419 E0.01583
G1 X78.261 Y97.486 E0.00729
G1 X78.099 Y97.572 E0.00579
G1 X77.591 Y97.064 E0.02268
G1 X77.054 Y97.064 E0.01693
G1 X77.750 Y97.759 E0.03103
G1 X77.400 Y97.946 E0.01251
G1 X76.518 Y97.064 E0.03937
G1 X75.981 Y97.064 E0.01693
G1 X77.050 Y98.133 E0.04771
G1 X76.754 Y98.373 E0.01204
G1 X75.445 Y97.064 E0.05841
G1 X74.908 Y97.064 E0.01693
G1 X76.459 Y98.615 E0.06921
G1 X76.164 Y98.857 E0.01203
G1 X74.371 Y97.064 E0.08000
G1 X73.835 Y97.064 E0.01693
G1 X75.886 Y99.116 E0.09156
G1 X75.644 Y99.410 E0.01203
G1 X73.298 Y97.064 E0.10471
G1 X72.761 Y97.064 E0.01693
G1 X75.403 Y99.705 E0.11786
G1 X75.161 Y100.000 E0.01203
G1 X72.225 Y97.064 E0.13102
G1 X71.688 Y97.064 E0.01693
G1 X74.956 Y100.332 E0.14585
G1 X74.769 Y100.682 E0.01251
G1 X71.151 Y97.064 E0.16145
G1 X71.033 Y97.064 E0.00374
G1 X71.033 Y97.482 E0.01319
G1 X74.583 Y101.032 E0.15840
G1 X74.407 Y101.393 E0.01267
G1 X71.033 Y98.019 E0.15057
G1 X71.033 Y98.555 E0.01693
G1 X74.282 Y101.805 E0.14499
G1 X74.157 Y102.216 E0.01358
G1 X71.033 Y99.092 E0.13942
G1 X71.033 Y99.629 E0.01693
G1 X74.032 Y102.628 E0.13385
G1 X73.981 Y103.114 E0.01540
G1 X71.033 Y100.165 E0.13156
G1 X71.033 Y100.702 E0.01693
G1 X73.933 Y103.602 E0.12941
G1 X73.891 Y104.026 E0.01344
G1 X73.899 Y104.105 E0.00250
G1 X71.033 Y101.239 E0.12790
G1 X71.033 Y101.775 E0.01693
G1 X73.958 Y104.700 E0.13051
G1 X74.016 Y105.295 E0.01887
G1 X71.033 Y102.312 E0.13313
G1 X71.033 Y102.849 E0.01693
G1 X74.217 Y106.033 E0.14209
G1 X74.430 Y106.735 E0.02315
G1 X74.485 Y106.837 E0.00365
G1 X71.033 Y103.385 E0.15403
G1 X71.033 Y103.922 E0.01693
G1 X80.047 Y112.936 E0.40225
G1 X79.511 Y112.936 E0.01693
G1 X71.033 Y104.458 E0.37830
G1 X71.033 Y104.995 E0.01693
G1 X78.974 Y112.936 E0.35435
G1 X78.437 Y112.936 E0.01693
G1 X71.033 Y105.532 E0.33041
G1 X71.033 Y106.068 E0.01693
G1 X77.901 Y112.936 E0.30646
G1 X77.364 Y112.936 E0.01693
G1 X71.033 Y106.605 E0.28251
G1 X71.033 Y107.142 E0.01693
G1 X76.827 Y112.936 E0.25856
G1 X76.291 Y112.936 E0.01693
G1 X71.033 Y107.678 E0.23462
G1 X71.033 Y108.215 E0.01693
G1 X75.754 Y112.936 E0.21067
G1 X75.217 Y112.936 E0.01693
G1 X71.033 Y108.752 E0.18672
G1 X71.033 Y109.288 E0.01693
G1 X74.681 Y112.936 E0.16278
G1 X74.144 Y112.936 E0.01693
G1 X71.033 Y109.825 E0.13883
G1 X71.033 Y110.362 E0.01693
G1 X73.607 Y112.936 E0.11488
G1 X73.071 Y112.936 E0.01693
G1 X71.033 Y110.898 E0.09094
G1 X71.033 Y111.435 E0.01693
G1 X72.534 Y112.936 E0.06699
G1 X71.997 Y112.936 E0.01693
G1 X71.033 Y111.972 E0.04304
G1 X71.033 Y112.508 E0.01693
G1 X71.630 Y113.106 E0.02667
G1 E-0.80000 F2100.00000
G1 Z0.800 F10800.000
G1 X77.746 Y110.098
G1 Z0.200
G1 E0.80000 F2100.00000
G1 F1200.000
G1 X80.584 Y112.936 E0.12664
G1 X81.120 Y112.936 E0.01693
G1 X78.963 Y110.779 E0.09626
G1 X79.589 Y110.969 E0.02064
G1 X79.701 Y110.980 E0.00354
G1 X81.657 Y112.936 E0.08729
G1 X82.194 Y112.936 E0.01693
G1 X80.296 Y111.039 E0.08468
G1 X80.891 Y111.097 E0.01887
G1 X82.730 Y112.936 E0.08206
G1 X83.267 Y112.936 E0.01693
G1 X81.394 Y111.063 E0.08358
G1 X81.883 Y111.015 E0.01549
G1 X83.804 Y112.936 E0.08572
G1 X84.340 Y112.936 E0.01693
G1 X82.368 Y110.964 E0.08801
G1 X82.780 Y110.839 E0.01358
G1 X84.877 Y112.936 E0.09358
G1 X85.414 Y112.936 E0.01693
G1 X83.192 Y110.714 E0.09916
G1 X83.603 Y110.589 E0.01358
G1 X85.950 Y112.936 E0.10473
G1 X86.487 Y112.936 E0.01693
G1 X83.965 Y110.414 E0.11256
G1 X84.314 Y110.227 E0.01251
G1 X87.024 Y112.936 E0.12090
G1 X87.560 Y112.936 E0.01693
G1 X84.664 Y110.040 E0.12924
G1 X84.903 Y109.912 E0.00856
G1 X84.996 Y109.836 E0.00380
G1 X88.097 Y112.936 E0.13836
G1 X88.634 Y112.936 E0.01693
G1 X85.291 Y109.594 E0.14915
G1 X85.586 Y109.352 E0.01203
G1 X89.170 Y112.936 E0.15995
G1 X89.707 Y112.936 E0.01693
G1 X85.881 Y109.110 E0.17074
G1 X85.976 Y109.032 E0.00389
G1 X86.140 Y108.832 E0.00814
G1 X90.244 Y112.936 E0.18313
G1 X90.780 Y112.936 E0.01693
G1 X86.382 Y108.537 E0.19628
G1 X86.623 Y108.243 E0.01203
G1 X91.317 Y112.936 E0.20944
G1 X91.854 Y112.936 E0.01693
G1 X86.863 Y107.946 E0.22268
G1 X87.050 Y107.596 E0.01251
G1 X92.390 Y112.936 E0.23829
G1 X92.927 Y112.936 E0.01693
G1 X87.237 Y107.246 E0.25389
G1 X87.424 Y106.897 E0.01251
G1 X93.464 Y112.936 E0.26950
G1 X94.000 Y112.936 E0.01693
G1 X87.661 Y106.597 E0.28288
G1 X88.197 Y106.597 E0.01693
G1 X94.537 Y112.936 E0.28288
G1 X95.073 Y112.936 E0.01693
G1 X88.734 Y106.597 E0.28288
G1 X89.271 Y106.597 E0.01693
G1 X95.610 Y112.936 E0.28288
G1 X96.147 Y112.936 E0.01693
G1 X89.807 Y106.597 E0.28288
G1 X90.344 Y106.597 E0.01693
G1 X96.683 Y112.936 E0.28288
G1 X97.220 Y112.936 E0.01693
G1 X90.881 Y106.597 E0.28288
G1 X91.417 Y106.597 E0.01693
G1 X97.757 Y112.936 E0.28288
G1 X98.293 Y112.936 E0.01693
G1 X91.954 Y106.597 E0.28288
G1 X92.491 Y106.597 E0.01693
G1 X98.830 Y112.936 E0.28288
G1 X99.367 Y112.936 E0.01693
G1 X93.027 Y106.597 E0.28288
G1 X93.564 Y106.597 E0.01693
G1 X99.903 Y112.936 E0.28288
G1 X100.440 Y112.936 E0.01693
G1 X94.101 Y106.597 E0.28288
G1 X94.637 Y106.597 E0.01693
G1 X100.977 Y112.936 E0.28288
G1 X101.513 Y112.936 E0.01693
G1 X95.174 Y106.597 E0.28288
G1 X95.711 Y106.597 E0.01693
G1 X102.050 Y112.936 E0.28288
G1 X102.587 Y112.936 E0.01693
G1 X96.247 Y106.597 E0.28288
G1 X96.784 Y106.597 E0.01693
G1 X103.123 Y112.936 E0.28288
G1 X103.660 Y112.936 E0.01693
G1 X97.321 Y106.597 E0.28288
G1 X97.857 Y106.597 E0.01693
G1 X104.197 Y112.936 E0.28288
G1 X104.733 Y112.936 E0.01693
G1 X98.394 Y106.597 E0.28288
G1 X98.930 Y106.597 E0.01693
G1 X105.270 Y112.936 E0.28288
G1 X105.807 Y112.936 E0.01693
G1 X99.467 Y106.597 E0.28288
G1 X100.004 Y106.597 E0.01693
G1 X106.343 Y112.936 E0.28288
G1 X106.880 Y112.936 E0.01693
G1 X100.540 Y106.597 E0.28288
G1 X101.077 Y106.597 E0.01693
G1 X107.416 Y112.936 E0.28288
G1 X107.953 Y112.936 E0.01693
