; generated by PrusaSlicer 2.2.0+win64 on 2020-08-26 at 17:24:29 UTC

; 

; external perimeters extrusion width = 0.45mm
; perimeters extrusion width = 0.45mm
; infill extrusion width = 0.45mm
; solid infill extrusion width = 0.45mm
; top infill extrusion width = 0.40mm
; first layer extrusion width = 0.42mm

M73 P0 R86
M201 X9000 Y9000 Z500 E10000 ; sets maximum accelerations, mm/sec^2
M203 X500 Y500 Z12 E120 ; sets maximum feedrates, mm/sec
M204 P2000 R1500 T2000 ; sets acceleration (P, T) and retract acceleration (R), mm/sec^2
M205 X10.00 Y10.00 Z0.20 E2.50 ; sets the jerk limits, mm/sec
M205 S0 T0 ; sets the minimum extruding and travel feed rate, mm/sec
M107
M862.3 P "MK2.5SMMU2S" ; printer model check
M862.1 P0.4 ; nozzle diameter check
M115 U3.8.0 ; tell printer latest fw version
G90 ; use absolute coordinates
M83 ; extruder relative mode
M104 S215 ; set extruder temp
M140 S60 ; set bed temp
Tx
M190 S60 ; wait for bed temp
M109 S215 ; wait for extruder temp
G28 W ; home all without mesh bed level
G80 ; mesh bed leveling

G21 ; set units to millimeters

;go outside print area
G1 Y-3.0 F1000.0
G1 Z0.4 F1000.0
; select extruder
Tc
; purge line
G1 X55.0 F2000.0
G1 Z0.3 F1000.0
G92 E0.0
G1 X240.0 E25.0 F2200.0
M73 P0 R86
G1 Y-2.0 F1000.0
G1 X55.0 E25 F1400.0
G1 Z0.20 F1000.0
G1 X5.0 E4.0 F1000.0
G92 E0.0
G21 ; set units to millimeters
G90 ; use absolute coordinates
M83 ; use relative distances for extrusion
M900 K0.06 ; Filament gcode LA 1.5
M900 K30 ; Filament gcode LA 1.0
;BEFORE_LAYER_CHANGE
G92 E0.0
;0.2


G1 E-0.80000 F2100.00000
G1 Z0.600 F10800.000
;AFTER_LAYER_CHANGE
;0.2
G1 X113.791 Y103.476
G1 Z0.200
G1 E0.80000 F2100.00000
M204 S1000
G1 F1200.000
G1 X114.369 Y102.870 E0.02625
G1 X115.124 Y102.456 E0.02701
G1 X115.971 Y102.296 E0.02701
G1 X133.965 Y102.295 E0.56417
G1 X134.686 Y102.392 E0.02282
G1 X135.360 Y102.677 E0.02294
G1 X135.935 Y103.129 E0.02294
G1 X136.371 Y103.717 E0.02294
G1 X136.645 Y104.435 E0.02409
G1 X137.523 Y108.745 E0.13793
G1 X137.540 Y117.064 E0.26082
G1 X137.427 Y117.613 E0.01758
G1 X137.207 Y118.124 E0.01745
G1 X136.889 Y118.581 E0.01745
G1 X136.485 Y118.964 E0.01745
G1 X135.726 Y119.380 E0.02714
G1 X134.875 Y119.539 E0.02714
G1 X115.142 Y119.539 E0.61870
G1 X114.534 Y119.458 E0.01924
G1 X113.959 Y119.244 E0.01924
G1 X113.448 Y118.911 E0.01912
G1 X113.021 Y118.470 E0.01924
G1 X112.621 Y117.753 E0.02574
G1 X112.450 Y116.950 E0.02574
G1 X112.456 Y108.983 E0.24981
G1 X113.423 Y104.228 E0.15214
G1 X113.765 Y103.530 E0.02437
G1 X114.101 Y103.694 F10800.000
G1 F1200.000
G1 X114.623 Y103.150 E0.02364
G1 X115.273 Y102.804 E0.02308
G1 X115.993 Y102.673 E0.02296
G1 X133.964 Y102.672 E0.56347
G1 X134.604 Y102.761 E0.02024
G1 X135.196 Y103.018 E0.02024
G1 X135.696 Y103.426 E0.02024
G1 X136.071 Y103.956 E0.02036
G1 X136.281 Y104.534 E0.01929
G1 X137.154 Y108.826 E0.13732
G1 X137.167 Y117.006 E0.25648
G1 X137.070 Y117.491 E0.01550
G1 X136.875 Y117.945 E0.01550
G1 X136.591 Y118.349 E0.01550
G1 X136.229 Y118.686 E0.01550
G1 X135.579 Y119.031 E0.02308
G1 X134.855 Y119.162 E0.02308
G1 X115.150 Y119.162 E0.61782
G1 X114.619 Y119.091 E0.01680
G1 X114.117 Y118.902 E0.01680
G1 X113.668 Y118.603 E0.01692
G1 X113.300 Y118.214 E0.01680
G1 X112.964 Y117.593 E0.02213
G1 X112.826 Y116.905 E0.02201
G1 X112.832 Y109.011 E0.24750
G1 X113.778 Y104.356 E0.14895
G1 X114.075 Y103.747 E0.02121
G1 E-0.80000 F2100.00000
G1 Z0.800 F10800.000
G1 X125.000 Y115.843
G1 Z0.200
G1 E0.80000 F2100.00000
G1 F1200.000
G1 X118.913 Y115.843 E0.19086
G1 X118.913 Y110.162 E0.17813
G1 X131.087 Y110.162 E0.38172
G1 X131.087 Y115.843 E0.17813
G1 X125.060 Y115.843 E0.18898
G1 X125.000 Y115.466 F10800.000
G1 F1200.000
G1 X119.290 Y115.466 E0.17904
G1 X119.290 Y110.539 E0.15448
G1 X130.710 Y110.539 E0.35808
G1 X130.710 Y115.466 E0.15448
G1 X125.060 Y115.466 E0.17716
G1 X124.887 Y115.850 F10800.000
G1 X125.000 Y116.198
G1 F1200.000
G1 X115.787 Y116.198 E0.28887
G1 X115.787 Y109.280 E0.21693
G1 X116.503 Y105.773 E0.11222
G1 X122.043 Y105.773 E0.17368
G1 X122.729 Y106.161 E0.02472
G1 X123.142 Y106.331 E0.01399
G1 X123.615 Y106.478 E0.01554
G1 X124.057 Y106.575 E0.01419
G1 X124.534 Y106.638 E0.01511
G1 X125.000 Y106.658 E0.01461
G1 X125.465 Y106.638 E0.01461
G1 X125.943 Y106.575 E0.01511
G1 X126.385 Y106.478 E0.01419
G1 X126.858 Y106.330 E0.01554
G1 X127.266 Y106.163 E0.01384
G1 X127.720 Y105.929 E0.01599
G1 X127.961 Y105.773 E0.00901
G1 X133.509 Y105.773 E0.17396
G1 X134.213 Y109.219 E0.11027
G1 X134.213 Y116.198 E0.21884
G1 X125.060 Y116.198 E0.28700
G1 X125.000 Y116.575 F10800.000
G1 F1200.000
G1 X115.410 Y116.575 E0.30070
G1 X115.410 Y109.241 E0.22995
G1 X116.196 Y105.396 E0.12306
G1 X122.152 Y105.396 E0.18675
G1 X122.892 Y105.820 E0.02675
G1 X123.270 Y105.975 E0.01282
G1 X123.712 Y106.114 E0.01451
G1 X124.122 Y106.204 E0.01316
G1 X124.567 Y106.262 E0.01409
G1 X125.000 Y106.280 E0.01359
G1 X125.433 Y106.262 E0.01359
G1 X125.878 Y106.204 E0.01409
G1 X126.288 Y106.114 E0.01316
G1 X126.730 Y105.975 E0.01451
G1 X127.108 Y105.820 E0.01281
G1 X127.530 Y105.602 E0.01490
G1 X127.850 Y105.396 E0.01192
G1 X133.817 Y105.396 E0.18710
G1 X134.590 Y109.181 E0.12112
G1 X134.590 Y116.575 E0.23186
G1 X125.060 Y116.575 E0.29882
G1 X124.730 Y116.281 F10800.000
G1 E-0.80000 F2100.00000
G1 Z0.800 F10800.000
G1 X131.200 Y115.659
G1 Z0.200
G1 E0.80000 F2100.00000
G1 F1200.000
G1 X131.457 Y115.916 E0.01139
G1 X131.991 Y115.916 E0.01679
G1 X131.370 Y115.295 E0.02759
G1 X131.370 Y114.760 E0.01679
G1 X132.525 Y115.916 E0.05134
G1 X133.060 Y115.916 E0.01679
G1 X131.370 Y114.226 E0.07508
G1 X131.370 Y113.691 E0.01679
G1 X133.594 Y115.916 E0.09883
G1 X133.931 Y115.916 E0.01057
G1 X133.931 Y115.718 E0.00622
G1 X131.370 Y113.157 E0.11377
G1 X131.370 Y112.623 E0.01679
G1 X133.931 Y115.183 E0.11377
G1 X133.931 Y114.649 E0.01679
G1 X131.370 Y112.088 E0.11377
G1 X131.370 Y111.554 E0.01679
G1 X133.931 Y114.114 E0.11377
G1 X133.931 Y113.580 E0.01679
G1 X131.370 Y111.020 E0.11377
G1 X131.370 Y110.485 E0.01679
G1 X134.100 Y113.215 E0.12131
G1 E-0.80000 F2100.00000
G1 Z0.800 F10800.000
G1 X133.614 Y106.851
G1 Z0.200
G1 E0.80000 F2100.00000
G1 F1200.000
G1 X132.819 Y106.056 E0.03532
G1 X132.285 Y106.056 E0.01679
G1 X133.533 Y107.305 E0.05549
G1 X133.671 Y107.976 E0.02154
G1 X131.750 Y106.056 E0.08533
G1 X131.216 Y106.056 E0.01679
G1 X133.808 Y108.648 E0.11518
G1 X133.931 Y109.305 E0.02099
G1 X130.682 Y106.056 E0.14437
G1 X130.147 Y106.056 E0.01679
G1 X133.931 Y109.839 E0.16811
G1 X133.931 Y110.374 E0.01679
G1 X129.613 Y106.056 E0.19185
G1 X129.078 Y106.056 E0.01679
G1 X133.931 Y110.908 E0.21560
G1 X133.931 Y111.442 E0.01679
G1 X128.544 Y106.056 E0.23934
G1 X128.044 Y106.056 E0.01570
G1 X128.023 Y106.070 E0.00079
G1 X133.931 Y111.977 E0.26248
G1 X133.931 Y112.511 E0.01679
G1 X127.685 Y106.265 E0.27753
G1 X127.328 Y106.443 E0.01252
G1 X130.764 Y109.880 E0.15269
G1 X130.230 Y109.880 E0.01679
G1 X126.949 Y106.598 E0.14579
G1 X126.542 Y106.726 E0.01340
G1 X129.696 Y109.880 E0.14014
G1 X129.161 Y109.880 E0.01679
G1 X126.110 Y106.828 E0.13558
G1 X125.647 Y106.899 E0.01473
G1 X128.627 Y109.880 E0.13242
G1 X128.093 Y109.880 E0.01679
G1 X125.148 Y106.935 E0.13086
G1 X124.602 Y106.924 E0.01713
G1 X127.558 Y109.880 E0.13133
G1 X127.024 Y109.880 E0.01679
G1 X123.996 Y106.852 E0.13454
G1 X123.542 Y106.752 E0.01460
G1 X123.280 Y106.670 E0.00863
G1 X126.489 Y109.880 E0.14261
G1 X125.955 Y109.880 E0.01679
G1 X122.354 Y106.278 E0.16002
G1 X121.961 Y106.056 E0.01418
G1 X121.597 Y106.056 E0.01144
G1 X125.421 Y109.880 E0.16990
G1 X124.886 Y109.880 E0.01679
G1 X121.063 Y106.056 E0.16990
G1 X120.528 Y106.056 E0.01679
G1 X124.352 Y109.880 E0.16990
G1 X123.817 Y109.880 E0.01679
G1 X119.994 Y106.056 E0.16990
G1 X119.460 Y106.056 E0.01679
G1 X123.283 Y109.880 E0.16990
G1 X122.749 Y109.880 E0.01679
G1 X118.925 Y106.056 E0.16990
G1 X118.391 Y106.056 E0.01679
G1 X122.214 Y109.880 E0.16990
G1 X121.680 Y109.880 E0.01679
G1 X117.856 Y106.056 E0.16990
G1 X117.322 Y106.056 E0.01679
G1 X121.146 Y109.880 E0.16990
G1 X120.611 Y109.880 E0.01679
G1 X116.788 Y106.056 E0.16990
G1 X116.734 Y106.056 E0.00168
G1 X116.653 Y106.455 E0.01281
G1 X120.077 Y109.880 E0.15215
G1 X119.542 Y109.880 E0.01679
G1 X116.562 Y106.899 E0.13244
G1 X116.471 Y107.343 E0.01423
G1 X119.008 Y109.880 E0.11272
G1 X118.630 Y109.880 E0.01188
G1 X118.630 Y110.036 E0.00491
G1 X116.381 Y107.786 E0.09995
G1 X116.290 Y108.230 E0.01423
G1 X118.630 Y110.570 E0.10398
G1 X118.630 Y111.105 E0.01679
G1 X116.199 Y108.674 E0.10801
G1 X116.108 Y109.117 E0.01423
G1 X118.630 Y111.639 E0.11204
G1 X118.630 Y112.173 E0.01679
G1 X116.069 Y109.613 E0.11377
G1 X116.069 Y110.147 E0.01679
G1 X118.630 Y112.708 E0.11377
G1 X118.630 Y113.242 E0.01679
G1 X116.069 Y110.682 E0.11377
G1 X116.069 Y111.216 E0.01679
G1 X118.630 Y113.776 E0.11377
G1 X118.630 Y114.311 E0.01679
G1 X116.070 Y111.750 E0.11377
G1 X116.070 Y112.285 E0.01679
G1 X118.630 Y114.845 E0.11377
G1 X118.630 Y115.380 E0.01679
G1 X116.070 Y112.819 E0.11377
G1 X116.070 Y113.354 E0.01679
G1 X118.630 Y115.914 E0.11377
G1 X118.097 Y115.916 E0.01674
G1 X116.070 Y113.888 E0.09009
G1 X116.070 Y114.422 E0.01679
G1 X117.563 Y115.916 E0.06635
G1 X117.028 Y115.916 E0.01679
G1 X116.070 Y114.957 E0.04260
G1 X116.070 Y115.491 E0.01679
G1 X116.664 Y116.085 E0.02640
M106 S175.95
;BEFORE_LAYER_CHANGE
G92 E0.0
;0.4


G1 E-0.80000 F2100.00000
G1 Z0.800 F10800.000
;AFTER_LAYER_CHANGE
;0.4
G1 X112.621 Y117.753
G1 Z0.400
G1 E0.80000 F2100.00000
G1 F1856
G1 X112.450 Y116.950 E0.02574
G1 X112.456 Y108.983 E0.24981
G1 X113.423 Y104.228 E0.15214
G1 X113.791 Y103.476 E0.02625
G1 X114.369 Y102.870 E0.02625
G1 X115.124 Y102.456 E0.02701
G1 X115.971 Y102.296 E0.02701
G1 X133.965 Y102.295 E0.56417
G1 X134.686 Y102.392 E0.02282
G1 X135.360 Y102.677 E0.02294
G1 X135.935 Y103.129 E0.02294
G1 X136.371 Y103.717 E0.02294
G1 X136.645 Y104.435 E0.02409
G1 X137.523 Y108.745 E0.13793
G1 X137.540 Y117.064 E0.26082
G1 X137.427 Y117.613 E0.01758
G1 X137.207 Y118.124 E0.01745
G1 X136.889 Y118.581 E0.01745
G1 X136.485 Y118.964 E0.01745
G1 X135.726 Y119.380 E0.02714
G1 X134.875 Y119.539 E0.02714
G1 X115.142 Y119.539 E0.61870
G1 X114.534 Y119.458 E0.01924
G1 X113.959 Y119.244 E0.01924
G1 X113.448 Y118.911 E0.01912
G1 X113.021 Y118.470 E0.01924
G1 X112.650 Y117.806 E0.02386
G1 X112.982 Y117.626 F10800.000
G1 F1856
G1 X112.826 Y116.905 E0.02315
G1 X112.832 Y109.011 E0.24750
G1 X113.778 Y104.356 E0.14895
G1 X114.104 Y103.687 E0.02331
G1 X114.623 Y103.150 E0.02343
G1 X115.273 Y102.804 E0.02308
G1 X115.993 Y102.673 E0.02296
G1 X133.964 Y102.672 E0.56347
G1 X134.604 Y102.761 E0.02024
G1 X135.196 Y103.018 E0.02024
G1 X135.696 Y103.426 E0.02024
G1 X136.071 Y103.956 E0.02036
G1 X136.281 Y104.534 E0.01929
G1 X137.154 Y108.826 E0.13732
G1 X137.167 Y117.006 E0.25648
G1 X137.070 Y117.491 E0.01550
G1 X136.875 Y117.945 E0.01550
G1 X136.591 Y118.349 E0.01550
G1 X136.229 Y118.686 E0.01550
G1 X135.579 Y119.031 E0.02308
G1 X134.855 Y119.162 E0.02308
G1 X115.150 Y119.162 E0.61782
G1 X114.619 Y119.091 E0.01680
G1 X114.117 Y118.902 E0.01680
G1 X113.668 Y118.603 E0.01692
G1 X113.300 Y118.214 E0.01680
G1 X113.011 Y117.679 E0.01906
G1 E-0.80000 F2100.00000
G1 Z1.000 F10800.000
G1 X125.000 Y115.888
G1 Z0.400
G1 E0.80000 F2100.00000
M204 S800
G1 F1500.000
G1 X118.868 Y115.888 E0.20757
G1 X118.868 Y110.117 E0.19534
G1 X131.132 Y110.117 E0.41514
G1 X131.132 Y115.888 E0.19534
G1 X125.060 Y115.888 E0.20554
M204 S1000
G1 X125.000 Y115.481 F10800.000
M204 S800
G1 F1500.000
G1 X119.275 Y115.481 E0.19379
G1 X119.275 Y110.524 E0.16779
G1 X130.725 Y110.524 E0.38758
G1 X130.725 Y115.481 E0.16779
G1 X125.060 Y115.481 E0.19176
M204 S1000
G1 X124.887 Y115.865 F10800.000
G1 X125.000 Y116.153
M204 S800
G1 F1856
G1 X115.832 Y116.153 E0.31033
G1 X115.832 Y109.284 E0.23251
G1 X116.554 Y105.750 E0.12211
G1 X121.940 Y105.750 E0.18230
G1 X122.247 Y105.963 E0.01267
G1 X122.719 Y106.206 E0.01796
G1 X123.127 Y106.373 E0.01491
G1 X123.606 Y106.522 E0.01698
G1 X124.049 Y106.620 E0.01537
G1 X124.533 Y106.683 E0.01652
G1 X125.000 Y106.703 E0.01582
G1 X125.474 Y106.682 E0.01607
G1 X125.951 Y106.620 E0.01628
G1 X126.402 Y106.520 E0.01561
G1 X126.874 Y106.373 E0.01674
G1 X127.288 Y106.203 E0.01516
G1 X127.747 Y105.966 E0.01747
G1 X128.070 Y105.750 E0.01315
G1 X133.458 Y105.750 E0.18241
G1 X134.168 Y109.223 E0.12001
G1 X134.168 Y116.153 E0.23457
G1 X125.060 Y116.153 E0.30831
M204 S1000
G1 X125.000 Y116.560 F10800.000
M204 S800
G1 F1856
G1 X115.425 Y116.560 E0.32411
G1 X115.425 Y109.243 E0.24769
G1 X116.222 Y105.343 E0.13475
G1 X122.057 Y105.343 E0.19753
G1 X122.458 Y105.614 E0.01638
G1 X122.890 Y105.836 E0.01643
G1 X123.265 Y105.990 E0.01372
G1 X123.710 Y106.129 E0.01579
G1 X124.119 Y106.218 E0.01417
G1 X124.568 Y106.277 E0.01533
G1 X125.000 Y106.295 E0.01463
G1 X125.439 Y106.276 E0.01488
G1 X125.881 Y106.218 E0.01509
G1 X126.297 Y106.127 E0.01442
G1 X126.735 Y105.990 E0.01554
G1 X127.117 Y105.833 E0.01396
G1 X127.539 Y105.615 E0.01610
G1 X127.946 Y105.343 E0.01655
G1 X133.791 Y105.343 E0.19784
G1 X134.575 Y109.182 E0.13265
G1 X134.575 Y116.560 E0.24975
G1 X125.060 Y116.560 E0.32209
M204 S1000
G1 X124.730 Y116.266 F10800.000
G1 E-0.80000 F2100.00000
G1 Z1.000 F10800.000
G1 X117.921 Y116.031
G1 Z0.400
G1 E0.80000 F2100.00000
M204 S2000
G1 F1856
G1 X118.562 Y115.389 E0.03137
G1 X118.562 Y114.802 E0.02032
G1 X117.516 Y115.848 E0.05115
G1 X116.928 Y115.848 E0.02032
G1 X118.562 Y114.214 E0.07989
G1 X118.562 Y113.626 E0.02032
G1 X116.340 Y115.848 E0.10862
G1 X116.137 Y115.848 E0.00702
G1 X116.137 Y115.463 E0.01329
G1 X118.562 Y113.038 E0.11856
G1 X118.562 Y112.450 E0.02032
G1 X116.137 Y114.876 E0.11856
G1 X116.137 Y114.288 E0.02032
G1 X118.562 Y111.862 E0.11856
G1 X118.562 Y111.274 E0.02032
G1 X116.137 Y113.700 E0.11856
G1 X116.137 Y113.112 E0.02032
G1 X118.746 Y110.503 E0.12751
M204 S1000
G1 E-0.80000 F2100.00000
G1 Z1.000 F10800.000
G1 X117.499 Y105.872
G1 Z0.400
G1 E0.80000 F2100.00000
M204 S2000
G1 F1856
G1 X116.672 Y106.699 E0.04042
G1 X116.521 Y107.438 E0.02607
G1 X117.903 Y106.055 E0.06758
G1 X118.491 Y106.055 E0.02032
G1 X116.370 Y108.176 E0.10369
G1 X116.219 Y108.915 E0.02607
G1 X119.079 Y106.055 E0.13981
M73 P1 R85
G1 X119.667 Y106.055 E0.02032
G1 X116.137 Y109.585 E0.17254
G1 X116.137 Y110.173 E0.02032
G1 X120.255 Y106.055 E0.20127
G1 X120.842 Y106.055 E0.02032
G1 X116.137 Y110.761 E0.23001
G1 X116.137 Y111.348 E0.02032
G1 X121.430 Y106.055 E0.25874
G1 X121.847 Y106.055 E0.01440
G1 X121.948 Y106.126 E0.00425
G1 X116.137 Y111.936 E0.28403
G1 X116.137 Y112.524 E0.02032
G1 X122.318 Y106.343 E0.30215
G1 X122.715 Y106.534 E0.01522
G1 X119.437 Y109.812 E0.16023
G1 X120.025 Y109.812 E0.02032
G1 X123.140 Y106.697 E0.15227
G1 X123.593 Y106.832 E0.01633
G1 X120.613 Y109.812 E0.14566
G1 X121.201 Y109.812 E0.02032
G1 X124.081 Y106.932 E0.14079
G1 X124.609 Y106.992 E0.01837
G1 X121.788 Y109.812 E0.13786
G1 X122.376 Y109.812 E0.02032
G1 X125.188 Y107.000 E0.13744
G1 X125.501 Y106.987 E0.01083
G1 X125.833 Y106.943 E0.01158
G1 X122.964 Y109.812 E0.14023
G1 X123.552 Y109.812 E0.02032
G1 X126.579 Y106.785 E0.14797
G1 X126.978 Y106.660 E0.01443
G1 X127.532 Y106.420 E0.02087
G1 X124.140 Y109.812 E0.16579
G1 X124.728 Y109.812 E0.02032
G1 X128.485 Y106.055 E0.18364
G1 X129.073 Y106.055 E0.02032
G1 X125.316 Y109.812 E0.18364
G1 X125.903 Y109.812 E0.02032
G1 X129.660 Y106.055 E0.18364
G1 X130.248 Y106.055 E0.02032
G1 X126.491 Y109.812 E0.18364
G1 X127.079 Y109.812 E0.02032
G1 X130.836 Y106.055 E0.18364
G1 X131.424 Y106.055 E0.02032
G1 X127.667 Y109.812 E0.18364
G1 X128.255 Y109.812 E0.02032
G1 X132.012 Y106.055 E0.18364
G1 X132.600 Y106.055 E0.02032
G1 X128.843 Y109.812 E0.18364
G1 X129.431 Y109.812 E0.02032
G1 X133.188 Y106.055 E0.18364
G1 X133.209 Y106.055 E0.00075
G1 X133.305 Y106.525 E0.01659
G1 X130.019 Y109.812 E0.16066
G1 X130.606 Y109.812 E0.02032
G1 X133.405 Y107.013 E0.13680
G1 X133.505 Y107.501 E0.01722
G1 X131.194 Y109.812 E0.11294
G1 X131.438 Y109.812 E0.00841
G1 X131.438 Y110.156 E0.01191
G1 X133.605 Y107.990 E0.10592
G1 X133.704 Y108.478 E0.01722
G1 X131.438 Y110.744 E0.11080
