; generated by PrusaSlicer 2.1.1+win64 on 2020-04-22 at 23:07:14 UTC

; 

; external perimeters extrusion width = 0.45mm
; perimeters extrusion width = 0.45mm
; infill extrusion width = 0.45mm
; solid infill extrusion width = 0.45mm
; top infill extrusion width = 0.40mm
; first layer extrusion width = 0.42mm

M73 P0 R14
M201 X9000 Y9000 Z500 E10000 ; sets maximum accelerations, mm/sec^2
M203 X500 Y500 Z12 E120 ; sets maximum feedrates, mm/sec
M204 P2000 R1500 T2000 ; sets acceleration (P, T) and retract acceleration (R), mm/sec^2
M205 X10.00 Y10.00 Z0.20 E2.50 ; sets the jerk limits, mm/sec
M205 S0 T0 ; sets the minimum extruding and travel feed rate, mm/sec
M107
M862.3 P "MK2.5SMMU2S" ; printer model check
M862.1 P0.4 ; nozzle diameter check
M115 U3.8.0 ; tell printer latest fw version
G90 ; use absolute coordinates
M83 ; extruder relative mode
M104 S215 ; set extruder temp
M140 S60 ; set bed temp
Tx
M190 S60 ; wait for bed temp
M109 S215 ; wait for extruder temp
G28 W ; home all without mesh bed level
G80 ; mesh bed leveling

G21 ; set units to millimeters

;go outside print area
G1 Y-3.0 F1000.0
G1 Z0.4 F1000.0
; select extruder
Tc
; purge line
G1 X55.0 F2000.0
G1 Z0.3 F1000.0
G92 E0.0
G1 X240.0 E25.0 F2200.0
M73 P0 R13
G1 Y-2.0 F1000.0
G1 X55.0 E25 F1400.0
G1 Z0.20 F1000.0
G1 X5.0 E4.0 F1000.0
G92 E0.0
G21 ; set units to millimeters
G90 ; use absolute coordinates
M83 ; use relative distances for extrusion
M900 K30 ; Filament gcode
;BEFORE_LAYER_CHANGE
G92 E0.0
;0.2


G1 E-0.80000 F2100.00000
G1 Z0.600 F10800.000
;AFTER_LAYER_CHANGE
;0.2
G1 X104.480 Y97.046
G1 Z0.200
G1 E0.80000 F2100.00000
M204 S1000
G1 F1200
G1 X105.299 Y96.865 E0.02631
G1 X107.982 Y96.861 E0.08413
G1 X108.567 Y96.929 E0.01845
G1 X145.465 Y105.662 E1.18887
G1 X146.008 Y105.943 E0.01919
G1 X146.472 Y106.348 E0.01931
G1 X146.826 Y106.852 E0.01931
G1 X147.049 Y107.422 E0.01919
G1 X147.130 Y108.001 E0.01832
G1 X147.130 Y110.624 E0.08225
G1 X146.966 Y111.475 E0.02717
G1 X146.601 Y112.134 E0.02361
G1 X146.060 Y112.658 E0.02361
G1 X145.394 Y113.001 E0.02349
G1 X144.653 Y113.137 E0.02361
G1 X105.423 Y113.139 E1.23003
G1 X104.533 Y112.975 E0.02839
G1 X103.916 Y112.640 E0.02202
G1 X103.412 Y112.151 E0.02202
G1 X103.060 Y111.543 E0.02202
G1 X102.886 Y110.863 E0.02202
G1 X102.870 Y99.419 E0.35881
G1 X102.927 Y98.889 E0.01672
G1 X103.132 Y98.296 E0.01968
G1 X103.473 Y97.774 E0.01956
G1 X103.930 Y97.349 E0.01956
G1 X104.427 Y97.075 E0.01780
G1 E-0.80000 F2100.00000
G1 Z0.800 F10800.000
G1 X103.295 Y98.970
G1 Z0.200
G1 E0.80000 F2100.00000
G1 F1200
G1 X103.475 Y98.454 E0.01714
G1 X103.780 Y97.995 E0.01726
G1 X104.190 Y97.628 E0.01726
G1 X104.678 Y97.374 E0.01726
G1 X105.345 Y97.240 E0.02134
G1 X107.982 Y97.239 E0.08268
G1 X108.482 Y97.296 E0.01578
G1 X145.313 Y106.008 E1.18665
G1 X145.790 Y106.251 E0.01680
G1 X146.194 Y106.603 E0.01680
G1 X146.499 Y107.040 E0.01669
G1 X146.690 Y107.541 E0.01680
G1 X146.753 Y108.018 E0.01510
G1 X146.753 Y110.613 E0.08137
G1 X146.621 Y111.321 E0.02259
G1 X146.310 Y111.894 E0.02044
G1 X145.846 Y112.347 E0.02032
G1 X145.270 Y112.645 E0.02032
G1 X144.633 Y112.760 E0.02032
G1 X105.428 Y112.761 E1.22924
G1 X104.687 Y112.630 E0.02360
G1 X104.147 Y112.342 E0.01919
G1 X103.707 Y111.916 E0.01919
G1 X103.403 Y111.385 E0.01919
G1 X103.258 Y110.794 E0.01908
G1 X103.295 Y99.030 E0.36886
G1 E-0.80000 F2100.00000
G1 Z0.800 F10800.000
G1 X125.000 Y109.986
G1 Z0.200
G1 E0.80000 F2100.00000
G1 F1200
G1 X106.022 Y109.986 E0.59503
G1 X106.022 Y100.014 E0.31266
G1 X107.395 Y100.014 E0.04305
G1 X107.395 Y108.652 E0.27083
G1 X143.978 Y108.652 E1.14701
G1 X143.978 Y109.986 E0.04183
G1 X125.060 Y109.986 E0.59315
G1 X125.000 Y110.363 F10800.000
G1 F1200
G1 X105.645 Y110.363 E0.60685
G1 X105.645 Y99.637 E0.33630
G1 X107.772 Y99.637 E0.06669
G1 X107.772 Y108.275 E0.27083
G1 X144.355 Y108.275 E1.14701
G1 X144.355 Y110.363 E0.06548
G1 X125.060 Y110.363 E0.60497
G1 X124.788 Y110.024 F10800.000
G1 E-0.80000 F2100.00000
G1 Z0.800 F10800.000
G1 X107.989 Y109.873
G1 Z0.200
G1 E0.80000 F2100.00000
G1 F1200
G1 X106.305 Y108.189 E0.07568
G1 X106.305 Y108.729 E0.01717
G1 X107.279 Y109.703 E0.04377
G1 X106.739 Y109.703 E0.01717
G1 X106.135 Y109.100 E0.02711
G1 E-0.80000 F2100.00000
G1 Z0.800 F10800.000
G1 X107.282 Y100.518
G1 Z0.200
G1 E0.80000 F2100.00000
G1 F1200
G1 X107.061 Y100.297 E0.00996
G1 X106.520 Y100.297 E0.01717
G1 X107.112 Y100.889 E0.02662
G1 X107.112 Y101.430 E0.01717
G1 X106.305 Y100.622 E0.03628
G1 X106.305 Y101.163 E0.01717
G1 X107.112 Y101.970 E0.03628
G1 X107.112 Y102.511 E0.01717
G1 X106.305 Y101.703 E0.03628
G1 X106.305 Y102.244 E0.01717
G1 X107.112 Y103.051 E0.03628
G1 X107.112 Y103.591 E0.01717
G1 X106.305 Y102.784 E0.03628
G1 X106.305 Y103.325 E0.01717
G1 X107.112 Y104.132 E0.03628
G1 X107.112 Y104.672 E0.01717
G1 X106.305 Y103.865 E0.03628
G1 X106.305 Y104.405 E0.01717
G1 X107.112 Y105.213 E0.03628
G1 X107.112 Y105.753 E0.01717
G1 X106.305 Y104.946 E0.03628
G1 X106.305 Y105.486 E0.01717
G1 X107.112 Y106.294 E0.03628
G1 X107.112 Y106.834 E0.01717
G1 X106.305 Y106.027 E0.03628
G1 X106.305 Y106.567 E0.01717
G1 X107.112 Y107.375 E0.03628
G1 X107.112 Y107.915 E0.01717
G1 X106.305 Y107.108 E0.03628
G1 X106.305 Y107.648 E0.01717
G1 X107.112 Y108.456 E0.03628
G1 X107.112 Y108.935 E0.01522
G1 X107.591 Y108.935 E0.01522
G1 X108.360 Y109.703 E0.03454
G1 X108.900 Y109.703 E0.01717
G1 X108.132 Y108.935 E0.03454
G1 X108.672 Y108.935 E0.01717
G1 X109.441 Y109.703 E0.03454
G1 X109.981 Y109.703 E0.01717
G1 X109.213 Y108.935 E0.03454
G1 X109.753 Y108.935 E0.01717
G1 X110.522 Y109.703 E0.03454
G1 X111.062 Y109.703 E0.01717
G1 X110.294 Y108.935 E0.03454
G1 X110.834 Y108.935 E0.01717
G1 X111.603 Y109.703 E0.03454
G1 X112.143 Y109.703 E0.01717
G1 X111.375 Y108.935 E0.03454
G1 X111.915 Y108.935 E0.01717
G1 X112.684 Y109.703 E0.03454
G1 X113.224 Y109.703 E0.01717
G1 X112.456 Y108.935 E0.03454
G1 X112.996 Y108.935 E0.01717
G1 X113.765 Y109.703 E0.03454
G1 X114.305 Y109.703 E0.01717
G1 X113.536 Y108.935 E0.03454
G1 X114.077 Y108.935 E0.01717
G1 X114.845 Y109.703 E0.03454
G1 X115.386 Y109.703 E0.01717
G1 X114.617 Y108.935 E0.03454
G1 X115.158 Y108.935 E0.01717
G1 X115.926 Y109.703 E0.03454
G1 X116.467 Y109.703 E0.01717
G1 X115.698 Y108.935 E0.03454
G1 X116.239 Y108.935 E0.01717
G1 X117.007 Y109.703 E0.03454
G1 X117.548 Y109.703 E0.01717
G1 X116.779 Y108.935 E0.03454
G1 X117.320 Y108.935 E0.01717
G1 X118.088 Y109.703 E0.03454
G1 X118.629 Y109.703 E0.01717
G1 X117.860 Y108.935 E0.03454
G1 X118.400 Y108.935 E0.01717
G1 X119.169 Y109.703 E0.03454
G1 X119.709 Y109.703 E0.01717
G1 X118.941 Y108.935 E0.03454
G1 X119.481 Y108.935 E0.01717
G1 X120.250 Y109.703 E0.03454
G1 X120.790 Y109.703 E0.01717
G1 X120.022 Y108.935 E0.03454
G1 X120.562 Y108.935 E0.01717
G1 X121.331 Y109.703 E0.03454
G1 X121.871 Y109.703 E0.01717
G1 X121.103 Y108.935 E0.03454
G1 X121.643 Y108.935 E0.01717
G1 X122.412 Y109.703 E0.03454
G1 X122.952 Y109.703 E0.01717
G1 X122.184 Y108.935 E0.03454
G1 X122.724 Y108.935 E0.01717
G1 X123.493 Y109.703 E0.03454
G1 X124.033 Y109.703 E0.01717
G1 X123.265 Y108.935 E0.03454
G1 X123.805 Y108.935 E0.01717
G1 X124.574 Y109.703 E0.03454
G1 X125.114 Y109.703 E0.01717
G1 X124.345 Y108.935 E0.03454
G1 X124.886 Y108.935 E0.01717
G1 X125.654 Y109.703 E0.03454
G1 X126.195 Y109.703 E0.01717
G1 X125.426 Y108.935 E0.03454
G1 X125.967 Y108.935 E0.01717
G1 X126.735 Y109.703 E0.03454
G1 X127.276 Y109.703 E0.01717
G1 X126.507 Y108.935 E0.03454
G1 X127.048 Y108.935 E0.01717
G1 X127.816 Y109.703 E0.03454
G1 X128.357 Y109.703 E0.01717
G1 X127.588 Y108.935 E0.03454
G1 X128.129 Y108.935 E0.01717
G1 X128.897 Y109.703 E0.03454
G1 X129.438 Y109.703 E0.01717
G1 X128.669 Y108.935 E0.03454
G1 X129.209 Y108.935 E0.01717
G1 X129.978 Y109.703 E0.03454
G1 X130.519 Y109.703 E0.01717
G1 X129.750 Y108.935 E0.03454
G1 X130.290 Y108.935 E0.01717
G1 X131.059 Y109.703 E0.03454
G1 X131.599 Y109.703 E0.01717
G1 X130.831 Y108.935 E0.03454
G1 X131.371 Y108.935 E0.01717
G1 X132.140 Y109.703 E0.03454
G1 X132.680 Y109.703 E0.01717
G1 X131.912 Y108.935 E0.03454
G1 X132.452 Y108.935 E0.01717
G1 X133.221 Y109.703 E0.03454
G1 X133.761 Y109.703 E0.01717
G1 X132.993 Y108.935 E0.03454
G1 X133.533 Y108.935 E0.01717
G1 X134.302 Y109.703 E0.03454
G1 X134.842 Y109.703 E0.01717
G1 X134.074 Y108.935 E0.03454
G1 X134.614 Y108.935 E0.01717
G1 X135.383 Y109.703 E0.03454
G1 X135.923 Y109.703 E0.01717
G1 X135.154 Y108.935 E0.03454
G1 X135.695 Y108.935 E0.01717
G1 X136.463 Y109.703 E0.03454
G1 X137.004 Y109.703 E0.01717
G1 X136.235 Y108.935 E0.03454
G1 X136.776 Y108.935 E0.01717
G1 X137.544 Y109.703 E0.03454
G1 X138.085 Y109.703 E0.01717
G1 X137.316 Y108.935 E0.03454
G1 X137.857 Y108.935 E0.01717
G1 X138.625 Y109.703 E0.03454
G1 X139.166 Y109.703 E0.01717
G1 X138.397 Y108.935 E0.03454
G1 X138.938 Y108.935 E0.01717
G1 X139.706 Y109.703 E0.03454
G1 X140.247 Y109.703 E0.01717
G1 X139.478 Y108.935 E0.03454
G1 X140.018 Y108.935 E0.01717
G1 X140.787 Y109.703 E0.03454
G1 X141.328 Y109.703 E0.01717
G1 X140.559 Y108.935 E0.03454
G1 X141.099 Y108.935 E0.01717
G1 X141.868 Y109.703 E0.03454
G1 X142.408 Y109.703 E0.01717
G1 X141.640 Y108.935 E0.03454
G1 X142.180 Y108.935 E0.01717
G1 X142.949 Y109.703 E0.03454
G1 X143.489 Y109.703 E0.01717
G1 X142.721 Y108.935 E0.03454
G1 X143.261 Y108.935 E0.01717
G1 X143.865 Y109.538 E0.02711
M106 S255
;BEFORE_LAYER_CHANGE
G92 E0.0
;0.4


G1 E-0.80000 F2100.00000
G1 Z0.800 F10800.000
;AFTER_LAYER_CHANGE
;0.4
M104 S210 ; set temperature
G1 X146.966 Y111.475
G1 Z0.400
G1 E0.80000 F2100.00000
G1 F1298
G1 X146.601 Y112.134 E0.02361
G1 X146.060 Y112.658 E0.02361
G1 X145.394 Y113.001 E0.02349
G1 X144.653 Y113.137 E0.02361
G1 X105.423 Y113.139 E1.23003
G1 X104.533 Y112.975 E0.02839
G1 X103.916 Y112.640 E0.02202
G1 X103.412 Y112.151 E0.02202
G1 X103.060 Y111.543 E0.02202
G1 X102.886 Y110.863 E0.02202
G1 X102.870 Y99.419 E0.35881
G1 X102.927 Y98.889 E0.01672
G1 X103.132 Y98.296 E0.01968
G1 X103.473 Y97.774 E0.01956
G1 X103.930 Y97.349 E0.01956
G1 X104.480 Y97.046 E0.01968
G1 X105.299 Y96.865 E0.02631
G1 X107.982 Y96.861 E0.08413
G1 X108.567 Y96.929 E0.01845
G1 X145.465 Y105.662 E1.18887
G1 X146.008 Y105.943 E0.01919
G1 X146.472 Y106.348 E0.01931
G1 X146.826 Y106.852 E0.01931
G1 X147.049 Y107.422 E0.01919
G1 X147.130 Y108.001 E0.01832
G1 X147.130 Y110.624 E0.08225
G1 X146.978 Y111.416 E0.02528
G1 E-0.80000 F2100.00000
G1 Z1.000 F10800.000
G1 X125.000 Y109.941
G1 Z0.400
G1 E0.80000 F2100.00000
M204 S800
G1 F1298
G1 X106.067 Y109.941 E0.64085
G1 X106.067 Y100.059 E0.33449
G1 X107.350 Y100.059 E0.04343
G1 X107.350 Y108.697 E0.29237
G1 X143.933 Y108.697 E1.23827
G1 X143.933 Y109.941 E0.04211
G1 X125.060 Y109.941 E0.63882
M204 S1000
G1 X125.000 Y110.348 F10800.000
M204 S800
G1 F1298
G1 X105.660 Y110.348 E0.65463
G1 X105.660 Y99.652 E0.36204
G1 X107.757 Y99.652 E0.07098
G1 X107.757 Y108.290 E0.29237
G1 X144.340 Y108.290 E1.23827
G1 X144.340 Y110.348 E0.06967
G1 X125.060 Y110.348 E0.65260
M204 S1000
G1 X124.788 Y110.009 F10800.000
G1 E-0.80000 F2100.00000
G1 Z1.000 F10800.000
G1 X142.985 Y109.819
G1 Z0.400
G1 E0.80000 F2100.00000
M204 S2000
G1 F1298
G1 X143.627 Y109.177 E0.03083
G1 X143.627 Y109.002 E0.00593
G1 X143.225 Y109.002 E0.01367
G1 X142.591 Y109.636 E0.03041
G1 X142.014 Y109.636 E0.01960
G1 X142.647 Y109.002 E0.03041
G1 X142.070 Y109.002 E0.01960
G1 X141.436 Y109.636 E0.03041
G1 X140.859 Y109.636 E0.01960
G1 X141.493 Y109.002 E0.03041
G1 X140.915 Y109.002 E0.01960
G1 X140.282 Y109.636 E0.03041
G1 X139.704 Y109.636 E0.01960
G1 X140.338 Y109.002 E0.03041
G1 X139.761 Y109.002 E0.01960
G1 X139.127 Y109.636 E0.03041
G1 X138.550 Y109.636 E0.01960
G1 X139.183 Y109.002 E0.03041
G1 X138.606 Y109.002 E0.01960
G1 X137.973 Y109.636 E0.03041
G1 X137.395 Y109.636 E0.01960
G1 X138.029 Y109.002 E0.03041
G1 X137.451 Y109.002 E0.01960
G1 X136.818 Y109.636 E0.03041
G1 X136.241 Y109.636 E0.01960
G1 X136.874 Y109.002 E0.03041
G1 X136.297 Y109.002 E0.01960
G1 X135.663 Y109.636 E0.03041
G1 X135.086 Y109.636 E0.01960
G1 X135.720 Y109.002 E0.03041
G1 X135.142 Y109.002 E0.01960
G1 X134.509 Y109.636 E0.03041
G1 X133.931 Y109.636 E0.01960
G1 X134.565 Y109.002 E0.03041
G1 X133.988 Y109.002 E0.01960
G1 X133.354 Y109.636 E0.03041
G1 X132.777 Y109.636 E0.01960
G1 X133.410 Y109.002 E0.03041
G1 X132.833 Y109.002 E0.01960
G1 X132.199 Y109.636 E0.03041
G1 X131.622 Y109.636 E0.01960
G1 X132.256 Y109.002 E0.03041
G1 X131.678 Y109.002 E0.01960
G1 X131.045 Y109.636 E0.03041
G1 X130.467 Y109.636 E0.01960
G1 X131.101 Y109.002 E0.03041
G1 X130.524 Y109.002 E0.01960
G1 X129.890 Y109.636 E0.03041
G1 X129.313 Y109.636 E0.01960
G1 X129.946 Y109.002 E0.03041
G1 X129.369 Y109.002 E0.01960
G1 X128.735 Y109.636 E0.03041
G1 X128.158 Y109.636 E0.01960
G1 X128.792 Y109.002 E0.03041
G1 X128.214 Y109.002 E0.01960
G1 X127.581 Y109.636 E0.03041
G1 X127.004 Y109.636 E0.01960
G1 X127.637 Y109.002 E0.03041
G1 X127.060 Y109.002 E0.01960
G1 X126.426 Y109.636 E0.03041
G1 X125.849 Y109.636 E0.01960
G1 X126.482 Y109.002 E0.03041
G1 X125.905 Y109.002 E0.01960
G1 X125.272 Y109.636 E0.03041
G1 X124.694 Y109.636 E0.01960
G1 X125.328 Y109.002 E0.03041
M73 P8 R12
G1 X124.751 Y109.002 E0.01960
G1 X124.117 Y109.636 E0.03041
G1 X123.540 Y109.636 E0.01960
G1 X124.173 Y109.002 E0.03041
G1 X123.596 Y109.002 E0.01960
G1 X122.962 Y109.636 E0.03041
G1 X122.385 Y109.636 E0.01960
G1 X123.019 Y109.002 E0.03041
G1 X122.441 Y109.002 E0.01960
G1 X121.808 Y109.636 E0.03041
G1 X121.230 Y109.636 E0.01960
G1 X121.864 Y109.002 E0.03041
G1 X121.287 Y109.002 E0.01960
G1 X120.653 Y109.636 E0.03041
G1 X120.076 Y109.636 E0.01960
G1 X120.709 Y109.002 E0.03041
G1 X120.132 Y109.002 E0.01960
G1 X119.498 Y109.636 E0.03041
G1 X118.921 Y109.636 E0.01960
G1 X119.555 Y109.002 E0.03041
G1 X118.977 Y109.002 E0.01960
G1 X118.344 Y109.636 E0.03041
G1 X117.766 Y109.636 E0.01960
G1 X118.400 Y109.002 E0.03041
G1 X117.823 Y109.002 E0.01960
G1 X117.189 Y109.636 E0.03041
G1 X116.612 Y109.636 E0.01960
G1 X117.245 Y109.002 E0.03041
G1 X116.668 Y109.002 E0.01960
G1 X116.035 Y109.636 E0.03041
G1 X115.457 Y109.636 E0.01960
G1 X116.091 Y109.002 E0.03041
G1 X115.513 Y109.002 E0.01960
G1 X114.880 Y109.636 E0.03041
G1 X114.303 Y109.636 E0.01960
G1 X114.936 Y109.002 E0.03041
G1 X114.359 Y109.002 E0.01960
G1 X113.725 Y109.636 E0.03041
G1 X113.148 Y109.636 E0.01960
G1 X113.781 Y109.002 E0.03041
G1 X113.204 Y109.002 E0.01960
G1 X112.571 Y109.636 E0.03041
G1 X111.993 Y109.636 E0.01960
G1 X112.627 Y109.002 E0.03041
G1 X112.050 Y109.002 E0.01960
G1 X111.416 Y109.636 E0.03041
G1 X110.839 Y109.636 E0.01960
G1 X111.472 Y109.002 E0.03041
G1 X110.895 Y109.002 E0.01960
G1 X110.261 Y109.636 E0.03041
G1 X109.684 Y109.636 E0.01960
G1 X110.318 Y109.002 E0.03041
G1 X109.740 Y109.002 E0.01960
G1 X109.107 Y109.636 E0.03041
G1 X108.529 Y109.636 E0.01960
G1 X109.163 Y109.002 E0.03041
G1 X108.586 Y109.002 E0.01960
G1 X107.952 Y109.636 E0.03041
G1 X107.375 Y109.636 E0.01960
G1 X108.008 Y109.002 E0.03041
G1 X107.431 Y109.002 E0.01960
G1 X106.797 Y109.636 E0.03041
G1 X106.373 Y109.636 E0.01442
G1 X106.373 Y109.483 E0.00518
G1 X107.045 Y108.811 E0.03227
G1 X107.045 Y108.233 E0.01960
G1 X106.373 Y108.906 E0.03227
G1 X106.373 Y108.328 E0.01960
G1 X107.045 Y107.656 E0.03227
G1 X107.045 Y107.079 E0.01960
G1 X106.373 Y107.751 E0.03227
G1 X106.373 Y107.174 E0.01960
G1 X107.045 Y106.501 E0.03227
G1 X107.045 Y105.924 E0.01960
G1 X106.373 Y106.597 E0.03227
G1 X106.373 Y106.019 E0.01960
G1 X107.045 Y105.347 E0.03227
G1 X107.045 Y104.770 E0.01960
G1 X106.373 Y105.442 E0.03227
G1 X106.373 Y104.865 E0.01960
G1 X107.045 Y104.192 E0.03227
G1 X107.045 Y103.615 E0.01960
G1 X106.373 Y104.287 E0.03227
G1 X106.373 Y103.710 E0.01960
G1 X107.045 Y103.038 E0.03227
G1 X107.045 Y102.460 E0.01960
G1 X106.373 Y103.133 E0.03227
G1 X106.373 Y102.555 E0.01960
G1 X107.045 Y101.883 E0.03227
G1 X107.045 Y101.306 E0.01960
G1 X106.373 Y101.978 E0.03227
G1 X106.373 Y101.401 E0.01960
G1 X107.045 Y100.728 E0.03227
G1 X107.045 Y100.364 E0.01235
G1 X106.832 Y100.364 E0.00724
G1 X106.189 Y101.007 E0.03082
M204 S1000
;BEFORE_LAYER_CHANGE
G92 E0.0
;0.6


G1 E-0.80000 F2100.00000
