; generated by PrusaSlicer 2.1.0+win64 on 2019-12-12 at 17:29:45 UTC

; 

; external perimeters extrusion width = 0.45mm
; perimeters extrusion width = 0.45mm
; infill extrusion width = 0.45mm
; solid infill extrusion width = 0.45mm
; top infill extrusion width = 0.40mm
; first layer extrusion width = 0.42mm

M73 P0 R76
M201 X9000 Y9000 Z500 E10000 ; sets maximum accelerations, mm/sec^2
M203 X500 Y500 Z12 E120 ; sets maximum feedrates, mm/sec
M204 P2000 R1500 T2000 ; sets acceleration (P, T) and retract acceleration (R), mm/sec^2
M205 X10.00 Y10.00 Z0.20 E2.50 ; sets the jerk limits, mm/sec
M205 S0 T0 ; sets the minimum extruding and travel feed rate, mm/sec
M107
M862.3 P "MK2.5SMMU2S" ; printer model check
M862.1 P0.4 ; nozzle diameter check
M115 U3.8.0 ; tell printer latest fw version
G90 ; use absolute coordinates
M83 ; extruder relative mode
M104 S215 ; set extruder temp
M140 S60 ; set bed temp
Tx
M190 S60 ; wait for bed temp
M109 S215 ; wait for extruder temp
G28 W ; home all without mesh bed level
G80 ; mesh bed leveling

G21 ; set units to millimeters

;go outside print area
G1 Y-3.0 F1000.0
G1 Z0.4 F1000.0
; select extruder
Tc
; purge line
G1 X55.0 F2000.0
G1 Z0.3 F1000.0
G92 E0.0
G1 X240.0 E25.0 F2200.0
M73 P0 R76
G1 Y-2.0 F1000.0
G1 X55.0 E25 F1400.0
G1 Z0.20 F1000.0
G1 X5.0 E4.0 F1000.0
G92 E0.0
G21 ; set units to millimeters
G90 ; use absolute coordinates
M83 ; use relative distances for extrusion
M900 K30 ; Filament gcode
;BEFORE_LAYER_CHANGE
G92 E0.0
;0.2


G1 E-0.80000 F2100.00000
G1 Z0.600 F10800.000
;AFTER_LAYER_CHANGE
;0.2
G1 X82.428 Y113.010
G1 Z0.200
G1 E0.80000 F2100.00000
M204 S1000
G1 F1200
G1 X82.268 Y112.245 E0.02451
G1 X82.312 Y108.705 E0.11101
G1 X82.483 Y108.197 E0.01680
G1 X82.773 Y107.746 E0.01680
G1 X83.166 Y107.377 E0.01692
G1 X83.634 Y107.116 E0.01680
G1 X124.032 Y95.702 E1.31622
G1 X125.392 Y95.623 E0.04272
G1 X125.980 Y95.705 E0.01862
G1 X166.380 Y107.122 E1.31631
G1 X166.846 Y107.385 E0.01680
G1 X167.232 Y107.752 E0.01669
G1 X167.520 Y108.204 E0.01680
G1 X167.689 Y108.712 E0.01680
G1 X167.731 Y112.250 E0.11093
G1 X167.567 Y113.022 E0.02473
G1 X167.244 Y113.566 E0.01987
G1 X166.777 Y113.996 E0.01987
G1 X166.208 Y114.273 E0.01987
G1 X165.579 Y114.376 E0.01998
G1 X84.456 Y114.377 E2.54354
G1 X83.815 Y114.281 E0.02032
G1 X83.233 Y114.003 E0.02021
G1 X82.755 Y113.565 E0.02032
G1 X82.458 Y113.062 E0.01833
G1 E-0.80000 F2100.00000
G1 Z0.800 F10800.000
G1 X125.000 Y110.268
G1 Z0.200
G1 E0.80000 F2100.00000
G1 F1200
G1 X102.384 Y110.268 E0.70911
G1 X101.074 Y111.563 E0.05775
G1 X101.074 Y111.978 E0.01302
G1 X84.666 Y111.978 E0.51447
G1 X84.666 Y109.303 E0.08387
G1 X124.641 Y98.022 E1.30233
G1 X125.359 Y98.022 E0.02252
G1 X165.334 Y109.303 E1.30233
G1 X165.334 Y111.978 E0.08387
G1 X148.926 Y111.978 E0.51447
G1 X148.926 Y111.563 E0.01302
G1 X147.616 Y110.268 E0.05775
G1 X125.060 Y110.268 E0.70723
G1 X124.806 Y109.918 F10800.000
G1 X125.000 Y109.891
G1 F1200
G1 X102.229 Y109.891 E0.71397
G1 X100.697 Y111.406 E0.06754
G1 X100.697 Y111.601 E0.00613
G1 X85.043 Y111.601 E0.49082
G1 X85.043 Y109.589 E0.06310
G1 X124.693 Y98.399 E1.29175
G1 X125.307 Y98.399 E0.01924
G1 X164.957 Y109.589 E1.29175
G1 X164.957 Y111.601 E0.06310
G1 X149.303 Y111.601 E0.49082
G1 X149.303 Y111.406 E0.00613
G1 X147.771 Y109.891 E0.06754
G1 X125.060 Y109.891 E0.71209
G1 E-0.80000 F2100.00000
G1 Z0.800 F10800.000
G1 X85.924 Y111.488
G1 Z0.200
G1 E0.80000 F2100.00000
G1 F1200
G1 X85.326 Y110.890 E0.02667
G1 X85.326 Y110.354 E0.01693
G1 X86.291 Y111.318 E0.04304
G1 X86.827 Y111.318 E0.01693
G1 X85.326 Y109.817 E0.06699
G1 X85.326 Y109.803 E0.00045
G1 X85.733 Y109.688 E0.01335
G1 X87.364 Y111.318 E0.07276
G1 X87.901 Y111.318 E0.01693
G1 X86.152 Y109.569 E0.07803
G1 X86.570 Y109.451 E0.01372
G1 X88.437 Y111.318 E0.08330
G1 X88.974 Y111.318 E0.01693
G1 X86.989 Y109.333 E0.08857
G1 X87.408 Y109.215 E0.01372
G1 X89.511 Y111.318 E0.09384
G1 X90.047 Y111.318 E0.01693
G1 X87.826 Y109.097 E0.09911
G1 X88.245 Y108.979 E0.01372
G1 X90.584 Y111.318 E0.10438
G1 X91.121 Y111.318 E0.01693
G1 X88.663 Y108.861 E0.10965
G1 X89.082 Y108.743 E0.01372
G1 X91.657 Y111.318 E0.11493
G1 X92.194 Y111.318 E0.01693
G1 X89.500 Y108.625 E0.12020
G1 X89.919 Y108.506 E0.01372
G1 X92.731 Y111.318 E0.12547
G1 X93.267 Y111.318 E0.01693
G1 X90.337 Y108.388 E0.13074
G1 X90.756 Y108.270 E0.01372
G1 X93.804 Y111.318 E0.13601
G1 X94.340 Y111.318 E0.01693
G1 X91.174 Y108.152 E0.14128
G1 X91.593 Y108.034 E0.01372
G1 X94.877 Y111.318 E0.14655
G1 X95.414 Y111.318 E0.01693
G1 X92.012 Y107.916 E0.15182
G1 X92.430 Y107.798 E0.01372
G1 X95.950 Y111.318 E0.15709
G1 X96.487 Y111.318 E0.01693
G1 X92.849 Y107.680 E0.16236
G1 X93.267 Y107.562 E0.01372
G1 X97.024 Y111.318 E0.16763
G1 X97.560 Y111.318 E0.01693
G1 X93.686 Y107.443 E0.17290
G1 X94.104 Y107.325 E0.01372
G1 X98.097 Y111.318 E0.17817
G1 X98.634 Y111.318 E0.01693
G1 X94.523 Y107.207 E0.18344
G1 X94.941 Y107.089 E0.01372
G1 X99.170 Y111.318 E0.18871
G1 X99.707 Y111.318 E0.01693
G1 X95.360 Y106.971 E0.19399
G1 X95.778 Y106.853 E0.01372
G1 X100.244 Y111.318 E0.19926
G1 X100.415 Y111.318 E0.00539
G1 X100.415 Y111.287 E0.00097
G1 X100.583 Y111.121 E0.00748
G1 X96.197 Y106.735 E0.19572
G1 X96.615 Y106.617 E0.01372
G1 X100.853 Y110.854 E0.18908
G1 X101.123 Y110.587 E0.01197
G1 X97.034 Y106.498 E0.18245
G1 X97.453 Y106.380 E0.01372
G1 X101.392 Y110.320 E0.17581
G1 X101.662 Y110.053 E0.01197
G1 X97.871 Y106.262 E0.16917
G1 X98.290 Y106.144 E0.01372
G1 X101.932 Y109.787 E0.16254
G1 X102.113 Y109.608 E0.00802
G1 X102.290 Y109.608 E0.00560
G1 X98.708 Y106.026 E0.15984
G1 X99.127 Y105.908 E0.01372
G1 X102.827 Y109.608 E0.16511
G1 X103.363 Y109.608 E0.01693
G1 X99.545 Y105.790 E0.17038
G1 X99.964 Y105.672 E0.01372
G1 X103.900 Y109.608 E0.17565
G1 X104.437 Y109.608 E0.01693
G1 X100.382 Y105.554 E0.18092
G1 X100.801 Y105.435 E0.01372
G1 X104.973 Y109.608 E0.18619
G1 X105.510 Y109.608 E0.01693
G1 X101.219 Y105.317 E0.19146
G1 X101.638 Y105.199 E0.01372
G1 X106.047 Y109.608 E0.19673
G1 X106.583 Y109.608 E0.01693
G1 X102.056 Y105.081 E0.20200
G1 X102.475 Y104.963 E0.01372
G1 X107.120 Y109.608 E0.20727
G1 X107.657 Y109.608 E0.01693
G1 X102.894 Y104.845 E0.21254
G1 X103.312 Y104.727 E0.01372
G1 X108.193 Y109.608 E0.21781
G1 X108.730 Y109.608 E0.01693
G1 X103.731 Y104.609 E0.22308
G1 X104.149 Y104.491 E0.01372
G1 X109.267 Y109.608 E0.22836
G1 X109.803 Y109.608 E0.01693
G1 X104.568 Y104.372 E0.23363
G1 X104.986 Y104.254 E0.01372
G1 X110.340 Y109.608 E0.23890
G1 X110.877 Y109.608 E0.01693
G1 X105.405 Y104.136 E0.24417
G1 X105.823 Y104.018 E0.01372
G1 X111.413 Y109.608 E0.24944
G1 X111.950 Y109.608 E0.01693
G1 X106.242 Y103.900 E0.25471
G1 X106.660 Y103.782 E0.01372
G1 X112.487 Y109.608 E0.25998
G1 X113.023 Y109.608 E0.01693
G1 X107.079 Y103.664 E0.26525
G1 X107.498 Y103.546 E0.01372
G1 X113.560 Y109.608 E0.27052
G1 X114.097 Y109.608 E0.01693
G1 X107.916 Y103.427 E0.27579
G1 X108.335 Y103.309 E0.01372
G1 X114.633 Y109.608 E0.28106
G1 X115.170 Y109.608 E0.01693
G1 X108.753 Y103.191 E0.28633
G1 X109.172 Y103.073 E0.01372
G1 X115.706 Y109.608 E0.29160
G1 X116.243 Y109.608 E0.01693
G1 X109.590 Y102.955 E0.29687
G1 X110.009 Y102.837 E0.01372
G1 X116.780 Y109.608 E0.30214
G1 X117.316 Y109.608 E0.01693
G1 X110.427 Y102.719 E0.30742
G1 X110.846 Y102.601 E0.01372
G1 X117.853 Y109.608 E0.31269
M73 P1 R75
G1 X118.390 Y109.608 E0.01693
G1 X111.264 Y102.483 E0.31796
G1 X111.683 Y102.364 E0.01372
G1 X118.926 Y109.608 E0.32323
G1 X119.463 Y109.608 E0.01693
G1 X112.101 Y102.246 E0.32850
G1 X112.520 Y102.128 E0.01372
G1 X120.000 Y109.608 E0.33377
G1 X120.536 Y109.608 E0.01693
G1 X112.939 Y102.010 E0.33904
G1 X113.357 Y101.892 E0.01372
G1 X121.073 Y109.608 E0.34431
G1 X121.610 Y109.608 E0.01693
G1 X113.776 Y101.774 E0.34958
G1 X114.194 Y101.656 E0.01372
G1 X122.146 Y109.608 E0.35485
G1 X122.683 Y109.608 E0.01693
G1 X114.613 Y101.538 E0.36012
G1 X115.031 Y101.420 E0.01372
G1 X123.220 Y109.608 E0.36539
G1 X123.756 Y109.608 E0.01693
G1 X115.450 Y101.301 E0.37066
G1 X115.868 Y101.183 E0.01372
G1 X124.293 Y109.608 E0.37593
G1 X124.830 Y109.608 E0.01693
G1 X116.287 Y101.065 E0.38120
G1 X116.705 Y100.947 E0.01372
G1 X125.366 Y109.608 E0.38648
G1 X125.903 Y109.608 E0.01693
G1 X117.124 Y100.829 E0.39175
G1 X117.542 Y100.711 E0.01372
G1 X126.440 Y109.608 E0.39702
G1 X126.976 Y109.608 E0.01693
G1 X117.961 Y100.593 E0.40229
G1 X118.380 Y100.475 E0.01372
G1 X127.513 Y109.608 E0.40756
G1 X128.050 Y109.608 E0.01693
G1 X118.798 Y100.357 E0.41283
G1 X119.217 Y100.238 E0.01372
G1 X128.586 Y109.608 E0.41810
G1 X129.123 Y109.608 E0.01693
G1 X119.635 Y100.120 E0.42337
G1 X120.054 Y100.002 E0.01372
G1 X129.660 Y109.608 E0.42864
G1 X130.196 Y109.608 E0.01693
G1 X120.472 Y99.884 E0.43391
G1 X120.891 Y99.766 E0.01372
G1 X130.733 Y109.608 E0.43918
G1 X131.270 Y109.608 E0.01693
G1 X121.309 Y99.648 E0.44445
G1 X121.728 Y99.530 E0.01372
G1 X131.806 Y109.608 E0.44972
G1 X132.343 Y109.608 E0.01693
G1 X122.146 Y99.412 E0.45499
G1 X122.565 Y99.293 E0.01372
G1 X132.879 Y109.608 E0.46026
G1 X133.416 Y109.608 E0.01693
G1 X122.984 Y99.175 E0.46554
G1 X123.402 Y99.057 E0.01372
G1 X133.953 Y109.608 E0.47081
G1 X134.489 Y109.608 E0.01693
G1 X123.821 Y98.939 E0.47608
G1 X124.239 Y98.821 E0.01372
G1 X135.026 Y109.608 E0.48135
G1 X135.563 Y109.608 E0.01693
G1 X124.658 Y98.703 E0.48662
G1 X124.732 Y98.682 E0.00245
G1 X125.173 Y98.682 E0.01392
G1 X136.099 Y109.608 E0.48756
G1 X136.636 Y109.608 E0.01693
G1 X125.884 Y98.856 E0.47980
G1 X126.631 Y99.067 E0.02451
G1 X137.173 Y109.608 E0.47038
G1 X137.709 Y109.608 E0.01693
G1 X127.379 Y99.278 E0.46097
G1 X128.127 Y99.489 E0.02451
G1 X138.246 Y109.608 E0.45155
G1 X138.783 Y109.608 E0.01693
G1 X128.874 Y99.700 E0.44214
G1 X129.622 Y99.911 E0.02451
G1 X139.319 Y109.608 E0.43272
G1 X139.856 Y109.608 E0.01693
G1 X130.370 Y100.122 E0.42331
G1 X131.117 Y100.333 E0.02451
G1 X140.393 Y109.608 E0.41389
G1 X140.929 Y109.608 E0.01693
G1 X131.865 Y100.544 E0.40448
G1 X132.613 Y100.755 E0.02451
G1 X141.466 Y109.608 E0.39506
G1 X142.003 Y109.608 E0.01693
G1 X133.360 Y100.966 E0.38565
G1 X134.108 Y101.177 E0.02451
G1 X142.539 Y109.608 E0.37623
G1 X143.076 Y109.608 E0.01693
G1 X134.856 Y101.388 E0.36682
G1 X135.603 Y101.599 E0.02451
G1 X143.613 Y109.608 E0.35740
G1 X144.149 Y109.608 E0.01693
G1 X136.351 Y101.810 E0.34799
G1 X137.099 Y102.021 E0.02451
G1 X144.686 Y109.608 E0.33857
G1 X145.223 Y109.608 E0.01693
G1 X137.846 Y102.232 E0.32916
G1 X138.594 Y102.443 E0.02451
G1 X145.759 Y109.608 E0.31974
G1 X146.296 Y109.608 E0.01693
G1 X139.341 Y102.654 E0.31033
G1 X140.089 Y102.865 E0.02451
G1 X146.833 Y109.608 E0.30091
G1 X147.369 Y109.608 E0.01693
G1 X140.837 Y103.076 E0.29150
G1 X141.584 Y103.287 E0.02451
G1 X149.616 Y111.318 E0.35840
G1 X150.153 Y111.318 E0.01693
G1 X142.332 Y103.498 E0.34898
G1 X143.080 Y103.709 E0.02451
G1 X150.689 Y111.318 E0.33957
G1 X151.226 Y111.318 E0.01693
G1 X143.827 Y103.919 E0.33015
G1 X144.575 Y104.130 E0.02451
G1 X151.763 Y111.318 E0.32074
G1 X152.299 Y111.318 E0.01693
G1 X145.323 Y104.341 E0.31132
G1 X146.070 Y104.552 E0.02451
G1 X152.836 Y111.318 E0.30191
G1 X153.373 Y111.318 E0.01693
G1 X146.818 Y104.763 E0.29249
G1 X147.566 Y104.974 E0.02451
G1 X153.909 Y111.318 E0.28308
G1 X154.446 Y111.318 E0.01693
G1 X148.313 Y105.185 E0.27366
G1 X149.061 Y105.396 E0.02451
G1 X154.983 Y111.318 E0.26425
G1 X155.519 Y111.318 E0.01693
G1 X149.809 Y105.607 E0.25483
G1 X150.556 Y105.818 E0.02451
G1 X156.056 Y111.318 E0.24542
G1 X156.593 Y111.318 E0.01693
G1 X151.304 Y106.029 E0.23600
G1 X152.051 Y106.240 E0.02451
G1 X157.129 Y111.318 E0.22659
G1 X157.666 Y111.318 E0.01693
G1 X152.799 Y106.451 E0.21717
G1 X153.547 Y106.662 E0.02451
G1 X158.203 Y111.318 E0.20776
G1 X158.739 Y111.318 E0.01693
G1 X154.294 Y106.873 E0.19834
G1 X155.042 Y107.084 E0.02451
G1 X159.276 Y111.318 E0.18892
G1 X159.812 Y111.318 E0.01693
G1 X155.790 Y107.295 E0.17951
G1 X156.537 Y107.506 E0.02451
G1 X160.349 Y111.318 E0.17009
G1 X160.886 Y111.318 E0.01693
G1 X157.285 Y107.717 E0.16068
G1 X158.033 Y107.928 E0.02451
G1 X161.422 Y111.318 E0.15126
G1 X161.959 Y111.318 E0.01693
G1 X158.780 Y108.139 E0.14185
G1 X159.528 Y108.350 E0.02451
G1 X162.496 Y111.318 E0.13243
G1 X163.032 Y111.318 E0.01693
G1 X160.276 Y108.561 E0.12302
G1 X161.023 Y108.772 E0.02451
G1 X163.569 Y111.318 E0.11360
G1 X164.106 Y111.318 E0.01693
G1 X161.771 Y108.983 E0.10419
G1 X162.519 Y109.194 E0.02451
G1 X164.642 Y111.318 E0.09477
G1 X164.674 Y111.318 E0.00099
G1 X164.674 Y110.813 E0.01594
G1 X163.266 Y109.405 E0.06282
G1 X164.014 Y109.616 E0.02451
G1 X164.844 Y110.446 E0.03703
M106 S255
;BEFORE_LAYER_CHANGE
G92 E0.0
;0.4


G1 E-0.80000 F2100.00000
G1 Z0.800 F10800.000
;AFTER_LAYER_CHANGE
;0.4
M104 S210 ; set temperature
G1 X167.567 Y113.022
G1 Z0.400
G1 E0.80000 F2100.00000
G1 F3000
G1 X167.244 Y113.566 E0.01987
G1 X166.777 Y113.996 E0.01987
G1 X166.208 Y114.273 E0.01987
G1 X165.579 Y114.376 E0.01998
G1 X84.456 Y114.377 E2.54354
G1 X83.815 Y114.281 E0.02032
G1 X83.233 Y114.003 E0.02021
G1 X82.755 Y113.565 E0.02032
G1 X82.428 Y113.010 E0.02021
G1 X82.268 Y112.245 E0.02451
G1 X82.312 Y108.705 E0.11101
G1 X82.483 Y108.197 E0.01680
G1 X82.773 Y107.746 E0.01680
G1 X83.166 Y107.377 E0.01692
G1 X83.634 Y107.116 E0.01680
G1 X124.032 Y95.702 E1.31622
G1 X125.392 Y95.623 E0.04272
G1 X125.980 Y95.705 E0.01862
G1 X166.380 Y107.122 E1.31631
G1 X166.846 Y107.385 E0.01680
G1 X167.232 Y107.752 E0.01669
G1 X167.520 Y108.204 E0.01680
G1 X167.689 Y108.712 E0.01680
G1 X167.731 Y112.250 E0.11093
G1 X167.580 Y112.963 E0.02285
G1 E-0.80000 F2100.00000
G1 Z1.000 F10800.000
G1 X125.000 Y109.846
G1 Z0.400
G1 E0.80000 F2100.00000
M204 S800
G1 F3000
G1 X102.210 Y109.846 E0.77140
G1 X100.652 Y111.387 E0.07418
G1 X100.652 Y111.556 E0.00573
G1 X85.088 Y111.556 E0.52682
G1 X85.088 Y109.623 E0.06544
G1 X124.699 Y98.444 E1.39315
G1 X125.301 Y98.444 E0.02035
G1 X164.912 Y109.623 E1.39316
G1 X164.912 Y111.556 E0.06544
G1 X149.348 Y111.556 E0.52682
G1 X149.348 Y111.387 E0.00573
G1 X147.790 Y109.846 E0.07418
G1 X125.060 Y109.846 E0.76937
M204 S1000
G1 X125.000 Y110.253 F10800.000
M204 S800
G1 F2400
G1 X102.378 Y110.253 E0.76574
G1 X101.059 Y111.557 E0.06276
G1 X101.059 Y111.963 E0.01375
G1 X84.681 Y111.963 E0.55438
G1 X84.681 Y109.314 E0.08965
G1 X124.643 Y98.037 E1.40549
G1 X125.357 Y98.037 E0.02417
G1 X165.319 Y109.314 E1.40549
M73 P2 R74
G1 X165.319 Y111.963 E0.08965
G1 X148.941 Y111.963 E0.55438
G1 X148.941 Y111.557 E0.01375
G1 X147.622 Y110.253 E0.06276
G1 X125.060 Y110.253 E0.76371
M204 S1000
G1 X124.806 Y109.903 F10800.000
G1 E-0.80000 F2100.00000
G1 Z1.000 F10800.000
G1 X86.367 Y109.389
G1 Z0.400
G1 E0.80000 F2100.00000
M204 S2000
G1 F3000
G1 X85.394 Y110.362 E0.04669
G1 X85.394 Y110.939 E0.01958
G1 X86.905 Y109.427 E0.07255
G1 X87.709 Y109.200 E0.02835
G1 X85.659 Y111.251 E0.09840
G1 X86.236 Y111.251 E0.01958
G1 X88.513 Y108.973 E0.10929
G1 X89.318 Y108.746 E0.02835
G1 X86.813 Y111.251 E0.12018
G1 X87.390 Y111.251 E0.01958
G1 X90.122 Y108.519 E0.13107
G1 X90.926 Y108.292 E0.02835
G1 X87.967 Y111.251 E0.14196
G1 X88.545 Y111.251 E0.01958
G1 X91.730 Y108.066 E0.15284
G1 X92.534 Y107.839 E0.02835
G1 X89.122 Y111.251 E0.16373
G1 X89.699 Y111.251 E0.01958
G1 X93.338 Y107.612 E0.17462
G1 X94.142 Y107.385 E0.02835
G1 X90.276 Y111.251 E0.18551
G1 X90.853 Y111.251 E0.01958
G1 X94.946 Y107.158 E0.19640
G1 X95.750 Y106.931 E0.02835
G1 X91.430 Y111.251 E0.20729
G1 X92.007 Y111.251 E0.01958
G1 X96.554 Y106.704 E0.21818
G1 X97.358 Y106.477 E0.02835
G1 X92.584 Y111.251 E0.22906
G1 X93.162 Y111.251 E0.01958
G1 X98.162 Y106.250 E0.23995
G1 X98.966 Y106.023 E0.02835
G1 X93.739 Y111.251 E0.25084
G1 X94.316 Y111.251 E0.01958
G1 X99.770 Y105.797 E0.26173
G1 X100.574 Y105.570 E0.02835
G1 X94.893 Y111.251 E0.27262
G1 X95.470 Y111.251 E0.01958
G1 X101.378 Y105.343 E0.28351
G1 X102.182 Y105.116 E0.02835
G1 X96.047 Y111.251 E0.29440
G1 X96.624 Y111.251 E0.01958
G1 X102.986 Y104.889 E0.30529
G1 X103.790 Y104.662 E0.02835
G1 X97.201 Y111.251 E0.31617
G1 X97.779 Y111.251 E0.01958
G1 X104.594 Y104.435 E0.32706
G1 X105.398 Y104.208 E0.02835
