; generated by PrusaSlicer 2.2.0+win64 on 2020-08-21 at 19:13:26 UTC

; 

; external perimeters extrusion width = 0.45mm
; perimeters extrusion width = 0.45mm
; infill extrusion width = 0.45mm
; solid infill extrusion width = 0.45mm
; top infill extrusion width = 0.40mm
; support material extrusion width = 0.35mm
; first layer extrusion width = 0.42mm

M73 P0 R38
M201 X9000 Y9000 Z500 E10000 ; sets maximum accelerations, mm/sec^2
M203 X500 Y500 Z12 E120 ; sets maximum feedrates, mm/sec
M204 P2000 R1500 T2000 ; sets acceleration (P, T) and retract acceleration (R), mm/sec^2
M205 X10.00 Y10.00 Z0.20 E2.50 ; sets the jerk limits, mm/sec
M205 S0 T0 ; sets the minimum extruding and travel feed rate, mm/sec
M107
M862.3 P "MK2.5SMMU2S" ; printer model check
M862.1 P0.4 ; nozzle diameter check
M115 U3.8.0 ; tell printer latest fw version
G90 ; use absolute coordinates
M83 ; extruder relative mode
M104 S215 ; set extruder temp
M140 S60 ; set bed temp
Tx
M190 S60 ; wait for bed temp
M109 S215 ; wait for extruder temp
G28 W ; home all without mesh bed level
G80 ; mesh bed leveling

G21 ; set units to millimeters

;go outside print area
G1 Y-3.0 F1000.0
G1 Z0.4 F1000.0
; select extruder
Tc
; purge line
G1 X55.0 F2000.0
G1 Z0.3 F1000.0
G92 E0.0
G1 X240.0 E25.0 F2200.0
M73 P0 R38
G1 Y-2.0 F1000.0
G1 X55.0 E25 F1400.0
G1 Z0.20 F1000.0
G1 X5.0 E4.0 F1000.0
G92 E0.0
G21 ; set units to millimeters
G90 ; use absolute coordinates
M83 ; use relative distances for extrusion
M900 K0.06 ; Filament gcode LA 1.5
M900 K30 ; Filament gcode LA 1.0
;BEFORE_LAYER_CHANGE
G92 E0.0
;0.2


G1 E-0.80000 F2100.00000
G1 Z0.600 F10800.000
;AFTER_LAYER_CHANGE
;0.2
G1 X124.789 Y85.380
G1 Z0.200
G1 E0.80000 F2100.00000
M204 S1000
G1 F1200.000
G1 X125.366 Y84.924 E0.02307
G1 X126.044 Y84.637 E0.02307
G1 X126.773 Y84.539 E0.02307
G1 X127.486 Y84.634 E0.02256
G1 X130.452 Y85.443 E0.09637
G1 X131.024 Y85.687 E0.01950
G1 X131.539 Y86.064 E0.02001
G1 X131.953 Y86.550 E0.02001
G1 X132.243 Y87.114 E0.01988
G1 X132.396 Y87.733 E0.02001
G1 X131.717 Y118.455 E0.96349
G1 X131.561 Y121.973 E0.11042
G1 X131.320 Y122.732 E0.02498
G1 X130.874 Y123.388 E0.02485
G1 X124.834 Y129.432 E0.26791
G1 X124.425 Y129.765 E0.01656
G1 X123.783 Y130.081 E0.02243
G1 X123.081 Y130.221 E0.02243
G1 X119.342 Y130.102 E0.11730
G1 X118.590 Y129.865 E0.02473
G1 X117.936 Y129.424 E0.02473
G1 X112.382 Y124.114 E0.24094
G1 X112.047 Y123.705 E0.01656
G1 X111.798 Y123.244 E0.01643
G1 X111.638 Y122.732 E0.01681
G1 X111.580 Y122.195 E0.01694
G1 X111.711 Y112.035 E0.31859
G1 X111.951 Y111.276 E0.02498
G1 X124.355 Y85.969 E0.88365
G1 X124.753 Y85.428 E0.02106
G1 X125.054 Y85.648 F10800.000
G1 F1200.000
G1 X125.554 Y85.251 E0.02001
G1 X126.141 Y85.001 E0.02000
G1 X126.773 Y84.917 E0.02000
G1 X127.383 Y84.997 E0.01929
G1 X130.330 Y85.800 E0.09575
G1 X130.808 Y85.998 E0.01621
G1 X131.268 Y86.328 E0.01775
G1 X131.635 Y86.753 E0.01763
G1 X131.893 Y87.254 E0.01763
G1 X132.025 Y87.800 E0.01763
G1 X131.340 Y118.446 E0.96110
G1 X131.188 Y121.915 E0.10890
G1 X130.978 Y122.573 E0.02166
G1 X130.587 Y123.143 E0.02166
G1 X124.211 Y129.455 E0.28129
G1 X123.648 Y129.729 E0.01965
G1 X123.032 Y129.846 E0.01965
G1 X119.401 Y129.730 E0.11390
G1 X118.750 Y129.523 E0.02142
G1 X118.182 Y129.137 E0.02154
G1 X112.651 Y123.850 E0.23991
G1 X112.139 Y123.082 E0.02896
G1 X111.957 Y122.184 E0.02872
G1 X112.084 Y112.091 E0.31648
G1 X112.291 Y111.440 E0.02142
G1 X124.678 Y86.163 E0.88260
G1 X125.019 Y85.696 E0.01811
G1 E-0.80000 F2100.00000
G1 Z0.800 F10800.000
G1 X125.324 Y107.982
G1 Z0.200
G1 E0.80000 F2100.00000
G1 F1200.000
G1 X124.345 Y108.962 E0.04344
G1 E-0.80000 F2100.00000
G1 Z0.800 F10800.000
G1 X114.429 Y112.478
G1 Z0.200
G1 E0.80000 F2100.00000
G1 F1200.000
G1 X120.373 Y106.534 E0.26358
G1 X120.842 Y107.003 E0.02078
G1 X120.794 Y107.180 E0.00578
G1 X114.962 Y113.011 E0.25857
G1 E-0.80000 F2100.00000
G1 Z0.800 F10800.000
G1 X118.148 Y111.959
G1 Z0.200
G1 E0.80000 F2100.00000
G1 F1200.000
G1 X119.877 Y110.230 E0.06244
G1 X119.971 Y110.325 E0.00341
G1 X119.773 Y111.051 E0.01923
G1 X118.604 Y112.220 E0.04221
G1 X118.963 Y112.579 E0.01295
G1 X119.503 Y112.038 E0.01953
G1 X119.392 Y112.446 E0.01082
G1 X119.462 Y112.554 E0.00328
G1 X119.461 Y112.798 E0.00622
G1 X119.223 Y113.035 E0.00857
G1 X119.593 Y114.099 F10800.000
G1 F1200.000
G1 X118.407 Y115.286 E0.04285
G1 X118.765 Y115.644 E0.01295
G1 X119.452 Y114.958 E0.02478
G1 X119.449 Y115.678 E0.01839
G1 X119.026 Y116.101 E0.01525
G1 X117.629 Y115.678 F10800.000
G1 F1200.000
G1 X117.972 Y115.335 E0.01522
G1 X117.762 Y115.124 E0.00933
G1 X119.393 Y113.493 E0.07234
G1 X119.070 Y113.170 E0.01432
G1 X117.215 Y115.025 E0.08224
G1 X116.682 Y114.491 E0.02365
G1 X118.537 Y112.637 E0.08224
G1 X118.004 Y112.103 E0.02365
G1 X116.149 Y113.958 E0.08224
G1 X115.616 Y113.425 E0.02365
G1 X120.393 Y108.647 E0.21184
G1 X120.179 Y109.431 E0.02547
G1 X120.375 Y109.732 E0.01127
G1 X120.119 Y109.988 E0.01135
G1 X120.354 Y110.223 E0.01042
G1 X120.129 Y111.044 E0.02668
G1 X121.225 Y109.948 E0.04859
G1 X122.149 Y110.091 E0.02931
G1 X119.797 Y112.443 E0.10428
G1 X120.022 Y112.789 E0.01293
G1 X119.803 Y112.788 E0.00686
G1 X119.800 Y113.507 E0.02255
G1 X123.222 Y110.085 E0.15173
G1 X124.116 Y111.011 F10800.000
G1 F1200.000
G1 X123.855 Y111.272 E0.00942
G1 X123.586 Y112.258 E0.02609
G1 X124.377 Y111.467 E0.02854
G1 X124.735 Y111.826 E0.01295
G1 X123.243 Y113.318 E0.05388
G1 X123.240 Y114.038 F10800.000
G1 F1200.000
G1 X123.462 Y113.816 E0.00803
G1 X123.821 Y114.174 E0.01295
G1 X123.376 Y114.620 E0.01608
G1 X123.373 Y115.340 E0.01839
G1 X124.180 Y114.533 E0.02914
G1 X124.538 Y114.891 E0.01295
G1 X123.231 Y116.199 E0.04721
G1 X123.225 Y117.639 F10800.000
G1 F1200.000
G1 X123.624 Y117.240 E0.01441
G1 X123.982 Y117.598 E0.01295
G1 X123.360 Y118.220 E0.02246
G1 X123.357 Y118.941 E0.01839
G1 X124.341 Y117.957 E0.03552
G1 X124.700 Y118.316 E0.01295
G1 X123.216 Y119.799 E0.05358
G1 X122.298 Y120.608 F10800.000
G1 F1200.000
G1 X123.011 Y119.894 E0.03165
G1 X123.016 Y118.823 E0.03358
G1 X121.405 Y120.434 E0.07145
G1 X120.342 Y120.430 E0.03330
G1 X123.020 Y117.752 E0.11874
G1 X123.025 Y116.681 E0.03358
G1 X119.773 Y119.933 E0.14421
G1 X119.775 Y119.420 E0.01608
G1 X119.877 Y119.522 E0.00452
G1 X121.012 Y118.387 E0.05034
G1 X120.632 Y118.007 E0.01684
G1 X123.029 Y115.610 E0.10629
G1 X123.034 Y114.539 E0.03358
G1 X120.099 Y117.474 E0.13014
G1 X119.784 Y117.159 E0.01395
G1 X119.786 Y116.720 E0.01377
G1 X123.038 Y113.468 E0.14421
G1 X123.040 Y113.185 E0.00888
G1 X122.979 Y113.184 E0.00189
G1 X123.250 Y112.189 E0.03234
G1 X120.664 Y114.776 E0.11470
G1 X120.131 Y114.243 E0.02365
G1 X125.738 Y108.635 E0.24863
G1 X126.271 Y109.169 E0.02365
G1 X124.416 Y111.023 E0.08224
G1 X124.950 Y111.557 E0.02365
G1 X126.804 Y109.702 E0.08224
G1 X127.338 Y110.235 E0.02365
G1 X123.852 Y113.721 E0.15457
G1 X124.385 Y114.254 E0.02365
G1 X127.871 Y110.768 E0.15457
G1 X128.404 Y111.302 E0.02365
G1 X124.918 Y114.788 E0.15457
G1 X125.255 Y115.124 E0.01492
G1 X123.623 Y116.756 E0.07234
G1 X123.820 Y116.952 E0.00873
G1 X128.937 Y111.835 E0.22691
G1 X128.964 Y111.861 E0.00118
G1 X127.333 Y113.493 E0.07234
G1 X127.839 Y114.000 E0.02247
G1 X124.353 Y117.486 E0.15457
G1 X124.887 Y118.019 E0.02365
G1 X128.373 Y114.533 E0.15457
G1 X128.906 Y115.066 E0.02365
G1 X123.788 Y120.183 E0.22691
G1 X124.322 Y120.717 E0.02365
G1 X127.808 Y117.231 E0.15457
G1 X128.341 Y117.764 E0.02365
G1 X124.735 Y121.370 E0.15989
G1 E-0.80000 F2100.00000
G1 Z0.800 F10800.000
G1 X122.773 Y123.110
G1 Z0.200
G1 E0.80000 F2100.00000
G1 F1200.000
G1 X124.502 Y121.381 E0.06244
G1 X124.144 Y121.023 E0.01295
G1 X122.512 Y122.654 E0.05891
G1 X122.154 Y122.295 E0.01295
G1 X123.785 Y120.664 E0.05891
G1 X123.427 Y120.305 E0.01295
G1 X121.795 Y121.937 E0.05891
G1 X121.508 Y121.650 E0.01037
G1 X119.877 Y123.281 E0.05891
G1 X119.805 Y123.210 E0.00258
G1 X122.235 Y120.780 E0.08774
G1 X121.521 Y120.777 E0.01823
G1 X119.447 Y122.851 E0.07490
G1 X119.088 Y122.493 E0.01295
G1 X120.807 Y120.774 E0.06206
G1 X120.093 Y120.771 E0.01823
G1 X118.730 Y122.134 E0.04922
G1 X118.371 Y121.775 E0.01295
G1 X119.702 Y120.445 E0.04804
G1 X119.188 Y119.525 F10800.000
G1 F1200.000
G1 X119.433 Y119.279 E0.00887
G1 X119.436 Y118.559 E0.01839
G1 X118.927 Y119.068 E0.01840
G1 X118.568 Y118.710 E0.01295
G1 X119.578 Y117.700 E0.03647
G1 X114.334 Y122.172 F10800.000
G1 F1200.000
G1 X117.940 Y118.566 E0.15989
G1 X118.474 Y119.099 E0.02365
G1 X114.988 Y122.585 E0.15457
G1 X115.521 Y123.118 E0.02365
G1 X119.007 Y119.632 E0.15457
G1 X119.393 Y120.018 E0.01711
G1 X117.762 Y121.650 E0.07234
G1 X117.909 Y121.797 E0.00653
G1 X116.054 Y123.652 E0.08224
G1 X116.588 Y124.185 E0.02365
G1 X118.442 Y122.330 E0.08224
G1 X118.975 Y122.863 E0.02365
G1 X117.121 Y124.718 E0.08224
G1 X117.654 Y125.251 E0.02365
G1 X119.509 Y123.397 E0.08224
G1 X119.877 Y123.765 E0.01632
G1 X121.508 Y122.133 E0.07234
G1 X121.673 Y122.299 E0.00733
G1 X118.187 Y125.785 E0.15457
G1 X118.721 Y126.318 E0.02365
G1 X122.207 Y122.832 E0.15457
G1 X122.740 Y123.365 E0.02365
G1 X119.254 Y126.851 E0.15457
G1 X119.787 Y127.384 E0.02365
G1 X128.874 Y118.297 E0.40294
G1 X128.964 Y118.387 E0.00397
G1 X127.333 Y120.018 E0.07234
G1 X127.776 Y120.462 E0.01967
G1 X121.952 Y126.286 E0.25826
G1 X122.485 Y126.820 E0.02365
G1 X128.309 Y120.995 E0.25826
G1 X128.843 Y121.528 E0.02365
G1 X122.898 Y127.473 E0.26358
G1 E-0.80000 F2100.00000
G1 Z0.800 F10800.000
G1 X123.317 Y109.145
G1 Z0.200
G1 E0.80000 F2100.00000
G1 F1200.000
G1 X121.488 Y108.863 E0.05802
G1 X127.181 Y88.014 E0.67762
G1 X128.944 Y88.495 E0.05728
G1 X123.333 Y109.087 E0.66921
G1 X123.587 Y109.587 F10800.000
G1 F1200.000
G1 X123.430 Y109.544 E0.00513
G1 X121.013 Y109.171 E0.07667
G1 X126.917 Y87.551 E0.70268
G1 X129.407 Y88.230 E0.08092
G1 X123.603 Y109.529 E0.69217
G1 X123.468 Y109.476 F10800.000
G1 E-0.80000 F2100.00000
G1 Z0.800 F10800.000
G1 X128.640 Y89.180
G1 Z0.200
G1 E0.80000 F2100.00000
G1 F1200.000
G1 X127.987 Y88.527 E0.02921
G1 X127.380 Y88.361 E0.01992
G1 X127.359 Y88.437 E0.00248
G1 X128.386 Y89.465 E0.04598
G1 X128.271 Y89.887 E0.01387
G1 X127.244 Y88.860 E0.04599
G1 X127.128 Y89.283 E0.01387
G1 X128.156 Y90.310 E0.04599
G1 X128.041 Y90.733 E0.01387
G1 X127.013 Y89.705 E0.04600
G1 X126.897 Y90.128 E0.01387
G1 X127.925 Y91.156 E0.04601
G1 X127.810 Y91.579 E0.01387
G1 X126.782 Y90.551 E0.04602
G1 X126.666 Y90.973 E0.01387
G1 X127.695 Y92.002 E0.04603
G1 X127.580 Y92.425 E0.01387
G1 X126.551 Y91.396 E0.04604
G1 X126.435 Y91.819 E0.01387
G1 X127.465 Y92.848 E0.04605
G1 X127.349 Y93.271 E0.01387
G1 X126.320 Y92.242 E0.04606
G1 X126.205 Y92.664 E0.01387
G1 X127.234 Y93.694 E0.04607
G1 X127.119 Y94.117 E0.01387
G1 X126.089 Y93.087 E0.04607
G1 X125.974 Y93.510 E0.01387
G1 X127.004 Y94.540 E0.04608
G1 X126.888 Y94.962 E0.01387
G1 X125.858 Y93.932 E0.04609
G1 X125.743 Y94.355 E0.01387
G1 X126.773 Y95.385 E0.04610
G1 X126.658 Y95.808 E0.01387
G1 X125.627 Y94.778 E0.04611
G1 X125.512 Y95.201 E0.01387
G1 X126.543 Y96.231 E0.04612
G1 X126.427 Y96.654 E0.01387
G1 X125.397 Y95.623 E0.04613
G1 X125.281 Y96.046 E0.01387
G1 X126.312 Y97.077 E0.04614
G1 X126.197 Y97.500 E0.01387
G1 X125.166 Y96.469 E0.04615
G1 X125.050 Y96.891 E0.01387
G1 X126.082 Y97.923 E0.04615
G1 X125.966 Y98.346 E0.01387
G1 X124.935 Y97.314 E0.04616
G1 X124.819 Y97.737 E0.01387
G1 X125.851 Y98.769 E0.04617
G1 X125.736 Y99.192 E0.01387
G1 X124.704 Y98.160 E0.04618
G1 X124.589 Y98.582 E0.01387
G1 X125.621 Y99.615 E0.04619
G1 X125.506 Y100.038 E0.01387
G1 X124.473 Y99.005 E0.04620
G1 X124.358 Y99.428 E0.01387
G1 X125.390 Y100.460 E0.04621
G1 X125.275 Y100.883 E0.01387
G1 X124.242 Y99.851 E0.04622
G1 X124.127 Y100.273 E0.01387
G1 X125.160 Y101.306 E0.04623
G1 X125.045 Y101.729 E0.01387
G1 X124.011 Y100.696 E0.04623
G1 X123.896 Y101.119 E0.01387
G1 X124.929 Y102.152 E0.04624
G1 X124.814 Y102.575 E0.01387
G1 X123.780 Y101.541 E0.04625
G1 X123.665 Y101.964 E0.01387
G1 X124.699 Y102.998 E0.04626
G1 X124.584 Y103.421 E0.01387
G1 X123.550 Y102.387 E0.04627
G1 X123.434 Y102.810 E0.01387
G1 X124.468 Y103.844 E0.04628
G1 X124.353 Y104.267 E0.01387
G1 X123.319 Y103.232 E0.04629
G1 X123.203 Y103.655 E0.01387
G1 X124.238 Y104.690 E0.04630
G1 X124.123 Y105.113 E0.01387
G1 X123.088 Y104.078 E0.04630
G1 X122.972 Y104.500 E0.01387
G1 X124.007 Y105.535 E0.04631
G1 X123.892 Y105.958 E0.01387
G1 X122.857 Y104.923 E0.04632
G1 X122.742 Y105.346 E0.01387
G1 X123.777 Y106.381 E0.04633
G1 X123.662 Y106.804 E0.01387
G1 X122.626 Y105.769 E0.04634
G1 X122.511 Y106.191 E0.01387
G1 X123.546 Y107.227 E0.04635
G1 X123.431 Y107.650 E0.01387
G1 X122.395 Y106.614 E0.04636
G1 X122.280 Y107.037 E0.01387
G1 X123.316 Y108.073 E0.04637
G1 X123.201 Y108.496 E0.01387
G1 X122.164 Y107.460 E0.04638
G1 X122.049 Y107.882 E0.01387
G1 X122.973 Y108.806 E0.04133
G1 X122.336 Y108.707 E0.02038
G1 X121.795 Y108.167 E0.02419
M106 S255
;BEFORE_LAYER_CHANGE
G92 E0.0
;0.3


G1 E-0.80000 F2100.00000
G1 Z0.800 F10800.000
;AFTER_LAYER_CHANGE
;0.3
M104 S210 ; set temperature
G1 X119.975 Y110.132
G1 Z0.300
G1 E0.80000 F2100.00000
G1 F900
G1 X116.614 Y113.493 E0.06491
G1 X116.973 Y113.851 E0.00693
G1 X119.773 Y111.051 E0.05409
G1 X119.503 Y112.038 E0.01397
G1 X117.331 Y114.210 E0.04196
G1 X117.690 Y114.569 E0.00693
G1 X119.461 Y112.798 E0.03421
G1 X119.458 Y113.518 E0.00984
G1 X118.048 Y114.927 E0.02722
G1 X118.245 Y115.124 E0.00381
G1 X116.614 Y116.756 E0.03151
G1 X116.776 Y116.917 E0.00312
G1 X119.455 Y114.238 E0.05175
G1 X119.452 Y114.958 E0.00984
G1 X117.134 Y117.276 E0.04477
G1 X117.493 Y117.634 E0.00693
G1 X119.449 Y115.678 E0.03778
G1 X119.445 Y116.398 E0.00984
G1 X117.851 Y117.993 E0.03080
G1 X118.210 Y118.351 E0.00693
G1 X119.442 Y117.119 E0.02381
G1 X119.439 Y117.839 E0.00984
G1 X116.937 Y120.341 E0.04834
G1 X117.296 Y120.700 E0.00693
G1 X119.436 Y118.559 E0.04135
G1 X119.433 Y119.279 E0.00984
G1 X117.654 Y121.058 E0.03437
G1 X118.013 Y121.417 E0.00693
G1 X119.430 Y119.999 E0.02738
G1 X119.429 Y120.366 E0.00501
G1 X119.604 Y120.543 E0.00340
G1 X118.371 Y121.775 E0.02381
G1 X118.730 Y122.134 E0.00693
G1 X120.093 Y120.771 E0.02633
G1 X120.807 Y120.774 E0.00975
G1 X119.088 Y122.493 E0.03320
G1 X119.447 Y122.851 E0.00693
G1 X121.521 Y120.777 E0.04007
G1 X122.235 Y120.780 E0.00975
G1 X119.805 Y123.210 E0.04693
G1 X119.877 Y123.281 E0.00138
G1 X121.508 Y121.650 E0.03151
G1 X121.795 Y121.937 E0.00555
G1 X123.427 Y120.305 E0.03151
G1 X123.785 Y120.664 E0.00693
G1 X122.154 Y122.295 E0.03151
G1 X122.512 Y122.654 E0.00693
G1 X124.144 Y121.023 E0.03151
G1 X124.502 Y121.381 E0.00693
G1 X122.773 Y123.110 E0.03340
G1 E-0.80000 F2100.00000
G1 Z0.900 F10800.000
G1 X123.216 Y119.799
G1 Z0.300
G1 E0.80000 F2100.00000
G1 F900
G1 X124.700 Y118.316 E0.02866
G1 X124.341 Y117.957 E0.00693
G1 X123.357 Y118.941 E0.01900
G1 X123.360 Y118.220 E0.00984
G1 X123.982 Y117.598 E0.01201
G1 X123.624 Y117.240 E0.00693
G1 X123.225 Y117.639 E0.00771
G1 X123.231 Y116.199 F10800.000
G1 F900
G1 X124.538 Y114.891 E0.02525
G1 X124.180 Y114.533 E0.00693
G1 X123.373 Y115.340 E0.01559
G1 X123.376 Y114.620 E0.00984
G1 X123.821 Y114.174 E0.00860
G1 X123.462 Y113.816 E0.00693
G1 X123.240 Y114.038 E0.00430
G1 X123.243 Y113.318 F10800.000
G1 F900
G1 X124.735 Y111.826 E0.02883
G1 X124.377 Y111.467 E0.00693
G1 X123.586 Y112.258 E0.01527
G1 X123.855 Y111.272 E0.01395
G1 X124.116 Y111.011 E0.00504
;BEFORE_LAYER_CHANGE
G92 E0.0
;0.4


G1 E-0.80000 F2100.00000
G1 Z0.900 F10800.000
;AFTER_LAYER_CHANGE
;0.4
G1 X131.320 Y122.732
G1 Z0.400
G1 E0.80000 F2100.00000
M73 P2 R37
G1 F1283
G1 X130.874 Y123.388 E0.02485
G1 X124.834 Y129.432 E0.26791
G1 X124.425 Y129.765 E0.01656
G1 X123.783 Y130.081 E0.02243
G1 X123.081 Y130.221 E0.02243
G1 X119.342 Y130.102 E0.11730
G1 X118.590 Y129.865 E0.02473
G1 X117.936 Y129.424 E0.02473
G1 X112.382 Y124.114 E0.24094
G1 X112.047 Y123.705 E0.01656
G1 X111.798 Y123.244 E0.01643
G1 X111.638 Y122.732 E0.01681
G1 X111.580 Y122.195 E0.01694
G1 X111.711 Y112.035 E0.31859
G1 X111.951 Y111.276 E0.02498
G1 X124.355 Y85.969 E0.88365
G1 X124.789 Y85.380 E0.02294
G1 X125.366 Y84.924 E0.02307
G1 X126.044 Y84.637 E0.02307
