; generated by PrusaSlicer 2.2.0+win64 on 2020-11-17 at 17:47:47 UTC

; 

; external perimeters extrusion width = 0.45mm
; perimeters extrusion width = 0.45mm
; infill extrusion width = 0.45mm
; solid infill extrusion width = 0.45mm
; top infill extrusion width = 0.40mm
; support material extrusion width = 0.35mm
; first layer extrusion width = 0.42mm

M73 P0 R59
M201 X9000 Y9000 Z500 E10000 ; sets maximum accelerations, mm/sec^2
M203 X500 Y500 Z12 E120 ; sets maximum feedrates, mm/sec
M204 P2000 R1500 T2000 ; sets acceleration (P, T) and retract acceleration (R), mm/sec^2
M205 X10.00 Y10.00 Z0.20 E2.50 ; sets the jerk limits, mm/sec
M205 S0 T0 ; sets the minimum extruding and travel feed rate, mm/sec
M107
M862.3 P "MK2.5SMMU2S" ; printer model check
M862.1 P0.4 ; nozzle diameter check
M115 U3.8.0 ; tell printer latest fw version
G90 ; use absolute coordinates
M83 ; extruder relative mode
M104 S215 ; set extruder temp
M140 S60 ; set bed temp
Tx
M190 S60 ; wait for bed temp
M109 S215 ; wait for extruder temp
G28 W ; home all without mesh bed level
G80 ; mesh bed leveling

G21 ; set units to millimeters

;go outside print area
G1 Y-3.0 F1000.0
G1 Z0.4 F1000.0
; select extruder
Tc
; purge line
G1 X55.0 F2000.0
G1 Z0.3 F1000.0
G92 E0.0
G1 X240.0 E25.0 F2200.0
M73 P0 R59
G1 Y-2.0 F1000.0
G1 X55.0 E25 F1400.0
G1 Z0.20 F1000.0
G1 X5.0 E4.0 F1000.0
G92 E0.0
G21 ; set units to millimeters
G90 ; use absolute coordinates
M83 ; use relative distances for extrusion
M900 K0.06 ; Filament gcode LA 1.5
M900 K30 ; Filament gcode LA 1.0
;BEFORE_LAYER_CHANGE
G92 E0.0
;0.2


G1 E-0.80000 F2100.00000
G1 Z0.600 F10800.000
;AFTER_LAYER_CHANGE
;0.2
G1 X111.577 Y59.375
G1 Z0.200
G1 E0.80000 F2100.00000
M204 S1000
G1 F1200.000
G1 X112.784 Y59.188 E0.03829
G1 X137.138 Y59.187 E0.76361
G1 X138.466 Y59.389 E0.04211
G1 X139.739 Y60.042 E0.04487
G1 X140.728 Y60.924 E0.04154
G1 X141.410 Y61.764 E0.03392
G1 X142.118 Y62.910 E0.04223
G1 X148.644 Y80.180 E0.57887
G1 X148.968 Y81.378 E0.03891
G1 X149.143 Y82.471 E0.03471
G1 X149.204 Y83.810 E0.04203
G1 X149.204 Y148.438 E2.02635
G1 X149.112 Y149.096 E0.02083
G1 X148.891 Y149.617 E0.01775
G1 X148.554 Y150.072 E0.01775
G1 X141.729 Y156.898 E0.30266
G1 X141.181 Y157.301 E0.02130
G1 X140.542 Y157.532 E0.02130
G1 X115.785 Y157.581 E0.77624
G1 X109.399 Y157.524 E0.20025
G1 X108.790 Y157.431 E0.01929
G1 X108.299 Y157.227 E0.01668
G1 X107.862 Y156.916 E0.01680
G1 X102.282 Y151.580 E0.24207
G1 X101.131 Y150.086 E0.05915
G1 X100.915 Y149.612 E0.01633
G1 X100.807 Y149.099 E0.01645
G1 X100.789 Y83.652 E2.05203
G1 X100.857 Y82.536 E0.03508
G1 X101.310 Y80.323 E0.07081
G1 X107.825 Y63.028 E0.57948
G1 X108.579 Y61.780 E0.04569
G1 X109.287 Y60.905 E0.03530
G1 X110.477 Y59.898 E0.04888
G1 X111.523 Y59.401 E0.03630
G1 E-0.80000 F2100.00000
G1 Z0.800 F10800.000
G1 X131.325 Y73.717
G1 Z0.200
G1 E0.80000 F2100.00000
G1 F1200.000
G1 X132.171 Y72.872 E0.03749
G1 X131.947 Y74.162 E0.04107
G1 X131.549 Y74.561 E0.01766
G1 E-0.80000 F2100.00000
G1 Z0.800 F10800.000
G1 X134.497 Y73.745
G1 Z0.200
G1 E0.80000 F2100.00000
G1 F1200.000
G1 X137.095 Y71.147 E0.11519
G1 X137.377 Y71.157 E0.00883
G1 X137.617 Y71.193 E0.00761
G1 X138.003 Y71.306 E0.01262
G1 X134.821 Y74.488 E0.14108
G1 X134.953 Y74.785 E0.01019
G1 X135.208 Y75.168 E0.01443
G1 X138.683 Y71.692 E0.15412
G1 X138.703 Y71.707 E0.00078
G1 X139.046 Y72.050 E0.01520
G1 X139.193 Y72.249 E0.00776
G1 X135.764 Y75.678 E0.15204
G1 X136.188 Y75.904 E0.01505
G1 X136.502 Y76.007 E0.01036
G1 X139.522 Y72.986 E0.13395
G1 X139.596 Y73.376 E0.01245
G1 X139.608 Y73.619 E0.00761
G1 X139.575 Y74.000 E0.01200
G1 X137.322 Y76.253 E0.09988
G1 X136.634 Y77.254 F10800.000
G1 F1200.000
G1 X136.256 Y77.632 E0.01367
G1 X136.614 Y77.991 E0.01295
G1 X137.224 Y77.381 E0.02202
G1 X137.605 Y77.390 E0.00973
G1 X137.899 Y77.423 E0.00756
G1 X136.875 Y78.447 E0.03699
G1 E-0.80000 F2100.00000
G1 Z0.800 F10800.000
G1 X142.216 Y74.559
G1 Z0.200
G1 E0.80000 F2100.00000
G1 F1200.000
G1 X142.646 Y74.129 E0.01906
G1 X142.811 Y73.469 E0.02133
G1 X142.525 Y73.183 E0.01268
G1 X142.058 Y73.650 E0.02071
G1 E-0.80000 F2100.00000
G1 Z0.800 F10800.000
G1 X145.946 Y80.428
G1 Z0.200
G1 E0.80000 F2100.00000
G1 F1200.000
G1 X146.128 Y80.246 E0.00808
G1 X146.407 Y80.983 E0.02471
G1 X146.417 Y81.023 E0.00130
G1 X146.369 Y81.071 E0.00214
G1 X146.592 Y81.914 E0.02735
G1 X146.641 Y81.866 E0.00213
G1 X146.645 Y81.883 E0.00054
G1 X146.787 Y82.787 E0.02868
G1 X146.738 Y82.835 E0.00214
G1 X146.785 Y83.855 E0.03202
G1 X146.827 Y83.813 E0.00189
G1 X146.826 Y84.880 E0.03347
G1 X146.785 Y84.922 E0.00185
G1 X146.785 Y85.988 E0.03344
G1 X146.826 Y85.947 E0.00185
G1 X146.826 Y87.013 E0.03344
G1 X146.785 Y87.055 E0.00185
G1 X146.785 Y88.121 E0.03344
G1 X146.826 Y88.080 E0.00185
G1 X146.826 Y89.146 E0.03344
G1 X146.785 Y89.188 E0.00185
G1 X146.785 Y90.254 E0.03344
G1 X146.826 Y90.213 E0.00185
G1 X146.826 Y91.279 E0.03344
G1 X146.785 Y91.321 E0.00185
G1 X146.785 Y92.388 E0.03344
G1 X146.826 Y92.346 E0.00185
G1 X146.826 Y93.412 E0.03344
G1 X146.785 Y93.454 E0.00185
G1 X146.785 Y94.521 E0.03344
G1 X146.826 Y94.479 E0.00185
G1 X146.826 Y95.545 E0.03344
G1 X146.785 Y95.587 E0.00185
G1 X146.785 Y96.654 E0.03344
G1 X146.826 Y96.612 E0.00185
G1 X146.826 Y97.679 E0.03344
G1 X146.785 Y97.720 E0.00185
G1 X146.785 Y98.787 E0.03344
G1 X146.826 Y98.745 E0.00185
G1 X146.826 Y99.812 E0.03344
G1 X146.785 Y99.853 E0.00185
G1 X146.785 Y100.920 E0.03344
G1 X146.827 Y100.877 E0.00189
G1 X146.827 Y101.944 E0.03344
G1 X140.061 Y108.710 E0.30002
G1 X139.528 Y108.177 F10800.000
G1 F1200.000
G1 X145.178 Y102.526 E0.25055
G1 X144.155 Y102.526 E0.03208
G1 X144.134 Y102.504 E0.00096
G1 X139.115 Y107.523 E0.22255
G1 X138.581 Y106.990 E0.02365
G1 X143.847 Y101.724 E0.23349
G1 X143.847 Y100.658 E0.03344
G1 X138.048 Y106.457 E0.25714
G1 X137.515 Y105.923 E0.02365
G1 X143.847 Y99.592 E0.28077
G1 X143.847 Y98.525 E0.03344
G1 X133.719 Y108.653 E0.44909
G1 X133.186 Y108.120 E0.02365
G1 X143.847 Y97.458 E0.47273
G1 X143.847 Y96.392 E0.03344
G1 X132.652 Y107.586 E0.49638
G1 X132.119 Y107.053 E0.02365
G1 X143.847 Y95.325 E0.52003
G1 X143.847 Y94.259 E0.03344
G1 X131.586 Y106.520 E0.54367
G1 X131.052 Y105.987 E0.02365
G1 X143.847 Y93.192 E0.56732
G1 X143.847 Y92.126 E0.03344
G1 X130.519 Y105.453 E0.59097
G1 X129.986 Y104.920 E0.02365
G1 X143.847 Y91.059 E0.61461
G1 X143.847 Y89.993 E0.03344
G1 X129.453 Y104.387 E0.63826
G1 X128.919 Y103.853 E0.02365
G1 X143.847 Y88.926 E0.66190
G1 X143.847 Y87.860 E0.03344
G1 X130.421 Y101.285 E0.59531
G1 X130.421 Y100.218 E0.03344
G1 X143.847 Y86.793 E0.59531
G1 X143.847 Y85.726 E0.03344
G1 X130.421 Y99.152 E0.59531
G1 X130.421 Y98.085 E0.03344
G1 X143.847 Y84.660 E0.59531
G1 X143.841 Y83.599 E0.03326
G1 X130.421 Y97.019 E0.59506
G1 X130.421 Y95.952 E0.03344
G1 X143.745 Y82.629 E0.59080
G1 X143.566 Y81.899 E0.02354
G1 X143.522 Y81.785 E0.00385
G1 X130.421 Y94.886 E0.58093
G1 X130.421 Y93.819 E0.03344
G1 X143.205 Y81.035 E0.56685
G1 X143.065 Y80.754 E0.00985
G1 X142.814 Y80.360 E0.01465
G1 X130.421 Y92.753 E0.54953
G1 X130.421 Y91.686 E0.03344
G1 X142.357 Y79.750 E0.52927
G1 X141.833 Y79.208 E0.02365
G1 X130.421 Y90.620 E0.50600
G1 X130.421 Y89.553 E0.03344
G1 X141.245 Y78.729 E0.47995
G1 X140.874 Y78.468 E0.01423
G1 X140.597 Y78.311 E0.00999
G1 X130.421 Y88.486 E0.45119
G1 X130.421 Y87.420 E0.03344
G1 X139.884 Y77.958 E0.41958
G1 X139.709 Y77.879 E0.00601
G1 X139.101 Y77.673 E0.02011
G1 X130.421 Y86.353 E0.38488
G1 X130.420 Y85.289 E0.03339
G1 X136.924 Y78.784 E0.28841
G1 X136.391 Y78.251 E0.02365
G1 X130.416 Y84.225 E0.26492
G1 X130.415 Y83.744 E0.01508
G1 X130.447 Y83.128 E0.01934
G1 X135.857 Y77.718 E0.23992
G1 X135.688 Y77.548 E0.00751
G1 X135.183 Y77.668 E0.01627
G1 X134.665 Y77.844 E0.01715
G1 X130.497 Y82.011 E0.18480
G1 E-0.80000 F2100.00000
G1 Z0.800 F10800.000
G1 X128.808 Y79.435
G1 Z0.200
G1 E0.80000 F2100.00000
G1 F1200.000
G1 X128.228 Y80.015 E0.02571
G1 X127.862 Y80.983 E0.03245
G1 X127.694 Y81.614 E0.02049
G1 X127.777 Y81.532 E0.00367
G1 X127.668 Y81.951 E0.01357
G1 X127.529 Y82.846 E0.02842
G1 X127.474 Y82.901 E0.00244
G1 X127.434 Y83.671 E0.02418
G1 X127.435 Y84.007 E0.01051
G1 X127.484 Y83.958 E0.00215
G1 X127.484 Y85.025 E0.03344
G1 X127.439 Y85.070 E0.00200
G1 X127.441 Y86.134 E0.03336
G1 X127.484 Y86.091 E0.00189
G1 X127.484 Y87.158 E0.03344
G1 X127.441 Y87.201 E0.00189
G1 X127.441 Y88.267 E0.03344
G1 X127.484 Y88.224 E0.00189
G1 X127.484 Y89.291 E0.03344
G1 X127.441 Y89.334 E0.00189
G1 X127.441 Y90.400 E0.03344
G1 X127.484 Y90.357 E0.00189
G1 X127.484 Y91.424 E0.03344
G1 X127.441 Y91.467 E0.00189
G1 X127.441 Y92.533 E0.03344
G1 X127.484 Y92.491 E0.00189
G1 X127.484 Y93.557 E0.03344
G1 X127.441 Y93.600 E0.00189
G1 X127.441 Y94.666 E0.03344
G1 X127.484 Y94.624 E0.00189
G1 X127.484 Y95.690 E0.03344
G1 X127.441 Y95.733 E0.00189
G1 X127.441 Y96.799 E0.03344
G1 X127.484 Y96.757 E0.00189
G1 X127.484 Y97.823 E0.03344
G1 X127.441 Y97.866 E0.00189
G1 X127.441 Y98.932 E0.03344
G1 X127.484 Y98.890 E0.00189
G1 X127.484 Y99.956 E0.03344
G1 X127.441 Y99.999 E0.00189
G1 X127.441 Y101.066 E0.03344
G1 X127.484 Y101.023 E0.00189
G1 X127.484 Y102.089 E0.03344
G1 X127.441 Y102.132 E0.00189
G1 X127.441 Y102.375 E0.00762
G1 X127.853 Y102.787 E0.01826
G1 X128.114 Y102.526 E0.01157
G1 X129.180 Y102.526 E0.03344
G1 X128.266 Y103.440 E0.04053
G1 E-0.80000 F2100.00000
G1 Z0.800 F10800.000
G1 X144.960 Y101.413
G1 Z0.200
G1 E0.80000 F2100.00000
M73 P1 R58
G1 F1200.000
G1 X144.960 Y83.719 E0.55477
G1 X144.930 Y83.001 E0.02255
G1 X144.816 Y82.271 E0.02315
G1 X144.627 Y81.559 E0.02310
G1 X144.366 Y80.869 E0.02315
G1 X144.035 Y80.206 E0.02322
G1 X143.637 Y79.578 E0.02330
G1 X143.177 Y78.991 E0.02339
G1 X142.704 Y78.498 E0.02143
G1 X142.090 Y77.962 E0.02556
G1 X141.469 Y77.527 E0.02376
G1 X140.810 Y77.152 E0.02377
G1 X140.115 Y76.842 E0.02386
G1 X139.393 Y76.597 E0.02392
G1 X139.197 Y76.551 E0.00632
G1 X139.410 Y76.392 E0.00834
G1 X139.671 Y76.156 E0.01104
G1 X139.908 Y75.895 E0.01104
G1 X140.117 Y75.612 E0.01104
G1 X140.298 Y75.310 E0.01104
G1 X140.449 Y74.992 E0.01104
G1 X140.567 Y74.660 E0.01104
G1 X140.653 Y74.319 E0.01104
G1 X140.705 Y73.970 E0.01104
G1 X140.722 Y73.619 E0.01104
G1 X140.705 Y73.267 E0.01104
G1 X140.653 Y72.919 E0.01104
G1 X140.567 Y72.577 E0.01104
G1 X140.449 Y72.246 E0.01104
G1 X140.298 Y71.927 E0.01104
G1 X140.117 Y71.625 E0.01104
G1 X139.908 Y71.343 E0.01104
G1 X139.671 Y71.082 E0.01104
G1 X139.410 Y70.845 E0.01104
G1 X139.127 Y70.636 E0.01104
G1 X138.825 Y70.455 E0.01104
G1 X138.507 Y70.304 E0.01104
G1 X138.176 Y70.185 E0.01104
G1 X137.834 Y70.100 E0.01104
G1 X137.484 Y70.048 E0.01111
G1 X137.105 Y70.032 E0.01186
G1 X136.783 Y70.048 E0.01014
G1 X136.434 Y70.100 E0.01104
G1 X136.093 Y70.185 E0.01104
G1 X135.761 Y70.304 E0.01104
G1 X135.443 Y70.455 E0.01104
G1 X135.141 Y70.636 E0.01104
G1 X134.858 Y70.845 E0.01104
G1 X134.597 Y71.082 E0.01104
G1 X134.361 Y71.343 E0.01104
G1 X134.151 Y71.625 E0.01104
G1 X133.970 Y71.927 E0.01104
G1 X133.820 Y72.246 E0.01104
G1 X133.701 Y72.577 E0.01104
G1 X133.615 Y72.919 E0.01104
G1 X133.564 Y73.267 E0.01104
G1 X133.546 Y73.619 E0.01104
G1 X133.564 Y73.970 E0.01104
G1 X133.615 Y74.319 E0.01104
G1 X133.701 Y74.660 E0.01104
G1 X133.820 Y74.992 E0.01104
G1 X133.970 Y75.310 E0.01104
G1 X134.151 Y75.612 E0.01104
G1 X134.361 Y75.895 E0.01104
G1 X134.597 Y76.156 E0.01104
G1 X134.858 Y76.392 E0.01104
G1 X135.072 Y76.551 E0.00834
G1 X134.876 Y76.597 E0.00632
G1 X134.153 Y76.842 E0.02392
G1 X133.458 Y77.152 E0.02386
G1 X132.799 Y77.527 E0.02377
G1 X132.181 Y77.960 E0.02368
G1 X131.610 Y78.450 E0.02359
G1 X131.091 Y78.991 E0.02349
G1 X130.631 Y79.578 E0.02339
G1 X130.233 Y80.206 E0.02330
G1 X129.902 Y80.869 E0.02322
G1 X129.641 Y81.559 E0.02315
G1 X129.453 Y82.271 E0.02310
G1 X129.339 Y82.998 E0.02306
G1 X129.301 Y83.716 E0.02256
G1 X129.308 Y101.413 E0.55486
G1 X128.597 Y101.413 E0.02229
G1 X128.597 Y83.747 E0.55391
G1 X128.639 Y82.945 E0.02517
G1 X128.761 Y82.166 E0.02472
G1 X128.963 Y81.402 E0.02479
G1 X129.244 Y80.660 E0.02488
G1 X129.600 Y79.946 E0.02501
G1 X130.029 Y79.269 E0.02515
G1 X130.527 Y78.634 E0.02530
G1 X131.089 Y78.047 E0.02547
G1 X131.710 Y77.515 E0.02564
G1 X132.606 Y76.886 E0.03433
G1 X134.641 Y65.153 E0.37336
G1 X134.819 Y64.217 E0.02987
G1 X135.283 Y63.471 E0.02754
G1 X135.790 Y62.855 E0.02503
G1 X136.279 Y62.439 E0.02012
G1 X136.722 Y62.216 E0.01555
G1 X137.151 Y62.157 E0.01360
G1 X137.544 Y62.214 E0.01245
G1 X137.990 Y62.439 E0.01564
G1 X138.478 Y62.855 E0.02012
G1 X138.985 Y63.471 E0.02503
G1 X139.449 Y64.217 E0.02754
G1 X139.627 Y65.153 E0.02987
G1 X141.662 Y76.886 E0.37336
G1 X142.558 Y77.515 E0.03433
G1 X143.179 Y78.047 E0.02564
G1 X143.741 Y78.634 E0.02547
G1 X144.239 Y79.269 E0.02530
G1 X144.668 Y79.946 E0.02515
G1 X145.025 Y80.660 E0.02501
G1 X145.305 Y81.402 E0.02488
G1 X145.508 Y82.166 E0.02479
G1 X145.630 Y82.945 E0.02472
G1 X145.671 Y83.747 E0.02517
G1 X145.671 Y101.413 E0.55391
G1 X145.020 Y101.413 E0.02042
G1 X144.583 Y101.790 F10800.000
G1 F1200.000
G1 X144.583 Y83.727 E0.56635
G1 X144.554 Y83.038 E0.02163
G1 X144.446 Y82.349 E0.02187
G1 X144.268 Y81.675 E0.02188
G1 X144.020 Y81.020 E0.02194
G1 X143.706 Y80.392 E0.02202
G1 X143.329 Y79.796 E0.02211
G1 X142.892 Y79.239 E0.02221
G1 X142.444 Y78.771 E0.02032
G1 X141.857 Y78.259 E0.02441
G1 X141.268 Y77.846 E0.02257
G1 X140.639 Y77.489 E0.02264
G1 X139.978 Y77.193 E0.02273
G1 X139.289 Y76.960 E0.02281
G1 X138.579 Y76.792 E0.02287
G1 X137.992 Y76.709 E0.01857
G1 X138.363 Y76.585 E0.01226
G1 X138.647 Y76.450 E0.00988
G1 X138.918 Y76.288 E0.00988
G1 X139.171 Y76.100 E0.00988
G1 X139.404 Y75.889 E0.00988
G1 X139.616 Y75.655 E0.00988
G1 X139.803 Y75.402 E0.00988
G1 X139.965 Y75.132 E0.00988
G1 X140.100 Y74.847 E0.00988
G1 X140.206 Y74.551 E0.00988
G1 X140.283 Y74.245 E0.00988
G1 X140.329 Y73.933 E0.00988
G1 X140.344 Y73.619 E0.00988
G1 X140.329 Y73.304 E0.00988
G1 X140.283 Y72.992 E0.00988
G1 X140.206 Y72.687 E0.00988
G1 X140.100 Y72.390 E0.00988
G1 X139.965 Y72.105 E0.00988
G1 X139.803 Y71.835 E0.00988
G1 X139.616 Y71.582 E0.00988
G1 X139.404 Y71.349 E0.00988
G1 X139.171 Y71.137 E0.00988
G1 X138.918 Y70.949 E0.00988
G1 X138.647 Y70.788 E0.00988
G1 X138.363 Y70.653 E0.00988
G1 X138.066 Y70.547 E0.00988
G1 X137.760 Y70.470 E0.00988
G1 X137.448 Y70.424 E0.00990
G1 X137.107 Y70.410 E0.01070
G1 X136.820 Y70.424 E0.00902
G1 X136.508 Y70.470 E0.00988
G1 X136.202 Y70.547 E0.00988
G1 X135.906 Y70.653 E0.00988
G1 X135.621 Y70.788 E0.00988
G1 X135.351 Y70.949 E0.00988
G1 X135.098 Y71.137 E0.00988
G1 X134.864 Y71.349 E0.00988
G1 X134.653 Y71.582 E0.00988
G1 X134.465 Y71.835 E0.00988
G1 X134.303 Y72.105 E0.00988
G1 X134.168 Y72.390 E0.00988
G1 X134.062 Y72.687 E0.00988
G1 X133.986 Y72.992 E0.00988
G1 X133.939 Y73.304 E0.00988
G1 X133.924 Y73.619 E0.00988
G1 X133.939 Y73.933 E0.00988
G1 X133.986 Y74.245 E0.00988
G1 X134.062 Y74.551 E0.00988
G1 X134.168 Y74.847 E0.00988
G1 X134.303 Y75.132 E0.00988
G1 X134.465 Y75.402 E0.00988
G1 X134.653 Y75.655 E0.00988
G1 X134.864 Y75.889 E0.00988
G1 X135.098 Y76.100 E0.00988
G1 X135.351 Y76.288 E0.00988
G1 X135.621 Y76.450 E0.00988
G1 X135.906 Y76.585 E0.00988
G1 X136.276 Y76.709 E0.01226
G1 X135.690 Y76.792 E0.01857
G1 X134.980 Y76.960 E0.02287
G1 X134.291 Y77.193 E0.02281
G1 X133.629 Y77.489 E0.02273
G1 X133.001 Y77.846 E0.02264
G1 X132.412 Y78.259 E0.02254
G1 X131.869 Y78.724 E0.02243
G1 X131.377 Y79.239 E0.02232
G1 X130.940 Y79.796 E0.02221
G1 X130.562 Y80.392 E0.02211
G1 X130.248 Y81.020 E0.02202
G1 X130.001 Y81.675 E0.02194
G1 X129.822 Y82.349 E0.02188
G1 X129.714 Y83.037 E0.02183
G1 X129.679 Y83.726 E0.02164
G1 X129.685 Y101.790 E0.56638
G1 X128.220 Y101.790 E0.04594
G1 X128.220 Y83.737 E0.56604
G1 X128.263 Y82.906 E0.02609
G1 X128.391 Y82.089 E0.02595
G1 X128.603 Y81.287 E0.02601
G1 X128.898 Y80.508 E0.02610
G1 X129.271 Y79.761 E0.02621
G1 X129.721 Y79.051 E0.02634
G1 X130.242 Y78.386 E0.02648
G1 X130.830 Y77.773 E0.02664
G1 X131.478 Y77.217 E0.02679
G1 X132.261 Y76.667 E0.02999
G1 X134.270 Y65.086 E0.36855
G1 X134.462 Y64.078 E0.03217
G1 X134.976 Y63.251 E0.03052
